%
(flatten - Generated via flattenboard.py)
(Use the 25.4 mm diameter bit)
(This cuts -0.2 mm below Z zero)


N5 G90 G94 G17 G91.1
N10 G21

N15 G53 G0 Z0.

N20 T1 M6
N25 S9000 M3
N30 G54
N35 M8
N40 G0 X0 Y0 Z2

N45 G1 Z-0.2  F2500.

N50 G1 X204.0 Z-0.2
N55 G1 X0

N60 G1 Y12.7
N65 G1 X204.0
N70 G1 Y25.4
N75 G1 X0
N80 G1 Y38.099999999999994
N85 G1 X204.0
N90 G1 Y50.8
N95 G1 X0
N100 G1 Y63.5
N105 G1 X204.0
N110 G1 Y76.2
N115 G1 X0
N120 G1 Y88.9
N125 G1 X204.0
N130 G1 Y101.60000000000001
N135 G1 X0
N140 G1 Y114.30000000000001
N145 G1 X204.0
N150 G1 Y127.00000000000001
N155 G1 X0
N160 G1 Y139.70000000000002
N165 G1 X204.0
N170 G1 Y152.4
N175 G1 X0
N180 G1 Y165.1
N185 G1 X204.0
N190 G1 Y177.79999999999998
N195 G1 X0
N200 G1 Y190.49999999999997
N205 G1 X204.0
N210 G1 Y203.19999999999996
N215 G1 X0
N220 G1 Y215.89999999999995
N225 G1 X204.0
N230 G1 Y228.59999999999994
N235 G1 X0

N240 G1 Z15.
N245 G17
N250 M9
N255 G0 Z5 X0 Y0
N260 M30

%
