%
(BANDSAWTABLE)
(T2  D=6. CR=0. - ZMIN=-6.35 - FLAT END MILL)
N10 G90 G94 G17 G91.1
N15 G21
(WHEN USING FUSION 360 FOR PERSONAL USE, THE FEEDRATE OF)
(RAPID MOVES IS REDUCED TO MATCH THE FEEDRATE OF CUTTING)
(MOVES, WHICH CAN INCREASE MACHINING TIME. UNRESTRICTED RAPID)
(MOVES ARE AVAILABLE WITH A FUSION 360 SUBSCRIPTION.)
N20 G53 G0 Z0.
(2D CONTOUR1)
N25 T2 M6
N30 S7000 M3
N35 G54
N40 M8
N45 G0 X26.95 Y-0.6
N50 G43 Z15. H2
N55 G1 Z5. F1000.
N60 Z3. F333.33
N65 Z-1.4
N70 G18 G2 X27.55 Z-2. I0.6 K0. F1000.
N75 G1 X28.15
N80 G17 G3 X28.75 Y0. I0. J0.6
N85 X-28.75 I-28.75 J0.
N90 X28.75 I28.75 J0.
N95 X28.15 Y0.6 I-0.6 J0.
N100 G1 X27.55
N105 G18 G3 X26.95 Z-1.4 I0. K0.6
N110 G1 Z5.
N115 Y-0.6
N120 Z1. F333.33
N125 Z-2.575
N130 G2 X27.55 Z-3.175 I0.6 K0. F1000.
N135 G1 X28.15
N140 G17 G3 X28.75 Y0. I0. J0.6
N145 X-28.75 I-28.75 J0.
N150 X28.75 I28.75 J0.
N155 X28.15 Y0.6 I-0.6 J0.
N160 G1 X27.55
N165 G18 G3 X26.95 Z-2.575 I0. K0.6
N170 G1 Z15.
N175 X20.6 Y-0.6
N180 Z5.
N185 Z3. F333.33
N190 Z-1.4
N195 G2 X21.2 Z-2. I0.6 K0. F1000.
N200 G1 X21.8
N205 G17 G3 X22.4 Y0. I0. J0.6
N210 X-22.4 I-22.4 J0.
N215 X22.4 I22.4 J0.
N220 X21.8 Y0.6 I-0.6 J0.
N225 G1 X21.2
N230 G18 G3 X20.6 Z-1.4 I0. K0.6
N235 G1 Z5.
N240 Y-0.6
N245 Z1. F333.33
N250 Z-3.4
N255 G2 X21.2 Z-4. I0.6 K0. F1000.
N260 G1 X21.8
N265 G17 G3 X22.4 Y0. I0. J0.6
N270 X-22.4 I-22.4 J0.
N275 X22.4 I22.4 J0.
N280 X21.8 Y0.6 I-0.6 J0.
N285 G1 X21.2
N290 G18 G3 X20.6 Z-3.4 I0. K0.6
N295 G1 Z5.
N300 Y-0.6
N305 Z-1. F333.33
N310 Z-4.575
N315 G2 X21.2 Z-5.175 I0.6 K0. F1000.
N320 G1 X21.8
N325 G17 G3 X22.4 Y0. I0. J0.6
N330 X-22.4 I-22.4 J0.
N335 X22.4 I22.4 J0.
N340 X21.8 Y0.6 I-0.6 J0.
N345 G1 X21.2
N350 G18 G3 X20.6 Z-4.575 I0. K0.6
N355 G1 Z5.
N360 Y-0.6
N365 Z-2.175 F333.33
N370 Z-5.75
N375 G2 X21.2 Z-6.35 I0.6 K0. F1000.
N380 G1 X21.8
N385 G17 G3 X22.4 Y0. I0. J0.6
N390 X-22.4 I-22.4 J0.
N395 X22.4 I22.4 J0.
N400 X21.8 Y0.6 I-0.6 J0.
N405 G1 X21.2
N410 G18 G3 X20.6 Z-5.75 I0. K0.6
N415 G1 Z15.
N420 G17
N425 M9
N430 G53 G0 Z0.
N435 M30
%
