%
(BANDSAWTABLE2)
(T2  D=6. CR=0. - ZMIN=-6.35 - FLAT END MILL)
N10 G90 G94 G17 G91.1
N15 G21
(WHEN USING FUSION 360 FOR PERSONAL USE, THE FEEDRATE OF)
(RAPID MOVES IS REDUCED TO MATCH THE FEEDRATE OF CUTTING)
(MOVES, WHICH CAN INCREASE MACHINING TIME. UNRESTRICTED RAPID)
(MOVES ARE AVAILABLE WITH A FUSION 360 SUBSCRIPTION.)
N20 G53 G0 Z0.
(2D CONTOUR1)
N25 T2 M6
N30 S8500 M3
N35 G54
N40 M8
N45 G0 X26.95 Y-0.6
N50 G43 Z15. H2
N55 G1 Z5. F1000.
N60 Z2. F333.33
N65 Z-0.4
N70 G18 G2 X27.55 Z-1. I0.6 K0. F1000.
N75 G1 X28.15
N80 G17 G3 X28.75 Y0. I0. J0.6
N85 X-28.75 I-28.75 J0.
N90 X28.75 I28.75 J0.
N95 X-28.75 I-28.75 J0.
N100 X28.75 I28.75 J0.
N105 X28.15 Y0.6 I-0.6 J0.
N110 G1 X27.55
N115 G18 G3 X26.95 Z-0.4 I0. K0.6
N120 G1 Z5.
N125 Y-0.6
N130 Z1. F333.33
N135 Z-1.4
N140 G2 X27.55 Z-2. I0.6 K0. F1000.
N145 G1 X28.15
N150 G17 G3 X28.75 Y0. I0. J0.6
N155 X-28.75 I-28.75 J0.
N160 X28.75 I28.75 J0.
N165 X-28.75 I-28.75 J0.
N170 X28.75 I28.75 J0.
N175 X28.15 Y0.6 I-0.6 J0.
N180 G1 X27.55
N185 G18 G3 X26.95 Z-1.4 I0. K0.6
N190 G1 Z5.
N195 Y-0.6
N200 Z0. F333.33
N205 Z-1.988
N210 G2 X27.55 Z-2.588 I0.6 K0. F1000.
N215 G1 X28.15
N220 G17 G3 X28.75 Y0. I0. J0.6
N225 X-28.75 I-28.75 J0.
N230 X28.75 I28.75 J0.
N235 X-28.75 I-28.75 J0.
N240 X28.75 I28.75 J0.
N245 X28.15 Y0.6 I-0.6 J0.
N250 G1 X27.55
N255 G18 G3 X26.95 Z-1.988 I0. K0.6
N260 G1 Z5.
N265 Y-0.6
N270 Z-0.587 F333.33
N275 Z-2.575
N280 G2 X27.55 Z-3.175 I0.6 K0. F1000.
N285 G1 X28.15
N290 G17 G3 X28.75 Y0. I0. J0.6
N295 X-28.75 I-28.75 J0.
N300 X28.75 I28.75 J0.
N305 X-28.75 I-28.75 J0.
N310 X28.75 I28.75 J0.
N315 X28.15 Y0.6 I-0.6 J0.
N320 G1 X27.55
N325 G18 G3 X26.95 Z-2.575 I0. K0.6
N330 G1 Z15.
N335 X20.6 Y-0.6
N340 Z5.
N345 Z2. F333.33
N350 Z-0.4
N355 G2 X21.2 Z-1. I0.6 K0. F1000.
N360 G1 X21.8
N365 G17 G3 X22.4 Y0. I0. J0.6
N370 X-22.4 I-22.4 J0.
N375 X22.4 I22.4 J0.
N380 X-22.4 I-22.4 J0.
N385 X22.4 I22.4 J0.
N390 X21.8 Y0.6 I-0.6 J0.
N395 G1 X21.2
N400 G18 G3 X20.6 Z-0.4 I0. K0.6
N405 G1 Z5.
N410 Y-0.6
N415 Z1. F333.33
N420 Z-1.4
N425 G2 X21.2 Z-2. I0.6 K0. F1000.
N430 G1 X21.8
N435 G17 G3 X22.4 Y0. I0. J0.6
N440 X-22.4 I-22.4 J0.
N445 X22.4 I22.4 J0.
N450 X-22.4 I-22.4 J0.
N455 X22.4 I22.4 J0.
N460 X21.8 Y0.6 I-0.6 J0.
N465 G1 X21.2
N470 G18 G3 X20.6 Z-1.4 I0. K0.6
N475 G1 Z5.
N480 Y-0.6
N485 Z0. F333.33
N490 Z-2.4
N495 G2 X21.2 Z-3. I0.6 K0. F1000.
N500 G1 X21.8
N505 G17 G3 X22.4 Y0. I0. J0.6
N510 X-22.4 I-22.4 J0.
N515 X22.4 I22.4 J0.
N520 X-22.4 I-22.4 J0.
N525 X22.4 I22.4 J0.
N530 X21.8 Y0.6 I-0.6 J0.
N535 G1 X21.2
N540 G18 G3 X20.6 Z-2.4 I0. K0.6
N545 G1 Z5.
N550 Y-0.6
N555 Z-1. F333.33
N560 Z-3.4
N565 G2 X21.2 Z-4. I0.6 K0. F1000.
N570 G1 X21.8
N575 G17 G3 X22.4 Y0. I0. J0.6
N580 X-22.4 I-22.4 J0.
N585 X22.4 I22.4 J0.
N590 X-22.4 I-22.4 J0.
N595 X22.4 I22.4 J0.
N600 X21.8 Y0.6 I-0.6 J0.
N605 G1 X21.2
N610 G18 G3 X20.6 Z-3.4 I0. K0.6
N615 G1 Z5.
N620 Y-0.6
N625 Z-2. F333.33
N630 Z-4.4
N635 G2 X20.803 Z-4.85 I0.6 K0. F1000.
N640 G1 X21.2
N645 X21.8
N650 G17 G3 X22.4 Y0. I0. J0.6
N655 X21.868 Y4.853 I-22.4 J0.
N660 G1 Z-5. F333.33
N665 G3 X6. Y21.581 I-21.868 J-4.853 F1000.
N670 G1 Z-4.85
N675 G3 X-6. I-6. J-21.581
N680 G1 Z-5. F333.33
N685 G3 X-21.581 Y6. I6. J-21.581 F1000.
N690 G1 Z-4.85
N695 G3 Y-6. I21.581 J-6.
N700 G1 Z-5. F333.33
N705 G3 X-5.141 Y-21.802 I21.581 J6. F1000.
N710 G1 Z-4.85
N715 G3 X6.85 Y-21.327 I5.141 J21.802
N720 G1 Z-5. F333.33
N725 G3 X21.235 Y-7.131 I-6.85 J21.327 F1000.
N730 G1 Z-4.85
N735 G3 X21.868 Y4.853 I-21.235 J7.131
N740 G1 Z-5. F333.33
N745 G3 X6. Y21.581 I-21.868 J-4.853 F1000.
N750 G1 Z-4.85
N755 G3 X-6. I-6. J-21.581
N760 G1 Z-5. F333.33
N765 G3 X-21.581 Y6. I6. J-21.581 F1000.
N770 G1 Z-4.85
N775 G3 Y-6. I21.581 J-6.
N780 G1 Z-5. F333.33
N785 G3 X-5.141 Y-21.802 I21.581 J6. F1000.
N790 G1 Z-4.85
N795 G3 X6.85 Y-21.327 I5.141 J21.802
N800 G1 Z-5. F333.33
N805 G3 X21.235 Y-7.131 I-6.85 J21.327 F1000.
N810 G1 Z-4.85
N815 G3 X22.4 Y0. I-21.235 J7.131
N820 X21.8 Y0.6 I-0.6 J0.
N825 G1 X21.2
N830 X20.803 F333.33
N835 G18 G3 X20.6 Z-4.4 I0.397 K0.45 F1000.
N840 G1 Z5.
N845 Y-0.6
N850 Z-3. F333.33
N855 Z-4.85
N860 X21.2 F1000.
N865 X21.8
N870 G17 G3 X22.4 Y0. I0. J0.6
N875 X21.868 Y4.853 I-22.4 J0.
N880 G1 Z-6. F333.33
N885 G3 X6. Y21.581 I-21.868 J-4.853 F1000.
N890 G1 Z-4.85
N895 G3 X-6. I-6. J-21.581
N900 G1 Z-6. F333.33
N905 G3 X-21.581 Y6. I6. J-21.581 F1000.
N910 G1 Z-4.85
N915 G3 Y-6. I21.581 J-6.
N920 G1 Z-6. F333.33
N925 G3 X-5.141 Y-21.802 I21.581 J6. F1000.
N930 G1 Z-4.85
N935 G3 X6.85 Y-21.327 I5.141 J21.802
N940 G1 Z-6. F333.33
N945 G3 X21.235 Y-7.131 I-6.85 J21.327 F1000.
N950 G1 Z-4.85
N955 G3 X21.868 Y4.853 I-21.235 J7.131
N960 G1 Z-6. F333.33
N965 G3 X6. Y21.581 I-21.868 J-4.853 F1000.
N970 G1 Z-4.85
N975 G3 X-6. I-6. J-21.581
N980 G1 Z-6. F333.33
N985 G3 X-21.581 Y6. I6. J-21.581 F1000.
N990 G1 Z-4.85
N995 G3 Y-6. I21.581 J-6.
N1000 G1 Z-6. F333.33
N1005 G3 X-5.141 Y-21.802 I21.581 J6. F1000.
N1010 G1 Z-4.85
N1015 G3 X6.85 Y-21.327 I5.141 J21.802
N1020 G1 Z-6. F333.33
N1025 G3 X21.235 Y-7.131 I-6.85 J21.327 F1000.
N1030 G1 Z-4.85
N1035 G3 X22.4 Y0. I-21.235 J7.131
N1040 X21.8 Y0.6 I-0.6 J0.
N1045 G1 X20.6
N1050 Z5.
N1055 Y-0.6
N1060 Z-4. F333.33
N1065 Z-4.85
N1070 X21.2 F1000.
N1075 X21.8
N1080 G3 X22.4 Y0. I0. J0.6
N1085 X21.868 Y4.853 I-22.4 J0.
N1090 G1 Z-6.35 F333.33
N1095 G3 X6. Y21.581 I-21.868 J-4.853 F1000.
N1100 G1 Z-4.85
N1105 G3 X-6. I-6. J-21.581
N1110 G1 Z-6.35 F333.33
N1115 G3 X-21.581 Y6. I6. J-21.581 F1000.
N1120 G1 Z-4.85
N1125 G3 Y-6. I21.581 J-6.
N1130 G1 Z-6.35 F333.33
N1135 G3 X-5.141 Y-21.802 I21.581 J6. F1000.
N1140 G1 Z-4.85
N1145 G3 X6.85 Y-21.327 I5.141 J21.802
N1150 G1 Z-6.35 F333.33
N1155 G3 X21.235 Y-7.131 I-6.85 J21.327 F1000.
N1160 G1 Z-4.85
N1165 G3 X21.868 Y4.853 I-21.235 J7.131
N1170 G1 Z-6.35 F333.33
N1175 G3 X6. Y21.581 I-21.868 J-4.853 F1000.
N1180 G1 Z-4.85
N1185 G3 X-6. I-6. J-21.581
N1190 G1 Z-6.35 F333.33
N1195 G3 X-21.581 Y6. I6. J-21.581 F1000.
N1200 G1 Z-4.85
N1205 G3 Y-6. I21.581 J-6.
N1210 G1 Z-6.35 F333.33
N1215 G3 X-5.141 Y-21.802 I21.581 J6. F1000.
N1220 G1 Z-4.85
N1225 G3 X6.85 Y-21.327 I5.141 J21.802
N1230 G1 Z-6.35 F333.33
N1235 G3 X21.235 Y-7.131 I-6.85 J21.327 F1000.
N1240 G1 Z-4.85
N1245 G3 X22.4 Y0. I-21.235 J7.131
N1250 X21.8 Y0.6 I-0.6 J0.
N1255 G1 X20.6
N1260 Z15.
N1265 M9
N1270 G53 G0 Z0.
N1275 M30
%
