%
(BANDSAWCENTER)
(T2  D=6. CR=0. - ZMIN=-6.85 - FLAT END MILL)
N10 G90 G94 G17 G91.1
N15 G21
(WHEN USING FUSION 360 FOR PERSONAL USE, THE FEEDRATE OF)
(RAPID MOVES IS REDUCED TO MATCH THE FEEDRATE OF CUTTING)
(MOVES, WHICH CAN INCREASE MACHINING TIME. UNRESTRICTED RAPID)
(MOVES ARE AVAILABLE WITH A FUSION 360 SUBSCRIPTION.)
N20 G53 G0 Z0.
(FACE1)
N25 T2 M6
N30 S8500 M3
N35 G54
N40 M8
N45 G0 X38.9 Y-33.836
N50 G43 Z15. H2
N55 G1 Z5. F1000.
N60 Z0.25
N65 G18 G3 X38.3 Z-0.35 I-0.6 K0.
N70 G1 X38.01
N75 X-38.01
N80 G17 G2 Y-29.715 I0. J2.061
N85 G1 X38.01
N90 G3 Y-25.593 I0. J2.061
N95 G1 X-38.01
N100 G2 Y-21.472 I0. J2.061
N105 G1 X38.01
N110 G3 Y-17.35 I0. J2.061
N115 G1 X-38.01
N120 G2 Y-13.229 I0. J2.061
N125 G1 X38.01
N130 G3 Y-9.107 I0. J2.061
N135 G1 X-38.01
N140 G2 Y-4.986 I0. J2.061
N145 G1 X38.01
N150 G3 Y-0.864 I0. J2.061
N155 G1 X-38.01
N160 G2 Y3.257 I0. J2.061
N165 G1 X38.01
N170 G3 Y7.379 I0. J2.061
N175 G1 X-38.01
N180 G2 Y11.5 I0. J2.061
N185 G1 X38.01
N190 G3 Y15.622 I0. J2.061
N195 G1 X-38.01
N200 G2 Y19.743 I0. J2.061
N205 G1 X38.01
N210 G3 Y23.865 I0. J2.061
N215 G1 X-38.01
N220 G2 Y27.986 I0. J2.061
N225 G1 X38.01
N230 G3 Y32.108 I0. J2.061
N235 G1 X-38.01
N240 G18 G3 X-38.61 Z0.25 I0. K0.6
N245 G1 Z5.
N250 X-38.9 Y-33.836
N255 Z-0.75
N260 G2 X-38.3 Z-1.35 I0.6 K0.
N265 G1 X-38.01
N270 X38.01
N275 G17 G3 Y-29.715 I0. J2.061
N280 G1 X-38.01
N285 G2 Y-25.593 I0. J2.061
N290 G1 X38.01
N295 G3 Y-21.472 I0. J2.061
N300 G1 X-38.01
N305 G2 Y-17.35 I0. J2.061
N310 G1 X38.01
N315 G3 Y-13.229 I0. J2.061
N320 G1 X-38.01
N325 G2 Y-9.107 I0. J2.061
N330 G1 X38.01
N335 G3 Y-4.986 I0. J2.061
N340 G1 X-38.01
N345 G2 Y-0.864 I0. J2.061
N350 G1 X38.01
N355 G3 Y3.257 I0. J2.061
N360 G1 X-38.01
N365 G2 Y7.379 I0. J2.061
N370 G1 X38.01
N375 G3 Y11.5 I0. J2.061
N380 G1 X-38.01
N385 G2 Y15.622 I0. J2.061
N390 G1 X38.01
N395 G3 Y19.743 I0. J2.061
N400 G1 X-38.01
N405 G2 Y23.865 I0. J2.061
N410 G1 X38.01
N415 G3 Y27.986 I0. J2.061
N420 G1 X-38.01
N425 G2 Y32.108 I0. J2.061
N430 G1 X38.01
N435 G18 G2 X38.61 Z-0.75 I0. K0.6
N440 G1 Z5.
N445 X38.9 Y-33.836
N450 Z-1.75
N455 G3 X38.3 Z-2.35 I-0.6 K0.
N460 G1 X38.01
N465 X-38.01
N470 G17 G2 Y-29.715 I0. J2.061
N475 G1 X38.01
N480 G3 Y-25.593 I0. J2.061
N485 G1 X-38.01
N490 G2 Y-21.472 I0. J2.061
N495 G1 X38.01
N500 G3 Y-17.35 I0. J2.061
N505 G1 X-38.01
N510 G2 Y-13.229 I0. J2.061
N515 G1 X38.01
N520 G3 Y-9.107 I0. J2.061
N525 G1 X-38.01
N530 G2 Y-4.986 I0. J2.061
N535 G1 X38.01
N540 G3 Y-0.864 I0. J2.061
N545 G1 X-38.01
N550 G2 Y3.257 I0. J2.061
N555 G1 X38.01
N560 G3 Y7.379 I0. J2.061
N565 G1 X-38.01
N570 G2 Y11.5 I0. J2.061
N575 G1 X38.01
N580 G3 Y15.622 I0. J2.061
N585 G1 X-38.01
N590 G2 Y19.743 I0. J2.061
N595 G1 X38.01
N600 G3 Y23.865 I0. J2.061
N605 G1 X-38.01
N610 G2 Y27.986 I0. J2.061
N615 G1 X38.01
N620 G3 Y32.108 I0. J2.061
N625 G1 X-38.01
N630 G18 G3 X-38.61 Z-1.75 I0. K0.6
N635 G1 Z5.
N640 X-38.9 Y-33.836
N645 Z-2.75
N650 G2 X-38.3 Z-3.35 I0.6 K0.
N655 G1 X-38.01
N660 X38.01
N665 G17 G3 Y-29.715 I0. J2.061
N670 G1 X-38.01
N675 G2 Y-25.593 I0. J2.061
N680 G1 X38.01
N685 G3 Y-21.472 I0. J2.061
N690 G1 X-38.01
N695 G2 Y-17.35 I0. J2.061
N700 G1 X38.01
N705 G3 Y-13.229 I0. J2.061
N710 G1 X-38.01
N715 G2 Y-9.107 I0. J2.061
N720 G1 X38.01
N725 G3 Y-4.986 I0. J2.061
N730 G1 X-38.01
N735 G2 Y-0.864 I0. J2.061
N740 G1 X38.01
N745 G3 Y3.257 I0. J2.061
N750 G1 X-38.01
N755 G2 Y7.379 I0. J2.061
N760 G1 X38.01
N765 G3 Y11.5 I0. J2.061
N770 G1 X-38.01
N775 G2 Y15.622 I0. J2.061
N780 G1 X38.01
N785 G3 Y19.743 I0. J2.061
N790 G1 X-38.01
N795 G2 Y23.865 I0. J2.061
N800 G1 X38.01
N805 G3 Y27.986 I0. J2.061
N810 G1 X-38.01
N815 G2 Y32.108 I0. J2.061
N820 G1 X38.01
N825 G18 G2 X38.61 Z-2.75 I0. K0.6
N830 G1 Z15.
N835 G17
(WHEN USING FUSION 360 FOR PERSONAL USE, THE FEEDRATE OF)
(RAPID MOVES IS REDUCED TO MATCH THE FEEDRATE OF CUTTING)
(MOVES, WHICH CAN INCREASE MACHINING TIME. UNRESTRICTED RAPID)
(MOVES ARE AVAILABLE WITH A FUSION 360 SUBSCRIPTION.)
(2D CONTOUR2)
N840 G0 X0.6 Y-36.55
N845 G1 Z15. F1000.
N850 Z5.
N855 Z2. F333.33
N860 Z-0.4
N865 G19 G3 Y-35.95 Z-1. J0.6 K0. F1000.
N870 G1 Y-35.35
N875 G17 G3 X0. Y-34.75 I-0.6 J0.
N880 G2 Y34.75 I0. J34.75
N885 Y-34.75 I0. J-34.75
N890 G3 X-0.6 Y-35.35 I0. J-0.6
N895 G1 Y-35.95
N900 G19 G2 Y-36.55 Z-0.4 J0. K0.6
N905 G1 Z5.
N910 X0.6
N915 Z1. F333.33
N920 Z-1.4
N925 G3 Y-35.95 Z-2. J0.6 K0. F1000.
N930 G1 Y-35.35
N935 G17 G3 X0. Y-34.75 I-0.6 J0.
N940 G2 Y34.75 I0. J34.75
N945 Y-34.75 I0. J-34.75
N950 G3 X-0.6 Y-35.35 I0. J-0.6
N955 G1 Y-35.95
N960 G19 G2 Y-36.55 Z-1.4 J0. K0.6
N965 G1 Z5.
N970 X0.6
N975 Z0. F333.33
N980 Z-2.4
N985 G3 Y-35.95 Z-3. J0.6 K0. F1000.
N990 G1 Y-35.35
N995 G17 G3 X0. Y-34.75 I-0.6 J0.
N1000 G2 Y34.75 I0. J34.75
N1005 Y-34.75 I0. J-34.75
N1010 G3 X-0.6 Y-35.35 I0. J-0.6
N1015 G1 Y-35.95
N1020 G19 G2 Y-36.55 Z-2.4 J0. K0.6
N1025 G1 Z5.
N1030 X0.6
N1035 Z-1. F333.33
N1040 Z-3.4
N1045 G3 Y-35.95 Z-4. J0.6 K0. F1000.
N1050 G1 Y-35.35
N1055 G17 G3 X0. Y-34.75 I-0.6 J0.
N1060 G2 Y34.75 I0. J34.75
N1065 Y-34.75 I0. J-34.75
N1070 G3 X-0.6 Y-35.35 I0. J-0.6
N1075 G1 Y-35.95
N1080 G19 G2 Y-36.55 Z-3.4 J0. K0.6
N1085 G1 Z5.
N1090 X0.6
N1095 Z-2. F333.33
N1100 Z-4.4
N1105 G3 Y-35.95 Z-5. J0.6 K0. F1000.
N1110 G1 Y-35.35
N1115 G17 G3 X0. Y-34.75 I-0.6 J0.
N1120 G2 Y34.75 I0. J34.75
N1125 Y-34.75 I0. J-34.75
N1130 G3 X-0.6 Y-35.35 I0. J-0.6
N1135 G1 Y-35.95
N1140 G19 G2 Y-36.55 Z-4.4 J0. K0.6
N1145 G1 Z5.
N1150 X0.6
N1155 Z-3. F333.33
N1160 Z-5.4
N1165 G3 Y-35.95 Z-6. J0.6 K0. F1000.
N1170 G1 Y-35.35
N1175 G17 G3 X0. Y-34.75 I-0.6 J0.
N1180 G2 X-19.295 Y-28.901 I0. J34.75
N1185 G1 Z-5.35
N1190 G2 X-26.726 Y-22.21 I19.295 J28.901
N1195 G1 Z-6. F333.33
N1200 G2 X-27.648 Y21.051 I26.726 J22.21 F1000.
N1205 G1 Z-5.35
N1210 G2 X-20.509 Y28.053 I27.648 J-21.051
N1215 G1 Z-6. F333.33
N1220 G2 X19.295 Y28.901 I20.509 J-28.053 F1000.
N1225 G1 Z-5.35
N1230 G2 X26.726 Y22.21 I-19.295 J-28.901
N1235 G1 Z-6. F333.33
N1240 G2 X29.953 Y-17.618 I-26.726 J-22.21 F1000.
N1245 G1 Z-5.35
N1250 G2 X23.695 Y-25.419 I-29.953 J17.618
N1255 G1 Z-6. F333.33
N1260 G2 X0. Y-34.75 I-23.695 J25.419 F1000.
N1265 G3 X-0.6 Y-35.35 I0. J-0.6
N1270 G1 Y-35.95
N1275 G19 G2 Y-36.55 Z-5.4 J0. K0.6
N1280 G1 Z5.
N1285 X0.6
N1290 Z-4. F333.33
N1295 Z-6.25
N1300 G3 Y-35.95 Z-6.85 J0.6 K0. F1000.
N1305 G1 Y-35.35
N1310 G17 G3 X0. Y-34.75 I-0.6 J0.
N1315 G2 X-19.295 Y-28.901 I0. J34.75
N1320 G1 Z-5.35
N1325 G2 X-26.726 Y-22.21 I19.295 J28.901
N1330 G1 Z-6.85 F333.33
N1335 G2 X-27.648 Y21.051 I26.726 J22.21 F1000.
N1340 G1 Z-5.35
N1345 G2 X-20.509 Y28.053 I27.648 J-21.051
N1350 G1 Z-6.85 F333.33
N1355 G2 X19.295 Y28.901 I20.509 J-28.053 F1000.
N1360 G1 Z-5.35
N1365 G2 X26.726 Y22.21 I-19.295 J-28.901
N1370 G1 Z-6.85 F333.33
N1375 G2 X29.953 Y-17.618 I-26.726 J-22.21 F1000.
N1380 G1 Z-5.35
N1385 G2 X23.695 Y-25.419 I-29.953 J17.618
N1390 G1 Z-6.85 F333.33
N1395 G2 X0. Y-34.75 I-23.695 J25.419 F1000.
N1400 G3 X-0.6 Y-35.35 I0. J-0.6
N1405 G1 Y-35.95
N1410 G19 G2 Y-36.55 Z-6.25 J0. K0.6
N1415 G1 Z15.
N1420 G17
N1425 M9
N1430 G53 G0 Z0.
N1435 M30
%
