%
(BANDSAWTHIRD)
(T2  D=6. CR=0. - ZMIN=-6.85 - FLAT END MILL)
N10 G90 G94 G17 G91.1
N15 G21
(WHEN USING FUSION 360 FOR PERSONAL USE, THE FEEDRATE OF)
(RAPID MOVES IS REDUCED TO MATCH THE FEEDRATE OF CUTTING)
(MOVES, WHICH CAN INCREASE MACHINING TIME. UNRESTRICTED RAPID)
(MOVES ARE AVAILABLE WITH A FUSION 360 SUBSCRIPTION.)
N20 G53 G0 Z0.
(2D CONTOUR1)
N25 T2 M6
N30 S8500 M3
N35 G54
N40 M8
N45 G0 X20.6 Y-0.6
N50 G43 Z15. H2
N55 G1 Z5. F1000.
N60 Z2. F333.33
N65 Z-0.4
N70 G18 G2 X21.2 Z-1. I0.6 K0. F1000.
N75 G1 X21.8
N80 G17 G3 X22.4 Y0. I0. J0.6
N85 X-22.4 I-22.4 J0.
N90 X22.4 I22.4 J0.
N95 X-22.4 I-22.4 J0.
N100 X22.4 I22.4 J0.
N105 X21.8 Y0.6 I-0.6 J0.
N110 G1 X21.2
N115 G18 G3 X20.6 Z-0.4 I0. K0.6
N120 G1 Z5.
N125 Y-0.6
N130 Z1. F333.33
N135 Z-1.4
N140 G2 X21.2 Z-2. I0.6 K0. F1000.
N145 G1 X21.8
N150 G17 G3 X22.4 Y0. I0. J0.6
N155 X-22.4 I-22.4 J0.
N160 X22.4 I22.4 J0.
N165 X-22.4 I-22.4 J0.
N170 X22.4 I22.4 J0.
N175 X21.8 Y0.6 I-0.6 J0.
N180 G1 X21.2
N185 G18 G3 X20.6 Z-1.4 I0. K0.6
N190 G1 Z5.
N195 Y-0.6
N200 Z0. F333.33
N205 Z-2.4
N210 G2 X21.2 Z-3. I0.6 K0. F1000.
N215 G1 X21.8
N220 G17 G3 X22.4 Y0. I0. J0.6
N225 X-22.4 I-22.4 J0.
N230 X22.4 I22.4 J0.
N235 X-22.4 I-22.4 J0.
N240 X22.4 I22.4 J0.
N245 X21.8 Y0.6 I-0.6 J0.
N250 G1 X21.2
N255 G18 G3 X20.6 Z-2.4 I0. K0.6
N260 G1 Z5.
N265 Y-0.6
N270 Z-1. F333.33
N275 Z-3.4
N280 G2 X21.2 Z-4. I0.6 K0. F1000.
N285 G1 X21.8
N290 G17 G3 X22.4 Y0. I0. J0.6
N295 X-22.4 I-22.4 J0.
N300 X22.4 I22.4 J0.
N305 X-22.4 I-22.4 J0.
N310 X22.4 I22.4 J0.
N315 X21.8 Y0.6 I-0.6 J0.
N320 G1 X21.2
N325 G18 G3 X20.6 Z-3.4 I0. K0.6
N330 G1 Z5.
N335 Y-0.6
N340 Z-2. F333.33
N345 Z-4.4
N350 G2 X21.2 Z-5. I0.6 K0. F1000.
N355 G1 X21.8
N360 G17 G3 X22.4 Y0. I0. J0.6
N365 X-22.4 I-22.4 J0.
N370 X22.4 I22.4 J0.
N375 X-22.4 I-22.4 J0.
N380 X22.4 I22.4 J0.
N385 X21.8 Y0.6 I-0.6 J0.
N390 G1 X21.2
N395 G18 G3 X20.6 Z-4.4 I0. K0.6
N400 G1 Z5.
N405 Y-0.6
N410 Z-3. F333.33
N415 Z-5.35
N420 X21.2 F1000.
N425 X21.8
N430 G17 G3 X22.4 Y0. I0. J0.6
N435 X21.868 Y4.853 I-22.4 J0.
N440 G1 Z-6. F333.33
N445 G3 X6. Y21.581 I-21.868 J-4.853 F1000.
N450 G1 Z-5.35
N455 G3 X-6. I-6. J-21.581
N460 G1 Z-6. F333.33
N465 G3 X-21.581 Y6. I6. J-21.581 F1000.
N470 G1 Z-5.35
N475 G3 Y-6. I21.581 J-6.
N480 G1 Z-6. F333.33
N485 G3 X-5.141 Y-21.802 I21.581 J6. F1000.
N490 G1 Z-5.35
N495 G3 X6.85 Y-21.327 I5.141 J21.802
N500 G1 Z-6. F333.33
N505 G3 X21.235 Y-7.131 I-6.85 J21.327 F1000.
N510 G1 Z-5.35
N515 G3 X21.868 Y4.853 I-21.235 J7.131
N520 G1 Z-6. F333.33
N525 G3 X6. Y21.581 I-21.868 J-4.853 F1000.
N530 G1 Z-5.35
N535 G3 X-6. I-6. J-21.581
N540 G1 Z-6. F333.33
N545 G3 X-21.581 Y6. I6. J-21.581 F1000.
N550 G1 Z-5.35
N555 G3 Y-6. I21.581 J-6.
N560 G1 Z-6. F333.33
N565 G3 X-5.141 Y-21.802 I21.581 J6. F1000.
N570 G1 Z-5.35
N575 G3 X6.85 Y-21.327 I5.141 J21.802
N580 G1 Z-6. F333.33
N585 G3 X21.235 Y-7.131 I-6.85 J21.327 F1000.
N590 G1 Z-5.35
N595 G3 X22.4 Y0. I-21.235 J7.131
N600 X21.8 Y0.6 I-0.6 J0.
N605 G1 X20.6
N610 Z5.
N615 Y-0.6
N620 Z-4. F333.33
N625 Z-5.35
N630 X21.2 F1000.
N635 X21.8
N640 G3 X22.4 Y0. I0. J0.6
N645 X21.868 Y4.853 I-22.4 J0.
N650 G1 Z-6.85 F333.33
N655 G3 X6. Y21.581 I-21.868 J-4.853 F1000.
N660 G1 Z-5.35
N665 G3 X-6. I-6. J-21.581
N670 G1 Z-6.85 F333.33
N675 G3 X-21.581 Y6. I6. J-21.581 F1000.
N680 G1 Z-5.35
N685 G3 Y-6. I21.581 J-6.
N690 G1 Z-6.85 F333.33
N695 G3 X-5.141 Y-21.802 I21.581 J6. F1000.
N700 G1 Z-5.35
N705 G3 X6.85 Y-21.327 I5.141 J21.802
N710 G1 Z-6.85 F333.33
N715 G3 X21.235 Y-7.131 I-6.85 J21.327 F1000.
N720 G1 Z-5.35
N725 G3 X21.868 Y4.853 I-21.235 J7.131
N730 G1 Z-6.85 F333.33
N735 G3 X6. Y21.581 I-21.868 J-4.853 F1000.
N740 G1 Z-5.35
N745 G3 X-6. I-6. J-21.581
N750 G1 Z-6.85 F333.33
N755 G3 X-21.581 Y6. I6. J-21.581 F1000.
N760 G1 Z-5.35
N765 G3 Y-6. I21.581 J-6.
N770 G1 Z-6.85 F333.33
N775 G3 X-5.141 Y-21.802 I21.581 J6. F1000.
N780 G1 Z-5.35
N785 G3 X6.85 Y-21.327 I5.141 J21.802
N790 G1 Z-6.85 F333.33
N795 G3 X21.235 Y-7.131 I-6.85 J21.327 F1000.
N800 G1 Z-5.35
N805 G3 X22.4 Y0. I-21.235 J7.131
N810 X21.8 Y0.6 I-0.6 J0.
N815 G1 X20.6
N820 Z15.
N825 M9
N830 G53 G0 Z0.
N835 M30
%
