%
(BIGCLAMPFIXED)
(MACHINE)
(  VENDOR AUTODESK)
(  DESCRIPTION GENERIC 3-AXIS)
(T4  D=0.2362 CR=0. - ZMIN=0. - FLAT END MILL)
N10 G90 G94 G17 G91.1
N15 G20
(WHEN USING FUSION 360 FOR PERSONAL USE, THE FEEDRATE OF)
(RAPID MOVES IS REDUCED TO MATCH THE FEEDRATE OF CUTTING)
(MOVES, WHICH CAN INCREASE MACHINING TIME. UNRESTRICTED RAPID)
(MOVES ARE AVAILABLE WITH A FUSION 360 SUBSCRIPTION.)
N20 G53 G0 Z0.
(2D POCKET1)
N25 T3 M6
N30 S7500 M3
N35 G54
N40 M8
N45 G0 X-0.0974 Y7.2159
N50 G43 Z1.3406 H3
N55 G1 Z0.9469 F133.858
N60 Z0.6161
N65 G18 G2 X-0.0738 Z0.5925 I0.0236 K0.
N70 G1 X0.127
N75 X1.373
N80 G17 G3 Y7.3123 I0. J0.0482
N85 G1 X0.7537 Y7.3124
N90 X0.75 Y7.3123
N95 X0.127 Y7.2641
N100 G3 X0.088 Y7.2385 I0.0037 J-0.048
N105 G1 X0.0122 Y7.0938
N110 G3 X0.0548 Y7.0233 I0.0427 J-0.0224
N115 G1 X1.4449
N120 G3 Y7.1196 I0. J0.0482
N125 G1 X0.7532 Y7.1197
N130 X0.7499 Y7.1196
N135 X0.0548 Y7.0715
N140 G3 X0.0114 Y7.0348 I0.0033 J-0.048
N145 G1 X-0.024 Y6.8902
N150 G3 X0.0228 Y6.8306 I0.0468 J-0.0114
N155 G1 X1.4772
N160 G3 Y6.927 I0. J0.0482
N165 G1 X0.7532 Y6.9271
N170 X0.75 Y6.927
N175 X0.0228 Y6.8788
N180 G3 X-0.0208 Y6.8421 I0.0032 J-0.0481
N185 G1 X-0.056 Y6.6973
N190 G3 X-0.0092 Y6.6378 I0.0468 J-0.0114
N195 G1 X1.5093
N200 G3 X1.5134 Y6.6607 I0. J0.0118
N205 G1 X0.0747 Y7.1931
N210 G2 X0.0788 Y7.2159 I0.0041 J0.0111
N215 G18 G3 X0.1024 Z0.5689 I0. K-0.0236
N220 G1 Z0.5297
N225 G2 X0.126 Z0.5061 I0.0236 K0.
N230 G1 X0.127
N235 X1.373
N240 G17 G3 Y7.3123 I0. J0.0482
N245 G1 X0.7537 Y7.3124
N250 X0.75 Y7.3123
N255 X0.127 Y7.2641
N260 G3 X0.088 Y7.2385 I0.0037 J-0.048
N265 G1 X0.0122 Y7.0938
N270 G3 X0.0548 Y7.0233 I0.0427 J-0.0224
N275 G1 X1.4449
N280 G3 Y7.1196 I0. J0.0482
N285 G1 X0.7532 Y7.1197
N290 X0.7499 Y7.1196
N295 X0.0548 Y7.0715
N300 G3 X0.0114 Y7.0348 I0.0033 J-0.048
N305 G1 X-0.024 Y6.8902
N310 G3 X0.0228 Y6.8306 I0.0468 J-0.0114
N315 G1 X1.4772
N320 G3 Y6.927 I0. J0.0482
N325 G1 X0.7532 Y6.9271
N330 X0.75 Y6.927
N335 X0.0228 Y6.8788
N340 G3 X-0.0208 Y6.8421 I0.0032 J-0.0481
N345 G1 X-0.056 Y6.6973
N350 G3 X-0.0092 Y6.6378 I0.0468 J-0.0114
N355 G1 X1.5093
N360 G3 X1.5134 Y6.6607 I0. J0.0118
N365 G1 X0.0747 Y7.1931
N370 G2 X0.0788 Y7.2159 I0.0041 J0.0111
N375 G18 G3 X0.1024 Z0.4825 I0. K-0.0236
N380 G1 Z0.4433
N385 G2 X0.126 Z0.4197 I0.0236 K0.
N390 G1 X0.127
N395 X1.373
N400 G17 G3 Y7.3123 I0. J0.0482
N405 G1 X0.7537 Y7.3124
N410 X0.75 Y7.3123
N415 X0.127 Y7.2641
N420 G3 X0.088 Y7.2385 I0.0037 J-0.048
N425 G1 X0.0122 Y7.0938
N430 G3 X0.0548 Y7.0233 I0.0427 J-0.0224
N435 G1 X1.4449
N440 G3 Y7.1196 I0. J0.0482
N445 G1 X0.7532 Y7.1197
N450 X0.7499 Y7.1196
N455 X0.0548 Y7.0715
N460 G3 X0.0114 Y7.0348 I0.0033 J-0.048
N465 G1 X-0.024 Y6.8902
N470 G3 X0.0228 Y6.8306 I0.0468 J-0.0114
N475 G1 X1.4772
N480 G3 Y6.927 I0. J0.0482
N485 G1 X0.7532 Y6.9271
N490 X0.75 Y6.927
N495 X0.0228 Y6.8788
N500 G3 X-0.0208 Y6.8421 I0.0032 J-0.0481
N505 G1 X-0.056 Y6.6973
N510 G3 X-0.0092 Y6.6378 I0.0468 J-0.0114
N515 G1 X1.5093
N520 X1.513 Y6.6381
N525 X1.6296 Y6.6566
N530 X1.6333 Y6.6571 Z0.42
N535 X1.6368 Y6.6577 Z0.4208
N540 X1.6402 Y6.6582 Z0.4223
N545 X1.6433 Y6.6587 Z0.4242
N550 X1.6461 Y6.6592 Z0.4266
N555 X1.6485 Y6.6596 Z0.4294
N560 X1.6504 Y6.6599 Z0.4326
N565 X1.6518 Y6.6601 Z0.436
N570 X1.6527 Y6.6602 Z0.4396
N575 X1.653 Y6.6603 Z0.4433
N580 Z1.3406
(WHEN USING FUSION 360 FOR PERSONAL USE, THE FEEDRATE OF)
(RAPID MOVES IS REDUCED TO MATCH THE FEEDRATE OF CUTTING)
(MOVES, WHICH CAN INCREASE MACHINING TIME. UNRESTRICTED RAPID)
(MOVES ARE AVAILABLE WITH A FUSION 360 SUBSCRIPTION.)
(2D POCKET2)
N585 G0 X0.7509 Y0.782
N590 G1 Z1.3406 F133.858
N595 Z0.9469
N600 Z0.8484
N605 Z0.6161 F44.619
N610 X0.7498 Y0.7823 Z0.6088
N615 X0.7465 Y0.7831 Z0.6023
N620 X0.7439 Y0.7834 Z0.5996
N625 X0.7413 Z0.597
N630 X0.7381 Y0.783 Z0.5954
N635 X0.7349 Y0.7821 Z0.5937
N640 X0.7315 Y0.7807 Z0.5931
N645 X0.7285 Y0.7787 Z0.5925
N650 G3 X0.7715 Y0.7213 I0.0215 J-0.0287 F133.858
N655 X0.7285 Y0.7787 I-0.0215 J0.0287
N660 X0.7327 Y0.7686 I0.0034 J-0.0045
N665 G1 X0.7497 Y0.771
N670 G3 X0.7509 Y0.782 I-0.0008 J0.0056
N675 G1 Z0.4587 F44.619
N680 X0.7498 Y0.7823 Z0.4514
N685 X0.7465 Y0.7831 Z0.4448
N690 X0.7439 Y0.7834 Z0.4422
N695 X0.7413 Z0.4396
N700 X0.7381 Y0.783 Z0.4379
N705 X0.7349 Y0.7821 Z0.4362
N710 X0.7315 Y0.7807 Z0.4356
N715 X0.7285 Y0.7787 Z0.435
N720 G3 X0.7715 Y0.7213 I0.0215 J-0.0287 F133.858
N725 X0.7285 Y0.7787 I-0.0215 J0.0287
N730 X0.7327 Y0.7686 I0.0034 J-0.0045
N735 G1 X0.7497 Y0.771
N740 G3 X0.7509 Y0.782 I-0.0008 J0.0056
N745 G1 Z0.3012 F44.619
N750 X0.7498 Y0.7823 Z0.2939
N755 X0.7465 Y0.7831 Z0.2873
N760 X0.7439 Y0.7834 Z0.2847
N765 X0.7413 Z0.2821
N770 X0.7381 Y0.783 Z0.2804
N775 X0.7349 Y0.7821 Z0.2787
N780 X0.7315 Y0.7807 Z0.2781
N785 X0.7285 Y0.7787 Z0.2776
N790 G3 X0.7715 Y0.7213 I0.0215 J-0.0287 F133.858
N795 X0.7285 Y0.7787 I-0.0215 J0.0287
N800 X0.7327 Y0.7686 I0.0034 J-0.0045
N805 G1 X0.7497 Y0.771
N810 G3 X0.7509 Y0.782 I-0.0008 J0.0056
N815 G1 Z0.1437 F44.619
N820 X0.7498 Y0.7823 Z0.1364
N825 X0.7465 Y0.7831 Z0.1298
N830 X0.7439 Y0.7834 Z0.1272
N835 X0.7413 Z0.1246
N840 X0.7381 Y0.783 Z0.1229
N845 X0.7349 Y0.7821 Z0.1212
N850 X0.7315 Y0.7807 Z0.1207
N855 X0.7285 Y0.7787 Z0.1201
N860 G3 X0.7715 Y0.7213 I0.0215 J-0.0287 F133.858
N865 X0.7285 Y0.7787 I-0.0215 J0.0287
N870 X0.7327 Y0.7686 I0.0034 J-0.0045
N875 G1 X0.7497 Y0.771
N880 G3 X0.7509 Y0.782 I-0.0008 J0.0056
N885 G1 Z0.0236 F44.619
N890 X0.7498 Y0.7823 Z0.0163
N895 X0.7465 Y0.7831 Z0.0097
N900 X0.7439 Y0.7834 Z0.0071
N905 X0.7413 Z0.0045
N910 X0.7381 Y0.783 Z0.0028
N915 X0.7349 Y0.7821 Z0.0012
N920 X0.7315 Y0.7807 Z0.0006
N925 X0.7285 Y0.7787 Z0.
N930 G3 X0.7715 Y0.7213 I0.0215 J-0.0287 F133.858
N935 X0.7285 Y0.7787 I-0.0215 J0.0287
N940 G1 X0.7257 Y0.7763 Z0.0006
N945 X0.7234 Y0.7735 Z0.0012
N950 X0.7217 Y0.7707 Z0.0028
N955 X0.7204 Y0.7677 Z0.0045
N960 X0.7196 Y0.7652 Z0.0071
N965 X0.7192 Y0.7626 Z0.0097
N970 X0.719 Y0.7593 Z0.0163
N975 X0.7191 Y0.7581 Z0.0236
N980 Z1.3406
(WHEN USING FUSION 360 FOR PERSONAL USE, THE FEEDRATE OF)
(RAPID MOVES IS REDUCED TO MATCH THE FEEDRATE OF CUTTING)
(MOVES, WHICH CAN INCREASE MACHINING TIME. UNRESTRICTED RAPID)
(MOVES ARE AVAILABLE WITH A FUSION 360 SUBSCRIPTION.)
(2D POCKET3)
N985 S5000 M3
N990 G0 Z1.4193
N995 X0.7351 Y6.
N1000 G1 Z1.0256 F39.37
N1005 Z0.9469
N1010 Z0.5925 F13.123
N1015 Y1.5 F39.37
N1020 G3 X0.7649 I0.0149 J0.
N1025 G1 Y6.
N1030 G3 X0.7351 I-0.0149 J0.
N1035 G1 Z0.435 F13.123
N1040 Y1.5 F39.37
N1045 G3 X0.7649 I0.0149 J0.
N1050 G1 Y6.
N1055 G3 X0.7351 I-0.0149 J0.
N1060 G1 Z0.2776 F13.123
N1065 Y1.5 F39.37
N1070 G3 X0.7649 I0.0149 J0.
N1075 G1 Y6.
N1080 G3 X0.7351 I-0.0149 J0.
N1085 G1 Z0.1201 F13.123
N1090 Y1.5 F39.37
N1095 G3 X0.7649 I0.0149 J0.
N1100 G1 Y6.
N1105 G3 X0.7351 I-0.0149 J0.
N1110 G1 Z0. F13.123
N1115 Y1.5 F39.37
N1120 G3 X0.7649 I0.0149 J0.
N1125 G1 Y6.
N1130 G3 X0.7351 I-0.0149 J0.
N1135 G19 G2 Y5.9764 Z0.0236 J0. K0.0236
N1140 G1 Z1.4193
N1145 G17
(WHEN USING FUSION 360 FOR PERSONAL USE, THE FEEDRATE OF)
(RAPID MOVES IS REDUCED TO MATCH THE FEEDRATE OF CUTTING)
(MOVES, WHICH CAN INCREASE MACHINING TIME. UNRESTRICTED RAPID)
(MOVES ARE AVAILABLE WITH A FUSION 360 SUBSCRIPTION.)
(2D CONTOUR1)
N1150 S7500 M3
N1155 G0 X0.7933 Y-0.189
N1160 G1 Z1.3406 F133.858
N1165 Z0.9469
N1170 Z0.5374 F44.619
N1175 G19 G3 Y-0.1654 Z0.5138 J0.0236 K0. F133.858
N1180 G1 Y-0.1417
N1185 G17 G3 X0.7697 Y-0.1181 I-0.0236 J0.
N1190 G1 X0.625
N1195 G2 X-0.1181 Y0.625 I0. J0.7431
N1200 G1 Y6.
N1205 G2 X-0.1165 Y6.0194 I0.1181 J0.
N1210 G1 X0.057 Y7.0605
N1215 G2 X0.4201 Y7.3681 I0.3631 J-0.0605
N1220 G1 X1.0799
N1225 G2 X1.443 Y7.0605 I0. J-0.3681
N1230 G1 X1.6165 Y6.0194
N1235 G2 X1.6181 Y6. I-0.1165 J-0.0194
N1240 G1 Y0.625
N1245 G2 X0.875 Y-0.1181 I-0.7431 J0.
N1250 G1 X0.7697
N1255 G3 X0.746 Y-0.1417 I0. J-0.0236
N1260 G1 Y-0.1654
N1265 G19 G2 Y-0.189 Z0.5374 J0. K0.0236
N1270 G1 Z0.9469
N1275 X0.7933
N1280 Z0.7106 F44.619
N1285 Z0.3012
N1290 G3 Y-0.1654 Z0.2776 J0.0236 K0. F133.858
N1295 G1 Y-0.1417
N1300 G17 G3 X0.7697 Y-0.1181 I-0.0236 J0.
N1305 G1 X0.625
N1310 G2 X-0.1181 Y0.625 I0. J0.7431
N1315 G1 Y6.
N1320 G2 X-0.1165 Y6.0194 I0.1181 J0.
N1325 G1 X0.057 Y7.0605
N1330 G2 X0.4201 Y7.3681 I0.3631 J-0.0605
N1335 G1 X1.0799
N1340 G2 X1.443 Y7.0605 I0. J-0.3681
N1345 G1 X1.6165 Y6.0194
N1350 G2 X1.6181 Y6. I-0.1165 J-0.0194
N1355 G1 Y0.625
N1360 G2 X0.875 Y-0.1181 I-0.7431 J0.
N1365 G1 X0.7697
N1370 G3 X0.746 Y-0.1417 I0. J-0.0236
N1375 G1 Y-0.1654
N1380 G19 G2 Y-0.189 Z0.3012 J0. K0.0236
N1385 G1 Z0.9469
N1390 X0.7933
N1395 Z0.4744 F44.619
N1400 Z0.1624
N1405 G3 Y-0.1654 Z0.1388 J0.0236 K0. F133.858
N1410 G1 Y-0.1417
N1415 G17 G3 X0.7697 Y-0.1181 I-0.0236 J0.
N1420 G1 X0.625
N1425 G2 X-0.1181 Y0.625 I0. J0.7431
N1430 G1 Y6.
N1435 G2 X-0.1165 Y6.0194 I0.1181 J0.
N1440 G1 X0.057 Y7.0605
N1445 G2 X0.4201 Y7.3681 I0.3631 J-0.0605
N1450 G1 X1.0799
N1455 G2 X1.443 Y7.0605 I0. J-0.3681
N1460 G1 X1.6165 Y6.0194
N1465 G2 X1.6181 Y6. I-0.1165 J-0.0194
N1470 G1 Y0.625
N1475 G2 X0.875 Y-0.1181 I-0.7431 J0.
N1480 G1 X0.7697
N1485 G3 X0.746 Y-0.1417 I0. J-0.0236
N1490 G1 Y-0.1654
N1495 G19 G2 Y-0.189 Z0.1624 J0. K0.0236
N1500 G1 Z0.9469
N1505 X0.7933
N1510 Z0.3356 F44.619
N1515 Z0.0236
N1520 G3 Y-0.1654 Z0. J0.0236 K0. F133.858
N1525 G1 Y-0.1417
N1530 G17 G3 X0.7697 Y-0.1181 I-0.0236 J0.
N1535 G1 X0.625
N1540 G2 X-0.1181 Y0.625 I0. J0.7431
N1545 G1 Y1.0999
N1550 Z0.1142
N1555 Y1.7298
N1560 Z0. F44.619
N1565 Y4.1378 F133.858
N1570 Z0.1142
N1575 Y4.7678
N1580 Z0. F44.619
N1585 Y6. F133.858
N1590 G2 X-0.1165 Y6.0194 I0.1181 J0.
N1595 G1 X0.057 Y7.0605
N1600 G2 X0.4201 Y7.3681 I0.3631 J-0.0605
N1605 G1 X1.0799
N1610 G2 X1.443 Y7.0605 I0. J-0.3681
N1615 G1 X1.6165 Y6.0194
N1620 G2 X1.6181 Y6. I-0.1165 J-0.0194
N1625 G1 Y4.9602
N1630 Z0.1142
N1635 Y4.3303
N1640 Z0. F44.619
N1645 Y1.9447 F133.858
N1650 Z0.1142
N1655 Y1.3147
N1660 Z0. F44.619
N1665 Y0.625 F133.858
N1670 G2 X0.875 Y-0.1181 I-0.7431 J0.
N1675 G1 X0.7697
N1680 G3 X0.746 Y-0.1417 I0. J-0.0236
N1685 G1 Y-0.1654
N1690 G19 G2 Y-0.189 Z0.0236 J0. K0.0236
N1695 G1 Z1.3406
N1700 G17
N1705 M9
N1710 G53 G0 Z0.
N1715 M30
%
