%
(BIGCLAMP_25STRAIGHT2FLUTE)
(MACHINE)
(  VENDOR AUTODESK)
(  DESCRIPTION GENERIC 3-AXIS)
(T1  D=6. CR=0. - ZMIN=0. - FLAT END MILL)
N10 G90 G94 G17 G91.1
N15 G21
(WHEN USING FUSION 360 FOR PERSONAL USE, THE FEEDRATE OF)
(RAPID MOVES IS REDUCED TO MATCH THE FEEDRATE OF CUTTING)
(MOVES, WHICH CAN INCREASE MACHINING TIME. UNRESTRICTED RAPID)
(MOVES ARE AVAILABLE WITH A FUSION 360 SUBSCRIPTION.)
N20 G53 G0 Z0.
(2D POCKET1)
N25 T1 M6
N30 S5000 M3
N35 G54
N40 M8
N45 G0 X-2.655 Y182.785
N50 G43 Z32.61 H1
N55 G1 Z22.61 F2500.
N60 Z16.21
N65 G18 G2 X-2.055 Z15.61 I0.6 K0.
N70 G1 X2.917
N75 X35.178
N80 G17 G3 Y185.232 I0. J1.223
N85 G1 X19.14 Y185.235
N90 X19.048 Y185.232
N95 X2.917 Y184.008
N100 G3 X1.899 Y183.301 I0.093 J-1.22
N105 G1 X0.202 Y179.628
N110 G3 X1.312 Y177.892 I1.111 J-0.513
N115 G1 X36.79
N120 G3 Y180.338 I0. J1.223
N125 G1 X19.135 Y180.341
N130 X19.051 Y180.338
N135 X1.312 Y179.115
N140 G3 X0.208 Y178.185 I0.084 J-1.22
N145 G1 X-0.689 Y174.512
N150 G3 X0.5 Y172.998 I1.188 J-0.29
N155 G1 X37.597
N160 G3 Y175.445 I0. J1.223
N165 G1 X19.129 Y175.448
N170 X19.048 Y175.445
N175 X0.5 Y174.222
N180 G3 X-0.609 Y173.29 I0.081 J-1.221
N185 G1 X-1.502 Y169.612
N190 G3 X-0.313 Y168.1 I1.189 J-0.289
N195 G1 X38.42
N200 G3 X38.523 Y168.682 I0. J0.3
N205 G1 X1.591 Y182.203
N210 G2 X1.694 Y182.785 I0.103 J0.282
N215 G18 G3 X2.294 Z15.01 I0. K-0.6
N220 G1 Z14.21
N225 G2 X2.894 Z13.61 I0.6 K0.
N230 G1 X2.917
N235 X35.178
N240 G17 G3 Y185.232 I0. J1.223
N245 G1 X19.14 Y185.235
N250 X19.048 Y185.232
N255 X2.917 Y184.008
N260 G3 X1.899 Y183.301 I0.093 J-1.22
N265 G1 X0.202 Y179.628
N270 G3 X1.312 Y177.892 I1.111 J-0.513
N275 G1 X36.79
N280 G3 Y180.338 I0. J1.223
N285 G1 X19.135 Y180.341
N290 X19.051 Y180.338
N295 X1.312 Y179.115
N300 G3 X0.208 Y178.185 I0.084 J-1.22
N305 G1 X-0.689 Y174.512
N310 G3 X0.5 Y172.998 I1.188 J-0.29
N315 G1 X37.597
N320 G3 Y175.445 I0. J1.223
N325 G1 X19.129 Y175.448
N330 X19.048 Y175.445
N335 X0.5 Y174.222
N340 G3 X-0.609 Y173.29 I0.081 J-1.221
N345 G1 X-1.502 Y169.612
N350 G3 X-0.313 Y168.1 I1.189 J-0.289
N355 G1 X38.42
N360 G3 X38.523 Y168.682 I0. J0.3
N365 G1 X1.591 Y182.203
N370 G2 X1.694 Y182.785 I0.103 J0.282
N375 G18 G3 X2.294 Z13.01 I0. K-0.6
N380 G1 Z12.21
N385 G2 X2.894 Z11.61 I0.6 K0.
N390 G1 X2.917
N395 X35.178
N400 G17 G3 Y185.232 I0. J1.223
N405 G1 X19.14 Y185.235
N410 X19.048 Y185.232
N415 X2.917 Y184.008
N420 G3 X1.899 Y183.301 I0.093 J-1.22
N425 G1 X0.202 Y179.628
N430 G3 X1.312 Y177.892 I1.111 J-0.513
N435 G1 X36.79
N440 G3 Y180.338 I0. J1.223
N445 G1 X19.135 Y180.341
N450 X19.051 Y180.338
N455 X1.312 Y179.115
N460 G3 X0.208 Y178.185 I0.084 J-1.22
N465 G1 X-0.689 Y174.512
N470 G3 X0.5 Y172.998 I1.188 J-0.29
N475 G1 X37.597
N480 G3 Y175.445 I0. J1.223
N485 G1 X19.129 Y175.448
N490 X19.048 Y175.445
N495 X0.5 Y174.222
N500 G3 X-0.609 Y173.29 I0.081 J-1.221
N505 G1 X-1.502 Y169.612
N510 G3 X-0.313 Y168.1 I1.189 J-0.289
N515 G1 X38.42
N520 G3 X38.523 Y168.682 I0. J0.3
N525 G1 X1.591 Y182.203
N530 G2 X1.694 Y182.785 I0.103 J0.282
N535 G18 G3 X2.294 Z11.01 I0. K-0.6
N540 G1 Z10.21
N545 G2 X2.894 Z9.61 I0.6 K0.
N550 G1 X2.917
N555 X35.178
N560 G17 G3 Y185.232 I0. J1.223
N565 G1 X19.14 Y185.235
N570 X19.048 Y185.232
N575 X2.917 Y184.008
N580 G3 X1.899 Y183.301 I0.093 J-1.22
N585 G1 X0.202 Y179.628
N590 G3 X1.312 Y177.892 I1.111 J-0.513
N595 G1 X36.79
N600 G3 Y180.338 I0. J1.223
N605 G1 X19.135 Y180.341
N610 X19.051 Y180.338
N615 X1.312 Y179.115
N620 G3 X0.208 Y178.185 I0.084 J-1.22
N625 G1 X-0.689 Y174.512
N630 G3 X0.5 Y172.998 I1.188 J-0.29
N635 G1 X37.597
N640 G3 Y175.445 I0. J1.223
N645 G1 X19.129 Y175.448
N650 X19.048 Y175.445
N655 X0.5 Y174.222
N660 G3 X-0.609 Y173.29 I0.081 J-1.221
N665 G1 X-1.502 Y169.612
N670 G3 X-0.313 Y168.1 I1.189 J-0.289
N675 G1 X38.42
N680 G3 X38.523 Y168.682 I0. J0.3
N685 G1 X1.631 Y182.203
N690 G2 X1.734 Y182.785 I0.103 J0.282
N695 G18 G3 X2.314 Z9.165 I0. K-0.6
N700 G2 X2.894 Z8.72 I0.58 K0.155
N705 G1 X2.917
N710 X35.178
N715 G17 G3 Y185.232 I0. J1.223
N720 G1 X19.14 Y185.235
N725 X19.048 Y185.232
N730 X2.917 Y184.008
N735 G3 X1.899 Y183.301 I0.093 J-1.22
N740 G1 X0.202 Y179.628
N745 G3 X1.312 Y177.892 I1.111 J-0.513
N750 G1 X36.79
N755 G3 Y180.338 I0. J1.223
N760 G1 X19.135 Y180.341
N765 X19.051 Y180.338
N770 X1.312 Y179.115
N775 G3 X0.208 Y178.185 I0.084 J-1.22
N780 G1 X-0.689 Y174.512
N785 G3 X0.5 Y172.998 I1.188 J-0.29
N790 G1 X37.597
N795 G3 Y175.445 I0. J1.223
N800 G1 X19.129 Y175.448
N805 X19.048 Y175.445
N810 X0.5 Y174.222
N815 G3 X-0.609 Y173.29 I0.081 J-1.221
N820 G1 X-1.502 Y169.612
N825 G3 X-0.313 Y168.1 I1.189 J-0.289
N830 G1 X38.42
N835 X38.514 Y168.107
N840 X41.477 Y168.577
N845 X41.569 Y168.591 Z8.727
N850 X41.66 Y168.606 Z8.749
N855 X41.746 Y168.619 Z8.785
N860 X41.825 Y168.632 Z8.835
N865 X41.896 Y168.643 Z8.896
N870 X41.956 Y168.653 Z8.967
N875 X42.005 Y168.66 Z9.048
N880 X42.04 Y168.666 Z9.135
N885 X42.062 Y168.669 Z9.226
N890 X42.069 Y168.671 Z9.32
N895 Z32.61
N900 M9
(WHEN USING FUSION 360 FOR PERSONAL USE, THE FEEDRATE OF)
(RAPID MOVES IS REDUCED TO MATCH THE FEEDRATE OF CUTTING)
(MOVES, WHICH CAN INCREASE MACHINING TIME. UNRESTRICTED RAPID)
(MOVES ARE AVAILABLE WITH A FUSION 360 SUBSCRIPTION.)
(2D POCKET2)
N905 G0 X19.072 Y19.862
N910 G1 Z32.61 F2500.
N915 Z22.61
N920 Z20.11
N925 Z16.21 F833.33
N930 X19.045 Y19.871 Z16.025
N935 X18.962 Y19.891 Z15.857
N940 X18.896 Y19.898 Z15.791
N945 X18.83 Z15.725
N950 X18.747 Y19.888 Z15.682
N955 X18.666 Y19.866 Z15.639
N960 X18.581 Y19.829 Z15.625
N965 X18.503 Y19.779 Z15.61
N970 G3 X19.597 Y18.321 I0.547 J-0.729 F2500.
N975 X18.503 Y19.779 I-0.547 J0.729
N980 X18.61 Y19.522 I0.086 J-0.115
N985 G1 X19.043 Y19.584
N990 G3 X19.072 Y19.862 I-0.021 J0.142
N995 G1 Z14.21 F833.33
N1000 X19.045 Y19.871 Z14.025
N1005 X18.962 Y19.891 Z13.857
N1010 X18.896 Y19.898 Z13.791
N1015 X18.83 Z13.725
N1020 X18.747 Y19.888 Z13.682
N1025 X18.666 Y19.866 Z13.639
N1030 X18.581 Y19.829 Z13.625
N1035 X18.503 Y19.779 Z13.61
N1040 G3 X19.597 Y18.321 I0.547 J-0.729 F2500.
N1045 X18.503 Y19.779 I-0.547 J0.729
N1050 X18.61 Y19.522 I0.086 J-0.115
N1055 G1 X19.043 Y19.584
N1060 G3 X19.072 Y19.862 I-0.021 J0.142
N1065 G1 Z12.21 F833.33
N1070 X19.045 Y19.871 Z12.025
N1075 X18.962 Y19.891 Z11.857
N1080 X18.896 Y19.898 Z11.791
N1085 X18.83 Z11.725
N1090 X18.747 Y19.888 Z11.682
N1095 X18.666 Y19.866 Z11.639
N1100 X18.581 Y19.829 Z11.625
N1105 X18.503 Y19.779 Z11.61
N1110 G3 X19.597 Y18.321 I0.547 J-0.729 F2500.
N1115 X18.503 Y19.779 I-0.547 J0.729
N1120 X18.61 Y19.522 I0.086 J-0.115
N1125 G1 X19.043 Y19.584
N1130 G3 X19.072 Y19.862 I-0.021 J0.142
N1135 G1 Z10.21 F833.33
N1140 X19.045 Y19.871 Z10.025
N1145 X18.962 Y19.891 Z9.857
N1150 X18.896 Y19.898 Z9.791
N1155 X18.83 Z9.725
N1160 X18.747 Y19.888 Z9.682
N1165 X18.666 Y19.866 Z9.639
N1170 X18.581 Y19.829 Z9.625
N1175 X18.503 Y19.779 Z9.61
N1180 G3 X19.597 Y18.321 I0.547 J-0.729 F2500.
N1185 X18.503 Y19.779 I-0.547 J0.729
N1190 X18.61 Y19.522 I0.086 J-0.115
N1195 G1 X19.043 Y19.584
N1200 G3 X19.072 Y19.862 I-0.021 J0.142
N1205 G1 Z8.21 F833.33
N1210 X19.045 Y19.871 Z8.025
N1215 X18.962 Y19.891 Z7.857
N1220 X18.896 Y19.898 Z7.791
N1225 X18.83 Z7.725
N1230 X18.747 Y19.888 Z7.682
N1235 X18.666 Y19.866 Z7.639
N1240 X18.581 Y19.829 Z7.625
N1245 X18.503 Y19.779 Z7.61
N1250 G3 X19.597 Y18.321 I0.547 J-0.729 F2500.
N1255 X18.503 Y19.779 I-0.547 J0.729
N1260 X18.61 Y19.522 I0.086 J-0.115
N1265 G1 X19.043 Y19.584
N1270 G3 X19.072 Y19.862 I-0.021 J0.142
N1275 G1 Z6.21 F833.33
N1280 X19.045 Y19.871 Z6.025
N1285 X18.962 Y19.891 Z5.857
N1290 X18.896 Y19.898 Z5.791
N1295 X18.83 Z5.725
N1300 X18.747 Y19.888 Z5.682
N1305 X18.666 Y19.866 Z5.639
N1310 X18.581 Y19.829 Z5.625
N1315 X18.503 Y19.779 Z5.61
N1320 G3 X19.597 Y18.321 I0.547 J-0.729 F2500.
N1325 X18.503 Y19.779 I-0.547 J0.729
N1330 X18.61 Y19.522 I0.086 J-0.115
N1335 G1 X19.043 Y19.584
N1340 G3 X19.072 Y19.862 I-0.021 J0.142
N1345 G1 Z4.21 F833.33
N1350 X19.045 Y19.871 Z4.025
N1355 X18.962 Y19.891 Z3.857
N1360 X18.896 Y19.898 Z3.791
N1365 X18.83 Z3.725
N1370 X18.747 Y19.888 Z3.682
N1375 X18.666 Y19.866 Z3.639
N1380 X18.581 Y19.829 Z3.625
N1385 X18.503 Y19.779 Z3.61
N1390 G3 X19.597 Y18.321 I0.547 J-0.729 F2500.
N1395 X18.503 Y19.779 I-0.547 J0.729
N1400 X18.61 Y19.522 I0.086 J-0.115
N1405 G1 X19.043 Y19.584
N1410 G3 X19.072 Y19.862 I-0.021 J0.142
N1415 G1 Z2.21 F833.33
N1420 X19.045 Y19.871 Z2.025
N1425 X18.962 Y19.891 Z1.857
N1430 X18.896 Y19.898 Z1.791
N1435 X18.83 Z1.725
N1440 X18.747 Y19.888 Z1.682
N1445 X18.666 Y19.866 Z1.639
N1450 X18.581 Y19.829 Z1.625
N1455 X18.503 Y19.779 Z1.61
N1460 G3 X19.597 Y18.321 I0.547 J-0.729 F2500.
N1465 X18.503 Y19.779 I-0.547 J0.729
N1470 X18.61 Y19.522 I0.086 J-0.115
N1475 G1 X19.043 Y19.584
N1480 G3 X19.072 Y19.862 I-0.021 J0.142
N1485 G1 Z0.6 F833.33
N1490 X19.045 Y19.871 Z0.415
N1495 X18.962 Y19.891 Z0.247
N1500 X18.896 Y19.898 Z0.181
N1505 X18.83 Z0.115
N1510 X18.747 Y19.888 Z0.072
N1515 X18.666 Y19.866 Z0.029
N1520 X18.581 Y19.829 Z0.015
N1525 X18.503 Y19.779 Z0.
N1530 G3 X19.597 Y18.321 I0.547 J-0.729 F2500.
N1535 X18.503 Y19.779 I-0.547 J0.729
N1540 G1 X18.433 Y19.718 Z0.015
N1545 X18.374 Y19.647 Z0.029
N1550 X18.331 Y19.576 Z0.072
N1555 X18.297 Y19.499 Z0.115
N1560 X18.279 Y19.435 Z0.181
N1565 X18.267 Y19.37 Z0.247
N1570 X18.263 Y19.285 Z0.415
N1575 X18.265 Y19.256 Z0.6
N1580 Z32.61
(WHEN USING FUSION 360 FOR PERSONAL USE, THE FEEDRATE OF)
(RAPID MOVES IS REDUCED TO MATCH THE FEEDRATE OF CUTTING)
(MOVES, WHICH CAN INCREASE MACHINING TIME. UNRESTRICTED RAPID)
(MOVES ARE AVAILABLE WITH A FUSION 360 SUBSCRIPTION.)
(2D POCKET3)
N1585 G0 Z34.61
N1590 X18.672 Y152.4
N1595 G1 Z24.61 F2500.
N1600 Z20.61
N1605 Z15.61 F833.33
N1610 Y38.1 F2500.
N1615 G3 X19.428 I0.378 J0.
N1620 G1 Y152.4
N1625 G3 X18.672 I-0.378 J0.
N1630 G1 Z13.61 F833.33
N1635 Y38.1 F2500.
N1640 G3 X19.428 I0.378 J0.
N1645 G1 Y152.4
N1650 G3 X18.672 I-0.378 J0.
N1655 G1 Z11.61 F833.33
N1660 Y38.1 F2500.
N1665 G3 X19.428 I0.378 J0.
N1670 G1 Y152.4
N1675 G3 X18.672 I-0.378 J0.
N1680 G1 Z9.61 F833.33
N1685 Y38.1 F2500.
N1690 G3 X19.428 I0.378 J0.
N1695 G1 Y152.4
N1700 G3 X18.672 I-0.378 J0.
N1705 G1 Z7.61 F833.33
N1710 Y38.1 F2500.
N1715 G3 X19.428 I0.378 J0.
N1720 G1 Y152.4
N1725 G3 X18.672 I-0.378 J0.
N1730 G1 Z5.61 F833.33
N1735 Y38.1 F2500.
N1740 G3 X19.428 I0.378 J0.
N1745 G1 Y152.4
N1750 G3 X18.672 I-0.378 J0.
N1755 G1 Z3.61 F833.33
N1760 Y38.1 F2500.
N1765 G3 X19.428 I0.378 J0.
N1770 G1 Y152.4
N1775 G3 X18.672 I-0.378 J0.
N1780 G1 Z1.61 F833.33
N1785 Y38.1 F2500.
N1790 G3 X19.428 I0.378 J0.
N1795 G1 Y152.4
N1800 G3 X18.672 I-0.378 J0.
N1805 G1 Z0. F833.33
N1810 Y38.1 F2500.
N1815 G3 X19.428 I0.378 J0.
N1820 G1 Y152.4
N1825 G3 X18.672 I-0.378 J0.
N1830 G19 G2 Y151.8 Z0.6 J0. K0.6
N1835 G1 Z34.61
N1840 G17
(WHEN USING FUSION 360 FOR PERSONAL USE, THE FEEDRATE OF)
(RAPID MOVES IS REDUCED TO MATCH THE FEEDRATE OF CUTTING)
(MOVES, WHICH CAN INCREASE MACHINING TIME. UNRESTRICTED RAPID)
(MOVES ARE AVAILABLE WITH A FUSION 360 SUBSCRIPTION.)
(2D CONTOUR1)
N1845 M8
N1850 G0 X20.149 Y-4.8
N1855 G1 Z32.61 F2500.
N1860 Z22.61
N1865 Z16.21 F833.33
N1870 G19 G3 Y-4.2 Z15.61 J0.6 K0. F2500.
N1875 G1 Y-3.6
N1880 G17 G3 X19.549 Y-3. I-0.6 J0.
N1885 G1 X15.875
N1890 G2 X-3. Y15.875 I0. J18.875
N1895 G1 Y152.4
N1900 G2 X-2.959 Y152.893 I3. J0.
N1905 G1 X1.448 Y179.337
N1910 G2 X10.671 Y187.15 I9.223 J-1.537
N1915 G1 X27.429
N1920 G2 X36.652 Y179.337 I0. J-9.35
N1925 G1 X41.059 Y152.893
N1930 G2 X41.1 Y152.4 I-2.959 J-0.493
N1935 G1 Y15.875
N1940 G2 X22.225 Y-3. I-18.875 J0.
N1945 G1 X19.549
N1950 G3 X18.949 Y-3.6 I0. J-0.6
N1955 G1 Y-4.2
N1960 G19 G2 Y-4.8 Z16.21 J0. K0.6
N1965 G1 Z22.61
N1970 X20.149
N1975 Z20.61 F833.33
N1980 Z14.21
N1985 G3 Y-4.2 Z13.61 J0.6 K0. F2500.
N1990 G1 Y-3.6
N1995 G17 G3 X19.549 Y-3. I-0.6 J0.
N2000 G1 X15.875
N2005 G2 X-3. Y15.875 I0. J18.875
N2010 G1 Y152.4
N2015 G2 X-2.959 Y152.893 I3. J0.
N2020 G1 X1.448 Y179.337
N2025 G2 X10.671 Y187.15 I9.223 J-1.537
N2030 G1 X27.429
N2035 G2 X36.652 Y179.337 I0. J-9.35
N2040 G1 X41.059 Y152.893
N2045 G2 X41.1 Y152.4 I-2.959 J-0.493
N2050 G1 Y15.875
N2055 G2 X22.225 Y-3. I-18.875 J0.
N2060 G1 X19.549
N2065 G3 X18.949 Y-3.6 I0. J-0.6
N2070 G1 Y-4.2
N2075 G19 G2 Y-4.8 Z14.21 J0. K0.6
N2080 G1 Z22.61
N2085 X20.149
N2090 Z18.61 F833.33
N2095 Z12.21
N2100 G3 Y-4.2 Z11.61 J0.6 K0. F2500.
N2105 G1 Y-3.6
N2110 G17 G3 X19.549 Y-3. I-0.6 J0.
N2115 G1 X15.875
N2120 G2 X-3. Y15.875 I0. J18.875
N2125 G1 Y152.4
N2130 G2 X-2.959 Y152.893 I3. J0.
N2135 G1 X1.448 Y179.337
N2140 G2 X10.671 Y187.15 I9.223 J-1.537
N2145 G1 X27.429
N2150 G2 X36.652 Y179.337 I0. J-9.35
N2155 G1 X41.059 Y152.893
N2160 G2 X41.1 Y152.4 I-2.959 J-0.493
N2165 G1 Y15.875
N2170 G2 X22.225 Y-3. I-18.875 J0.
N2175 G1 X19.549
N2180 G3 X18.949 Y-3.6 I0. J-0.6
N2185 G1 Y-4.2
N2190 G19 G2 Y-4.8 Z12.21 J0. K0.6
N2195 G1 Z22.61
N2200 X20.149
N2205 Z16.61 F833.33
N2210 Z10.21
N2215 G3 Y-4.2 Z9.61 J0.6 K0. F2500.
N2220 G1 Y-3.6
N2225 G17 G3 X19.549 Y-3. I-0.6 J0.
N2230 G1 X15.875
N2235 G2 X-3. Y15.875 I0. J18.875
N2240 G1 Y152.4
N2245 G2 X-2.959 Y152.893 I3. J0.
N2250 G1 X1.448 Y179.337
N2255 G2 X10.671 Y187.15 I9.223 J-1.537
N2260 G1 X27.429
N2265 G2 X36.652 Y179.337 I0. J-9.35
N2270 G1 X41.059 Y152.893
N2275 G2 X41.1 Y152.4 I-2.959 J-0.493
N2280 G1 Y15.875
N2285 G2 X22.225 Y-3. I-18.875 J0.
N2290 G1 X19.549
N2295 G3 X18.949 Y-3.6 I0. J-0.6
N2300 G1 Y-4.2
N2305 G19 G2 Y-4.8 Z10.21 J0. K0.6
N2310 G1 Z22.61
N2315 X20.149
N2320 Z14.61 F833.33
N2325 Z8.21
N2330 G3 Y-4.2 Z7.61 J0.6 K0. F2500.
N2335 G1 Y-3.6
N2340 G17 G3 X19.549 Y-3. I-0.6 J0.
N2345 G1 X15.875
N2350 G2 X-3. Y15.875 I0. J18.875
N2355 G1 Y152.4
N2360 G2 X-2.959 Y152.893 I3. J0.
N2365 G1 X1.448 Y179.337
N2370 G2 X10.671 Y187.15 I9.223 J-1.537
N2375 G1 X27.429
N2380 G2 X36.652 Y179.337 I0. J-9.35
N2385 G1 X41.059 Y152.893
N2390 G2 X41.1 Y152.4 I-2.959 J-0.493
N2395 G1 Y15.875
N2400 G2 X22.225 Y-3. I-18.875 J0.
N2405 G1 X19.549
N2410 G3 X18.949 Y-3.6 I0. J-0.6
N2415 G1 Y-4.2
N2420 G19 G2 Y-4.8 Z8.21 J0. K0.6
N2425 G1 Z22.61
N2430 X20.149
N2435 Z12.61 F833.33
N2440 Z6.21
N2445 G3 Y-4.2 Z5.61 J0.6 K0. F2500.
N2450 G1 Y-3.6
N2455 G17 G3 X19.549 Y-3. I-0.6 J0.
N2460 G1 X15.875
N2465 G2 X-3. Y15.875 I0. J18.875
N2470 G1 Y152.4
N2475 G2 X-2.959 Y152.893 I3. J0.
N2480 G1 X1.448 Y179.337
N2485 G2 X10.671 Y187.15 I9.223 J-1.537
N2490 G1 X27.429
N2495 G2 X36.652 Y179.337 I0. J-9.35
N2500 G1 X41.059 Y152.893
N2505 G2 X41.1 Y152.4 I-2.959 J-0.493
N2510 G1 Y15.875
N2515 G2 X22.225 Y-3. I-18.875 J0.
N2520 G1 X19.549
N2525 G3 X18.949 Y-3.6 I0. J-0.6
N2530 G1 Y-4.2
N2535 G19 G2 Y-4.8 Z6.21 J0. K0.6
N2540 G1 Z22.61
N2545 X20.149
N2550 Z10.61 F833.33
N2555 Z4.21
N2560 G3 Y-4.2 Z3.61 J0.6 K0. F2500.
N2565 G1 Y-3.6
N2570 G17 G3 X19.549 Y-3. I-0.6 J0.
N2575 G1 X15.875
N2580 G2 X-3. Y15.875 I0. J18.875
N2585 G1 Y152.4
N2590 G2 X-2.959 Y152.893 I3. J0.
N2595 G1 X1.448 Y179.337
N2600 G2 X10.671 Y187.15 I9.223 J-1.537
N2605 G1 X27.429
N2610 G2 X36.652 Y179.337 I0. J-9.35
N2615 G1 X41.059 Y152.893
N2620 G2 X41.1 Y152.4 I-2.959 J-0.493
N2625 G1 Y15.875
N2630 G2 X22.225 Y-3. I-18.875 J0.
N2635 G1 X19.549
N2640 G3 X18.949 Y-3.6 I0. J-0.6
N2645 G1 Y-4.2
N2650 G19 G2 Y-4.8 Z4.21 J0. K0.6
N2655 G1 Z22.61
N2660 X20.149
N2665 Z8.61 F833.33
N2670 Z2.21
N2675 G3 Y-4.2 Z1.61 J0.6 K0. F2500.
N2680 G1 Y-3.6
N2685 G17 G3 X19.549 Y-3. I-0.6 J0.
N2690 G1 X15.875
N2695 G2 X-3. Y15.875 I0. J18.875
N2700 G1 Y27.937
N2705 Z2.9
N2710 Y43.937
N2715 Z1.61 F833.33
N2720 Y105.101 F2500.
N2725 Z2.9
N2730 Y121.101
N2735 Z1.61 F833.33
N2740 Y152.4 F2500.
N2745 G2 X-2.959 Y152.893 I3. J0.
N2750 G1 X1.448 Y179.337
N2755 G2 X10.671 Y187.15 I9.223 J-1.537
N2760 G1 X27.429
N2765 G2 X36.652 Y179.337 I0. J-9.35
N2770 G1 X41.059 Y152.893
N2775 G2 X41.1 Y152.4 I-2.959 J-0.493
N2780 G1 Y125.99
N2785 Z2.9
N2790 Y109.99
N2795 Z1.61 F833.33
N2800 Y49.395 F2500.
N2805 Z2.9
N2810 Y33.395
N2815 Z1.61 F833.33
N2820 Y15.875 F2500.
N2825 G2 X22.225 Y-3. I-18.875 J0.
N2830 G1 X19.549
N2835 G3 X18.949 Y-3.6 I0. J-0.6
N2840 G1 Y-4.2
N2845 G19 G2 Y-4.8 Z2.21 J0. K0.6
N2850 G1 Z22.61
N2855 X20.149
N2860 Z6.61 F833.33
N2865 Z0.6
N2870 G3 Y-4.2 Z0. J0.6 K0. F2500.
N2875 G1 Y-3.6
N2880 G17 G3 X19.549 Y-3. I-0.6 J0.
N2885 G1 X15.875
N2890 G2 X-3. Y15.875 I0. J18.875
N2895 G1 Y27.937
N2900 Z2.9
N2905 Y43.937
N2910 Z0. F833.33
N2915 Y105.101 F2500.
N2920 Z2.9
N2925 Y121.101
N2930 Z0. F833.33
N2935 Y152.4 F2500.
N2940 G2 X-2.959 Y152.893 I3. J0.
N2945 G1 X1.448 Y179.337
N2950 G2 X10.671 Y187.15 I9.223 J-1.537
N2955 G1 X27.429
N2960 G2 X36.652 Y179.337 I0. J-9.35
N2965 G1 X41.059 Y152.893
N2970 G2 X41.1 Y152.4 I-2.959 J-0.493
N2975 G1 Y125.99
N2980 Z2.9
N2985 Y109.99
N2990 Z0. F833.33
N2995 Y49.395 F2500.
N3000 Z2.9
N3005 Y33.395
N3010 Z0. F833.33
N3015 Y15.875 F2500.
N3020 G2 X22.225 Y-3. I-18.875 J0.
N3025 G1 X19.549
N3030 G3 X18.949 Y-3.6 I0. J-0.6
N3035 G1 Y-4.2
N3040 G19 G2 Y-4.8 Z0.6 J0. K0.6
N3045 G1 Z32.61
N3050 G17
N3055 M9
N3060 G53 G0 Z0.
N3065 M30
%
