%
(BLOODGROOVE)
(T1  D=12.7 CR=6.35 - ZMIN=34.4 - BALL END MILL)
N10 G90 G94 G17 G91.1
N15 G21
(WHEN USING FUSION 360 FOR PERSONAL USE, THE FEEDRATE OF)
(RAPID MOVES IS REDUCED TO MATCH THE FEEDRATE OF CUTTING)
(MOVES, WHICH CAN INCREASE MACHINING TIME. UNRESTRICTED RAPID)
(MOVES ARE AVAILABLE WITH A FUSION 360 SUBSCRIPTION.)
N20 G53 G0 Z0.
(2D CONTOUR1)
N25 T1 M6
N30 S10000 M3
N35 G54
N40 G0 X278.863 Y274.6
N45 G43 Z54.4 H1
N50 G1 Z44.4 F1800.
N55 Z42.4 F333.33
N60 Z41.9
N65 S5000
N70 X150. Z37.4
N75 S10000
N80 X38.1 F1800.
N85 G3 X25.4 Y261.9 I0. J-12.7
N90 G1 Y38.1
N95 G3 X38.1 Y25.4 I12.7 J0.
N100 G1 X341.9
N105 G3 X354.6 Y38.1 I0. J12.7
N110 G1 Y261.9
N115 G3 X341.9 Y274.6 I-12.7 J0.
N120 G1 X150.
N125 S5000
N130 X38.1 Z35.522 F333.33
N135 G3 X31.229 Y272.581 Z35.4 I0. J-12.7
N140 S10000
N145 X25.4 Y261.9 I6.871 J-10.681 F1800.
N150 G1 Y38.1
N155 G3 X38.1 Y25.4 I12.7 J0.
N160 G1 X341.9
N165 G3 X354.6 Y38.1 I0. J12.7
N170 G1 Y261.9
N175 G3 X341.9 Y274.6 I-12.7 J0.
N180 G1 X150.
N185 X38.1
N190 G3 X31.229 Y272.581 I0. J-12.7
N195 S5000
N200 X25.4 Y261.9 Z35.187 I6.871 J-10.681 F333.33
N205 G1 Y215.01 Z34.4
N210 S10000
N215 Y38.1 F1800.
N220 G3 X38.1 Y25.4 I12.7 J0.
N225 G1 X341.9
N230 G3 X354.6 Y38.1 I0. J12.7
N235 G1 Y261.9
N240 G3 X341.9 Y274.6 I-12.7 J0.
N245 G1 X38.1
N250 G3 X25.4 Y261.9 I0. J-12.7
N255 G1 Y215.01
N260 Z54.4
N265 G53 G0 Z0.
N270 M30
%
