%
(FLATTEN BOARD)
(T1  D=22.225 CR=0. - ZMIN=-0.325 - FACE MILL)
#<XMax>= 400 (a little short to avoid boundary over errors)
#<YMax>= 330 

(MJT need to automate this or add looping)


N10 G90 G94 G17 G91.1
N15 G21

N20 G53 G0 Z0.
(FACE2)
N25 T1 M6
N30 S9000 M3
N35 G54
N40 M8
N45 G0 X0 Y0 Z2

N56 G1 Z-0.325  F3000.
N60 
N65 G18 G1 X[#<XMax>] Z-0.325 
N66 G1 Y25

N75 X0.
N80 G17 G1 Y30.28 
N85 G1 X[#<XMax>]
N90 G1 Y50.871
N95 G1 X0.
N100 G1 Y71.462
N105 G1 X[#<XMax>]
N110 G1 Y92.053
N115 G1 X0.
N120 G1 Y112.643
N125 G1 X[#<XMax>]
N130 G1 Y133.234
N135 G1 X0.
N140 G1 Y153.825
N145 G1 X[#<XMax>]
N150 G1 Y174.416 
N155 G1 X0.
N160 G1 Y195.007
N165 G1 X[#<XMax>]
N170 G1 Y215.597
N175 G1 X0.
N180 G1 Y236.188 
N185 G1 X[#<XMax>]
N190 G1 Y256.779 
N195 G1 X0.
N200 G1 Y277.37 
N205 G1 X[#<XMax>]
N210 G1 Y297.961 
N215 G1 X0.
N220 G1 Y318.552 
N225 G1 X[#<XMax>]
N230 G1 Y339.142 


N365 G1 Z15.
N370 G17
N375 M9
N380  G0 Z5 X0 Y0 
N385 M30
%
