%
(FLATTEN BOARD fine)
(T1  D=22.225 CR=0. - ZMIN=-0.325 - FACE MILL)
#<XMax>= 400 (a little short to avoid boundary over errors)
#<YMax>= 330 

(MJT need to automate this or add looping)


N10 G90 G94 G17 G91.1
N15 G21

N20 G53 G0 Z0.
(FACE2)
N25 T1 M6
N30 S16000 M3
N35 G54
N40 M8
N45 G0 X0 Y0 Z2

N56 G1 Z-0.2  F3500.
N60 

N61 G18 G1 X[#<XMax>] Z-0.2 
N62 G1 X0

N63 G1 Y10
N64 G1 X[#<XMax>]
N66 G1 Y20
N68 G1 X0
N69 G1 Y30
N70 G1 X[#<XMax>]
G1 Y40
G1 X0
G1 Y50
G1 X[#<XMax>]
G1 Y60
G1 X0
G1 Y70
G1 X[#<XMax>]
G1 Y80
G1 X0
G1 Y90
G1 X[#<XMax>]
G1 Y100
G1 X0
G1 Y110
G1 X[#<XMax>]
G1 Y120
G1 X0
G1 Y130
G1 X[#<XMax>]
G1 Y140
G1 X0
G1 Y150
G1 X[#<XMax>]
G1 Y160
G1 X0
G1 Y170
G1 X[#<XMax>]
G1 Y180
G1 X0
G1 Y190
G1 X[#<XMax>]
G1 Y200
G1 X0
G1 Y210
G1 X[#<XMax>]
G1 Y220
G1 X0
G1 Y230
G1 X[#<XMax>]
G1 Y240
G1 X0
G1 Y250
G1 X[#<XMax>]
G1 Y260
G1 X0
G1 Y270
G1 x[#<XMax>]
G1 Y280
G1 X0
G1 Y290
G1 X[#<XMax>]
G1 Y300
G1 X0
G1 Y310
G1 X[#<XMax>]
G1 Y320
G1 X0
G1 Y330
G1 X[#<XMax>]



N365 G1 Z15.
N370 G17
N375 M9
N380  G0 Z5 X0 Y0 
N385 M30
%
