%
(CATCHALL_1_4_FLAT_FIRST)
(T1  D=6.35 CR=0. - ZMIN=0. - FLAT END MILL)
N10 G90 G94 G17 G91.1
N15 G21
(WHEN USING FUSION 360 FOR PERSONAL USE, THE FEEDRATE OF)
(RAPID MOVES IS REDUCED TO MATCH THE FEEDRATE OF CUTTING)
(MOVES, WHICH CAN INCREASE MACHINING TIME. UNRESTRICTED RAPID)
(MOVES ARE AVAILABLE WITH A FUSION 360 SUBSCRIPTION.)
N20 G53 G0 Z0.
(2D POCKET2)
N25 T1 M6
N30 S10000 M3
N35 G54
N40 G0 X97.028 Y96.829
N45 G43 Z34.05 H1
N50 G1 Z24.05 F2500.
N55 Z13.685 F833.33
N60 X97.045 Y96.803 Z13.489
N65 X97.103 Y96.734 Z13.312
N70 X97.154 Y96.686 Z13.242
N75 X97.21 Y96.643 Z13.171
N80 X97.287 Y96.6 Z13.126
N85 X97.369 Y96.567 Z13.081
N90 X97.464 Y96.544 Z13.066
N95 X97.562 Y96.537 Z13.05
N100 X98.416 F2500.
N105 G3 X98.735 Y96.856 I0. J0.319
N110 G1 Y102.628
N115 G3 X98.416 Y102.947 I-0.319 J0.
N120 G1 X96.708
N125 G3 X96.389 Y102.628 I0. J-0.319
N130 G1 Y96.856
N135 G3 X96.708 Y96.537 I0.319 J0.
N140 G1 X97.562
N145 G2 X99.254 Y95.579 I0. J-1.974
N150 G3 X101.127 Y96.099 I0.865 J0.519
N155 G1 Y105.02
N160 G3 X100.808 Y105.339 I-0.319 J0.
N165 G1 X94.316
N170 G3 X93.997 Y105.02 I0. J-0.319
N175 G1 Y94.464
N180 G3 X94.316 Y94.145 I0.319 J0.
N185 G1 X100.808
N190 G3 X101.127 Y94.464 I0. J0.319
N195 G1 Y96.099
N200 G2 X103.72 Y99.987 I4.212 J0.
N205 G3 X106.312 Y103.876 I-1.62 J3.888
N210 G1 Y110.205
N215 G3 X105.993 Y110.524 I-0.319 J0.
N220 G1 X89.132
N225 G3 X88.812 Y110.205 I0. J-0.319
N230 G1 Y89.28
N235 G3 X89.132 Y88.96 I0.319 J0.
N240 G1 X105.993
N245 G3 X106.312 Y89.28 I0. J0.319
N250 G1 Y103.876
N255 G2 X108.904 Y107.764 I4.212 J0.
N260 G3 X111.496 Y111.652 I-1.62 J3.888
N265 G1 Y115.389
N270 G3 X111.177 Y115.708 I-0.319 J0.
N275 G1 X83.947
N280 G3 X83.628 Y115.389 I0. J-0.319
N285 G1 Y84.095
N290 G3 X83.947 Y83.776 I0.319 J0.
N295 G1 X111.177
N300 G3 X111.496 Y84.095 I0. J0.319
N305 G1 Y111.652
N310 G2 X114.089 Y115.541 I4.212 J0.
N315 G3 X116.681 Y119.429 I-1.62 J3.888
N320 G1 Y120.574
N325 G3 X116.362 Y120.893 I-0.319 J0.
N330 G1 X78.762
N335 G3 X78.443 Y120.574 I0. J-0.319
N340 G1 Y78.91
N345 G3 X78.762 Y78.591 I0.319 J0.
N350 G1 X116.362
N355 G3 X116.681 Y78.91 I0. J0.319
N360 G1 Y119.429
N365 G2 X118.721 Y122.479 I3.299 J0.
N370 G3 X118.008 Y126.078 I-0.714 J1.729
N375 G1 X73.578
N380 G3 X73.258 Y125.758 I0. J-0.319
N385 G1 Y73.726
N390 G3 X73.578 Y73.406 I0.319 J0.
N395 G1 X121.546
N400 G3 X121.866 Y73.726 I0. J0.319
N405 G1 Y125.758
N410 G3 X121.546 Y126.078 I-0.319 J0.
N415 G1 X118.008
N420 G2 X114.119 Y128.67 I0. J4.212
N425 G3 X110.231 Y131.262 I-3.888 J-1.62
N430 G1 X68.393
N435 G3 X68.074 Y130.943 I0. J-0.319
N440 G1 Y68.541
N445 G3 X68.393 Y68.222 I0.319 J0.
N450 G1 X126.731
N455 G3 X127.05 Y68.541 I0. J0.319
N460 G1 Y130.943
N465 G3 X126.731 Y131.262 I-0.319 J0.
N470 G1 X110.231
N475 G2 X106.342 Y133.854 I0. J4.212
N480 G3 X102.454 Y136.447 I-3.888 J-1.62
N485 G1 X63.209
N490 G3 X62.889 Y136.127 I0. J-0.319
N495 G1 Y63.357
N500 G3 X63.209 Y63.037 I0.319 J0.
N505 G1 X131.915
N510 G3 X132.235 Y63.357 I0. J0.319
N515 G1 Y136.127
N520 G3 X131.915 Y136.447 I-0.319 J0.
N525 G1 X102.454
N530 G2 X98.566 Y139.039 I0. J4.212
N535 G3 X94.677 Y141.631 I-3.888 J-1.62
N540 G1 X58.024
N545 G3 X57.705 Y141.312 I0. J-0.319
N550 G1 Y58.172
N555 G3 X58.024 Y57.853 I0.319 J0.
N560 G1 X137.1
N565 G3 X137.419 Y58.172 I0. J0.319
N570 G1 Y141.312
N575 G3 X137.1 Y141.631 I-0.319 J0.
N580 G1 X94.677
N585 G2 X90.789 Y144.224 I0. J4.212
N590 G3 X86.9 Y146.816 I-3.888 J-1.62
N595 G1 X52.84
N600 G3 X52.52 Y146.497 I0. J-0.319
N605 G1 Y52.988
N610 G3 X52.84 Y52.668 I0.319 J0.
N615 G1 X142.285
N620 G3 X142.604 Y52.988 I0. J0.319
N625 G1 Y146.497
N630 G3 X142.285 Y146.816 I-0.319 J0.
N635 G1 X86.9
N640 G2 X83.012 Y149.408 I0. J4.212
N645 G3 X79.123 Y152. I-3.888 J-1.62
N650 G1 X47.655
N655 G3 X47.336 Y151.681 I0. J-0.319
N660 G1 Y47.803
N665 G3 X47.655 Y47.484 I0.319 J0.
N670 G1 X147.469
N675 G3 X147.788 Y47.803 I0. J0.319
N680 G1 Y151.681
N685 G3 X147.469 Y152. I-0.319 J0.
N690 G1 X79.123
N695 G2 X75.235 Y154.593 I0. J4.212
N700 G3 X71.347 Y157.185 I-3.888 J-1.62
N705 G1 X42.47
N710 G3 X42.151 Y156.866 I0. J-0.319
N715 G1 Y42.618
N720 G3 X42.47 Y42.299 I0.319 J0.
N725 G1 X152.654
N730 G3 X152.973 Y42.618 I0. J0.319
N735 G1 Y156.866
N740 G3 X152.654 Y157.185 I-0.319 J0.
N745 G1 X71.347
N750 G2 X67.458 Y159.777 I0. J4.212
N755 G3 X63.57 Y162.37 I-3.888 J-1.62
N760 G1 X37.286
N765 G3 X36.966 Y162.05 I0. J-0.319
N770 G1 Y37.434
N775 G3 X37.286 Y37.114 I0.319 J0.
N780 G1 X157.838
N785 G3 X158.158 Y37.434 I0. J0.319
N790 G1 Y162.05
N795 G3 X157.838 Y162.37 I-0.319 J0.
N800 G1 X63.57
N805 G2 X59.681 Y164.962 I0. J4.212
N810 G3 X55.793 Y167.554 I-3.888 J-1.62
N815 G1 X32.101
N820 G3 X31.782 Y167.235 I0. J-0.319
N825 G1 Y32.249
N830 G3 X32.101 Y31.93 I0.319 J0.
N835 G1 X163.023
N840 G3 X163.342 Y32.249 I0. J0.319
N845 G1 Y167.235
N850 G3 X163.023 Y167.554 I-0.319 J0.
N855 G1 X55.793
N860 G2 X51.883 Y170.161 I0. J4.235
N865 G3 X47.974 Y172.767 I-3.91 J-1.629
N870 G1 X29.744
N875 G3 X26.569 Y169.592 I0. J-3.175
N880 G1 Y29.892
N885 G3 X29.744 Y26.717 I3.175 J0.
N890 G1 X165.38
N895 G3 X168.555 Y29.892 I0. J3.175
N900 G1 Y169.592
N905 G3 X165.38 Y172.767 I-3.175 J0.
N910 G1 X47.974
N915 X47.876 Y172.759 Z13.066
N920 X47.781 Y172.737 Z13.081
N925 X47.698 Y172.704 Z13.126
N930 X47.621 Y172.66 Z13.171
N935 X47.565 Y172.618 Z13.242
N940 X47.514 Y172.57 Z13.312
N945 X47.457 Y172.501 Z13.489
N950 X47.439 Y172.475 Z13.685
N955 Z24.05
N960 X97.028 Y96.829
N965 Z18.05 F833.33
N970 Z10.335
N975 X97.045 Y96.803 Z10.139
N980 X97.103 Y96.734 Z9.962
N985 X97.154 Y96.686 Z9.892
N990 X97.21 Y96.643 Z9.821
N995 X97.287 Y96.6 Z9.776
N1000 X97.369 Y96.567 Z9.731
N1005 X97.464 Y96.544 Z9.716
N1010 X97.562 Y96.537 Z9.7
N1015 X98.416 F2500.
N1020 G3 X98.735 Y96.856 I0. J0.319
N1025 G1 Y102.628
N1030 G3 X98.416 Y102.947 I-0.319 J0.
N1035 G1 X96.708
N1040 G3 X96.389 Y102.628 I0. J-0.319
N1045 G1 Y96.856
N1050 G3 X96.708 Y96.537 I0.319 J0.
N1055 G1 X97.562
N1060 G2 X99.254 Y95.579 I0. J-1.974
N1065 G3 X101.127 Y96.099 I0.865 J0.519
N1070 G1 Y105.02
N1075 G3 X100.808 Y105.339 I-0.319 J0.
N1080 G1 X94.316
N1085 G3 X93.997 Y105.02 I0. J-0.319
N1090 G1 Y94.464
N1095 G3 X94.316 Y94.145 I0.319 J0.
N1100 G1 X100.808
N1105 G3 X101.127 Y94.464 I0. J0.319
N1110 G1 Y96.099
N1115 G2 X103.72 Y99.987 I4.212 J0.
N1120 G3 X106.312 Y103.876 I-1.62 J3.888
N1125 G1 Y110.205
N1130 G3 X105.993 Y110.524 I-0.319 J0.
N1135 G1 X89.132
N1140 G3 X88.812 Y110.205 I0. J-0.319
N1145 G1 Y89.28
N1150 G3 X89.132 Y88.96 I0.319 J0.
N1155 G1 X105.993
N1160 G3 X106.312 Y89.28 I0. J0.319
N1165 G1 Y103.876
N1170 G2 X108.904 Y107.764 I4.212 J0.
N1175 G3 X111.496 Y111.652 I-1.62 J3.888
N1180 G1 Y115.389
N1185 G3 X111.177 Y115.708 I-0.319 J0.
N1190 G1 X83.947
N1195 G3 X83.628 Y115.389 I0. J-0.319
N1200 G1 Y84.095
N1205 G3 X83.947 Y83.776 I0.319 J0.
N1210 G1 X111.177
N1215 G3 X111.496 Y84.095 I0. J0.319
N1220 G1 Y111.652
N1225 G2 X114.089 Y115.541 I4.212 J0.
N1230 G3 X116.681 Y119.429 I-1.62 J3.888
N1235 G1 Y120.574
N1240 G3 X116.362 Y120.893 I-0.319 J0.
N1245 G1 X78.762
N1250 G3 X78.443 Y120.574 I0. J-0.319
N1255 G1 Y78.91
N1260 G3 X78.762 Y78.591 I0.319 J0.
N1265 G1 X116.362
N1270 G3 X116.681 Y78.91 I0. J0.319
N1275 G1 Y119.429
N1280 G2 X118.721 Y122.479 I3.299 J0.
N1285 G3 X118.008 Y126.078 I-0.714 J1.729
N1290 G1 X73.578
N1295 G3 X73.258 Y125.758 I0. J-0.319
N1300 G1 Y73.726
N1305 G3 X73.578 Y73.406 I0.319 J0.
N1310 G1 X121.546
N1315 G3 X121.866 Y73.726 I0. J0.319
N1320 G1 Y125.758
N1325 G3 X121.546 Y126.078 I-0.319 J0.
N1330 G1 X118.008
N1335 G2 X114.119 Y128.67 I0. J4.212
N1340 G3 X110.231 Y131.262 I-3.888 J-1.62
N1345 G1 X68.393
N1350 G3 X68.074 Y130.943 I0. J-0.319
N1355 G1 Y68.541
N1360 G3 X68.393 Y68.222 I0.319 J0.
N1365 G1 X126.731
N1370 G3 X127.05 Y68.541 I0. J0.319
N1375 G1 Y130.943
N1380 G3 X126.731 Y131.262 I-0.319 J0.
N1385 G1 X110.231
N1390 G2 X106.342 Y133.854 I0. J4.212
N1395 G3 X102.454 Y136.447 I-3.888 J-1.62
N1400 G1 X63.209
N1405 G3 X62.889 Y136.127 I0. J-0.319
N1410 G1 Y63.357
N1415 G3 X63.209 Y63.037 I0.319 J0.
N1420 G1 X131.915
N1425 G3 X132.235 Y63.357 I0. J0.319
N1430 G1 Y136.127
N1435 G3 X131.915 Y136.447 I-0.319 J0.
N1440 G1 X102.454
N1445 G2 X98.566 Y139.039 I0. J4.212
N1450 G3 X94.677 Y141.631 I-3.888 J-1.62
N1455 G1 X58.024
N1460 G3 X57.705 Y141.312 I0. J-0.319
N1465 G1 Y58.172
N1470 G3 X58.024 Y57.853 I0.319 J0.
N1475 G1 X137.1
N1480 G3 X137.419 Y58.172 I0. J0.319
N1485 G1 Y141.312
N1490 G3 X137.1 Y141.631 I-0.319 J0.
N1495 G1 X94.677
N1500 G2 X90.789 Y144.224 I0. J4.212
N1505 G3 X86.9 Y146.816 I-3.888 J-1.62
N1510 G1 X52.84
N1515 G3 X52.52 Y146.497 I0. J-0.319
N1520 G1 Y52.988
N1525 G3 X52.84 Y52.668 I0.319 J0.
N1530 G1 X142.285
N1535 G3 X142.604 Y52.988 I0. J0.319
N1540 G1 Y146.497
N1545 G3 X142.285 Y146.816 I-0.319 J0.
N1550 G1 X86.9
N1555 G2 X83.012 Y149.408 I0. J4.212
N1560 G3 X79.123 Y152. I-3.888 J-1.62
N1565 G1 X47.655
N1570 G3 X47.336 Y151.681 I0. J-0.319
N1575 G1 Y47.803
N1580 G3 X47.655 Y47.484 I0.319 J0.
N1585 G1 X147.469
N1590 G3 X147.788 Y47.803 I0. J0.319
N1595 G1 Y151.681
N1600 G3 X147.469 Y152. I-0.319 J0.
N1605 G1 X79.123
N1610 G2 X75.235 Y154.593 I0. J4.212
N1615 G3 X71.347 Y157.185 I-3.888 J-1.62
N1620 G1 X42.47
N1625 G3 X42.151 Y156.866 I0. J-0.319
N1630 G1 Y42.618
N1635 G3 X42.47 Y42.299 I0.319 J0.
N1640 G1 X152.654
N1645 G3 X152.973 Y42.618 I0. J0.319
N1650 G1 Y156.866
N1655 G3 X152.654 Y157.185 I-0.319 J0.
N1660 G1 X71.347
N1665 G2 X67.458 Y159.777 I0. J4.212
N1670 G3 X63.57 Y162.37 I-3.888 J-1.62
N1675 G1 X37.286
N1680 G3 X36.966 Y162.05 I0. J-0.319
N1685 G1 Y37.434
N1690 G3 X37.286 Y37.114 I0.319 J0.
N1695 G1 X157.838
N1700 G3 X158.158 Y37.434 I0. J0.319
N1705 G1 Y162.05
N1710 G3 X157.838 Y162.37 I-0.319 J0.
N1715 G1 X63.57
N1720 G2 X59.681 Y164.962 I0. J4.212
N1725 G3 X55.793 Y167.554 I-3.888 J-1.62
N1730 G1 X32.101
N1735 G3 X31.782 Y167.235 I0. J-0.319
N1740 G1 Y32.249
N1745 G3 X32.101 Y31.93 I0.319 J0.
N1750 G1 X163.023
N1755 G3 X163.342 Y32.249 I0. J0.319
N1760 G1 Y167.235
N1765 G3 X163.023 Y167.554 I-0.319 J0.
N1770 G1 X55.793
N1775 G2 X51.883 Y170.161 I0. J4.235
N1780 G3 X47.974 Y172.767 I-3.91 J-1.629
N1785 G1 X29.744
N1790 G3 X26.569 Y169.592 I0. J-3.175
N1795 G1 Y29.892
N1800 G3 X29.744 Y26.717 I3.175 J0.
N1805 G1 X165.38
N1810 G3 X168.555 Y29.892 I0. J3.175
N1815 G1 Y169.592
N1820 G3 X165.38 Y172.767 I-3.175 J0.
N1825 G1 X47.974
N1830 X47.876 Y172.759 Z9.716
N1835 X47.781 Y172.737 Z9.731
N1840 X47.698 Y172.704 Z9.776
N1845 X47.621 Y172.66 Z9.821
N1850 X47.565 Y172.618 Z9.892
N1855 X47.514 Y172.57 Z9.962
N1860 X47.457 Y172.501 Z10.139
N1865 X47.439 Y172.475 Z10.335
N1870 Z24.05
N1875 X97.028 Y96.829
N1880 Z14.7 F833.33
N1885 Z6.985
N1890 X97.045 Y96.803 Z6.789
N1895 X97.103 Y96.734 Z6.612
N1900 X97.154 Y96.686 Z6.542
N1905 X97.21 Y96.643 Z6.471
N1910 X97.287 Y96.6 Z6.426
N1915 X97.369 Y96.567 Z6.381
N1920 X97.464 Y96.544 Z6.366
N1925 X97.562 Y96.537 Z6.35
N1930 X98.416 F2500.
N1935 G3 X98.735 Y96.856 I0. J0.319
N1940 G1 Y102.628
N1945 G3 X98.416 Y102.947 I-0.319 J0.
N1950 G1 X96.708
N1955 G3 X96.389 Y102.628 I0. J-0.319
N1960 G1 Y96.856
N1965 G3 X96.708 Y96.537 I0.319 J0.
N1970 G1 X97.562
N1975 G2 X99.254 Y95.579 I0. J-1.974
N1980 G3 X101.127 Y96.099 I0.865 J0.519
N1985 G1 Y105.02
N1990 G3 X100.808 Y105.339 I-0.319 J0.
N1995 G1 X94.316
N2000 G3 X93.997 Y105.02 I0. J-0.319
N2005 G1 Y94.464
N2010 G3 X94.316 Y94.145 I0.319 J0.
N2015 G1 X100.808
N2020 G3 X101.127 Y94.464 I0. J0.319
N2025 G1 Y96.099
N2030 G2 X103.72 Y99.987 I4.212 J0.
N2035 G3 X106.312 Y103.876 I-1.62 J3.888
N2040 G1 Y110.205
N2045 G3 X105.993 Y110.524 I-0.319 J0.
N2050 G1 X89.132
N2055 G3 X88.812 Y110.205 I0. J-0.319
N2060 G1 Y89.28
N2065 G3 X89.132 Y88.96 I0.319 J0.
N2070 G1 X105.993
N2075 G3 X106.312 Y89.28 I0. J0.319
N2080 G1 Y103.876
N2085 G2 X108.904 Y107.764 I4.212 J0.
N2090 G3 X111.496 Y111.652 I-1.62 J3.888
N2095 G1 Y115.389
N2100 G3 X111.177 Y115.708 I-0.319 J0.
N2105 G1 X83.947
N2110 G3 X83.628 Y115.389 I0. J-0.319
N2115 G1 Y84.095
N2120 G3 X83.947 Y83.776 I0.319 J0.
N2125 G1 X111.177
N2130 G3 X111.496 Y84.095 I0. J0.319
N2135 G1 Y111.652
N2140 G2 X114.089 Y115.541 I4.212 J0.
N2145 G3 X116.681 Y119.429 I-1.62 J3.888
N2150 G1 Y120.574
N2155 G3 X116.362 Y120.893 I-0.319 J0.
N2160 G1 X78.762
N2165 G3 X78.443 Y120.574 I0. J-0.319
N2170 G1 Y78.91
N2175 G3 X78.762 Y78.591 I0.319 J0.
N2180 G1 X116.362
N2185 G3 X116.681 Y78.91 I0. J0.319
N2190 G1 Y119.429
N2195 G2 X118.721 Y122.479 I3.299 J0.
N2200 G3 X118.008 Y126.078 I-0.714 J1.729
N2205 G1 X73.578
N2210 G3 X73.258 Y125.758 I0. J-0.319
N2215 G1 Y73.726
N2220 G3 X73.578 Y73.406 I0.319 J0.
N2225 G1 X121.546
N2230 G3 X121.866 Y73.726 I0. J0.319
N2235 G1 Y125.758
N2240 G3 X121.546 Y126.078 I-0.319 J0.
N2245 G1 X118.008
N2250 G2 X114.119 Y128.67 I0. J4.212
N2255 G3 X110.231 Y131.262 I-3.888 J-1.62
N2260 G1 X68.393
N2265 G3 X68.074 Y130.943 I0. J-0.319
N2270 G1 Y68.541
N2275 G3 X68.393 Y68.222 I0.319 J0.
N2280 G1 X126.731
N2285 G3 X127.05 Y68.541 I0. J0.319
N2290 G1 Y130.943
N2295 G3 X126.731 Y131.262 I-0.319 J0.
N2300 G1 X110.231
N2305 G2 X106.342 Y133.854 I0. J4.212
N2310 G3 X102.454 Y136.447 I-3.888 J-1.62
N2315 G1 X63.209
N2320 G3 X62.889 Y136.127 I0. J-0.319
N2325 G1 Y63.357
N2330 G3 X63.209 Y63.037 I0.319 J0.
N2335 G1 X131.915
N2340 G3 X132.235 Y63.357 I0. J0.319
N2345 G1 Y136.127
N2350 G3 X131.915 Y136.447 I-0.319 J0.
N2355 G1 X102.454
N2360 G2 X98.566 Y139.039 I0. J4.212
N2365 G3 X94.677 Y141.631 I-3.888 J-1.62
N2370 G1 X58.024
N2375 G3 X57.705 Y141.312 I0. J-0.319
N2380 G1 Y58.172
N2385 G3 X58.024 Y57.853 I0.319 J0.
N2390 G1 X137.1
N2395 G3 X137.419 Y58.172 I0. J0.319
N2400 G1 Y141.312
N2405 G3 X137.1 Y141.631 I-0.319 J0.
N2410 G1 X94.677
N2415 G2 X90.789 Y144.224 I0. J4.212
N2420 G3 X86.9 Y146.816 I-3.888 J-1.62
N2425 G1 X52.84
N2430 G3 X52.52 Y146.497 I0. J-0.319
N2435 G1 Y52.988
N2440 G3 X52.84 Y52.668 I0.319 J0.
N2445 G1 X142.285
N2450 G3 X142.604 Y52.988 I0. J0.319
N2455 G1 Y146.497
N2460 G3 X142.285 Y146.816 I-0.319 J0.
N2465 G1 X86.9
N2470 G2 X83.012 Y149.408 I0. J4.212
N2475 G3 X79.123 Y152. I-3.888 J-1.62
N2480 G1 X47.655
N2485 G3 X47.336 Y151.681 I0. J-0.319
N2490 G1 Y47.803
N2495 G3 X47.655 Y47.484 I0.319 J0.
N2500 G1 X147.469
N2505 G3 X147.788 Y47.803 I0. J0.319
N2510 G1 Y151.681
N2515 G3 X147.469 Y152. I-0.319 J0.
N2520 G1 X79.123
N2525 G2 X75.235 Y154.593 I0. J4.212
N2530 G3 X71.347 Y157.185 I-3.888 J-1.62
N2535 G1 X42.47
N2540 G3 X42.151 Y156.866 I0. J-0.319
N2545 G1 Y42.618
N2550 G3 X42.47 Y42.299 I0.319 J0.
N2555 G1 X152.654
N2560 G3 X152.973 Y42.618 I0. J0.319
N2565 G1 Y156.866
N2570 G3 X152.654 Y157.185 I-0.319 J0.
N2575 G1 X71.347
N2580 G2 X67.458 Y159.777 I0. J4.212
N2585 G3 X63.57 Y162.37 I-3.888 J-1.62
N2590 G1 X37.286
N2595 G3 X36.966 Y162.05 I0. J-0.319
N2600 G1 Y37.434
N2605 G3 X37.286 Y37.114 I0.319 J0.
N2610 G1 X157.838
N2615 G3 X158.158 Y37.434 I0. J0.319
N2620 G1 Y162.05
N2625 G3 X157.838 Y162.37 I-0.319 J0.
N2630 G1 X63.57
N2635 G2 X59.681 Y164.962 I0. J4.212
N2640 G3 X55.793 Y167.554 I-3.888 J-1.62
N2645 G1 X32.101
N2650 G3 X31.782 Y167.235 I0. J-0.319
N2655 G1 Y32.249
N2660 G3 X32.101 Y31.93 I0.319 J0.
N2665 G1 X163.023
N2670 G3 X163.342 Y32.249 I0. J0.319
N2675 G1 Y167.235
N2680 G3 X163.023 Y167.554 I-0.319 J0.
N2685 G1 X55.793
N2690 G2 X51.883 Y170.161 I0. J4.235
N2695 G3 X47.974 Y172.767 I-3.91 J-1.629
N2700 G1 X29.744
N2705 G3 X26.569 Y169.592 I0. J-3.175
N2710 G1 Y29.892
N2715 G3 X29.744 Y26.717 I3.175 J0.
N2720 G1 X165.38
N2725 G3 X168.555 Y29.892 I0. J3.175
N2730 G1 Y169.592
N2735 G3 X165.38 Y172.767 I-3.175 J0.
N2740 G1 X47.974
N2745 X47.876 Y172.759 Z6.366
N2750 X47.781 Y172.737 Z6.381
N2755 X47.698 Y172.704 Z6.426
N2760 X47.621 Y172.66 Z6.471
N2765 X47.565 Y172.618 Z6.542
N2770 X47.514 Y172.57 Z6.612
N2775 X47.457 Y172.501 Z6.789
N2780 X47.439 Y172.475 Z6.985
N2785 Z34.05
N2790 X97.028 Y96.829
N2795 Z24.05
N2800 Z13.685 F833.33
N2805 X97.045 Y96.803 Z13.489
N2810 X97.103 Y96.734 Z13.312
N2815 X97.154 Y96.686 Z13.242
N2820 X97.21 Y96.643 Z13.171
N2825 X97.287 Y96.6 Z13.126
N2830 X97.369 Y96.567 Z13.081
N2835 X97.464 Y96.544 Z13.066
N2840 X97.562 Y96.537 Z13.05
N2845 X98.416 F2500.
N2850 G3 X98.735 Y96.856 I0. J0.319
N2855 G1 Y102.628
N2860 G3 X98.416 Y102.947 I-0.319 J0.
N2865 G1 X96.708
N2870 G3 X96.389 Y102.628 I0. J-0.319
N2875 G1 Y96.856
N2880 G3 X96.708 Y96.537 I0.319 J0.
N2885 G1 X97.562
N2890 G2 X99.254 Y95.579 I0. J-1.974
N2895 G3 X101.127 Y96.099 I0.865 J0.519
N2900 G1 Y105.02
N2905 G3 X100.808 Y105.339 I-0.319 J0.
N2910 G1 X94.316
N2915 G3 X93.997 Y105.02 I0. J-0.319
N2920 G1 Y94.464
N2925 G3 X94.316 Y94.145 I0.319 J0.
N2930 G1 X100.808
N2935 G3 X101.127 Y94.464 I0. J0.319
N2940 G1 Y96.099
N2945 G2 X103.72 Y99.987 I4.212 J0.
N2950 G3 X106.312 Y103.876 I-1.62 J3.888
N2955 G1 Y110.205
N2960 G3 X105.993 Y110.524 I-0.319 J0.
N2965 G1 X89.132
N2970 G3 X88.812 Y110.205 I0. J-0.319
N2975 G1 Y89.28
N2980 G3 X89.132 Y88.96 I0.319 J0.
N2985 G1 X105.993
N2990 G3 X106.312 Y89.28 I0. J0.319
N2995 G1 Y103.876
N3000 G2 X108.904 Y107.764 I4.212 J0.
N3005 G3 X111.496 Y111.652 I-1.62 J3.888
N3010 G1 Y115.389
N3015 G3 X111.177 Y115.708 I-0.319 J0.
N3020 G1 X83.947
N3025 G3 X83.628 Y115.389 I0. J-0.319
N3030 G1 Y84.095
N3035 G3 X83.947 Y83.776 I0.319 J0.
N3040 G1 X111.177
N3045 G3 X111.496 Y84.095 I0. J0.319
N3050 G1 Y111.652
N3055 G2 X114.089 Y115.541 I4.212 J0.
N3060 G3 X116.681 Y119.429 I-1.62 J3.888
N3065 G1 Y120.574
N3070 G3 X116.362 Y120.893 I-0.319 J0.
N3075 G1 X78.762
N3080 G3 X78.443 Y120.574 I0. J-0.319
N3085 G1 Y78.91
N3090 G3 X78.762 Y78.591 I0.319 J0.
N3095 G1 X116.362
N3100 G3 X116.681 Y78.91 I0. J0.319
N3105 G1 Y119.429
N3110 G2 X118.721 Y122.479 I3.299 J0.
N3115 G3 X118.008 Y126.078 I-0.714 J1.729
N3120 G1 X73.578
N3125 G3 X73.258 Y125.758 I0. J-0.319
N3130 G1 Y73.726
N3135 G3 X73.578 Y73.406 I0.319 J0.
N3140 G1 X121.546
N3145 G3 X121.866 Y73.726 I0. J0.319
N3150 G1 Y125.758
N3155 G3 X121.546 Y126.078 I-0.319 J0.
N3160 G1 X118.008
N3165 G2 X114.119 Y128.67 I0. J4.212
N3170 G3 X110.231 Y131.262 I-3.888 J-1.62
N3175 G1 X68.393
N3180 G3 X68.074 Y130.943 I0. J-0.319
N3185 G1 Y68.541
N3190 G3 X68.393 Y68.222 I0.319 J0.
N3195 G1 X126.731
N3200 G3 X127.05 Y68.541 I0. J0.319
N3205 G1 Y130.943
N3210 G3 X126.731 Y131.262 I-0.319 J0.
N3215 G1 X110.231
N3220 G2 X106.342 Y133.854 I0. J4.212
N3225 G3 X102.454 Y136.447 I-3.888 J-1.62
N3230 G1 X63.209
N3235 G3 X62.889 Y136.127 I0. J-0.319
N3240 G1 Y63.357
N3245 G3 X63.209 Y63.037 I0.319 J0.
N3250 G1 X131.915
N3255 G3 X132.235 Y63.357 I0. J0.319
N3260 G1 Y136.127
N3265 G3 X131.915 Y136.447 I-0.319 J0.
N3270 G1 X102.454
N3275 G2 X98.566 Y139.039 I0. J4.212
N3280 G3 X94.677 Y141.631 I-3.888 J-1.62
N3285 G1 X58.024
N3290 G3 X57.705 Y141.312 I0. J-0.319
N3295 G1 Y58.172
N3300 G3 X58.024 Y57.853 I0.319 J0.
N3305 G1 X137.1
N3310 G3 X137.419 Y58.172 I0. J0.319
N3315 G1 Y141.312
N3320 G3 X137.1 Y141.631 I-0.319 J0.
N3325 G1 X94.677
N3330 G2 X90.789 Y144.224 I0. J4.212
N3335 G3 X86.9 Y146.816 I-3.888 J-1.62
N3340 G1 X52.84
N3345 G3 X52.52 Y146.497 I0. J-0.319
N3350 G1 Y52.988
N3355 G3 X52.84 Y52.668 I0.319 J0.
N3360 G1 X142.285
N3365 G3 X142.604 Y52.988 I0. J0.319
N3370 G1 Y146.497
N3375 G3 X142.285 Y146.816 I-0.319 J0.
N3380 G1 X86.9
N3385 G2 X83.012 Y149.408 I0. J4.212
N3390 G3 X79.123 Y152. I-3.888 J-1.62
N3395 G1 X47.655
N3400 G3 X47.336 Y151.681 I0. J-0.319
N3405 G1 Y47.803
N3410 G3 X47.655 Y47.484 I0.319 J0.
N3415 G1 X147.469
N3420 G3 X147.788 Y47.803 I0. J0.319
N3425 G1 Y151.681
N3430 G3 X147.469 Y152. I-0.319 J0.
N3435 G1 X79.123
N3440 G2 X75.235 Y154.593 I0. J4.212
N3445 G3 X71.347 Y157.185 I-3.888 J-1.62
N3450 G1 X42.47
N3455 G3 X42.151 Y156.866 I0. J-0.319
N3460 G1 Y42.618
N3465 G3 X42.47 Y42.299 I0.319 J0.
N3470 G1 X152.654
N3475 G3 X152.973 Y42.618 I0. J0.319
N3480 G1 Y156.866
N3485 G3 X152.654 Y157.185 I-0.319 J0.
N3490 G1 X71.347
N3495 G2 X67.458 Y159.777 I0. J4.212
N3500 G3 X63.57 Y162.37 I-3.888 J-1.62
N3505 G1 X37.286
N3510 G3 X36.966 Y162.05 I0. J-0.319
N3515 G1 Y37.434
N3520 G3 X37.286 Y37.114 I0.319 J0.
N3525 G1 X157.838
N3530 G3 X158.158 Y37.434 I0. J0.319
N3535 G1 Y162.05
N3540 G3 X157.838 Y162.37 I-0.319 J0.
N3545 G1 X63.57
N3550 G2 X59.681 Y164.962 I0. J4.212
N3555 G3 X55.793 Y167.554 I-3.888 J-1.62
N3560 G1 X32.101
N3565 G3 X31.782 Y167.235 I0. J-0.319
N3570 G1 Y32.249
N3575 G3 X32.101 Y31.93 I0.319 J0.
N3580 G1 X163.023
N3585 G3 X163.342 Y32.249 I0. J0.319
N3590 G1 Y167.235
N3595 G3 X163.023 Y167.554 I-0.319 J0.
N3600 G1 X55.793
N3605 G2 X51.883 Y170.161 I0. J4.235
N3610 G3 X47.974 Y172.767 I-3.91 J-1.629
N3615 G1 X29.744
N3620 G3 X26.569 Y169.592 I0. J-3.175
N3625 G1 Y29.892
N3630 G3 X29.744 Y26.717 I3.175 J0.
N3635 G1 X165.38
N3640 G3 X168.555 Y29.892 I0. J3.175
N3645 G1 Y169.592
N3650 G3 X165.38 Y172.767 I-3.175 J0.
N3655 G1 X47.974
N3660 X47.876 Y172.759 Z13.066
N3665 X47.781 Y172.737 Z13.081
N3670 X47.698 Y172.704 Z13.126
N3675 X47.621 Y172.66 Z13.171
N3680 X47.565 Y172.618 Z13.242
N3685 X47.514 Y172.57 Z13.312
N3690 X47.457 Y172.501 Z13.489
N3695 X47.439 Y172.475 Z13.685
N3700 Z24.05
N3705 X97.028 Y96.829
N3710 Z18.05 F833.33
N3715 Z10.335
N3720 X97.045 Y96.803 Z10.139
N3725 X97.103 Y96.734 Z9.962
N3730 X97.154 Y96.686 Z9.892
N3735 X97.21 Y96.643 Z9.821
N3740 X97.287 Y96.6 Z9.776
N3745 X97.369 Y96.567 Z9.731
N3750 X97.464 Y96.544 Z9.716
N3755 X97.562 Y96.537 Z9.7
N3760 X98.416 F2500.
N3765 G3 X98.735 Y96.856 I0. J0.319
N3770 G1 Y102.628
N3775 G3 X98.416 Y102.947 I-0.319 J0.
N3780 G1 X96.708
N3785 G3 X96.389 Y102.628 I0. J-0.319
N3790 G1 Y96.856
N3795 G3 X96.708 Y96.537 I0.319 J0.
N3800 G1 X97.562
N3805 G2 X99.254 Y95.579 I0. J-1.974
N3810 G3 X101.127 Y96.099 I0.865 J0.519
N3815 G1 Y105.02
N3820 G3 X100.808 Y105.339 I-0.319 J0.
N3825 G1 X94.316
N3830 G3 X93.997 Y105.02 I0. J-0.319
N3835 G1 Y94.464
N3840 G3 X94.316 Y94.145 I0.319 J0.
N3845 G1 X100.808
N3850 G3 X101.127 Y94.464 I0. J0.319
N3855 G1 Y96.099
N3860 G2 X103.72 Y99.987 I4.212 J0.
N3865 G3 X106.312 Y103.876 I-1.62 J3.888
N3870 G1 Y110.205
N3875 G3 X105.993 Y110.524 I-0.319 J0.
N3880 G1 X89.132
N3885 G3 X88.812 Y110.205 I0. J-0.319
N3890 G1 Y89.28
N3895 G3 X89.132 Y88.96 I0.319 J0.
N3900 G1 X105.993
N3905 G3 X106.312 Y89.28 I0. J0.319
N3910 G1 Y103.876
N3915 G2 X108.904 Y107.764 I4.212 J0.
N3920 G3 X111.496 Y111.652 I-1.62 J3.888
N3925 G1 Y115.389
N3930 G3 X111.177 Y115.708 I-0.319 J0.
N3935 G1 X83.947
N3940 G3 X83.628 Y115.389 I0. J-0.319
N3945 G1 Y84.095
N3950 G3 X83.947 Y83.776 I0.319 J0.
N3955 G1 X111.177
N3960 G3 X111.496 Y84.095 I0. J0.319
N3965 G1 Y111.652
N3970 G2 X114.089 Y115.541 I4.212 J0.
N3975 G3 X116.681 Y119.429 I-1.62 J3.888
N3980 G1 Y120.574
N3985 G3 X116.362 Y120.893 I-0.319 J0.
N3990 G1 X78.762
N3995 G3 X78.443 Y120.574 I0. J-0.319
N4000 G1 Y78.91
N4005 G3 X78.762 Y78.591 I0.319 J0.
N4010 G1 X116.362
N4015 G3 X116.681 Y78.91 I0. J0.319
N4020 G1 Y119.429
N4025 G2 X118.721 Y122.479 I3.299 J0.
N4030 G3 X118.008 Y126.078 I-0.714 J1.729
N4035 G1 X73.578
N4040 G3 X73.258 Y125.758 I0. J-0.319
N4045 G1 Y73.726
N4050 G3 X73.578 Y73.406 I0.319 J0.
N4055 G1 X121.546
N4060 G3 X121.866 Y73.726 I0. J0.319
N4065 G1 Y125.758
N4070 G3 X121.546 Y126.078 I-0.319 J0.
N4075 G1 X118.008
N4080 G2 X114.119 Y128.67 I0. J4.212
N4085 G3 X110.231 Y131.262 I-3.888 J-1.62
N4090 G1 X68.393
N4095 G3 X68.074 Y130.943 I0. J-0.319
N4100 G1 Y68.541
N4105 G3 X68.393 Y68.222 I0.319 J0.
N4110 G1 X126.731
N4115 G3 X127.05 Y68.541 I0. J0.319
N4120 G1 Y130.943
N4125 G3 X126.731 Y131.262 I-0.319 J0.
N4130 G1 X110.231
N4135 G2 X106.342 Y133.854 I0. J4.212
N4140 G3 X102.454 Y136.447 I-3.888 J-1.62
N4145 G1 X63.209
N4150 G3 X62.889 Y136.127 I0. J-0.319
N4155 G1 Y63.357
N4160 G3 X63.209 Y63.037 I0.319 J0.
N4165 G1 X131.915
N4170 G3 X132.235 Y63.357 I0. J0.319
N4175 G1 Y136.127
N4180 G3 X131.915 Y136.447 I-0.319 J0.
N4185 G1 X102.454
N4190 G2 X98.566 Y139.039 I0. J4.212
N4195 G3 X94.677 Y141.631 I-3.888 J-1.62
N4200 G1 X58.024
N4205 G3 X57.705 Y141.312 I0. J-0.319
N4210 G1 Y58.172
N4215 G3 X58.024 Y57.853 I0.319 J0.
N4220 G1 X137.1
N4225 G3 X137.419 Y58.172 I0. J0.319
N4230 G1 Y141.312
N4235 G3 X137.1 Y141.631 I-0.319 J0.
N4240 G1 X94.677
N4245 G2 X90.789 Y144.224 I0. J4.212
N4250 G3 X86.9 Y146.816 I-3.888 J-1.62
N4255 G1 X52.84
N4260 G3 X52.52 Y146.497 I0. J-0.319
N4265 G1 Y52.988
N4270 G3 X52.84 Y52.668 I0.319 J0.
N4275 G1 X142.285
N4280 G3 X142.604 Y52.988 I0. J0.319
N4285 G1 Y146.497
N4290 G3 X142.285 Y146.816 I-0.319 J0.
N4295 G1 X86.9
N4300 G2 X83.012 Y149.408 I0. J4.212
N4305 G3 X79.123 Y152. I-3.888 J-1.62
N4310 G1 X47.655
N4315 G3 X47.336 Y151.681 I0. J-0.319
N4320 G1 Y47.803
N4325 G3 X47.655 Y47.484 I0.319 J0.
N4330 G1 X147.469
N4335 G3 X147.788 Y47.803 I0. J0.319
N4340 G1 Y151.681
N4345 G3 X147.469 Y152. I-0.319 J0.
N4350 G1 X79.123
N4355 G2 X75.235 Y154.593 I0. J4.212
N4360 G3 X71.347 Y157.185 I-3.888 J-1.62
N4365 G1 X42.47
N4370 G3 X42.151 Y156.866 I0. J-0.319
N4375 G1 Y42.618
N4380 G3 X42.47 Y42.299 I0.319 J0.
N4385 G1 X152.654
N4390 G3 X152.973 Y42.618 I0. J0.319
N4395 G1 Y156.866
N4400 G3 X152.654 Y157.185 I-0.319 J0.
N4405 G1 X71.347
N4410 G2 X67.458 Y159.777 I0. J4.212
N4415 G3 X63.57 Y162.37 I-3.888 J-1.62
N4420 G1 X37.286
N4425 G3 X36.966 Y162.05 I0. J-0.319
N4430 G1 Y37.434
N4435 G3 X37.286 Y37.114 I0.319 J0.
N4440 G1 X157.838
N4445 G3 X158.158 Y37.434 I0. J0.319
N4450 G1 Y162.05
N4455 G3 X157.838 Y162.37 I-0.319 J0.
N4460 G1 X63.57
N4465 G2 X59.681 Y164.962 I0. J4.212
N4470 G3 X55.793 Y167.554 I-3.888 J-1.62
N4475 G1 X32.101
N4480 G3 X31.782 Y167.235 I0. J-0.319
N4485 G1 Y32.249
N4490 G3 X32.101 Y31.93 I0.319 J0.
N4495 G1 X163.023
N4500 G3 X163.342 Y32.249 I0. J0.319
N4505 G1 Y167.235
N4510 G3 X163.023 Y167.554 I-0.319 J0.
N4515 G1 X55.793
N4520 G2 X51.883 Y170.161 I0. J4.235
N4525 G3 X47.974 Y172.767 I-3.91 J-1.629
N4530 G1 X29.744
N4535 G3 X26.569 Y169.592 I0. J-3.175
N4540 G1 Y29.892
N4545 G3 X29.744 Y26.717 I3.175 J0.
N4550 G1 X165.38
N4555 G3 X168.555 Y29.892 I0. J3.175
N4560 G1 Y169.592
N4565 G3 X165.38 Y172.767 I-3.175 J0.
N4570 G1 X47.974
N4575 X47.876 Y172.759 Z9.716
N4580 X47.781 Y172.737 Z9.731
N4585 X47.698 Y172.704 Z9.776
N4590 X47.621 Y172.66 Z9.821
N4595 X47.565 Y172.618 Z9.892
N4600 X47.514 Y172.57 Z9.962
N4605 X47.457 Y172.501 Z10.139
N4610 X47.439 Y172.475 Z10.335
N4615 Z24.05
N4620 X97.028 Y96.829
N4625 Z14.7 F833.33
N4630 Z6.985
N4635 X97.045 Y96.803 Z6.789
N4640 X97.103 Y96.734 Z6.612
N4645 X97.154 Y96.686 Z6.542
N4650 X97.21 Y96.643 Z6.471
N4655 X97.287 Y96.6 Z6.426
N4660 X97.369 Y96.567 Z6.381
N4665 X97.464 Y96.544 Z6.366
N4670 X97.562 Y96.537 Z6.35
N4675 X98.416 F2500.
N4680 G3 X98.735 Y96.856 I0. J0.319
N4685 G1 Y102.628
N4690 G3 X98.416 Y102.947 I-0.319 J0.
N4695 G1 X96.708
N4700 G3 X96.389 Y102.628 I0. J-0.319
N4705 G1 Y96.856
N4710 G3 X96.708 Y96.537 I0.319 J0.
N4715 G1 X97.562
N4720 G2 X99.254 Y95.579 I0. J-1.974
N4725 G3 X101.127 Y96.099 I0.865 J0.519
N4730 G1 Y105.02
N4735 G3 X100.808 Y105.339 I-0.319 J0.
N4740 G1 X94.316
N4745 G3 X93.997 Y105.02 I0. J-0.319
N4750 G1 Y94.464
N4755 G3 X94.316 Y94.145 I0.319 J0.
N4760 G1 X100.808
N4765 G3 X101.127 Y94.464 I0. J0.319
N4770 G1 Y96.099
N4775 G2 X103.72 Y99.987 I4.212 J0.
N4780 G3 X106.312 Y103.876 I-1.62 J3.888
N4785 G1 Y110.205
N4790 G3 X105.993 Y110.524 I-0.319 J0.
N4795 G1 X89.132
N4800 G3 X88.812 Y110.205 I0. J-0.319
N4805 G1 Y89.28
N4810 G3 X89.132 Y88.96 I0.319 J0.
N4815 G1 X105.993
N4820 G3 X106.312 Y89.28 I0. J0.319
N4825 G1 Y103.876
N4830 G2 X108.904 Y107.764 I4.212 J0.
N4835 G3 X111.496 Y111.652 I-1.62 J3.888
N4840 G1 Y115.389
N4845 G3 X111.177 Y115.708 I-0.319 J0.
N4850 G1 X83.947
N4855 G3 X83.628 Y115.389 I0. J-0.319
N4860 G1 Y84.095
N4865 G3 X83.947 Y83.776 I0.319 J0.
N4870 G1 X111.177
N4875 G3 X111.496 Y84.095 I0. J0.319
N4880 G1 Y111.652
N4885 G2 X114.089 Y115.541 I4.212 J0.
N4890 G3 X116.681 Y119.429 I-1.62 J3.888
N4895 G1 Y120.574
N4900 G3 X116.362 Y120.893 I-0.319 J0.
N4905 G1 X78.762
N4910 G3 X78.443 Y120.574 I0. J-0.319
N4915 G1 Y78.91
N4920 G3 X78.762 Y78.591 I0.319 J0.
N4925 G1 X116.362
N4930 G3 X116.681 Y78.91 I0. J0.319
N4935 G1 Y119.429
N4940 G2 X118.721 Y122.479 I3.299 J0.
N4945 G3 X118.008 Y126.078 I-0.714 J1.729
N4950 G1 X73.578
N4955 G3 X73.258 Y125.758 I0. J-0.319
N4960 G1 Y73.726
N4965 G3 X73.578 Y73.406 I0.319 J0.
N4970 G1 X121.546
N4975 G3 X121.866 Y73.726 I0. J0.319
N4980 G1 Y125.758
N4985 G3 X121.546 Y126.078 I-0.319 J0.
N4990 G1 X118.008
N4995 G2 X114.119 Y128.67 I0. J4.212
N5000 G3 X110.231 Y131.262 I-3.888 J-1.62
N5005 G1 X68.393
N5010 G3 X68.074 Y130.943 I0. J-0.319
N5015 G1 Y68.541
N5020 G3 X68.393 Y68.222 I0.319 J0.
N5025 G1 X126.731
N5030 G3 X127.05 Y68.541 I0. J0.319
N5035 G1 Y130.943
N5040 G3 X126.731 Y131.262 I-0.319 J0.
N5045 G1 X110.231
N5050 G2 X106.342 Y133.854 I0. J4.212
N5055 G3 X102.454 Y136.447 I-3.888 J-1.62
N5060 G1 X63.209
N5065 G3 X62.889 Y136.127 I0. J-0.319
N5070 G1 Y63.357
N5075 G3 X63.209 Y63.037 I0.319 J0.
N5080 G1 X131.915
N5085 G3 X132.235 Y63.357 I0. J0.319
N5090 G1 Y136.127
N5095 G3 X131.915 Y136.447 I-0.319 J0.
N5100 G1 X102.454
N5105 G2 X98.566 Y139.039 I0. J4.212
N5110 G3 X94.677 Y141.631 I-3.888 J-1.62
N5115 G1 X58.024
N5120 G3 X57.705 Y141.312 I0. J-0.319
N5125 G1 Y58.172
N5130 G3 X58.024 Y57.853 I0.319 J0.
N5135 G1 X137.1
N5140 G3 X137.419 Y58.172 I0. J0.319
N5145 G1 Y141.312
N5150 G3 X137.1 Y141.631 I-0.319 J0.
N5155 G1 X94.677
N5160 G2 X90.789 Y144.224 I0. J4.212
N5165 G3 X86.9 Y146.816 I-3.888 J-1.62
N5170 G1 X52.84
N5175 G3 X52.52 Y146.497 I0. J-0.319
N5180 G1 Y52.988
N5185 G3 X52.84 Y52.668 I0.319 J0.
N5190 G1 X142.285
N5195 G3 X142.604 Y52.988 I0. J0.319
N5200 G1 Y146.497
N5205 G3 X142.285 Y146.816 I-0.319 J0.
N5210 G1 X86.9
N5215 G2 X83.012 Y149.408 I0. J4.212
N5220 G3 X79.123 Y152. I-3.888 J-1.62
N5225 G1 X47.655
N5230 G3 X47.336 Y151.681 I0. J-0.319
N5235 G1 Y47.803
N5240 G3 X47.655 Y47.484 I0.319 J0.
N5245 G1 X147.469
N5250 G3 X147.788 Y47.803 I0. J0.319
N5255 G1 Y151.681
N5260 G3 X147.469 Y152. I-0.319 J0.
N5265 G1 X79.123
N5270 G2 X75.235 Y154.593 I0. J4.212
N5275 G3 X71.347 Y157.185 I-3.888 J-1.62
N5280 G1 X42.47
N5285 G3 X42.151 Y156.866 I0. J-0.319
N5290 G1 Y42.618
N5295 G3 X42.47 Y42.299 I0.319 J0.
N5300 G1 X152.654
N5305 G3 X152.973 Y42.618 I0. J0.319
N5310 G1 Y156.866
N5315 G3 X152.654 Y157.185 I-0.319 J0.
N5320 G1 X71.347
N5325 G2 X67.458 Y159.777 I0. J4.212
N5330 G3 X63.57 Y162.37 I-3.888 J-1.62
N5335 G1 X37.286
N5340 G3 X36.966 Y162.05 I0. J-0.319
N5345 G1 Y37.434
N5350 G3 X37.286 Y37.114 I0.319 J0.
N5355 G1 X157.838
N5360 G3 X158.158 Y37.434 I0. J0.319
N5365 G1 Y162.05
N5370 G3 X157.838 Y162.37 I-0.319 J0.
N5375 G1 X63.57
N5380 G2 X59.681 Y164.962 I0. J4.212
N5385 G3 X55.793 Y167.554 I-3.888 J-1.62
N5390 G1 X32.101
N5395 G3 X31.782 Y167.235 I0. J-0.319
N5400 G1 Y32.249
N5405 G3 X32.101 Y31.93 I0.319 J0.
N5410 G1 X163.023
N5415 G3 X163.342 Y32.249 I0. J0.319
N5420 G1 Y167.235
N5425 G3 X163.023 Y167.554 I-0.319 J0.
N5430 G1 X55.793
N5435 G2 X51.883 Y170.161 I0. J4.235
N5440 G3 X47.974 Y172.767 I-3.91 J-1.629
N5445 G1 X29.744
N5450 G3 X26.569 Y169.592 I0. J-3.175
N5455 G1 Y29.892
N5460 G3 X29.744 Y26.717 I3.175 J0.
N5465 G1 X165.38
N5470 G3 X168.555 Y29.892 I0. J3.175
N5475 G1 Y169.592
N5480 G3 X165.38 Y172.767 I-3.175 J0.
N5485 G1 X47.974
N5490 X47.876 Y172.759 Z6.366
N5495 X47.781 Y172.737 Z6.381
N5500 X47.698 Y172.704 Z6.426
N5505 X47.621 Y172.66 Z6.471
N5510 X47.565 Y172.618 Z6.542
N5515 X47.514 Y172.57 Z6.612
N5520 X47.457 Y172.501 Z6.789
N5525 X47.439 Y172.475 Z6.985
N5530 Z34.05
N5535 X237.871 Y60.687
N5540 Z24.05
N5545 Z13.685 F833.33
N5550 X237.888 Y60.661 Z13.489
N5555 X237.946 Y60.592 Z13.312
N5560 X237.997 Y60.544 Z13.242
N5565 X238.053 Y60.502 Z13.171
N5570 X238.13 Y60.458 Z13.126
N5575 X238.212 Y60.425 Z13.081
N5580 X238.307 Y60.403 Z13.066
N5585 X238.405 Y60.395 Z13.05
N5590 X239.333 F2500.
N5595 G3 X239.652 Y60.714 I0. J0.319
N5600 G1 Y138.77
N5605 G3 X239.333 Y139.089 I-0.319 J0.
N5610 G1 X237.477
N5615 G3 X237.158 Y138.77 I0. J-0.319
N5620 G1 Y60.714
N5625 G3 X237.477 Y60.395 I0.319 J0.
N5630 G1 X238.405
N5635 G2 X240.201 Y59.373 I0. J-2.09
N5640 G3 X242.194 Y59.92 I0.921 J0.548
N5645 G1 Y141.312
N5650 G3 X241.875 Y141.631 I-0.319 J0.
N5655 G1 X234.935
N5660 G3 X234.616 Y141.312 I0. J-0.319
N5665 G1 Y58.172
N5670 G3 X234.935 Y57.853 I0.319 J0.
N5675 G1 X241.875
N5680 G3 X242.194 Y58.172 I0. J0.319
N5685 G1 Y59.92
N5690 G2 X244.787 Y63.809 I4.212 J0.
N5695 G3 X247.379 Y67.697 I-1.62 J3.888
N5700 G1 Y146.497
N5705 G3 X247.06 Y146.816 I-0.319 J0.
N5710 G1 X229.75
N5715 G3 X229.431 Y146.497 I0. J-0.319
N5720 G1 Y52.988
N5725 G3 X229.75 Y52.668 I0.319 J0.
N5730 G1 X247.06
N5735 G3 X247.379 Y52.988 I0. J0.319
N5740 G1 Y67.697
N5745 G2 X249.971 Y71.586 I4.212 J0.
N5750 G3 X252.563 Y75.474 I-1.62 J3.888
N5755 G1 Y151.681
N5760 G3 X252.244 Y152. I-0.319 J0.
N5765 G1 X224.566
N5770 G3 X224.247 Y151.681 I0. J-0.319
N5775 G1 Y47.803
N5780 G3 X224.566 Y47.484 I0.319 J0.
N5785 G1 X252.244
N5790 G3 X252.563 Y47.803 I0. J0.319
N5795 G1 Y75.474
N5800 G2 X255.156 Y79.363 I4.212 J0.
N5805 G3 X257.748 Y83.251 I-1.62 J3.888
N5810 G1 Y156.866
N5815 G3 X257.429 Y157.185 I-0.319 J0.
N5820 G1 X219.381
N5825 G3 X219.062 Y156.866 I0. J-0.319
N5830 G1 Y42.618
N5835 G3 X219.381 Y42.299 I0.319 J0.
N5840 G1 X257.429
N5845 G3 X257.748 Y42.618 I0. J0.319
N5850 G1 Y83.251
N5855 G2 X260.34 Y87.139 I4.212 J0.
N5860 G3 X262.933 Y91.028 I-1.62 J3.888
N5865 G1 Y162.05
N5870 G3 X262.613 Y162.37 I-0.319 J0.
N5875 G1 X214.197
N5880 G3 X213.877 Y162.05 I0. J-0.319
N5885 G1 Y37.434
N5890 G3 X214.197 Y37.114 I0.319 J0.
N5895 G1 X262.613
N5900 G3 X262.933 Y37.434 I0. J0.319
N5905 G1 Y91.028
N5910 G2 X265.525 Y94.916 I4.212 J0.
N5915 G3 X268.117 Y98.805 I-1.62 J3.888
N5920 G1 Y167.235
N5925 G3 X267.798 Y167.554 I-0.319 J0.
N5930 G1 X209.012
N5935 G3 X208.693 Y167.235 I0. J-0.319
N5940 G1 Y32.249
N5945 G3 X209.012 Y31.93 I0.319 J0.
N5950 G1 X267.798
N5955 G3 X268.117 Y32.249 I0. J0.319
N5960 G1 Y98.805
N5965 G2 X270.724 Y102.714 I4.235 J0.
N5970 G3 X273.33 Y106.624 I-1.629 J3.91
N5975 G1 Y169.592
N5980 G3 X270.155 Y172.767 I-3.175 J0.
N5985 G1 X206.655
N5990 G3 X203.48 Y169.592 I0. J-3.175
N5995 G1 Y29.892
N6000 G3 X206.655 Y26.717 I3.175 J0.
N6005 G1 X270.155
N6010 G3 X273.33 Y29.892 I0. J3.175
N6015 G1 Y106.624
N6020 X273.322 Y106.722 Z13.066
N6025 X273.3 Y106.817 Z13.081
N6030 X273.267 Y106.899 Z13.126
N6035 X273.223 Y106.976 Z13.171
N6040 X273.181 Y107.032 Z13.242
N6045 X273.133 Y107.083 Z13.312
N6050 X273.064 Y107.141 Z13.489
N6055 X273.038 Y107.158 Z13.685
N6060 Z24.05
N6065 X237.871 Y60.687
N6070 Z18.05 F833.33
N6075 Z10.335
N6080 X237.888 Y60.661 Z10.139
N6085 X237.946 Y60.592 Z9.962
N6090 X237.997 Y60.544 Z9.892
N6095 X238.053 Y60.502 Z9.821
N6100 X238.13 Y60.458 Z9.776
N6105 X238.212 Y60.425 Z9.731
N6110 X238.307 Y60.403 Z9.716
N6115 X238.405 Y60.395 Z9.7
N6120 X239.333 F2500.
N6125 G3 X239.652 Y60.714 I0. J0.319
N6130 G1 Y138.77
N6135 G3 X239.333 Y139.089 I-0.319 J0.
N6140 G1 X237.477
N6145 G3 X237.158 Y138.77 I0. J-0.319
N6150 G1 Y60.714
N6155 G3 X237.477 Y60.395 I0.319 J0.
N6160 G1 X238.405
N6165 G2 X240.201 Y59.373 I0. J-2.09
N6170 G3 X242.194 Y59.92 I0.921 J0.548
N6175 G1 Y141.312
N6180 G3 X241.875 Y141.631 I-0.319 J0.
N6185 G1 X234.935
N6190 G3 X234.616 Y141.312 I0. J-0.319
N6195 G1 Y58.172
N6200 G3 X234.935 Y57.853 I0.319 J0.
N6205 G1 X241.875
N6210 G3 X242.194 Y58.172 I0. J0.319
N6215 G1 Y59.92
N6220 G2 X244.787 Y63.809 I4.212 J0.
N6225 G3 X247.379 Y67.697 I-1.62 J3.888
N6230 G1 Y146.497
N6235 G3 X247.06 Y146.816 I-0.319 J0.
N6240 G1 X229.75
N6245 G3 X229.431 Y146.497 I0. J-0.319
N6250 G1 Y52.988
N6255 G3 X229.75 Y52.668 I0.319 J0.
N6260 G1 X247.06
N6265 G3 X247.379 Y52.988 I0. J0.319
N6270 G1 Y67.697
N6275 G2 X249.971 Y71.586 I4.212 J0.
N6280 G3 X252.563 Y75.474 I-1.62 J3.888
N6285 G1 Y151.681
N6290 G3 X252.244 Y152. I-0.319 J0.
N6295 G1 X224.566
N6300 G3 X224.247 Y151.681 I0. J-0.319
N6305 G1 Y47.803
N6310 G3 X224.566 Y47.484 I0.319 J0.
N6315 G1 X252.244
N6320 G3 X252.563 Y47.803 I0. J0.319
N6325 G1 Y75.474
N6330 G2 X255.156 Y79.363 I4.212 J0.
N6335 G3 X257.748 Y83.251 I-1.62 J3.888
N6340 G1 Y156.866
N6345 G3 X257.429 Y157.185 I-0.319 J0.
N6350 G1 X219.381
N6355 G3 X219.062 Y156.866 I0. J-0.319
N6360 G1 Y42.618
N6365 G3 X219.381 Y42.299 I0.319 J0.
N6370 G1 X257.429
N6375 G3 X257.748 Y42.618 I0. J0.319
N6380 G1 Y83.251
N6385 G2 X260.34 Y87.139 I4.212 J0.
N6390 G3 X262.933 Y91.028 I-1.62 J3.888
N6395 G1 Y162.05
N6400 G3 X262.613 Y162.37 I-0.319 J0.
N6405 G1 X214.197
N6410 G3 X213.877 Y162.05 I0. J-0.319
N6415 G1 Y37.434
N6420 G3 X214.197 Y37.114 I0.319 J0.
N6425 G1 X262.613
N6430 G3 X262.933 Y37.434 I0. J0.319
N6435 G1 Y91.028
N6440 G2 X265.525 Y94.916 I4.212 J0.
N6445 G3 X268.117 Y98.805 I-1.62 J3.888
N6450 G1 Y167.235
N6455 G3 X267.798 Y167.554 I-0.319 J0.
N6460 G1 X209.012
N6465 G3 X208.693 Y167.235 I0. J-0.319
N6470 G1 Y32.249
N6475 G3 X209.012 Y31.93 I0.319 J0.
N6480 G1 X267.798
N6485 G3 X268.117 Y32.249 I0. J0.319
N6490 G1 Y98.805
N6495 G2 X270.724 Y102.714 I4.235 J0.
N6500 G3 X273.33 Y106.624 I-1.629 J3.91
N6505 G1 Y169.592
N6510 G3 X270.155 Y172.767 I-3.175 J0.
N6515 G1 X206.655
N6520 G3 X203.48 Y169.592 I0. J-3.175
N6525 G1 Y29.892
N6530 G3 X206.655 Y26.717 I3.175 J0.
N6535 G1 X270.155
N6540 G3 X273.33 Y29.892 I0. J3.175
N6545 G1 Y106.624
N6550 X273.322 Y106.722 Z9.716
N6555 X273.3 Y106.817 Z9.731
N6560 X273.267 Y106.899 Z9.776
N6565 X273.223 Y106.976 Z9.821
N6570 X273.181 Y107.032 Z9.892
N6575 X273.133 Y107.083 Z9.962
N6580 X273.064 Y107.141 Z10.139
N6585 X273.038 Y107.158 Z10.335
N6590 Z24.05
N6595 X237.871 Y60.687
N6600 Z14.7 F833.33
N6605 Z6.985
N6610 X237.888 Y60.661 Z6.789
N6615 X237.946 Y60.592 Z6.612
N6620 X237.997 Y60.544 Z6.542
N6625 X238.053 Y60.502 Z6.471
N6630 X238.13 Y60.458 Z6.426
N6635 X238.212 Y60.425 Z6.381
N6640 X238.307 Y60.403 Z6.366
N6645 X238.405 Y60.395 Z6.35
N6650 X239.333 F2500.
N6655 G3 X239.652 Y60.714 I0. J0.319
N6660 G1 Y138.77
N6665 G3 X239.333 Y139.089 I-0.319 J0.
N6670 G1 X237.477
N6675 G3 X237.158 Y138.77 I0. J-0.319
N6680 G1 Y60.714
N6685 G3 X237.477 Y60.395 I0.319 J0.
N6690 G1 X238.405
N6695 G2 X240.201 Y59.373 I0. J-2.09
N6700 G3 X242.194 Y59.92 I0.921 J0.548
N6705 G1 Y141.312
N6710 G3 X241.875 Y141.631 I-0.319 J0.
N6715 G1 X234.935
N6720 G3 X234.616 Y141.312 I0. J-0.319
N6725 G1 Y58.172
N6730 G3 X234.935 Y57.853 I0.319 J0.
N6735 G1 X241.875
N6740 G3 X242.194 Y58.172 I0. J0.319
N6745 G1 Y59.92
N6750 G2 X244.787 Y63.809 I4.212 J0.
N6755 G3 X247.379 Y67.697 I-1.62 J3.888
N6760 G1 Y146.497
N6765 G3 X247.06 Y146.816 I-0.319 J0.
N6770 G1 X229.75
N6775 G3 X229.431 Y146.497 I0. J-0.319
N6780 G1 Y52.988
N6785 G3 X229.75 Y52.668 I0.319 J0.
N6790 G1 X247.06
N6795 G3 X247.379 Y52.988 I0. J0.319
N6800 G1 Y67.697
N6805 G2 X249.971 Y71.586 I4.212 J0.
N6810 G3 X252.563 Y75.474 I-1.62 J3.888
N6815 G1 Y151.681
N6820 G3 X252.244 Y152. I-0.319 J0.
N6825 G1 X224.566
N6830 G3 X224.247 Y151.681 I0. J-0.319
N6835 G1 Y47.803
N6840 G3 X224.566 Y47.484 I0.319 J0.
N6845 G1 X252.244
N6850 G3 X252.563 Y47.803 I0. J0.319
N6855 G1 Y75.474
N6860 G2 X255.156 Y79.363 I4.212 J0.
N6865 G3 X257.748 Y83.251 I-1.62 J3.888
N6870 G1 Y156.866
N6875 G3 X257.429 Y157.185 I-0.319 J0.
N6880 G1 X219.381
N6885 G3 X219.062 Y156.866 I0. J-0.319
N6890 G1 Y42.618
N6895 G3 X219.381 Y42.299 I0.319 J0.
N6900 G1 X257.429
N6905 G3 X257.748 Y42.618 I0. J0.319
N6910 G1 Y83.251
N6915 G2 X260.34 Y87.139 I4.212 J0.
N6920 G3 X262.933 Y91.028 I-1.62 J3.888
N6925 G1 Y162.05
N6930 G3 X262.613 Y162.37 I-0.319 J0.
N6935 G1 X214.197
N6940 G3 X213.877 Y162.05 I0. J-0.319
N6945 G1 Y37.434
N6950 G3 X214.197 Y37.114 I0.319 J0.
N6955 G1 X262.613
N6960 G3 X262.933 Y37.434 I0. J0.319
N6965 G1 Y91.028
N6970 G2 X265.525 Y94.916 I4.212 J0.
N6975 G3 X268.117 Y98.805 I-1.62 J3.888
N6980 G1 Y167.235
N6985 G3 X267.798 Y167.554 I-0.319 J0.
N6990 G1 X209.012
N6995 G3 X208.693 Y167.235 I0. J-0.319
N7000 G1 Y32.249
N7005 G3 X209.012 Y31.93 I0.319 J0.
N7010 G1 X267.798
N7015 G3 X268.117 Y32.249 I0. J0.319
N7020 G1 Y98.805
N7025 G2 X270.724 Y102.714 I4.235 J0.
N7030 G3 X273.33 Y106.624 I-1.629 J3.91
N7035 G1 Y169.592
N7040 G3 X270.155 Y172.767 I-3.175 J0.
N7045 G1 X206.655
N7050 G3 X203.48 Y169.592 I0. J-3.175
N7055 G1 Y29.892
N7060 G3 X206.655 Y26.717 I3.175 J0.
N7065 G1 X270.155
N7070 G3 X273.33 Y29.892 I0. J3.175
N7075 G1 Y106.624
N7080 X273.322 Y106.722 Z6.366
N7085 X273.3 Y106.817 Z6.381
N7090 X273.267 Y106.899 Z6.426
N7095 X273.223 Y106.976 Z6.471
N7100 X273.181 Y107.032 Z6.542
N7105 X273.133 Y107.083 Z6.612
N7110 X273.064 Y107.141 Z6.789
N7115 X273.038 Y107.158 Z6.985
N7120 Z34.05
(WHEN USING FUSION 360 FOR PERSONAL USE, THE FEEDRATE OF)
(RAPID MOVES IS REDUCED TO MATCH THE FEEDRATE OF CUTTING)
(MOVES, WHICH CAN INCREASE MACHINING TIME. UNRESTRICTED RAPID)
(MOVES ARE AVAILABLE WITH A FUSION 360 SUBSCRIPTION.)
(2D CONTOUR5)
N7125 S5000 M3
N7130 M8
N7135 G0 X29.109 Y204.416
N7140 G1 Z34.05 F1000.
N7145 Z24.05
N7150 Z13.685 F333.33
N7155 G19 G2 Y203.781 Z13.05 J-0.635 K0. F1000.
N7160 G1 Y203.146
N7165 G17 G3 X29.744 Y202.511 I0.635 J0.
N7170 G1 X178.031
N7175 X193.958 Y202.659
N7180 X193.987
N7185 X270.155
N7190 G2 X303.222 Y169.592 I0. J-33.067
N7195 G1 Y29.892
N7200 G2 X270.155 Y-3.175 I-33.067 J0.
N7205 G1 X193.986
N7210 X193.957
N7215 X178.031 Y-3.027
N7220 X29.744
N7225 G2 X-3.175 Y29.892 I0. J32.919
N7230 G1 Y169.592
N7235 G2 X29.744 Y202.511 I32.919 J0.
N7240 G3 X30.379 Y203.146 I0. J0.635
N7245 G1 Y203.781
N7250 G19 G3 Y204.416 Z13.685 J0. K0.635
N7255 G1 Z24.05
N7260 X29.109
N7265 Z18.05 F333.33
N7270 Z7.685
N7275 G2 Y203.781 Z7.05 J-0.635 K0. F1000.
N7280 G1 Y203.146
N7285 G17 G3 X29.744 Y202.511 I0.635 J0.
N7290 G1 X178.031
N7295 X193.958 Y202.659
N7300 X193.987
N7305 X270.155
N7310 G2 X303.222 Y169.592 I0. J-33.067
N7315 G1 Y29.892
N7320 G2 X270.155 Y-3.175 I-33.067 J0.
N7325 G1 X193.986
N7330 X193.957
N7335 X178.031 Y-3.027
N7340 X29.744
N7345 G2 X-3.175 Y29.892 I0. J32.919
N7350 G1 Y169.592
N7355 G2 X29.744 Y202.511 I32.919 J0.
N7360 G3 X30.379 Y203.146 I0. J0.635
N7365 G1 Y203.781
N7370 G19 G3 Y204.416 Z7.685 J0. K0.635
N7375 G1 Z24.05
N7380 X29.109
N7385 Z12.05 F333.33
N7390 Z4.16
N7395 G2 Y203.781 Z3.525 J-0.635 K0. F1000.
N7400 G1 Y203.146
N7405 G17 G3 X29.744 Y202.511 I0.635 J0.
N7410 G1 X178.031
N7415 X193.958 Y202.659
N7420 X193.987
N7425 X270.155
N7430 G2 X303.222 Y169.592 I0. J-33.067
N7435 G1 Y29.892
N7440 G2 X270.155 Y-3.175 I-33.067 J0.
N7445 G1 X193.986
N7450 X193.957
N7455 X178.031 Y-3.027
N7460 X29.744
N7465 G2 X-3.175 Y29.892 I0. J32.919
N7470 G1 Y169.592
N7475 G2 X29.744 Y202.511 I32.919 J0.
N7480 G3 X30.379 Y203.146 I0. J0.635
N7485 G1 Y203.781
N7490 G19 G3 Y204.416 Z4.16 J0. K0.635
N7495 G1 Z24.05
N7500 X29.109
N7505 Z8.525 F333.33
N7510 Z0.635
N7515 G2 Y203.781 Z0. J-0.635 K0. F1000.
N7520 G1 Y203.146
N7525 G17 G3 X29.744 Y202.511 I0.635 J0.
N7530 G1 X60.47
N7535 Z2.
N7540 X73.17
N7545 Z0. F333.33
N7550 X134.62 F1000.
N7555 Z2.
N7560 X147.32
N7565 Z0. F333.33
N7570 X178.031 F1000.
N7575 X193.958 Y202.659
N7580 X193.987
N7585 X225.721
N7590 Z2.
N7595 X238.421
N7600 Z0. F333.33
N7605 X270.155 F1000.
N7610 G2 X303.222 Y169.592 I0. J-33.067
N7615 G1 Y141.017
N7620 Z2.
N7625 Y128.317
N7630 Z0. F333.33
N7635 Y71.167 F1000.
N7640 Z2.
N7645 Y58.467
N7650 Z0. F333.33
N7655 Y29.892 F1000.
N7660 G2 X270.155 Y-3.175 I-33.067 J0.
N7665 G1 X238.421
N7670 Z2.
N7675 X225.721
N7680 Z0. F333.33
N7685 X193.986 F1000.
N7690 X193.957
N7695 X178.031 Y-3.027
N7700 X147.321
N7705 Z2.
N7710 X134.621
N7715 Z0. F333.33
N7720 X73.17 F1000.
N7725 Z2.
N7730 X60.47
N7735 Z0. F333.33
N7740 X29.744 F1000.
N7745 G2 X-3.175 Y29.892 I0. J32.919
N7750 G1 Y58.467
N7755 Z2.
N7760 Y71.167
N7765 Z0. F333.33
N7770 Y128.317 F1000.
N7775 Z2.
N7780 Y141.017
N7785 Z0. F333.33
N7790 Y169.592 F1000.
N7795 G2 X29.744 Y202.511 I32.919 J0.
N7800 G3 X30.379 Y203.146 I0. J0.635
N7805 G1 Y203.781
N7810 G19 G3 Y204.416 Z0.635 J0. K0.635
N7815 G1 Z34.05
N7820 G17
N7825 M9
N7830 G53 G0 Z0.
N7835 M30
%
