%
(1001)
(T8  D=12.7 CR=6.35 - ZMIN=0. - BALL END MILL)
N10 G90 G94 G17 G91.1
N15 G21
(WHEN USING FUSION 360 FOR PERSONAL USE, THE FEEDRATE OF)
(RAPID MOVES IS REDUCED TO MATCH THE FEEDRATE OF CUTTING)
(MOVES, WHICH CAN INCREASE MACHINING TIME. UNRESTRICTED RAPID)
(MOVES ARE AVAILABLE WITH A FUSION 360 SUBSCRIPTION.)
N20 G53 G0 Z0.
(CONTOUR2)
N25 T8 M6
N30 S10000 M3
N35 G54
N40 G0 X-0.004 Y23.401
N45 G43 Z34.05 H8
N50 G1 Z19.225 F1800.
N55 Z18.05
N60 G3 X1.983 Y24.65 I0.735 J1.036
N65 G1 X1.73 Y26.136
N70 X1.621 Y26.891
N75 X1.494 Y29.156
N80 X1.456 Y29.911
N85 Y169.573
N90 X1.494 Y170.328
N95 X1.621 Y172.593
N100 X1.73 Y173.348
N105 X2.115 Y175.613
N110 X2.3 Y176.368
N115 X2.953 Y178.633
N120 X3.227 Y179.388
N125 X4.165 Y181.652
N130 X4.249 Y181.848
N135 X4.552 Y182.407
N140 X5.387 Y183.917
N145 X5.759 Y184.589
N150 X5.811 Y184.672
N155 X6.344 Y185.427
N160 X7.416 Y186.937
N165 X8.025 Y187.68
N170 X9.536 Y189.37
N175 X10.141 Y189.957
N180 X11.83 Y191.467
N185 X12.557 Y192.033
N190 X14.068 Y193.104
N195 X14.823 Y193.62
N200 X17.089 Y194.872
N205 X17.844 Y195.238
N210 X20.11 Y196.176
N215 X20.865 Y196.43
N220 X23.131 Y197.083
N225 X23.887 Y197.249
N230 X26.153 Y197.634
N235 X26.908 Y197.725
N240 X29.174 Y197.852
N245 X29.929 Y197.881
N250 X39.748 Y197.886
N255 X49.567 Y197.891
N260 X59.386 Y197.895
N265 X69.961 Y197.9
N270 X80.535 Y197.904
N275 X91.109 Y197.907
N280 X102.439 Y197.911
N285 X113.769 Y197.914
N290 X125.098 Y197.917
N295 X136.428 Y197.919
N300 X148.513 Y197.921
N305 X160.598 Y197.923
N310 X172.683 Y197.925
N315 X177.97
N320 X178.725 Y197.931
N325 X193.832 Y198.072
N330 X194.587 Y198.073
N335 X200.629 Y198.072
N340 X206.672 Y198.07
N345 X212.714 Y198.068
N350 X218.757 Y198.066
N355 X224.799 Y198.063
N360 X230.087 Y198.06
N365 X235.374 Y198.057
N370 X240.661 Y198.054
N375 X245.948 Y198.05
N380 X251.235 Y198.046
N385 X256.522 Y198.042
N390 X261.81 Y198.037
N395 X267.097 Y198.032
N400 X270.118 Y198.029
N405 X270.873 Y197.992
N410 X273.139 Y197.864
N415 X273.895 Y197.759
N420 X276.16 Y197.374
N425 X276.916 Y197.194
N430 X279.182 Y196.541
N435 X279.937 Y196.275
N440 X282.203 Y195.336
N445 X282.431 Y195.241
N450 X282.958 Y194.959
N455 X285.18 Y193.731
N460 X285.224 Y193.706
N465 X285.98 Y193.181
N470 X287.49 Y192.109
N475 X288.245 Y191.507
N480 X289.98 Y189.957
N485 X290.511 Y189.426
N490 X292.061 Y187.692
N495 X292.665 Y186.937
N500 X293.736 Y185.427
N505 X294.263 Y184.672
N510 X294.288 Y184.628
N515 X295.516 Y182.407
N520 X295.799 Y181.881
N525 X295.894 Y181.652
N530 X296.832 Y179.388
N535 X297.1 Y178.633
N540 X297.753 Y176.368
N545 X297.934 Y175.613
N550 X298.319 Y173.348
N555 X298.426 Y172.593
N560 X298.553 Y170.328
N565 X298.591 Y169.573
N570 Y29.911
N575 X298.553 Y29.156
N580 X298.426 Y26.891
N585 X298.319 Y26.136
N590 X297.934 Y23.871
N595 X297.753 Y23.116
N600 X297.1 Y20.852
N605 X296.832 Y20.097
N610 X295.894 Y17.832
N615 X295.799 Y17.604
N620 X295.516 Y17.077
N625 X294.288 Y14.856
N630 X294.263 Y14.812
N635 X293.736 Y14.057
N640 X292.665 Y12.547
N645 X292.061 Y11.792
N650 X290.511 Y10.058
N655 X289.98 Y9.528
N660 X288.245 Y7.977
N665 X287.49 Y7.375
N670 X285.98 Y6.304
N675 X285.224 Y5.778
N680 X285.18 Y5.753
N685 X282.958 Y4.525
N690 X282.431 Y4.243
N695 X282.203 Y4.148
N700 X279.937 Y3.209
N705 X279.182 Y2.943
N710 X276.916 Y2.29
N715 X276.16 Y2.11
N720 X273.895 Y1.725
N725 X273.139 Y1.62
N730 X270.873 Y1.493
N735 X270.118 Y1.456
N740 X265.586 Y1.451
N745 X260.299 Y1.446
N750 X255.012 Y1.441
N755 X249.725 Y1.437
N760 X244.437 Y1.433
N765 X239.15 Y1.429
N770 X233.863 Y1.426
N775 X228.576 Y1.423
N780 X223.289 Y1.42
N785 X217.246 Y1.418
N790 X211.204 Y1.416
N795 X205.161 Y1.414
N800 X199.119 Y1.412
N805 X194.587 Y1.411
N810 X193.832 Y1.413
N815 X178.725 Y1.553
N820 X177.97 Y1.559
N825 X165.885 Y1.56
N830 X153.8 Y1.562
N835 X141.715 Y1.564
N840 X130.386 Y1.566
N845 X119.056 Y1.569
N850 X107.726 Y1.572
N855 X96.397 Y1.575
N860 X85.822 Y1.579
N865 X75.248 Y1.583
N870 X64.674 Y1.587
N875 X54.099 Y1.591
N880 X44.28 Y1.596
N885 X34.461 Y1.601
N890 X29.929 Y1.604
N895 X29.174 Y1.632
N900 X26.908 Y1.76
N905 X26.153 Y1.85
N910 X23.887 Y2.235
N915 X23.131 Y2.401
N920 X20.865 Y3.054
N925 X20.11 Y3.308
N930 X17.844 Y4.247
N935 X17.089 Y4.612
N940 X14.823 Y5.864
N945 X14.068 Y6.38
N950 X12.557 Y7.452
N955 X11.83 Y8.018
N960 X10.141 Y9.528
N965 X9.536 Y10.114
N970 X8.025 Y11.804
N975 X7.416 Y12.547
N980 X6.344 Y14.057
N985 X5.811 Y14.812
N990 X5.759 Y14.895
N995 X5.387 Y15.567
N1000 X4.552 Y17.077
N1005 X4.249 Y17.636
N1010 X4.165 Y17.832
N1015 X3.227 Y20.097
N1020 X2.953 Y20.852
N1025 X2.3 Y23.116
N1030 X2.115 Y23.871
N1035 X1.983 Y24.65
N1040 X1.702 Y26.2 Z18.044
N1045 X1.527 Y27.557 Z18.029
N1050 X1.369 Y29.125 Z18.003
N1055 X1.245 Y30.601 Z17.97
N1060 X1.14 Y32.176 Z17.927
N1065 X1.024 Y33.751 Z17.877
N1070 X0.903 Y35.326 Z17.822
N1075 X0.788 Y36.901 Z17.767
N1080 X0.679 Y38.476 Z17.712
N1085 X0.574 Y40.051 Z17.657
N1090 X0.475 Y41.626 Z17.602
N1095 X0.379 Y43.201 Z17.547
N1100 X0.287 Y44.776 Z17.491
N1105 X0.198 Y46.351 Z17.436
N1110 X-0.152 Y52.651 Z17.216
N1115 X-0.231 Y54.226 Z17.167
N1120 X-0.297 Y55.801 Z17.125
N1125 X-0.351 Y57.376 Z17.091
N1130 X-0.39 Y58.951 Z17.067
N1135 X-0.412 Y60.526 Z17.053
N1140 X-0.417 Y61.612 Z17.05
N1145 Y169.573
N1150 X-0.381 Y170.328
N1155 X-0.254 Y172.593
N1160 X-0.168 Y173.348
N1165 X0.217 Y175.613
N1170 X0.355 Y176.368
N1175 X0.472 Y176.783
N1180 X1.222 Y179.388
N1185 X1.227 Y179.404
N1190 X1.514 Y180.143
N1195 X2.452 Y182.407
N1200 X2.738 Y182.993
N1205 X4.083 Y185.427
N1210 X4.249 Y185.705
N1215 X4.585 Y186.182
N1220 X5.759 Y187.837
N1225 X6.204 Y188.447
N1230 X6.515 Y188.798
N1235 X8.225 Y190.712
N1240 X8.781 Y191.251
N1245 X10.711 Y192.976
N1250 X11.046 Y193.255
N1255 X11.802 Y193.791
N1260 X13.312 Y194.863
N1265 X13.888 Y195.241
N1270 X16.334 Y196.593
N1275 X16.627 Y196.751
N1280 X17.089 Y196.95
N1285 X19.355 Y197.889
N1290 X20.11 Y198.16
N1295 X22.376 Y198.813
N1300 X23.122 Y199.016
N1305 X23.131 Y199.018
N1310 X23.887 Y199.147
N1315 X26.153 Y199.532
N1320 X26.908 Y199.599
N1325 X29.174 Y199.726
N1330 X29.929 Y199.753
N1335 X166.64 Y199.817
N1340 X172.683 Y199.82
N1345 X177.97 Y199.821
N1350 X178.725 Y199.828
N1355 X193.832 Y199.968
N1360 X194.587 Y199.969
N1365 X197.608 Y199.967
N1370 X200.629 Y199.964
N1375 X270.118 Y199.901
N1380 X270.873 Y199.866
N1385 X273.139 Y199.739
N1390 X273.895 Y199.657
N1395 X276.16 Y199.272
N1400 X276.916 Y199.137
N1405 X277.353 Y199.016
N1410 X279.974 Y198.261
N1415 X280.692 Y197.988
N1420 X282.958 Y197.049
N1425 X283.585 Y196.751
N1430 X285.98 Y195.428
N1435 X286.303 Y195.241
N1440 X286.735 Y194.939
N1445 X288.437 Y193.731
N1450 X289.001 Y193.329
N1455 X289.41 Y192.976
N1460 X291.267 Y191.317
N1465 X291.873 Y190.712
N1470 X293.533 Y188.854
N1475 X293.885 Y188.447
N1480 X294.288 Y187.883
N1485 X295.495 Y186.182
N1490 X295.799 Y185.748
N1495 X295.985 Y185.427
N1500 X297.309 Y183.031
N1505 X297.607 Y182.407
N1510 X298.545 Y180.143
N1515 X298.82 Y179.425
N1520 X299.575 Y176.803
N1525 X299.697 Y176.368
N1530 X299.832 Y175.613
N1535 X300.217 Y173.348
N1540 X300.301 Y172.593
N1545 X300.428 Y170.328
N1550 X300.464 Y169.573
N1555 Y29.911
N1560 X300.428 Y29.156
N1565 X300.301 Y26.891
N1570 X300.217 Y26.136
N1575 X299.832 Y23.871
N1580 X299.697 Y23.116
N1585 X299.575 Y22.681
N1590 X298.82 Y20.059
N1595 X298.545 Y19.342
N1600 X297.607 Y17.077
N1605 X297.309 Y16.453
N1610 X295.985 Y14.057
N1615 X295.799 Y13.736
N1620 X295.495 Y13.302
N1625 X294.288 Y11.601
N1630 X293.885 Y11.037
N1635 X293.533 Y10.63
N1640 X291.873 Y8.773
N1645 X291.267 Y8.167
N1650 X289.41 Y6.508
N1655 X289.001 Y6.155
N1660 X288.437 Y5.753
N1665 X286.735 Y4.545
N1670 X286.303 Y4.243
N1675 X285.98 Y4.056
N1680 X283.585 Y2.733
N1685 X282.958 Y2.435
N1690 X280.692 Y1.497
N1695 X279.974 Y1.223
N1700 X277.353 Y0.468
N1705 X276.916 Y0.347
N1710 X276.16 Y0.212
N1715 X273.895 Y-0.173
N1720 X273.139 Y-0.254
N1725 X270.873 Y-0.382
N1730 X270.118 Y-0.417
N1735 X199.874 Y-0.481
N1740 X196.853 Y-0.483
N1745 X194.587 Y-0.485
N1750 X193.832 Y-0.484
N1755 X178.725 Y-0.344
N1760 X177.97 Y-0.337
N1765 X171.928 Y-0.335
N1770 X165.885 Y-0.333
N1775 X29.929 Y-0.269
N1780 X29.174 Y-0.242
N1785 X26.908 Y-0.115
N1790 X26.153 Y-0.048
N1795 X23.887 Y0.337
N1800 X23.131 Y0.466
N1805 X23.122 Y0.468
N1810 X22.376 Y0.671
N1815 X20.11 Y1.324
N1820 X19.355 Y1.595
N1825 X17.089 Y2.534
N1830 X16.627 Y2.733
N1835 X16.334 Y2.891
N1840 X13.888 Y4.243
N1845 X13.312 Y4.621
N1850 X11.717 Y5.753
N1855 X11.046 Y6.229
N1860 X10.711 Y6.508
N1865 X8.781 Y8.233
N1870 X8.225 Y8.773
N1875 X6.515 Y10.686
N1880 X6.204 Y11.037
N1885 X5.759 Y11.647
N1890 X4.585 Y13.302
N1895 X4.249 Y13.78
N1900 X4.083 Y14.057
N1905 X2.738 Y16.491
N1910 X2.452 Y17.077
N1915 X1.514 Y19.342
N1920 X1.227 Y20.08
N1925 X1.222 Y20.097
N1930 X0.472 Y22.701
N1935 X0.355 Y23.116
N1940 X0.217 Y23.871
N1945 X-0.168 Y26.136
N1950 X-0.254 Y26.891
N1955 X-0.283 Y27.419
N1960 X-0.381 Y29.156
N1965 X-0.417 Y29.911
N1970 Y61.612
N1975 X-0.426 Y63.187 Z17.044
N1980 X-0.454 Y64.762 Z17.027
N1985 X-0.497 Y66.337 Z16.999
N1990 X-0.555 Y67.912 Z16.963
N1995 X-0.626 Y69.487 Z16.919
N2000 X-0.707 Y71.062 Z16.867
N2005 X-0.97 Y75.787 Z16.702
N2010 X-1.057 Y77.362 Z16.647
N2015 X-1.141 Y78.937 Z16.592
N2020 X-1.222 Y80.512 Z16.537
N2025 X-1.3 Y82.087 Z16.482
N2030 X-1.376 Y83.662 Z16.427
N2035 X-1.449 Y85.237 Z16.372
N2040 X-1.521 Y86.812 Z16.317
N2045 X-1.59 Y88.387 Z16.262
N2050 X-1.657 Y89.962 Z16.207
N2055 X-1.714 Y91.537 Z16.159
N2060 X-1.762 Y93.112 Z16.119
N2065 X-1.799 Y94.687 Z16.086
N2070 X-1.824 Y96.262 Z16.064
N2075 X-1.838 Y97.837 Z16.052
N2080 X-1.84 Y98.662 Z16.05
N2085 Y169.573
N2090 X-1.805 Y170.328
N2095 X-1.678 Y172.593
N2100 X-1.611 Y173.348
N2105 X-1.098 Y176.368
N2110 X-1.039 Y176.661
N2115 X-0.91 Y177.123
N2120 X-0.258 Y179.388
N2125 X-0.024 Y180.143
N2130 X0.287 Y180.897
N2135 X0.913 Y182.407
N2140 X1.227 Y183.164
N2145 X1.624 Y183.917
N2150 X2.875 Y186.182
N2155 X3.377 Y186.937
N2160 X4.448 Y188.447
N2165 X4.987 Y189.202
N2170 X5.004 Y189.225
N2175 X5.643 Y189.957
N2180 X6.992 Y191.467
N2185 X7.27 Y191.777
N2190 X7.732 Y192.221
N2195 X9.536 Y193.833
N2200 X10.291 Y194.463
N2205 X12.557 Y196.071
N2210 X13.312 Y196.548
N2215 X15.578 Y197.801
N2220 X16.334 Y198.177
N2225 X18.6 Y199.116
N2230 X19.355 Y199.418
N2235 X20.11 Y199.64
N2240 X22.376 Y200.293
N2245 X23.131 Y200.462
N2250 X25.397 Y200.847
N2255 X26.153 Y200.971
N2260 X26.908 Y201.023
N2265 X29.174 Y201.151
N2270 X29.929 Y201.176
N2275 X38.238
N2280 X46.546 Y201.175
N2285 X54.854 Y201.174
N2290 X62.408 Y201.173
N2295 X69.961 Y201.171
N2300 X77.514 Y201.17
N2305 X85.067 Y201.167
N2310 X177.97 Y201.137
N2315 X178.725 Y201.144
N2320 X193.832 Y201.284
N2325 X194.587 Y201.286
N2330 X243.682 Y201.316
N2335 X247.459 Y201.318
N2340 X251.235 Y201.32
N2345 X255.012 Y201.322
N2350 X258.788 Y201.323
N2355 X262.565
N2360 X266.341 Y201.324
N2365 X270.118
N2370 X270.873 Y201.29
N2375 X273.139 Y201.163
N2380 X273.895 Y201.099
N2385 X274.65 Y200.971
N2390 X276.916 Y200.586
N2395 X277.228 Y200.526
N2400 X277.671 Y200.404
N2405 X279.937 Y199.751
N2410 X280.692 Y199.523
N2415 X281.448 Y199.214
N2420 X283.714 Y198.276
N2425 X283.748 Y198.261
N2430 X284.469 Y197.888
N2435 X286.735 Y196.635
N2440 X287.49 Y196.147
N2445 X289.756 Y194.54
N2450 X289.829 Y194.486
N2455 X290.511 Y193.899
N2460 X292.389 Y192.221
N2465 X292.777 Y191.834
N2470 X294.455 Y189.957
N2475 X295.043 Y189.274
N2480 X295.096 Y189.202
N2485 X296.703 Y186.937
N2490 X297.193 Y186.182
N2495 X298.444 Y183.917
N2500 X298.82 Y183.195
N2505 X298.834 Y183.162
N2510 X299.772 Y180.897
N2515 X300.081 Y180.143
N2520 X300.311 Y179.388
N2525 X300.963 Y177.123
N2530 X301.086 Y176.678
N2535 X301.147 Y176.368
N2540 X301.531 Y174.103
N2545 X301.66 Y173.348
N2550 X301.725 Y172.593
N2555 X301.852 Y170.328
N2560 X301.887 Y169.573
N2565 Y29.911
N2570 X301.852 Y29.156
N2575 X301.725 Y26.891
N2580 X301.66 Y26.136
N2585 X301.531 Y25.381
N2590 X301.147 Y23.116
N2595 X301.086 Y22.806
N2600 X300.963 Y22.361
N2605 X300.311 Y20.097
N2610 X300.081 Y19.342
N2615 X299.772 Y18.587
N2620 X298.834 Y16.322
N2625 X298.82 Y16.289
N2630 X298.444 Y15.567
N2635 X297.193 Y13.302
N2640 X296.703 Y12.547
N2645 X295.096 Y10.282
N2650 X295.043 Y10.21
N2655 X294.455 Y9.528
N2660 X292.777 Y7.65
N2665 X292.389 Y7.263
N2670 X290.511 Y5.585
N2675 X289.829 Y4.998
N2680 X289.756 Y4.945
N2685 X287.49 Y3.337
N2690 X286.735 Y2.849
N2695 X284.469 Y1.597
N2700 X283.748 Y1.223
N2705 X283.714 Y1.209
N2710 X281.448 Y0.27
N2715 X280.692 Y-0.039
N2720 X279.937 Y-0.267
N2725 X277.671 Y-0.92
N2730 X277.228 Y-1.042
N2735 X276.916 Y-1.102
N2740 X274.65 Y-1.487
N2745 X273.895 Y-1.615
N2750 X273.139 Y-1.679
N2755 X270.873 Y-1.806
N2760 X270.118 Y-1.84
N2765 X266.341
N2770 X262.565 Y-1.839
N2775 X258.788 Y-1.838
N2780 X255.012 Y-1.837
N2785 X251.235 Y-1.836
N2790 X247.459 Y-1.834
N2795 X243.682 Y-1.832
N2800 X194.587 Y-1.802
N2805 X193.832 Y-1.8
N2810 X178.725 Y-1.66
N2815 X177.97 Y-1.653
N2820 X80.535 Y-1.684
N2825 X72.982 Y-1.687
N2830 X65.429 Y-1.688
N2835 X57.876 Y-1.69
N2840 X49.567 Y-1.691
N2845 X41.259 Y-1.692
N2850 X32.95
N2855 X29.929
N2860 X29.174 Y-1.667
N2865 X26.908 Y-1.539
N2870 X26.153 Y-1.487
N2875 X25.397 Y-1.362
N2880 X23.131 Y-0.977
N2885 X22.376 Y-0.809
N2890 X20.11 Y-0.156
N2895 X19.355 Y0.066
N2900 X18.6 Y0.369
N2905 X16.334 Y1.307
N2910 X15.578 Y1.684
N2915 X13.312 Y2.936
N2920 X12.557 Y3.413
N2925 X10.291 Y5.021
N2930 X9.536 Y5.651
N2935 X7.732 Y7.263
N2940 X7.27 Y7.707
N2945 X6.992 Y8.018
N2950 X5.643 Y9.528
N2955 X5.004 Y10.26
N2960 X4.987 Y10.282
N2965 X4.448 Y11.037
N2970 X3.377 Y12.547
N2975 X2.875 Y13.302
N2980 X1.624 Y15.567
N2985 X1.227 Y16.32
N2990 X0.913 Y17.077
N2995 X0.287 Y18.587
N3000 X-0.024 Y19.342
N3005 X-0.258 Y20.097
N3010 X-0.91 Y22.361
N3015 X-1.039 Y22.823
N3020 X-1.098 Y23.116
N3025 X-1.611 Y26.136
N3030 X-1.678 Y26.891
N3035 X-1.794 Y28.954
N3040 X-1.805 Y29.156
N3045 X-1.84 Y29.911
N3050 Y98.662
N3055 X-1.847 Y100.237 Z16.044
N3060 X-1.866 Y101.812 Z16.027
N3065 X-1.896 Y103.387 Z15.999
N3070 X-1.935 Y104.962 Z15.963
N3075 X-1.983 Y106.537 Z15.919
N3080 X-2.036 Y108.112 Z15.867
N3085 X-2.092 Y109.687 Z15.812
N3090 X-2.532 Y122.287 Z15.372
N3095 X-2.642 Y125.437 Z15.262
N3100 X-2.696 Y127.012 Z15.208
N3105 X-2.744 Y128.587 Z15.16
N3110 X-2.785 Y130.162 Z15.119
N3115 X-2.817 Y131.737 Z15.087
N3120 X-2.84 Y133.312 Z15.064
N3125 X-2.852 Y134.887 Z15.052
N3130 X-2.854 Y135.726 Z15.05
N3135 Y169.573
N3140 X-2.82 Y170.328
N3145 X-2.693 Y172.593
N3150 X-2.636 Y173.348
N3155 X-2.549 Y173.872
N3160 X-2.125 Y176.368
N3165 X-1.964 Y177.123
N3170 X-1.312 Y179.388
N3175 X-1.094 Y180.143
N3180 X-1.039 Y180.319
N3185 X-0.809 Y180.897
N3190 X0.129 Y183.162
N3195 X0.467 Y183.917
N3200 X0.472 Y183.927
N3205 X0.884 Y184.672
N3210 X1.983 Y186.661
N3215 X2.143 Y186.937
N3220 X2.671 Y187.692
N3225 X3.742 Y189.202
N3230 X4.249 Y189.905
N3235 X4.29 Y189.957
N3240 X4.959 Y190.712
N3245 X6.515 Y192.453
N3250 X7.057 Y192.976
N3255 X8.781 Y194.517
N3260 X9.536 Y195.168
N3265 X9.637 Y195.241
N3270 X11.802 Y196.777
N3275 X12.557 Y197.288
N3280 X12.951 Y197.506
N3285 X14.823 Y198.54
N3290 X15.578 Y198.951
N3295 X15.716 Y199.016
N3300 X16.334 Y199.273
N3305 X18.6 Y200.212
N3310 X19.355 Y200.477
N3315 X22.144 Y201.281
N3320 X22.376 Y201.345
N3325 X23.131 Y201.489
N3330 X25.397 Y201.874
N3335 X26.153 Y201.991
N3340 X26.864 Y202.036
N3345 X29.174 Y202.165
N3350 X29.929 Y202.19
N3355 X103.95 Y202.218
N3360 X112.258 Y202.221
N3365 X120.566 Y202.224
N3370 X128.875 Y202.226
N3375 X137.183 Y202.227
N3380 X145.492 Y202.229
N3385 X153.8
N3390 X162.109 Y202.23
N3395 X170.417
N3400 X177.97
N3405 X178.725 Y202.237
N3410 X193.832 Y202.377
N3415 X194.587 Y202.378
N3420 X199.119
N3425 X203.651
N3430 X208.183 Y202.377
N3435 X211.959 Y202.376
N3440 X215.736 Y202.375
N3445 X219.512 Y202.373
N3450 X223.289 Y202.372
N3455 X227.065 Y202.37
N3460 X230.842 Y202.367
N3465 X235.374 Y202.364
N3470 X270.118 Y202.338
N3475 X270.873 Y202.305
N3480 X273.139 Y202.178
N3485 X273.895 Y202.123
N3490 X274.433 Y202.036
N3495 X276.916 Y201.614
N3500 X277.671 Y201.458
N3505 X280.692 Y200.588
N3510 X280.897 Y200.526
N3515 X281.448 Y200.311
N3520 X283.714 Y199.372
N3525 X284.469 Y199.043
N3530 X284.52 Y199.016
N3535 X285.224 Y198.628
N3540 X287.253 Y197.506
N3545 X287.49 Y197.372
N3550 X288.245 Y196.854
N3555 X289.756 Y195.782
N3560 X290.512 Y195.241
N3565 X291.267 Y194.583
N3570 X293.064 Y192.976
N3575 X293.533 Y192.509
N3580 X295.139 Y190.712
N3585 X295.799 Y189.956
N3590 X296.339 Y189.202
N3595 X297.41 Y187.692
N3600 X297.929 Y186.937
N3605 X298.064 Y186.699
N3610 X299.185 Y184.672
N3615 X299.575 Y183.964
N3620 X299.6 Y183.917
N3625 X299.93 Y183.162
N3630 X300.868 Y180.897
N3635 X301.086 Y180.343
N3640 X301.147 Y180.143
N3645 X302.017 Y177.123
N3650 X302.174 Y176.368
N3655 X302.596 Y173.883
N3660 X302.684 Y173.348
N3665 X302.74 Y172.593
N3670 X302.867 Y170.328
N3675 X302.901 Y169.573
N3680 Y29.911
N3685 X302.867 Y29.156
N3690 X302.74 Y26.891
N3695 X302.684 Y26.136
N3700 X302.596 Y25.601
N3705 X302.174 Y23.116
N3710 X302.017 Y22.361
N3715 X301.147 Y19.342
N3720 X301.086 Y19.141
N3725 X300.868 Y18.587
N3730 X299.93 Y16.322
N3735 X299.6 Y15.567
N3740 X299.575 Y15.52
N3745 X299.185 Y14.812
N3750 X298.064 Y12.786
N3755 X297.929 Y12.547
N3760 X297.41 Y11.792
N3765 X296.339 Y10.282
N3770 X295.798 Y9.528
N3775 X295.139 Y8.773
N3780 X293.533 Y6.975
N3785 X293.064 Y6.508
N3790 X291.267 Y4.901
N3795 X290.511 Y4.243
N3800 X289.756 Y3.703
N3805 X288.245 Y2.631
N3810 X287.49 Y2.112
N3815 X287.253 Y1.978
N3820 X285.224 Y0.857
N3825 X284.52 Y0.468
N3830 X284.469 Y0.441
N3835 X283.714 Y0.112
N3840 X281.448 Y-0.826
N3845 X280.897 Y-1.042
N3850 X280.692 Y-1.104
N3855 X277.671 Y-1.974
N3860 X276.916 Y-2.13
N3865 X274.433 Y-2.551
N3870 X273.895 Y-2.639
N3875 X273.139 Y-2.694
N3880 X270.873 Y-2.821
N3885 X270.118 Y-2.854
N3890 X232.352 Y-2.882
N3895 X228.576 Y-2.885
N3900 X224.799 Y-2.887
N3905 X221.023 Y-2.889
N3910 X217.246 Y-2.89
N3915 X213.47 Y-2.892
N3920 X209.693 Y-2.893
N3925 X205.161
N3930 X200.629 Y-2.894
N3935 X196.098
N3940 X194.587
N3945 X193.832 Y-2.893
N3950 X178.725 Y-2.752
N3955 X177.97 Y-2.746
N3960 X168.906
N3965 X160.598
N3970 X152.29 Y-2.745
N3975 X143.981 Y-2.744
N3980 X135.673 Y-2.743
N3985 X127.364 Y-2.741
N3990 X119.056 Y-2.739
N3995 X110.747 Y-2.737
N4000 X102.439 Y-2.734
N4005 X29.929 Y-2.706
N4010 X29.174 Y-2.681
N4015 X26.864 Y-2.551
N4020 X26.153 Y-2.507
N4025 X25.397 Y-2.39
N4030 X23.131 Y-2.005
N4035 X22.376 Y-1.861
N4040 X22.144 Y-1.796
N4045 X19.355 Y-0.993
N4050 X18.6 Y-0.728
N4055 X16.334 Y0.211
N4060 X15.716 Y0.468
N4065 X15.578 Y0.533
N4070 X14.823 Y0.944
N4075 X12.951 Y1.978
N4080 X12.557 Y2.197
N4085 X11.802 Y2.707
N4090 X9.637 Y4.243
N4095 X9.536 Y4.316
N4100 X8.781 Y4.967
N4105 X7.057 Y6.508
N4110 X6.515 Y7.032
N4115 X4.959 Y8.773
N4120 X4.29 Y9.528
N4125 X4.249 Y9.579
N4130 X3.742 Y10.282
N4135 X2.671 Y11.792
N4140 X2.143 Y12.547
N4145 X1.983 Y12.823
N4150 X0.884 Y14.812
N4155 X0.472 Y15.557
N4160 X0.467 Y15.567
N4165 X0.129 Y16.322
N4170 X-0.809 Y18.587
N4175 X-1.039 Y19.166
N4180 X-1.094 Y19.342
N4185 X-1.794 Y21.77
N4190 X-1.964 Y22.361
N4195 X-2.125 Y23.116
N4200 X-2.549 Y25.612
N4205 X-2.636 Y26.136
N4210 X-2.693 Y26.891
N4215 X-2.82 Y29.156
N4220 X-2.854 Y29.911
N4225 Y98.662
N4230 Y135.726
N4235 X-2.86 Y137.301 Z15.044
N4240 X-2.877 Y138.876 Z15.027
N4245 X-2.905 Y140.451 Z14.999
N4250 X-2.941 Y142.026 Z14.963
N4255 X-2.986 Y143.601 Z14.919
N4260 X-3.037 Y145.176 Z14.867
N4265 X-3.092 Y146.751 Z14.812
N4270 X-3.146 Y148.326 Z14.757
N4275 X-3.2 Y149.901 Z14.702
N4280 X-3.252 Y151.476 Z14.647
N4285 X-3.303 Y153.051 Z14.592
N4290 X-3.352 Y154.626 Z14.537
N4295 X-3.401 Y156.201 Z14.482
N4300 X-3.448 Y157.776 Z14.427
N4305 X-3.495 Y159.351 Z14.372
N4310 X-3.54 Y160.926 Z14.317
N4315 X-3.584 Y162.501 Z14.262
N4320 X-3.627 Y164.076 Z14.208
N4325 X-3.664 Y165.651 Z14.16
N4330 X-3.695 Y167.226 Z14.119
N4335 X-3.719 Y168.801 Z14.087
N4340 X-3.7 Y170.374 Z14.064
N4345 X-3.62 Y171.947 Z14.052
N4350 X-3.572 Y172.792 Z14.05
N4355 X-3.534 Y173.348
N4360 X-3.414 Y174.103
N4365 X-3.029 Y176.368
N4370 X-2.888 Y177.123
N4375 X-2.674 Y177.878
N4380 X-2.022 Y180.143
N4385 X-1.794 Y180.848
N4390 X-1.774 Y180.897
N4395 X-0.836 Y183.162
N4400 X-0.523 Y183.917
N4405 X-0.283 Y184.404
N4410 X1.227 Y187.137
N4415 X1.39 Y187.414
N4420 X1.578 Y187.692
N4425 X3.185 Y189.957
N4430 X3.493 Y190.386
N4435 X3.763 Y190.712
N4440 X5.787 Y192.976
N4445 X6.151 Y193.359
N4450 X6.515 Y193.687
N4455 X8.253 Y195.241
N4460 X8.781 Y195.708
N4465 X9.16 Y195.996
N4470 X11.288 Y197.506
N4475 X11.802 Y197.868
N4480 X12.474 Y198.261
N4485 X14.823 Y199.559
N4490 X15.225 Y199.771
N4495 X15.578 Y199.925
N4500 X17.844 Y200.864
N4505 X18.6 Y201.173
N4510 X18.925 Y201.281
N4515 X19.355 Y201.405
N4520 X21.621 Y202.057
N4525 X22.376 Y202.261
N4530 X23.131 Y202.393
N4535 X25.47 Y202.79
N4540 X26.153 Y202.887
N4545 X26.908 Y202.931
N4550 X29.174 Y203.058
N4555 X29.929 Y203.082
N4560 X42.014
N4565 X54.099 Y203.081
N4570 X66.184 Y203.08
N4575 X78.269 Y203.079
N4580 X90.354 Y203.077
N4585 X101.684 Y203.075
N4590 X113.013 Y203.073
N4595 X124.343 Y203.07
N4600 X177.97 Y203.056
N4605 X178.725 Y203.063
N4610 X193.832 Y203.203
N4615 X194.587 Y203.205
N4620 X222.533 Y203.219
N4625 X228.576 Y203.222
N4630 X234.618 Y203.224
N4635 X240.661 Y203.226
N4640 X246.703 Y203.227
N4645 X252.746 Y203.229
N4650 X258.788
N4655 X264.831 Y203.23
N4660 X270.118
N4665 X270.873 Y203.198
N4670 X273.139 Y203.07
N4675 X273.895 Y203.021
N4680 X274.65 Y202.903
N4685 X276.916 Y202.518
N4690 X277.671 Y202.379
N4695 X278.426 Y202.168
N4700 X280.692 Y201.516
N4705 X281.432 Y201.281
N4710 X281.448 Y201.274
N4715 X282.203 Y200.963
N4720 X284.469 Y200.024
N4725 X284.734 Y199.907
N4730 X284.998 Y199.771
N4735 X287.73 Y198.261
N4740 X288.245 Y197.946
N4745 X288.866 Y197.506
N4750 X290.511 Y196.339
N4755 X290.992 Y195.996
N4760 X291.267 Y195.777
N4765 X291.868 Y195.241
N4770 X293.557 Y193.731
N4775 X293.922 Y193.396
N4780 X294.288 Y193.001
N4785 X295.799 Y191.311
N4790 X296.333 Y190.712
N4795 X296.554 Y190.436
N4800 X296.896 Y189.957
N4805 X298.064 Y188.309
N4810 X298.503 Y187.692
N4815 X298.82 Y187.175
N4820 X300.33 Y184.441
N4825 X300.466 Y184.179
N4830 X300.582 Y183.917
N4835 X301.52 Y181.652
N4840 X301.832 Y180.897
N4845 X301.841 Y180.876
N4850 X302.075 Y180.143
N4855 X302.727 Y177.878
N4860 X302.939 Y177.123
N4865 X303.078 Y176.368
N4870 X303.463 Y174.103
N4875 X303.583 Y173.348
N4880 X303.633 Y172.593
N4885 X303.76 Y170.328
N4890 X303.793 Y169.573
N4895 Y29.911
N4900 X303.76 Y29.156
N4905 X303.633 Y26.891
N4910 X303.583 Y26.136
N4915 X303.463 Y25.381
N4920 X303.078 Y23.116
N4925 X302.939 Y22.361
N4930 X302.727 Y21.606
N4935 X302.075 Y19.342
N4940 X301.841 Y18.609
N4945 X301.832 Y18.587
N4950 X301.52 Y17.832
N4955 X300.582 Y15.567
N4960 X300.466 Y15.305
N4965 X300.33 Y15.043
N4970 X298.82 Y12.31
N4975 X298.503 Y11.792
N4980 X297.967 Y11.037
N4985 X296.896 Y9.528
N4990 X296.554 Y9.048
N4995 X296.333 Y8.773
N5000 X295.799 Y8.173
N5005 X294.288 Y6.483
N5010 X293.922 Y6.088
N5015 X293.557 Y5.753
N5020 X291.867 Y4.243
N5025 X291.267 Y3.708
N5030 X290.992 Y3.488
N5035 X290.511 Y3.146
N5040 X288.866 Y1.978
N5045 X288.245 Y1.538
N5050 X287.73 Y1.223
N5055 X284.998 Y-0.287
N5060 X284.734 Y-0.422
N5065 X284.469 Y-0.54
N5070 X282.203 Y-1.478
N5075 X281.448 Y-1.79
N5080 X281.432 Y-1.796
N5085 X280.692 Y-2.032
N5090 X278.426 Y-2.684
N5095 X277.671 Y-2.895
N5100 X276.916 Y-3.034
N5105 X274.65 Y-3.419
N5110 X273.895 Y-3.537
N5115 X273.139 Y-3.586
N5120 X270.873 Y-3.714
N5125 X270.118 Y-3.746
N5130 X264.076
N5135 X258.033 Y-3.745
N5140 X251.991 Y-3.744
N5145 X245.948 Y-3.743
N5150 X239.906 Y-3.741
N5155 X233.863 Y-3.739
N5160 X227.821 Y-3.737
N5165 X221.778 Y-3.734
N5170 X194.587 Y-3.72
N5175 X193.832 Y-3.719
N5180 X178.725 Y-3.579
N5185 X177.97 Y-3.572
N5190 X122.077 Y-3.587
N5195 X110.747 Y-3.589
N5200 X99.418 Y-3.592
N5205 X88.088 Y-3.594
N5210 X76.003 Y-3.595
N5215 X63.918 Y-3.596
N5220 X51.833 Y-3.597
N5225 X39.748 Y-3.598
N5230 X29.929
N5235 X29.174 Y-3.574
N5240 X26.908 Y-3.447
N5245 X26.153 Y-3.403
N5250 X25.47 Y-3.306
N5255 X23.131 Y-2.909
N5260 X22.376 Y-2.777
N5265 X21.621 Y-2.573
N5270 X19.355 Y-1.92
N5275 X18.925 Y-1.796
N5280 X18.6 Y-1.688
N5285 X17.844 Y-1.38
N5290 X15.578 Y-0.441
N5295 X15.225 Y-0.287
N5300 X14.823 Y-0.075
N5305 X12.474 Y1.223
N5310 X11.802 Y1.616
N5315 X11.288 Y1.978
N5320 X9.16 Y3.488
N5325 X8.781 Y3.776
N5330 X8.253 Y4.243
N5335 X6.515 Y5.797
N5340 X6.151 Y6.125
N5345 X5.787 Y6.508
N5350 X3.763 Y8.773
N5355 X3.493 Y9.098
N5360 X3.185 Y9.528
N5365 X1.578 Y11.792
N5370 X1.39 Y12.07
N5375 X1.227 Y12.347
N5380 X-0.283 Y15.08
N5385 X-0.523 Y15.567
N5390 X-0.836 Y16.322
N5395 X-1.774 Y18.587
N5400 X-1.794 Y18.636
N5405 X-2.022 Y19.342
N5410 X-2.674 Y21.606
N5415 X-2.888 Y22.361
N5420 X-3.029 Y23.116
N5425 X-3.304 Y24.736
N5430 X-3.414 Y25.381
N5435 X-3.534 Y26.136
N5440 X-3.585 Y26.891
N5445 X-3.713 Y29.156
N5450 X-3.746 Y29.911
N5455 Y135.726
N5460 Y169.573
N5465 X-3.713 Y170.328
N5470 X-3.585 Y172.593
N5475 X-3.572 Y172.792
N5480 X-3.509 Y173.543 Z14.049
N5485 X-3.387 Y174.287 Z14.044
N5490 X-3.135 Y175.841 Z14.028
N5495 X-3.017 Y176.59 Z14.016
N5500 X-2.954 Y176.964 Z14.009
N5505 X-2.868 Y177.333 Z14.002
N5510 X-2.459 Y178.844 Z13.966
N5515 X-2.052 Y180.365 Z13.923
N5520 X-1.944 Y180.728 Z13.911
N5525 X-1.812 Y181.083 Z13.899
N5530 X-1.539 Y181.789 Z13.874
N5535 X-0.97 Y183.258 Z13.819
N5540 X-0.694 Y183.968 Z13.793
N5545 X-0.367 Y184.656 Z13.766
N5550 X0.364 Y186.052 Z13.711
N5555 X0.729 Y186.748 Z13.683
N5560 X1.096 Y187.443 Z13.656
N5565 X1.513 Y188.088 Z13.629
N5570 X1.943 Y188.724 Z13.602
N5575 X3.043 Y190.348 Z13.534
N5580 X3.264 Y190.663 Z13.52
N5585 X3.758 Y191.256 Z13.493
N5590 X4.781 Y192.454 Z13.438
N5595 X5.288 Y193.046 Z13.411
N5600 X5.804 Y193.63 Z13.384
N5605 X6.087 Y193.902 Z13.37
N5610 X6.374 Y194.169 Z13.356
N5615 X6.947 Y194.704 Z13.329
N5620 X8.098 Y195.779 Z13.274
N5625 X8.683 Y196.296 Z13.246
N5630 X9.309 Y196.762 Z13.22
N5635 X10.575 Y197.699 Z13.17
N5640 X11.207 Y198.164 Z13.148
N5645 X11.525 Y198.393 Z13.138
N5650 X11.858 Y198.602 Z13.128
N5655 X13.226 Y199.383 Z13.094
N5660 X14.597 Y200.158 Z13.068
N5665 X14.944 Y200.343 Z13.064
N5670 X15.304 Y200.504 Z13.06
N5675 X16.029 Y200.808 Z13.054
N5680 X17.154 Y201.277 Z13.05
N5685 X17.844 Y201.563
N5690 X18.6 Y201.856
N5695 X19.213 Y202.036
N5700 X21.834 Y202.79
N5705 X22.376 Y202.919
N5710 X23.131 Y203.048
N5715 X25.397 Y203.433
N5720 X26.153 Y203.534
N5725 X26.34 Y203.545
N5730 X29.174 Y203.705
N5735 X29.929 Y203.728
N5740 X141.715 Y203.761
N5745 X149.268 Y203.763
N5750 X156.821 Y203.764
N5755 X164.374 Y203.765
N5760 X171.928 Y203.766
N5765 X177.97
N5770 X178.725 Y203.773
N5775 X193.832 Y203.913
N5780 X194.587 Y203.914
N5785 X198.363
N5790 X202.14 Y203.913
N5795 X205.917 Y203.912
N5800 X209.693 Y203.911
N5805 X213.47 Y203.909
N5810 X270.118 Y203.876
N5815 X270.873 Y203.844
N5820 X273.139 Y203.717
N5825 X273.895 Y203.671
N5830 X274.65 Y203.558
N5835 X276.916 Y203.173
N5840 X277.671 Y203.041
N5845 X278.426 Y202.84
N5850 X280.692 Y202.187
N5855 X281.219 Y202.036
N5860 X281.448 Y201.963
N5865 X282.203 Y201.661
N5870 X284.469 Y200.723
N5875 X284.935 Y200.526
N5880 X285.224 Y200.383
N5885 X285.98 Y199.966
N5890 X287.699 Y199.016
N5895 X288.245 Y198.712
N5900 X288.918 Y198.261
N5905 X291.267 Y196.594
N5910 X291.629 Y196.316
N5915 X291.992 Y195.996
N5920 X293.681 Y194.486
N5925 X294.288 Y193.941
N5930 X294.498 Y193.731
N5935 X295.043 Y193.125
N5940 X296.554 Y191.434
N5945 X296.873 Y191.073
N5950 X297.152 Y190.712
N5955 X298.82 Y188.361
N5960 X299.27 Y187.692
N5965 X299.575 Y187.143
N5970 X300.523 Y185.427
N5975 X300.94 Y184.672
N5980 X301.086 Y184.379
N5985 X301.281 Y183.917
N5990 X302.219 Y181.652
N5995 X302.521 Y180.897
N6000 X302.596 Y180.664
N6005 X302.747 Y180.143
N6010 X303.399 Y177.878
N6015 X303.601 Y177.123
N6020 X303.733 Y176.368
N6025 X304.118 Y174.103
N6030 X304.232 Y173.348
N6035 X304.279 Y172.593
N6040 X304.406 Y170.328
N6045 X304.439 Y169.573
N6050 Y29.911
N6055 X304.406 Y29.156
N6060 X304.279 Y26.891
N6065 X304.232 Y26.136
N6070 X304.118 Y25.381
N6075 X303.733 Y23.116
N6080 X303.601 Y22.361
N6085 X303.399 Y21.606
N6090 X302.747 Y19.342
N6095 X302.596 Y18.82
N6100 X302.521 Y18.587
N6105 X302.219 Y17.832
N6110 X301.281 Y15.567
N6115 X301.086 Y15.106
N6120 X300.94 Y14.812
N6125 X300.523 Y14.057
N6130 X299.575 Y12.342
N6135 X299.27 Y11.792
N6140 X298.82 Y11.124
N6145 X297.152 Y8.773
N6150 X296.873 Y8.411
N6155 X296.554 Y8.05
N6160 X295.043 Y6.359
N6165 X294.498 Y5.753
N6170 X294.288 Y5.543
N6175 X293.681 Y4.998
N6180 X291.991 Y3.488
N6185 X291.629 Y3.168
N6190 X291.267 Y2.89
N6195 X288.918 Y1.223
N6200 X288.245 Y0.772
N6205 X287.699 Y0.468
N6210 X285.98 Y-0.482
N6215 X285.224 Y-0.899
N6220 X284.935 Y-1.042
N6225 X284.469 Y-1.238
N6230 X282.203 Y-2.177
N6235 X281.448 Y-2.479
N6240 X281.219 Y-2.551
N6245 X279.937 Y-2.921
N6250 X278.426 Y-3.356
N6255 X277.671 Y-3.557
N6260 X276.916 Y-3.688
N6265 X274.65 Y-4.073
N6270 X273.895 Y-4.187
N6275 X273.139 Y-4.233
N6280 X270.873 Y-4.36
N6285 X270.118 Y-4.392
N6290 X212.714 Y-4.425
N6295 X208.938 Y-4.427
N6300 X205.161 Y-4.428
N6305 X201.385 Y-4.429
N6310 X197.608 Y-4.43
N6315 X194.587
N6320 X193.832 Y-4.429
N6325 X178.725 Y-4.289
N6330 X177.97 Y-4.282
N6335 X170.417
N6340 X162.864 Y-4.281
N6345 X155.311 Y-4.28
N6350 X147.758 Y-4.278
N6355 X140.205 Y-4.277
N6360 X29.929 Y-4.244
N6365 X29.174 Y-4.22
N6370 X26.34 Y-4.061
N6375 X26.153 Y-4.05
N6380 X25.397 Y-3.949
N6385 X23.131 Y-3.564
N6390 X22.376 Y-3.435
N6395 X21.834 Y-3.306
N6400 X19.213 Y-2.551
N6405 X18.6 Y-2.372
N6410 X17.844 Y-2.078
N6415 X15.341 Y-1.042
N6420 X14.823 Y-0.809
N6425 X14.068 Y-0.395
N6430 X12.506 Y0.468
N6435 X11.802 Y0.858
N6440 X11.519 Y1.029
N6445 X11.237 Y1.223
N6450 X8.781 Y2.966
N6455 X8.455 Y3.208
N6460 X8.129 Y3.488
N6465 X6.44 Y4.998
N6470 X5.759 Y5.607
N6475 X5.608 Y5.753
N6480 X5.004 Y6.416
N6485 X3.493 Y8.106
N6490 X2.93 Y8.773
N6495 X2.738 Y9.041
N6500 X1.227 Y11.17
N6505 X0.802 Y11.792
N6510 X0.472 Y12.379
N6515 X-0.872 Y14.812
N6520 X-1.039 Y15.138
N6525 X-1.222 Y15.567
N6530 X-2.16 Y17.832
N6535 X-2.465 Y18.587
N6540 X-2.549 Y18.841
N6545 X-2.694 Y19.342
N6550 X-3.346 Y21.606
N6555 X-3.551 Y22.361
N6560 X-3.684 Y23.116
N6565 X-4.06 Y25.328
N6570 X-4.069 Y25.381
N6575 X-4.184 Y26.136
N6580 X-4.232 Y26.891
N6585 X-4.359 Y29.156
N6590 X-4.392 Y29.911
N6595 Y169.573
N6600 X-4.359 Y170.328
N6605 X-4.232 Y172.593
N6610 X-4.184 Y173.348
N6615 X-4.069 Y174.103
N6620 X-3.684 Y176.368
N6625 X-3.551 Y177.123
N6630 X-3.346 Y177.878
N6635 X-2.694 Y180.143
N6640 X-2.549 Y180.643
N6645 X-2.465 Y180.897
N6650 X-2.16 Y181.652
N6655 X-1.222 Y183.917
N6660 X-1.039 Y184.346
N6665 X-0.872 Y184.672
N6670 X0.472 Y187.105
N6675 X0.802 Y187.692
N6680 X1.227 Y188.314
N6685 X2.738 Y190.443
N6690 X2.93 Y190.712
N6695 X3.493 Y191.378
N6700 X5.004 Y193.069
N6705 X5.608 Y193.731
N6710 X5.759 Y193.877
N6715 X6.44 Y194.486
N6720 X8.129 Y195.996
N6725 X8.455 Y196.276
N6730 X8.781 Y196.518
N6735 X11.237 Y198.261
N6740 X11.519 Y198.455
N6745 X11.802 Y198.626
N6750 X12.557 Y199.044
N6755 X14.068 Y199.879
N6760 X14.823 Y200.293
N6765 X15.341 Y200.526
N6770 X17.154 Y201.277
N6775 X17.859 Y201.57 Z13.049
N6780 X18.568 Y201.85 Z13.044
N6785 X19.314 Y202.073 Z13.037
N6790 X20.06 Y202.294 Z13.028
N6795 X21.569 Y202.746 Z13.001
N6800 X22.298 Y202.946 Z12.984
N6805 X23.04 Y203.086 Z12.966
N6810 X24.589 Y203.377 Z12.922
N6815 X25.344 Y203.52 Z12.898
N6820 X26.103 Y203.642 Z12.873
N6825 X26.879 Y203.704 Z12.846
N6830 X27.655 Y203.765 Z12.819
N6835 X29.215 Y203.887 Z12.764
N6840 X30.776 Y203.942 Z12.709
N6845 X37.076 Y204.082 Z12.489
N6850 X38.651 Y204.116 Z12.434
N6855 X40.226 Y204.149 Z12.379
N6860 X41.801 Y204.181 Z12.324
N6865 X43.376 Y204.212 Z12.269
N6870 X44.951 Y204.243 Z12.214
N6875 X46.526 Y204.268 Z12.166
N6880 X48.101 Y204.291 Z12.124
N6885 X49.676 Y204.308 Z12.09
N6890 X51.251 Y204.321 Z12.066
N6895 X52.826 Y204.328 Z12.053
N6900 X53.864 Y204.329 Z12.05
N6905 X177.97 Y204.305
N6910 X178.725 Y204.312
N6915 X193.832 Y204.452
N6920 X194.587 Y204.453
N6925 X263.32 Y204.479
N6930 X270.118 Y204.481
N6935 X270.873 Y204.45
N6940 X273.533 Y204.3
N6945 X273.895 Y204.278
N6950 X274.65 Y204.171
N6955 X276.916 Y203.786
N6960 X277.671 Y203.657
N6965 X278.161 Y203.545
N6970 X278.426 Y203.469
N6975 X280.783 Y202.79
N6980 X281.448 Y202.598
N6985 X281.825 Y202.47
N6990 X282.203 Y202.316
N6995 X284.702 Y201.281
N7000 X285.224 Y201.059
N7005 X285.98 Y200.657
N7010 X288.245 Y199.404
N7015 X288.897 Y199.016
N7020 X289.001 Y198.943
N7025 X291.267 Y197.335
N7030 X292.022 Y196.776
N7035 X292.052 Y196.751
N7040 X292.777 Y196.105
N7045 X294.588 Y194.486
N7050 X294.816 Y194.272
N7055 X295.043 Y194.032
N7060 X296.661 Y192.221
N7065 X297.309 Y191.494
N7070 X297.333 Y191.467
N7075 X297.893 Y190.712
N7080 X299.5 Y188.447
N7085 X299.575 Y188.339
N7090 X299.962 Y187.692
N7095 X301.214 Y185.427
N7100 X301.617 Y184.672
N7105 X301.841 Y184.145
N7110 X302.873 Y181.652
N7115 X303.158 Y180.897
N7120 X303.352 Y180.226
N7125 X304.028 Y177.878
N7130 X304.107 Y177.603
N7135 X304.217 Y177.123
N7140 X304.346 Y176.368
N7145 X304.731 Y174.103
N7150 X304.84 Y173.348
N7155 X304.862 Y172.99
N7160 X305.012 Y170.328
N7165 X305.044 Y169.573
N7170 Y29.911
N7175 X305.012 Y29.156
N7180 X304.862 Y26.494
N7185 X304.84 Y26.136
N7190 X304.731 Y25.381
N7195 X304.346 Y23.116
N7200 X304.217 Y22.361
N7205 X304.107 Y21.881
N7210 X304.028 Y21.606
N7215 X303.352 Y19.258
N7220 X303.158 Y18.587
N7225 X302.873 Y17.832
N7230 X301.841 Y15.339
N7235 X301.617 Y14.812
N7240 X301.214 Y14.057
N7245 X299.962 Y11.792
N7250 X299.575 Y11.145
N7255 X299.5 Y11.037
N7260 X297.893 Y8.773
N7265 X297.333 Y8.018
N7270 X297.309 Y7.99
N7275 X296.661 Y7.263
N7280 X295.043 Y5.452
N7285 X294.816 Y5.212
N7290 X294.588 Y4.998
N7295 X292.777 Y3.38
N7300 X292.052 Y2.733
N7305 X292.022 Y2.708
N7310 X291.267 Y2.149
N7315 X289.001 Y0.541
N7320 X288.897 Y0.468
N7325 X288.245 Y0.08
N7330 X285.98 Y-1.173
N7335 X285.224 Y-1.574
N7340 X284.702 Y-1.796
N7345 X282.203 Y-2.831
N7350 X281.825 Y-2.985
N7355 X281.448 Y-3.114
N7360 X280.783 Y-3.306
N7365 X278.426 Y-3.985
N7370 X278.161 Y-4.061
N7375 X277.671 Y-4.173
N7380 X276.916 Y-4.302
N7385 X274.65 Y-4.687
N7390 X273.895 Y-4.794
N7395 X273.533 Y-4.816
N7400 X270.873 Y-4.966
N7405 X270.118 Y-4.997
N7410 X260.299 Y-4.994
N7415 X194.587 Y-4.969
N7420 X193.832 Y-4.968
N7425 X178.725 Y-4.827
N7430 X177.97 Y-4.821
N7435 X43.525 Y-4.847
N7440 X29.929 Y-4.849
N7445 X29.174 Y-4.826
N7450 X26.153 Y-4.656
N7455 X25.775 Y-4.621
N7460 X25.397 Y-4.562
N7465 X22.376 Y-4.049
N7470 X21.998 Y-3.975
N7475 X21.621 Y-3.874
N7480 X18.6 Y-3.004
N7485 X18.222 Y-2.882
N7490 X17.844 Y-2.733
N7495 X15.578 Y-1.794
N7500 X14.823 Y-1.479
N7505 X14.068 Y-1.086
N7510 X11.802 Y0.167
N7515 X11.273 Y0.468
N7520 X11.046 Y0.617
N7525 X10.192 Y1.223
N7530 X8.781 Y2.225
N7535 X8.08 Y2.733
N7540 X8.025 Y2.777
N7545 X7.27 Y3.445
N7550 X5.533 Y4.998
N7555 X5.268 Y5.238
N7560 X5.004 Y5.509
N7565 X4.785 Y5.753
N7570 X3.436 Y7.263
N7575 X2.762 Y8.018
N7580 X2.738 Y8.045
N7585 X2.447 Y8.409
N7590 X2.187 Y8.773
N7595 X0.581 Y11.037
N7600 X0.472 Y11.191
N7605 X0.277 Y11.492
N7610 X0.106 Y11.792
N7615 X-1.146 Y14.057
N7620 X-1.553 Y14.812
N7625 X-1.794 Y15.368
N7630 X-2.814 Y17.832
N7635 X-3.104 Y18.587
N7640 X-3.304 Y19.278
N7645 X-3.975 Y21.606
N7650 X-4.06 Y21.9
N7655 X-4.168 Y22.361
N7660 X-4.297 Y23.116
N7665 X-4.682 Y25.381
N7670 X-4.792 Y26.136
N7675 X-4.815 Y26.494
N7680 X-4.965 Y29.156
N7685 X-4.997 Y29.911
N7690 Y169.573
N7695 X-4.965 Y170.328
N7700 X-4.815 Y172.99
N7705 X-4.792 Y173.348
N7710 X-4.682 Y174.103
N7715 X-4.297 Y176.368
N7720 X-4.168 Y177.123
N7725 X-4.06 Y177.584
N7730 X-3.975 Y177.878
N7735 X-3.304 Y180.206
N7740 X-3.104 Y180.897
N7745 X-2.814 Y181.652
N7750 X-1.794 Y184.116
N7755 X-1.553 Y184.672
N7760 X-1.146 Y185.427
N7765 X0.106 Y187.692
N7770 X0.277 Y187.993
N7775 X0.472 Y188.294
N7780 X0.581 Y188.447
N7785 X2.188 Y190.712
N7790 X2.447 Y191.076
N7795 X2.738 Y191.44
N7800 X2.762 Y191.467
N7805 X3.493 Y192.285
N7810 X4.785 Y193.731
N7815 X5.004 Y193.975
N7820 X5.268 Y194.246
N7825 X5.533 Y194.486
N7830 X7.27 Y196.039
N7835 X8.025 Y196.707
N7840 X8.08 Y196.751
N7845 X8.781 Y197.259
N7850 X10.291 Y198.331
N7855 X11.046 Y198.867
N7860 X11.273 Y199.016
N7865 X11.802 Y199.317
N7870 X14.068 Y200.57
N7875 X14.823 Y200.963
N7880 X15.584 Y201.281
N7885 X16.923 Y201.835
N7890 X17.844 Y202.217
N7895 X18.222 Y202.367
N7900 X18.6 Y202.488
N7905 X21.621 Y203.358
N7910 X21.998 Y203.459
N7915 X22.376 Y203.533
N7920 X25.397 Y204.046
N7925 X25.775 Y204.105
N7930 X26.153 Y204.14
N7935 X29.174 Y204.31
N7940 X29.929 Y204.333
N7945 X48.812 Y204.33
N7950 X53.864 Y204.329
N7955 X55.439 Y204.332 Z12.044
N7960 X57.014 Y204.341 Z12.027
N7965 X58.589 Y204.355 Z11.999
N7970 X60.164 Y204.374 Z11.963
N7975 X61.739 Y204.396 Z11.919
N7980 X63.314 Y204.422 Z11.867
N7985 X64.889 Y204.449 Z11.812
N7990 X66.464 Y204.475 Z11.757
N7995 X68.039 Y204.501 Z11.702
N8000 X69.614 Y204.526 Z11.647
N8005 X71.188 Y204.551 Z11.592
N8010 X72.763 Y204.575 Z11.537
N8015 X74.338 Y204.599 Z11.482
N8020 X75.913 Y204.622 Z11.427
N8025 X77.488 Y204.645 Z11.372
N8030 X79.063 Y204.667 Z11.317
N8035 X80.638 Y204.688 Z11.262
N8040 X82.213 Y204.709 Z11.208
N8045 X83.788 Y204.727 Z11.16
N8050 X85.363 Y204.742 Z11.119
N8055 X86.938 Y204.754 Z11.087
N8060 X88.513 Y204.762 Z11.064
N8065 X90.088 Y204.767 Z11.052
N8070 X90.936 Z11.05
N8075 X109.992 Y204.771
N8080 X130.386 Y204.775
N8085 X150.779 Y204.779
N8090 X171.172 Y204.782
N8095 X177.97 Y204.783
N8100 X178.725 Y204.79
N8105 X193.832 Y204.93
N8110 X194.587 Y204.931
N8115 X205.161 Y204.928
N8120 X215.736 Y204.924
N8125 X226.31 Y204.92
N8130 X238.395 Y204.916
N8135 X270.118 Y204.902
N8140 X270.873 Y204.871
N8145 X273.139 Y204.744
N8150 X273.895 Y204.701
N8155 X274.65 Y204.598
N8160 X277.671 Y204.085
N8165 X278.049 Y204.009
N8170 X278.426 Y203.908
N8175 X281.448 Y203.037
N8180 X281.802 Y202.926
N8185 X282.157 Y202.79
N8190 X284.469 Y201.833
N8195 X285.224 Y201.52
N8200 X285.72 Y201.281
N8205 X285.98 Y201.138
N8210 X288.453 Y199.771
N8215 X289.001 Y199.452
N8220 X289.626 Y199.016
N8225 X291.754 Y197.506
N8230 X292.022 Y197.314
N8235 X292.686 Y196.751
N8240 X294.375 Y195.241
N8245 X295.043 Y194.639
N8250 X295.196 Y194.486
N8255 X295.799 Y193.819
N8260 X297.309 Y192.128
N8265 X297.871 Y191.467
N8270 X298.064 Y191.197
N8275 X299.575 Y189.068
N8280 X300.009 Y188.447
N8285 X300.33 Y187.896
N8290 X301.695 Y185.427
N8295 X301.841 Y185.162
N8300 X302.078 Y184.672
N8305 X302.391 Y183.917
N8310 X303.352 Y181.598
N8315 X303.486 Y181.248
N8320 X303.596 Y180.897
N8325 X304.466 Y177.878
N8330 X304.568 Y177.5
N8335 X304.645 Y177.123
N8340 X305.158 Y174.103
N8345 X305.262 Y173.348
N8350 X305.306 Y172.593
N8355 X305.433 Y170.328
N8360 X305.465 Y169.573
N8365 Y29.911
N8370 X305.433 Y29.156
N8375 X305.306 Y26.891
N8380 X305.262 Y26.136
N8385 X305.158 Y25.381
N8390 X304.645 Y22.361
N8395 X304.568 Y21.984
N8400 X304.466 Y21.606
N8405 X303.596 Y18.587
N8410 X303.486 Y18.236
N8415 X303.352 Y17.886
N8420 X302.391 Y15.567
N8425 X302.078 Y14.812
N8430 X301.841 Y14.322
N8435 X301.695 Y14.057
N8440 X300.33 Y11.588
N8445 X300.009 Y11.037
N8450 X299.575 Y10.416
N8455 X298.064 Y8.287
N8460 X297.871 Y8.018
N8465 X297.309 Y7.356
N8470 X295.799 Y5.666
N8475 X295.196 Y4.998
N8480 X295.043 Y4.845
N8485 X294.375 Y4.243
N8490 X292.686 Y2.733
N8495 X292.022 Y2.171
N8500 X291.754 Y1.978
N8505 X289.626 Y0.468
N8510 X289.001 Y0.032
N8515 X288.453 Y-0.287
N8520 X285.98 Y-1.654
N8525 X285.72 Y-1.796
N8530 X285.224 Y-2.035
N8535 X284.469 Y-2.349
N8540 X282.157 Y-3.306
N8545 X281.802 Y-3.442
N8550 X281.448 Y-3.553
N8555 X278.426 Y-4.423
N8560 X278.049 Y-4.524
N8565 X277.671 Y-4.6
N8570 X274.65 Y-5.114
N8575 X273.895 Y-5.216
N8580 X273.139 Y-5.26
N8585 X270.873 Y-5.387
N8590 X270.118 Y-5.418
N8595 X229.331 Y-5.435
N8600 X218.757 Y-5.439
N8605 X208.183 Y-5.443
N8610 X197.608 Y-5.446
N8615 X194.587 Y-5.447
N8620 X193.832 Y-5.446
N8625 X178.725 Y-5.306
N8630 X177.97 Y-5.299
N8635 X157.577 Y-5.296
N8640 X137.183 Y-5.293
N8645 X116.79 Y-5.289
N8650 X94.886 Y-5.284
N8655 X29.929 Y-5.27
N8660 X29.174 Y-5.248
N8665 X26.153 Y-5.078
N8670 X25.775 Y-5.045
N8675 X25.397 Y-4.989
N8680 X22.376 Y-4.476
N8685 X21.998 Y-4.406
N8690 X21.621 Y-4.312
N8695 X18.6 Y-3.442
N8700 X18.158 Y-3.306
N8705 X17.844 Y-3.188
N8710 X15.578 Y-2.25
N8715 X14.823 Y-1.937
N8720 X14.505 Y-1.796
N8725 X14.068 Y-1.567
N8730 X11.752 Y-0.287
N8735 X11.046 Y0.113
N8740 X10.529 Y0.468
N8745 X8.401 Y1.978
N8750 X8.025 Y2.245
N8755 X7.73 Y2.475
N8760 X7.435 Y2.733
N8765 X5.746 Y4.243
N8770 X5.004 Y4.909
N8775 X4.912 Y4.998
N8780 X4.249 Y5.722
N8785 X2.738 Y7.412
N8790 X2.215 Y8.018
N8795 X1.983 Y8.334
N8800 X0.472 Y10.463
N8805 X0.067 Y11.037
N8810 X-0.283 Y11.626
N8815 X-1.794 Y14.359
N8820 X-2.017 Y14.812
N8825 X-2.332 Y15.567
N8830 X-3.304 Y17.915
N8835 X-3.435 Y18.251
N8840 X-3.543 Y18.587
N8845 X-4.413 Y21.606
N8850 X-4.517 Y21.984
N8855 X-4.596 Y22.361
N8860 X-4.789 Y23.499
N8865 X-4.815 Y23.651
N8870 X-5.109 Y25.381
N8875 X-5.215 Y26.136
N8880 X-5.259 Y26.891
N8885 X-5.386 Y29.156
N8890 X-5.418 Y29.911
N8895 Y169.573
N8900 X-5.386 Y170.328
N8905 X-5.259 Y172.593
N8910 X-5.215 Y173.348
N8915 X-5.109 Y174.103
N8920 X-4.724 Y176.368
N8925 X-4.596 Y177.123
N8930 X-4.517 Y177.5
N8935 X-4.413 Y177.878
N8940 X-3.543 Y180.897
N8945 X-3.435 Y181.233
N8950 X-3.304 Y181.569
N8955 X-2.332 Y183.917
N8960 X-2.017 Y184.672
N8965 X-1.794 Y185.125
N8970 X-0.283 Y187.858
N8975 X0.067 Y188.447
N8980 X0.472 Y189.022
N8985 X1.983 Y191.151
N8990 X2.215 Y191.467
N8995 X2.738 Y192.072
N9000 X4.249 Y193.763
N9005 X4.912 Y194.486
N9010 X5.004 Y194.575
N9015 X5.759 Y195.253
N9020 X7.435 Y196.751
N9025 X7.73 Y197.009
N9030 X8.025 Y197.239
N9035 X8.401 Y197.506
N9040 X10.528 Y199.016
N9045 X11.046 Y199.371
N9050 X11.752 Y199.771
N9055 X14.068 Y201.051
N9060 X14.505 Y201.281
N9065 X14.823 Y201.421
N9070 X17.089 Y202.36
N9075 X17.844 Y202.673
N9080 X18.158 Y202.79
N9085 X18.6 Y202.926
N9090 X21.621 Y203.796
N9095 X21.998 Y203.89
N9100 X22.376 Y203.96
N9105 X25.397 Y204.473
N9110 X25.775 Y204.53
N9115 X26.153 Y204.562
N9120 X29.174 Y204.732
N9125 X29.929 Y204.754
N9130 X90.936 Y204.767
N9135 X92.511 Y204.77 Z11.044
N9140 X94.086 Y204.776 Z11.027
N9145 X95.661 Y204.786 Z10.999
N9150 X97.236 Y204.799 Z10.963
N9155 X98.811 Y204.815 Z10.919
N9160 X100.386 Y204.833 Z10.867
N9165 X112.986 Y204.99 Z10.427
N9170 X114.561 Y205.009 Z10.372
N9175 X116.136 Y205.027 Z10.317
N9180 X117.711 Y205.045 Z10.262
N9185 X119.286 Y205.062 Z10.208
N9190 X120.861 Y205.076 Z10.16
N9195 X122.436 Y205.088 Z10.119
N9200 X124.011 Y205.098 Z10.087
N9205 X125.586 Y205.105 Z10.064
N9210 X127.161 Y205.108 Z10.052
N9215 X128.009 Y205.109 Z10.05
N9220 X177.97 Y205.103
N9225 X178.725 Y205.11
N9230 X193.832 Y205.25
N9235 X194.587 Y205.251
N9240 X238.395 Y205.26
N9245 X241.416 Y205.261
N9250 X244.437
N9255 X247.459 Y205.26
N9260 X250.48
N9265 X253.501 Y205.259
N9270 X257.278 Y205.258
N9275 X270.118 Y205.252
N9280 X270.873 Y205.221
N9285 X273.83 Y205.055
N9290 X273.895 Y205.051
N9295 X274.272 Y205.013
N9300 X274.65 Y204.952
N9305 X277.671 Y204.439
N9310 X277.997 Y204.379
N9315 X278.322 Y204.3
N9320 X278.426 Y204.271
N9325 X281.448 Y203.401
N9330 X281.825 Y203.288
N9335 X282.203 Y203.149
N9340 X283.07 Y202.79
N9345 X285.224 Y201.898
N9350 X285.602 Y201.733
N9355 X285.98 Y201.537
N9360 X288.245 Y200.285
N9365 X289.001 Y199.864
N9370 X289.152 Y199.771
N9375 X289.756 Y199.352
N9380 X292.022 Y197.744
N9385 X292.346 Y197.506
N9390 X292.777 Y197.138
N9395 X295.043 Y195.113
N9400 X295.357 Y194.821
N9405 X295.671 Y194.486
N9410 X297.694 Y192.221
N9415 X298.064 Y191.789
N9420 X298.302 Y191.467
N9425 X299.909 Y189.202
N9430 X300.33 Y188.595
N9435 X300.422 Y188.447
N9440 X300.842 Y187.692
N9445 X302.094 Y185.427
N9450 X302.291 Y185.05
N9455 X302.457 Y184.672
N9460 X303.395 Y182.407
N9465 X303.707 Y181.652
N9470 X303.846 Y181.275
N9475 X303.96 Y180.897
N9480 X304.83 Y177.878
N9485 X304.862 Y177.763
N9490 X304.94 Y177.443
N9495 X304.999 Y177.123
N9500 X305.513 Y174.103
N9505 X305.573 Y173.726
N9510 X305.613 Y173.348
N9515 X305.618 Y173.279
N9520 X305.741 Y171.083
N9525 X305.783 Y170.328
N9530 X305.815 Y169.573
N9535 Y29.911
N9540 X305.783 Y29.156
N9545 X305.656 Y26.891
N9550 X305.618 Y26.205
N9555 X305.613 Y26.136
N9560 X305.573 Y25.759
N9565 X305.513 Y25.381
N9570 X304.999 Y22.361
N9575 X304.94 Y22.041
N9580 X304.862 Y21.721
N9585 X304.83 Y21.606
N9590 X303.96 Y18.587
N9595 X303.846 Y18.209
N9600 X303.707 Y17.832
N9605 X303.082 Y16.322
N9610 X302.457 Y14.812
N9615 X302.291 Y14.435
N9620 X302.094 Y14.057
N9625 X300.842 Y11.792
N9630 X300.422 Y11.037
N9635 X300.33 Y10.89
N9640 X299.909 Y10.282
N9645 X298.302 Y8.018
N9650 X298.064 Y7.695
N9655 X297.694 Y7.263
N9660 X295.671 Y4.998
N9665 X295.357 Y4.663
N9670 X295.043 Y4.371
N9675 X292.777 Y2.346
N9680 X292.346 Y1.978
N9685 X292.022 Y1.74
N9690 X289.756 Y0.132
N9695 X289.152 Y-0.287
N9700 X289.001 Y-0.38
N9705 X288.245 Y-0.8
N9710 X285.98 Y-2.053
N9715 X285.602 Y-2.249
N9720 X285.224 Y-2.414
N9725 X282.958 Y-3.352
N9730 X282.203 Y-3.665
N9735 X281.825 Y-3.803
N9740 X281.448 Y-3.917
N9745 X278.426 Y-4.787
N9750 X278.322 Y-4.816
N9755 X277.997 Y-4.895
N9760 X277.671 Y-4.955
N9765 X274.65 Y-5.468
N9770 X274.272 Y-5.529
N9775 X273.895 Y-5.567
N9780 X273.83 Y-5.571
N9785 X270.873 Y-5.737
N9790 X270.118 Y-5.768
N9795 X254.256 Y-5.775
N9800 X251.235 Y-5.776
N9805 X248.214
N9810 X245.193 Y-5.777
N9815 X242.171
N9820 X239.15 Y-5.776
N9825 X234.618 Y-5.775
N9830 X194.587 Y-5.767
N9835 X193.832 Y-5.766
N9840 X178.725 Y-5.625
N9845 X177.97 Y-5.619
N9850 X91.865 Y-5.628
N9855 X85.067 Y-5.629
N9860 X78.269
N9865 X71.471 Y-5.628
N9870 X64.674 Y-5.627
N9875 X58.631 Y-5.626
N9880 X29.929 Y-5.62
N9885 X29.174 Y-5.598
N9890 X26.153 Y-5.428
N9895 X25.775 Y-5.398
N9900 X25.397 Y-5.343
N9905 X22.295 Y-4.816
N9910 X21.958 Y-4.755
N9915 X21.621 Y-4.675
N9920 X20.865 Y-4.458
N9925 X18.6 Y-3.805
N9930 X17.844 Y-3.565
N9935 X17.216 Y-3.306
N9940 X14.823 Y-2.315
N9945 X14.445 Y-2.155
N9950 X14.068 Y-1.966
N9955 X13.761 Y-1.796
N9960 X11.802 Y-0.713
N9965 X11.046 Y-0.295
N9970 X11.032 Y-0.287
N9975 X10.291 Y0.208
N9980 X8.025 Y1.816
N9985 X7.798 Y1.978
N9990 X7.534 Y2.183
N9995 X7.27 Y2.412
N10000 X5.004 Y4.437
N10005 X4.715 Y4.7
N10010 X4.427 Y4.998
N10015 X4.249 Y5.197
N10020 X2.403 Y7.263
N10025 X1.983 Y7.747
N10030 X1.779 Y8.018
N10035 X0.172 Y10.282
N10040 X-0.283 Y10.933
N10045 X-0.349 Y11.037
N10050 X-0.774 Y11.792
N10055 X-2.026 Y14.057
N10060 X-2.227 Y14.435
N10065 X-2.397 Y14.812
N10070 X-3.648 Y17.832
N10075 X-3.791 Y18.209
N10080 X-3.907 Y18.587
N10085 X-4.777 Y21.606
N10090 X-4.815 Y21.74
N10095 X-4.891 Y22.051
N10100 X-4.95 Y22.361
N10105 X-5.463 Y25.381
N10110 X-5.525 Y25.759
N10115 X-5.565 Y26.136
N10120 X-5.57 Y26.207
N10125 X-5.609 Y26.891
N10130 X-5.736 Y29.156
N10135 X-5.768 Y29.911
N10140 Y169.573
N10145 X-5.736 Y170.328
N10150 X-5.609 Y172.593
N10155 X-5.57 Y173.277
N10160 X-5.565 Y173.348
N10165 X-5.525 Y173.726
N10170 X-5.463 Y174.103
N10175 X-4.95 Y177.123
N10180 X-4.891 Y177.433
N10185 X-4.815 Y177.744
N10190 X-4.777 Y177.878
N10195 X-3.907 Y180.897
N10200 X-3.791 Y181.275
N10205 X-3.648 Y181.652
N10210 X-2.397 Y184.672
N10215 X-2.227 Y185.05
N10220 X-2.026 Y185.427
N10225 X-0.774 Y187.692
N10230 X-0.349 Y188.447
N10235 X-0.283 Y188.551
N10240 X0.172 Y189.202
N10245 X1.779 Y191.467
N10250 X1.983 Y191.738
N10255 X2.403 Y192.221
N10260 X4.249 Y194.287
N10265 X4.427 Y194.486
N10270 X4.715 Y194.784
N10275 X5.004 Y195.047
N10280 X7.27 Y197.072
N10285 X7.534 Y197.301
N10290 X7.798 Y197.506
N10295 X8.025 Y197.668
N10300 X10.291 Y199.276
N10305 X11.032 Y199.771
N10310 X11.046 Y199.779
N10315 X11.802 Y200.198
N10320 X13.761 Y201.281
N10325 X14.068 Y201.45
N10330 X14.445 Y201.639
N10335 X14.823 Y201.799
N10340 X17.216 Y202.79
N10345 X17.844 Y203.049
N10350 X18.6 Y203.29
N10355 X20.865 Y203.942
N10360 X21.621 Y204.159
N10365 X21.958 Y204.239
N10370 X22.294 Y204.3
N10375 X25.397 Y204.828
N10380 X25.775 Y204.882
N10385 X26.153 Y204.912
N10390 X29.174 Y205.082
N10395 X29.929 Y205.104
N10400 X60.897 Y205.111
N10405 X67.695 Y205.112
N10410 X74.493 Y205.113
N10415 X81.29
N10420 X88.088
N10425 X94.886 Y205.112
N10430 X128.009 Y205.109
N10435 X129.584 Y205.11 Z10.044
N10440 X131.159 Y205.115 Z10.027
N10445 X132.734 Y205.123 Z9.999
N10450 X134.309 Y205.134 Z9.963
N10455 X135.884 Y205.147 Z9.919
N10460 X137.459 Y205.163 Z9.867
N10465 X150.059 Y205.295 Z9.427
N10470 X151.634 Y205.311 Z9.372
N10475 X153.209 Y205.326 Z9.317
N10480 X154.784 Y205.341 Z9.262
N10485 X156.359 Y205.355 Z9.208
N10490 X157.934 Y205.367 Z9.16
N10495 X159.509 Y205.377 Z9.119
N10500 X161.084 Y205.385 Z9.087
N10505 X162.659 Y205.391 Z9.064
N10510 X164.234 Y205.393 Z9.052
N10515 X165.082 Y205.394 Z9.05
N10520 X177.97 Y205.393
N10525 X178.725 Y205.4
N10530 X193.832 Y205.54
N10535 X194.587 Y205.541
N10540 X215.736 Y205.542
N10545 X236.884 Y205.543
N10550 X258.033
N10555 X270.118
N10560 X270.873 Y205.513
N10565 X273.139 Y205.385
N10570 X273.895 Y205.343
N10575 X274.272 Y205.306
N10580 X274.65 Y205.247
N10585 X277.671 Y204.734
N10590 X278.049 Y204.665
N10595 X278.426 Y204.573
N10600 X279.182 Y204.356
N10605 X281.448 Y203.703
N10610 X281.972 Y203.545
N10615 X282.203 Y203.462
N10620 X282.958 Y203.151
N10625 X285.224 Y202.213
N10630 X285.642 Y202.036
N10635 X285.98 Y201.868
N10640 X286.735 Y201.452
N10645 X289.001 Y200.199
N10650 X289.335 Y200.
N10655 X289.668 Y199.771
N10660 X292.022 Y198.101
N10665 X292.4 Y197.831
N10670 X292.777 Y197.527
N10675 X292.802 Y197.506
N10680 X293.647 Y196.751
N10685 X295.336 Y195.241
N10690 X295.567 Y195.022
N10695 X295.799 Y194.779
N10700 X297.41 Y192.976
N10705 X298.064 Y192.244
N10710 X298.084 Y192.221
N10715 X298.389 Y191.844
N10720 X298.658 Y191.467
N10725 X300.33 Y189.11
N10730 X300.558 Y188.778
N10735 X300.757 Y188.447
N10740 X301.175 Y187.692
N10745 X302.009 Y186.182
N10750 X302.426 Y185.427
N10755 X302.596 Y185.083
N10760 X302.771 Y184.672
N10765 X303.709 Y182.407
N10770 X304.02 Y181.652
N10775 X304.107 Y181.413
N10780 X304.263 Y180.897
N10785 X304.915 Y178.633
N10790 X305.132 Y177.878
N10795 X305.225 Y177.5
N10800 X305.294 Y177.123
N10805 X305.808 Y174.103
N10810 X305.867 Y173.726
N10815 X305.905 Y173.348
N10820 X305.947 Y172.593
N10825 X306.075 Y170.328
N10830 X306.106 Y169.573
N10835 Y29.911
N10840 X306.075 Y29.156
N10845 X305.947 Y26.891
N10850 X305.905 Y26.136
N10855 X305.867 Y25.759
N10860 X305.808 Y25.381
N10865 X305.294 Y22.361
N10870 X305.225 Y21.984
N10875 X305.132 Y21.606
N10880 X304.862 Y20.668
N10885 X304.263 Y18.587
N10890 X304.107 Y18.071
N10895 X304.02 Y17.832
N10900 X303.709 Y17.077
N10905 X302.771 Y14.812
N10910 X302.596 Y14.401
N10915 X302.426 Y14.057
N10920 X302.009 Y13.302
N10925 X301.086 Y11.631
N10930 X300.757 Y11.037
N10935 X300.558 Y10.706
N10940 X300.33 Y10.374
N10945 X298.658 Y8.018
N10950 X298.389 Y7.64
N10955 X298.084 Y7.263
N10960 X298.064 Y7.241
N10965 X297.309 Y6.395
N10970 X295.799 Y4.705
N10975 X295.567 Y4.462
N10980 X295.336 Y4.243
N10985 X293.533 Y2.631
N10990 X292.802 Y1.978
N10995 X292.777 Y1.957
N11000 X292.4 Y1.653
N11005 X292.022 Y1.383
N11010 X289.668 Y-0.287
N11015 X289.335 Y-0.515
N11020 X289.001 Y-0.715
N11025 X286.735 Y-1.968
N11030 X285.98 Y-2.384
N11035 X285.642 Y-2.551
N11040 X285.224 Y-2.729
N11045 X282.958 Y-3.667
N11050 X282.203 Y-3.978
N11055 X281.972 Y-4.061
N11060 X281.448 Y-4.219
N11065 X279.182 Y-4.872
N11070 X278.426 Y-5.089
N11075 X278.049 Y-5.181
N11080 X277.671 Y-5.25
N11085 X274.65 Y-5.763
N11090 X274.272 Y-5.822
N11095 X273.895 Y-5.858
N11100 X273.139 Y-5.901
N11105 X270.873 Y-6.028
N11110 X270.118 Y-6.059
N11115 X248.969
N11120 X227.821
N11125 X206.672 Y-6.058
N11130 X194.587 Y-6.057
N11135 X193.832 Y-6.056
N11140 X178.725 Y-5.916
N11145 X177.97 Y-5.909
N11150 X137.183 Y-5.91
N11155 X96.397 Y-5.911
N11160 X55.61
N11165 X29.929
N11170 X29.174 Y-5.889
N11175 X26.153 Y-5.719
N11180 X25.775 Y-5.69
N11185 X25.397 Y-5.638
N11190 X22.376 Y-5.125
N11195 X21.621 Y-4.976
N11200 X21.057 Y-4.816
N11205 X18.437 Y-4.061
N11210 X17.844 Y-3.875
N11215 X17.089 Y-3.569
N11220 X14.633 Y-2.551
N11225 X14.068 Y-2.295
N11230 X13.312 Y-1.881
N11235 X11.046 Y-0.628
N11240 X10.767 Y-0.467
N11245 X10.488 Y-0.287
N11250 X10.291 Y-0.148
N11255 X8.025 Y1.46
N11260 X7.325 Y1.978
N11265 X7.27 Y2.025
N11270 X6.515 Y2.697
N11275 X4.785 Y4.243
N11280 X4.517 Y4.488
N11285 X4.249 Y4.762
N11290 X4.037 Y4.998
N11295 X1.983 Y7.296
N11300 X1.683 Y7.657
N11305 X1.422 Y8.018
N11310 X-0.283 Y10.421
N11315 X-0.497 Y10.729
N11320 X-0.688 Y11.037
N11325 X-1.039 Y11.669
N11330 X-2.358 Y14.057
N11335 X-2.549 Y14.433
N11340 X-2.712 Y14.812
N11345 X-3.65 Y17.077
N11350 X-3.962 Y17.832
N11355 X-4.06 Y18.096
N11360 X-4.21 Y18.587
N11365 X-5.08 Y21.606
N11370 X-5.174 Y21.984
N11375 X-5.245 Y22.361
N11380 X-5.42 Y23.392
N11385 X-5.758 Y25.381
N11390 X-5.819 Y25.759
N11395 X-5.857 Y26.136
N11400 X-5.9 Y26.891
N11405 X-6.027 Y29.156
N11410 X-6.059 Y29.911
N11415 Y169.573
N11420 X-6.027 Y170.328
N11425 X-5.9 Y172.593
N11430 X-5.857 Y173.348
N11435 X-5.819 Y173.726
N11440 X-5.758 Y174.103
N11445 X-5.245 Y177.123
N11450 X-5.174 Y177.5
N11455 X-5.08 Y177.878
N11460 X-4.21 Y180.897
N11465 X-4.06 Y181.389
N11470 X-3.962 Y181.652
N11475 X-3.65 Y182.407
N11480 X-2.712 Y184.672
N11485 X-2.549 Y185.051
N11490 X-2.358 Y185.427
N11495 X-1.039 Y187.815
N11500 X-0.688 Y188.447
N11505 X-0.497 Y188.755
N11510 X-0.283 Y189.063
N11515 X1.422 Y191.467
N11520 X1.683 Y191.827
N11525 X1.983 Y192.188
N11530 X4.037 Y194.486
N11535 X4.249 Y194.722
N11540 X4.517 Y194.996
N11545 X4.785 Y195.241
N11550 X6.515 Y196.787
N11555 X7.27 Y197.459
N11560 X7.325 Y197.506
N11565 X8.025 Y198.025
N11570 X10.291 Y199.632
N11575 X10.488 Y199.771
N11580 X10.767 Y199.952
N11585 X11.046 Y200.112
N11590 X13.312 Y201.365
N11595 X14.068 Y201.779
N11600 X14.633 Y202.036
N11605 X17.089 Y203.053
N11610 X17.844 Y203.359
N11615 X18.437 Y203.545
N11620 X21.057 Y204.3
N11625 X21.621 Y204.46
N11630 X22.376 Y204.609
N11635 X25.397 Y205.123
N11640 X25.775 Y205.174
N11645 X26.153 Y205.203
N11650 X29.174 Y205.373
N11655 X29.929 Y205.395
N11660 X70.716
N11665 X111.503
N11670 X152.29 Y205.394
N11675 X165.082
N11680 X166.657 Y205.395 Z9.044
N11685 X168.232 Y205.399 Z9.027
N11690 X169.807 Y205.405 Z8.999
N11695 X171.382 Y205.413 Z8.963
N11700 X172.957 Y205.423 Z8.919
N11705 X174.532 Y205.434 Z8.867
N11710 X176.107 Y205.445 Z8.812
N11715 X177.682 Y205.455 Z8.757
N11720 X179.258 Y205.477 Z8.702
N11725 X180.833 Y205.501 Z8.647
N11730 X182.408 Y205.525 Z8.592
N11735 X183.982 Y205.548 Z8.537
N11740 X185.557 Y205.571 Z8.482
N11745 X187.132 Y205.593 Z8.427
N11750 X188.707 Y205.614 Z8.372
N11755 X190.282 Y205.636 Z8.317
N11760 X191.857 Y205.656 Z8.262
N11765 X193.432 Y205.677 Z8.208
N11770 X195.006 Y205.686 Z8.16
N11775 X196.581 Y205.69 Z8.119
N11780 X198.156 Y205.693 Z8.087
N11785 X199.731 Y205.696 Z8.064
N11790 X201.306 Y205.697 Z8.052
N11795 X202.155 Z8.05
N11800 X205.161
N11805 X208.183
N11810 X270.118 Y205.683
N11815 X270.873 Y205.652
N11820 X273.139 Y205.525
N11825 X273.895 Y205.483
N11830 X274.272 Y205.447
N11835 X274.65 Y205.389
N11840 X277.671 Y204.876
N11845 X278.049 Y204.808
N11850 X278.426 Y204.718
N11855 X279.182 Y204.501
N11860 X281.448 Y203.849
N11865 X282.203 Y203.611
N11870 X282.371 Y203.545
N11875 X282.958 Y203.302
N11880 X285.224 Y202.364
N11885 X285.961 Y202.036
N11890 X285.98 Y202.026
N11895 X286.735 Y201.611
N11900 X289.001 Y200.359
N11905 X289.378 Y200.137
N11910 X289.756 Y199.88
N11915 X292.038 Y198.261
N11920 X292.777 Y197.711
N11925 X293.011 Y197.506
N11930 X295.043 Y195.69
N11935 X295.542 Y195.241
N11940 X295.799 Y194.985
N11945 X296.248 Y194.486
N11950 X298.064 Y192.453
N11955 X298.268 Y192.221
N11960 X298.82 Y191.48
N11965 X300.437 Y189.202
N11970 X300.695 Y188.824
N11975 X300.917 Y188.447
N11980 X302.169 Y186.182
N11985 X302.584 Y185.427
N11990 X302.596 Y185.403
N11995 X302.922 Y184.672
N12000 X303.86 Y182.407
N12005 X304.107 Y181.812
N12010 X304.17 Y181.652
N12015 X304.408 Y180.897
N12020 X305.06 Y178.633
N12025 X305.277 Y177.878
N12030 X305.368 Y177.5
N12035 X305.436 Y177.123
N12040 X305.949 Y174.103
N12045 X306.008 Y173.726
N12050 X306.044 Y173.348
N12055 X306.087 Y172.593
N12060 X306.214 Y170.328
N12065 X306.246 Y169.573
N12070 Y29.911
N12075 X306.214 Y29.156
N12080 X306.087 Y26.891
N12085 X306.044 Y26.136
N12090 X306.008 Y25.759
N12095 X305.949 Y25.381
N12100 X305.436 Y22.361
N12105 X305.368 Y21.984
N12110 X305.277 Y21.606
N12115 X305.06 Y20.852
N12120 X304.408 Y18.587
N12125 X304.17 Y17.832
N12130 X304.107 Y17.672
N12135 X303.548 Y16.322
N12140 X302.922 Y14.812
N12145 X302.596 Y14.082
N12150 X302.584 Y14.057
N12155 X302.169 Y13.302
N12160 X300.917 Y11.037
N12165 X300.695 Y10.66
N12170 X300.437 Y10.282
N12175 X298.82 Y8.004
N12180 X298.268 Y7.263
N12185 X298.064 Y7.031
N12190 X296.248 Y4.998
N12195 X295.799 Y4.499
N12200 X295.542 Y4.243
N12205 X295.043 Y3.794
N12210 X293.011 Y1.978
N12215 X292.777 Y1.773
N12220 X292.038 Y1.223
N12225 X289.756 Y-0.396
N12230 X289.378 Y-0.653
N12235 X289.001 Y-0.875
N12240 X286.735 Y-2.127
N12245 X285.98 Y-2.542
N12250 X285.961 Y-2.551
N12255 X285.224 Y-2.88
N12260 X282.958 Y-3.818
N12265 X282.371 Y-4.061
N12270 X282.203 Y-4.127
N12275 X281.448 Y-4.364
N12280 X279.182 Y-5.017
N12285 X278.426 Y-5.234
N12290 X278.049 Y-5.324
N12295 X277.671 Y-5.391
N12300 X274.65 Y-5.905
N12305 X274.272 Y-5.963
N12310 X273.895 Y-5.998
N12315 X273.139 Y-6.041
N12320 X270.873 Y-6.168
N12325 X270.118 Y-6.199
N12330 X208.183 Y-6.213
N12335 X205.161
N12340 X194.587
N12345 X193.832 Y-6.212
N12350 X178.725 Y-6.072
N12355 X177.97 Y-6.065
N12360 X155.311
N12365 X150.024
N12370 X29.929 Y-6.051
N12375 X29.174 Y-6.029
N12380 X26.153 Y-5.859
N12385 X25.775 Y-5.831
N12390 X25.397 Y-5.78
N12395 X22.376 Y-5.267
N12400 X21.621 Y-5.12
N12405 X20.865 Y-4.906
N12410 X18.6 Y-4.253
N12415 X17.954 Y-4.061
N12420 X17.844 Y-4.024
N12425 X17.089 Y-3.72
N12430 X14.823 Y-2.781
N12435 X14.278 Y-2.551
N12440 X14.068 Y-2.451
N12445 X13.312 Y-2.04
N12450 X11.046 Y-0.788
N12455 X10.669 Y-0.571
N12460 X10.291 Y-0.319
N12465 X8.025 Y1.288
N12470 X7.27 Y1.843
N12475 X7.11 Y1.978
N12480 X6.515 Y2.51
N12485 X4.575 Y4.243
N12490 X4.249 Y4.558
N12495 X3.85 Y4.998
N12500 X1.983 Y7.087
N12505 X1.826 Y7.263
N12510 X1.521 Y7.64
N12515 X1.251 Y8.018
N12520 X-0.356 Y10.282
N12525 X-0.619 Y10.66
N12530 X-0.849 Y11.037
N12535 X-1.039 Y11.38
N12540 X-2.101 Y13.302
N12545 X-2.517 Y14.057
N12550 X-2.549 Y14.117
N12555 X-2.717 Y14.465
N12560 X-2.863 Y14.812
N12565 X-4.06 Y17.701
N12570 X-4.112 Y17.832
N12575 X-4.244 Y18.209
N12580 X-4.355 Y18.587
N12585 X-5.007 Y20.852
N12590 X-5.225 Y21.606
N12595 X-5.317 Y21.984
N12600 X-5.387 Y22.361
N12605 X-5.558 Y23.369
N12610 X-5.57 Y23.441
N12615 X-5.9 Y25.381
N12620 X-5.959 Y25.759
N12625 X-5.997 Y26.136
N12630 X-6.04 Y26.891
N12635 X-6.167 Y29.156
N12640 X-6.199 Y29.911
N12645 Y169.573
N12650 X-6.167 Y170.328
N12655 X-6.04 Y172.593
N12660 X-5.997 Y173.348
N12665 X-5.959 Y173.726
N12670 X-5.9 Y174.103
N12675 X-5.387 Y177.123
N12680 X-5.317 Y177.5
N12685 X-5.225 Y177.878
N12690 X-5.007 Y178.633
N12695 X-4.355 Y180.897
N12700 X-4.244 Y181.275
N12705 X-4.112 Y181.652
N12710 X-4.06 Y181.783
N12715 X-2.863 Y184.672
N12720 X-2.717 Y185.019
N12725 X-2.549 Y185.367
N12730 X-2.517 Y185.427
N12735 X-2.101 Y186.182
N12740 X-1.039 Y188.104
N12745 X-0.849 Y188.447
N12750 X-0.619 Y188.824
N12755 X-0.356 Y189.202
N12760 X1.251 Y191.467
N12765 X1.521 Y191.844
N12770 X1.826 Y192.221
N12775 X1.983 Y192.397
N12780 X3.85 Y194.486
N12785 X4.249 Y194.926
N12790 X4.575 Y195.241
N12795 X6.515 Y196.974
N12800 X7.11 Y197.506
N12805 X7.27 Y197.641
N12810 X8.025 Y198.196
N12815 X10.291 Y199.804
N12820 X10.669 Y200.055
N12825 X11.046 Y200.272
N12830 X13.312 Y201.524
N12835 X14.068 Y201.935
N12840 X14.278 Y202.036
N12845 X14.823 Y202.265
N12850 X17.089 Y203.204
N12855 X17.844 Y203.508
N12860 X17.954 Y203.545
N12865 X18.6 Y203.738
N12870 X20.865 Y204.39
N12875 X21.621 Y204.604
N12880 X22.376 Y204.751
N12885 X25.397 Y205.264
N12890 X25.775 Y205.315
N12895 X26.153 Y205.343
N12900 X29.174 Y205.513
N12905 X29.929 Y205.535
N12910 X150.779 Y205.549
N12915 X156.066
N12920 X177.97
N12925 X178.725 Y205.556
N12930 X193.832 Y205.696
N12935 X194.587 Y205.697
N12940 X202.155
N12945 X203.73 Y205.698 Z8.044
N12950 X205.305 Y205.699 Z8.027
N12955 X206.88 Y205.702 Z7.999
N12960 X208.455 Y205.706 Z7.963
N12965 X210.03 Y205.71 Z7.919
N12970 X211.605 Y205.715 Z7.867
N12975 X228.93 Y205.775 Z7.263
N12980 X230.505 Y205.78 Z7.208
N12985 X232.08 Y205.785 Z7.16
N12990 X233.655 Y205.789 Z7.119
N12995 X235.23 Y205.792 Z7.087
N13000 X236.805 Y205.795 Z7.064
N13005 X238.38 Y205.796 Z7.052
N13010 X239.23 Z7.05
N13015 X266.341
N13020 X269.363
N13025 X270.118 Y205.795
N13030 X270.873 Y205.765
N13035 X273.139 Y205.638
N13040 X273.895 Y205.595
N13045 X274.272 Y205.56
N13050 X274.65 Y205.503
N13055 X277.671 Y204.99
N13060 X278.049 Y204.923
N13065 X278.426 Y204.835
N13070 X279.182 Y204.618
N13075 X281.448 Y203.966
N13080 X282.203 Y203.731
N13085 X282.666 Y203.545
N13090 X285.224 Y202.486
N13095 X285.98 Y202.153
N13100 X286.2 Y202.036
N13105 X289.001 Y200.487
N13110 X289.378 Y200.27
N13115 X289.756 Y200.018
N13120 X292.232 Y198.261
N13125 X292.777 Y197.857
N13130 X293.18 Y197.506
N13135 X295.043 Y195.841
N13140 X295.705 Y195.241
N13145 X295.799 Y195.148
N13150 X296.399 Y194.486
N13155 X298.064 Y192.622
N13160 X298.414 Y192.221
N13165 X298.82 Y191.675
N13170 X300.574 Y189.202
N13175 X300.828 Y188.824
N13180 X301.046 Y188.447
N13185 X302.596 Y185.641
N13190 X302.71 Y185.427
N13195 X303.044 Y184.672
N13200 X304.107 Y182.106
N13205 X304.29 Y181.652
N13210 X304.525 Y180.897
N13215 X305.178 Y178.633
N13220 X305.394 Y177.878
N13225 X305.483 Y177.5
N13230 X305.55 Y177.123
N13235 X306.063 Y174.103
N13240 X306.121 Y173.726
N13245 X306.157 Y173.348
N13250 X306.2 Y172.593
N13255 X306.327 Y170.328
N13260 X306.358 Y169.573
N13265 Y29.911
N13270 X306.327 Y29.156
N13275 X306.2 Y26.891
N13280 X306.157 Y26.136
N13285 X306.121 Y25.759
N13290 X306.063 Y25.381
N13295 X305.55 Y22.361
N13300 X305.483 Y21.984
N13305 X305.394 Y21.606
N13310 X305.178 Y20.852
N13315 X304.525 Y18.587
N13320 X304.29 Y17.832
N13325 X304.107 Y17.378
N13330 X303.044 Y14.812
N13335 X302.71 Y14.057
N13340 X302.596 Y13.843
N13345 X301.046 Y11.037
N13350 X300.828 Y10.66
N13355 X300.574 Y10.282
N13360 X298.82 Y7.809
N13365 X298.414 Y7.263
N13370 X298.064 Y6.862
N13375 X296.399 Y4.998
N13380 X295.799 Y4.337
N13385 X295.705 Y4.243
N13390 X295.043 Y3.643
N13395 X293.18 Y1.978
N13400 X292.777 Y1.627
N13405 X292.232 Y1.223
N13410 X289.756 Y-0.533
N13415 X289.378 Y-0.786
N13420 X289.001 Y-1.003
N13425 X286.2 Y-2.551
N13430 X285.98 Y-2.669
N13435 X285.224 Y-3.001
N13440 X282.666 Y-4.061
N13445 X282.203 Y-4.247
N13450 X281.448 Y-4.482
N13455 X279.182 Y-5.134
N13460 X278.426 Y-5.35
N13465 X278.049 Y-5.438
N13470 X277.671 Y-5.505
N13475 X274.65 Y-6.019
N13480 X274.272 Y-6.076
N13485 X273.895 Y-6.111
N13490 X273.139 Y-6.154
N13495 X270.873 Y-6.281
N13500 X270.118 Y-6.311
N13505 X267.097 Y-6.312
N13510 X238.395
N13515 X194.587
N13520 X193.832 Y-6.311
N13525 X178.725 Y-6.17
N13530 X177.97 Y-6.164
N13535 X35.972
N13540 X30.685 Y-6.163
N13545 X29.929
N13550 X29.174 Y-6.141
N13555 X26.153 Y-5.972
N13560 X25.775 Y-5.944
N13565 X25.397 Y-5.894
N13570 X24.642 Y-5.766
N13575 X22.376 Y-5.381
N13580 X21.621 Y-5.236
N13585 X20.865 Y-5.023
N13590 X18.6 Y-4.37
N13595 X17.844 Y-4.143
N13600 X17.623 Y-4.061
N13605 X17.089 Y-3.841
N13610 X14.823 Y-2.903
N13615 X14.068 Y-2.577
N13620 X14.016 Y-2.551
N13625 X13.312 Y-2.169
N13630 X11.046 Y-0.916
N13635 X10.669 Y-0.703
N13640 X10.291 Y-0.457
N13645 X9.536 Y0.079
N13650 X7.923 Y1.223
N13655 X7.27 Y1.698
N13660 X6.941 Y1.978
N13665 X5.004 Y3.709
N13670 X4.409 Y4.243
N13675 X4.249 Y4.397
N13680 X3.699 Y4.998
N13685 X1.983 Y6.918
N13690 X1.678 Y7.263
N13695 X1.227 Y7.856
N13700 X-0.494 Y10.282
N13705 X-0.753 Y10.66
N13710 X-0.977 Y11.037
N13715 X-2.549 Y13.881
N13720 X-2.645 Y14.057
N13725 X-2.827 Y14.435
N13730 X-2.985 Y14.812
N13735 X-4.06 Y17.407
N13740 X-4.233 Y17.832
N13745 X-4.472 Y18.587
N13750 X-5.125 Y20.852
N13755 X-5.341 Y21.606
N13760 X-5.432 Y21.984
N13765 X-5.501 Y22.361
N13770 X-6.014 Y25.381
N13775 X-6.073 Y25.759
N13780 X-6.11 Y26.136
N13785 X-6.153 Y26.891
N13790 X-6.28 Y29.156
N13795 X-6.311 Y29.911
N13800 Y169.573
N13805 X-6.28 Y170.328
N13810 X-6.153 Y172.593
N13815 X-6.11 Y173.348
N13820 X-6.073 Y173.726
N13825 X-6.014 Y174.103
N13830 X-5.501 Y177.123
N13835 X-5.432 Y177.5
N13840 X-5.341 Y177.878
N13845 X-5.125 Y178.633
N13850 X-4.472 Y180.897
N13855 X-4.233 Y181.652
N13860 X-4.06 Y182.077
N13865 X-2.985 Y184.672
N13870 X-2.827 Y185.05
N13875 X-2.645 Y185.427
N13880 X-2.549 Y185.603
N13885 X-0.977 Y188.447
N13890 X-0.753 Y188.824
N13895 X-0.494 Y189.202
N13900 X1.227 Y191.628
N13905 X1.678 Y192.221
N13910 X1.983 Y192.566
N13915 X3.699 Y194.486
N13920 X4.249 Y195.087
N13925 X4.409 Y195.241
N13930 X5.004 Y195.775
N13935 X6.941 Y197.506
N13940 X7.27 Y197.786
N13945 X7.923 Y198.261
N13950 X10.051 Y199.771
N13955 X10.291 Y199.941
N13960 X10.669 Y200.187
N13965 X11.046 Y200.4
N13970 X13.312 Y201.653
N13975 X14.016 Y202.036
N13980 X14.068 Y202.061
N13985 X14.823 Y202.387
N13990 X17.089 Y203.326
N13995 X17.623 Y203.545
N14000 X17.844 Y203.627
N14005 X18.6 Y203.855
N14010 X20.865 Y204.507
N14015 X21.621 Y204.72
N14020 X22.376 Y204.865
N14025 X24.642 Y205.25
N14030 X25.397 Y205.378
N14035 X25.775 Y205.428
N14040 X26.153 Y205.456
N14045 X29.174 Y205.625
N14050 X29.929 Y205.648
N14055 X35.216
N14060 X45.791
N14065 X177.97
N14070 X178.725 Y205.655
N14075 X193.832 Y205.795
N14080 X194.587 Y205.796
N14085 X239.23
N14090 G3 X240.128 Y207.964 I0. J1.27
N14095 G1 Z24.05
N14100 X31.6 Y-8.742
N14105 Z7.62
N14110 G19 G3 Y-7.472 Z6.35 J1.27 K0.
N14115 G17 G3 X30.33 Y-6.202 I-1.27 J0.
N14120 G1 X29.929
N14125 X29.174 Y-6.18
N14130 X26.153 Y-6.01
N14135 X25.775 Y-5.983
N14140 X25.397 Y-5.933
N14145 X24.642 Y-5.805
N14150 X22.376 Y-5.42
N14155 X21.621 Y-5.275
N14160 X20.865 Y-5.063
N14165 X18.6 Y-4.411
N14170 X17.844 Y-4.184
N14175 X17.519 Y-4.061
N14180 X16.334 Y-3.57
N14185 X14.823 Y-2.945
N14190 X14.068 Y-2.62
N14195 X13.931 Y-2.551
N14200 X13.312 Y-2.213
N14205 X11.046 Y-0.961
N14210 X10.669 Y-0.748
N14215 X10.291 Y-0.504
N14220 X9.984 Y-0.287
N14225 X7.856 Y1.223
N14230 X7.27 Y1.649
N14235 X6.883 Y1.978
N14240 X5.004 Y3.657
N14245 X4.352 Y4.243
N14250 X4.249 Y4.343
N14255 X3.647 Y4.998
N14260 X1.983 Y6.86
N14265 X1.627 Y7.263
N14270 X1.227 Y7.789
N14275 X-0.542 Y10.282
N14280 X-0.799 Y10.66
N14285 X-1.022 Y11.037
N14290 X-2.549 Y13.801
N14295 X-2.688 Y14.057
N14300 X-3.027 Y14.812
N14305 X-4.06 Y17.306
N14310 X-4.274 Y17.832
N14315 X-4.512 Y18.587
N14320 X-5.165 Y20.852
N14325 X-5.382 Y21.606
N14330 X-5.472 Y21.984
N14335 X-5.54 Y22.361
N14340 X-6.053 Y25.381
N14345 X-6.112 Y25.759
N14350 X-6.149 Y26.136
N14355 X-6.191 Y26.891
N14360 X-6.319 Y29.156
N14365 G3 X-8.534 Y29.931 I-1.268 J-0.071
N14370 G1 Z24.05
N14375 X31.577 Y-8.742
N14380 Z6.62
N14385 G19 G3 Y-7.472 Z5.35 J1.27 K0.
N14390 G17 G3 X30.307 Y-6.202 I-1.27 J0.
N14395 G1 X29.929
N14400 X29.174 Y-6.18
N14405 X26.153 Y-6.01
N14410 X25.775 Y-5.983
N14415 X25.397 Y-5.933
N14420 X24.642 Y-5.805
N14425 X22.376 Y-5.42
N14430 X21.621 Y-5.275
N14435 X20.865 Y-5.063
N14440 X18.6 Y-4.411
N14445 X17.844 Y-4.184
N14450 X17.519 Y-4.061
N14455 X16.334 Y-3.57
N14460 X14.823 Y-2.945
N14465 X14.068 Y-2.62
N14470 X13.931 Y-2.551
N14475 X13.312 Y-2.213
N14480 X11.046 Y-0.961
N14485 X10.669 Y-0.748
N14490 X10.291 Y-0.504
N14495 X9.984 Y-0.287
N14500 X7.856 Y1.223
N14505 X7.27 Y1.649
N14510 X6.883 Y1.978
N14515 X5.004 Y3.657
N14520 X4.352 Y4.243
N14525 X4.249 Y4.343
N14530 X3.647 Y4.998
N14535 X1.983 Y6.86
N14540 X1.627 Y7.263
N14545 X1.227 Y7.789
N14550 X-0.542 Y10.282
N14555 X-0.799 Y10.66
N14560 X-1.022 Y11.037
N14565 X-2.549 Y13.801
N14570 X-2.688 Y14.057
N14575 X-3.027 Y14.812
N14580 X-4.06 Y17.306
N14585 X-4.274 Y17.832
N14590 X-4.512 Y18.587
N14595 X-5.165 Y20.852
N14600 X-5.382 Y21.606
N14605 X-5.472 Y21.984
N14610 X-5.54 Y22.361
N14615 X-6.053 Y25.381
N14620 X-6.112 Y25.759
N14625 X-6.149 Y26.136
N14630 X-6.191 Y26.891
N14635 X-6.319 Y29.156
N14640 G3 X-8.534 Y29.931 I-1.268 J-0.071
N14645 G1 Z24.05
N14650 X31.577 Y-8.742
N14655 Z5.62
N14660 G19 G3 Y-7.472 Z4.35 J1.27 K0.
N14665 G17 G3 X30.307 Y-6.202 I-1.27 J0.
N14670 G1 X29.929
N14675 X29.174 Y-6.18
N14680 X26.153 Y-6.01
N14685 X25.775 Y-5.983
N14690 X25.397 Y-5.933
N14695 X24.642 Y-5.805
N14700 X22.376 Y-5.42
N14705 X21.621 Y-5.275
N14710 X20.865 Y-5.063
N14715 X18.6 Y-4.411
N14720 X17.844 Y-4.184
N14725 X17.519 Y-4.061
N14730 X16.334 Y-3.57
N14735 X14.823 Y-2.945
N14740 X14.068 Y-2.62
N14745 X13.931 Y-2.551
N14750 X13.312 Y-2.213
N14755 X11.046 Y-0.961
N14760 X10.669 Y-0.748
N14765 X10.291 Y-0.504
N14770 X9.984 Y-0.287
N14775 X7.856 Y1.223
N14780 X7.27 Y1.649
N14785 X6.883 Y1.978
N14790 X5.004 Y3.657
N14795 X4.352 Y4.243
N14800 X4.249 Y4.343
N14805 X3.647 Y4.998
N14810 X1.983 Y6.86
N14815 X1.627 Y7.263
N14820 X1.227 Y7.789
N14825 X-0.542 Y10.282
N14830 X-0.799 Y10.66
N14835 X-1.022 Y11.037
N14840 X-2.549 Y13.801
N14845 X-2.688 Y14.057
N14850 X-3.027 Y14.812
N14855 X-4.06 Y17.306
N14860 X-4.274 Y17.832
N14865 X-4.512 Y18.587
N14870 X-5.165 Y20.852
N14875 X-5.382 Y21.606
N14880 X-5.472 Y21.984
N14885 X-5.54 Y22.361
N14890 X-6.053 Y25.381
N14895 X-6.112 Y25.759
N14900 X-6.149 Y26.136
N14905 X-6.191 Y26.891
N14910 X-6.319 Y29.156
N14915 G3 X-8.534 Y29.931 I-1.268 J-0.071
N14920 G1 Z24.05
N14925 X31.577 Y-8.742
N14930 Z4.62
N14935 G19 G3 Y-7.472 Z3.35 J1.27 K0.
N14940 G17 G3 X30.307 Y-6.202 I-1.27 J0.
N14945 G1 X29.929
N14950 X29.174 Y-6.18
N14955 X26.153 Y-6.01
N14960 X25.775 Y-5.983
N14965 X25.397 Y-5.933
N14970 X24.642 Y-5.805
N14975 X22.376 Y-5.42
N14980 X21.621 Y-5.275
N14985 X20.865 Y-5.063
N14990 X18.6 Y-4.411
N14995 X17.844 Y-4.184
N15000 X17.519 Y-4.061
N15005 X16.334 Y-3.57
N15010 X14.823 Y-2.945
N15015 X14.068 Y-2.62
N15020 X13.931 Y-2.551
N15025 X13.312 Y-2.213
N15030 X11.046 Y-0.961
N15035 X10.669 Y-0.748
N15040 X10.291 Y-0.504
N15045 X9.984 Y-0.287
N15050 X7.856 Y1.223
N15055 X7.27 Y1.649
N15060 X6.883 Y1.978
N15065 X5.004 Y3.657
N15070 X4.352 Y4.243
N15075 X4.249 Y4.343
N15080 X3.647 Y4.998
N15085 X1.983 Y6.86
N15090 X1.627 Y7.263
N15095 X1.227 Y7.789
N15100 X-0.542 Y10.282
N15105 X-0.799 Y10.66
N15110 X-1.022 Y11.037
N15115 X-2.549 Y13.801
N15120 X-2.688 Y14.057
N15125 X-3.027 Y14.812
N15130 X-4.06 Y17.306
N15135 X-4.274 Y17.832
N15140 X-4.512 Y18.587
N15145 X-5.165 Y20.852
N15150 X-5.382 Y21.606
N15155 X-5.472 Y21.984
N15160 X-5.54 Y22.361
N15165 X-6.053 Y25.381
N15170 X-6.112 Y25.759
N15175 X-6.149 Y26.136
N15180 X-6.191 Y26.891
N15185 X-6.319 Y29.156
N15190 G3 X-8.534 Y29.931 I-1.268 J-0.071
N15195 G1 Z24.05
N15200 X31.577 Y-8.742
N15205 Z3.62
N15210 G19 G3 Y-7.472 Z2.35 J1.27 K0.
N15215 G17 G3 X30.307 Y-6.202 I-1.27 J0.
N15220 G1 X29.929
N15225 X29.174 Y-6.18
N15230 X26.153 Y-6.01
N15235 X25.775 Y-5.983
N15240 X25.397 Y-5.933
N15245 X24.642 Y-5.805
N15250 X22.376 Y-5.42
N15255 X21.621 Y-5.275
N15260 X20.865 Y-5.063
N15265 X18.6 Y-4.411
N15270 X17.844 Y-4.184
N15275 X17.519 Y-4.061
N15280 X16.334 Y-3.57
N15285 X14.823 Y-2.945
N15290 X14.068 Y-2.62
N15295 X13.931 Y-2.551
N15300 X13.312 Y-2.213
N15305 X11.046 Y-0.961
N15310 X10.669 Y-0.748
N15315 X10.291 Y-0.504
N15320 X9.984 Y-0.287
N15325 X7.856 Y1.223
N15330 X7.27 Y1.649
N15335 X6.883 Y1.978
N15340 X5.004 Y3.657
N15345 X4.352 Y4.243
N15350 X4.249 Y4.343
N15355 X3.647 Y4.998
N15360 X1.983 Y6.86
N15365 X1.627 Y7.263
N15370 X1.227 Y7.789
N15375 X-0.542 Y10.282
N15380 X-0.799 Y10.66
N15385 X-1.022 Y11.037
N15390 X-2.549 Y13.801
N15395 X-2.688 Y14.057
N15400 X-3.027 Y14.812
N15405 X-4.06 Y17.306
N15410 X-4.274 Y17.832
N15415 X-4.512 Y18.587
N15420 X-5.165 Y20.852
N15425 X-5.382 Y21.606
N15430 X-5.472 Y21.984
N15435 X-5.54 Y22.361
N15440 X-6.053 Y25.381
N15445 X-6.112 Y25.759
N15450 X-6.149 Y26.136
N15455 X-6.191 Y26.891
N15460 X-6.319 Y29.156
N15465 G3 X-8.534 Y29.931 I-1.268 J-0.071
N15470 G1 Z24.05
N15475 X31.577 Y-8.742
N15480 Z2.62
N15485 G19 G3 Y-7.472 Z1.35 J1.27 K0.
N15490 G17 G3 X30.307 Y-6.202 I-1.27 J0.
N15495 G1 X29.929
N15500 X29.174 Y-6.18
N15505 X26.153 Y-6.01
N15510 X25.775 Y-5.983
N15515 X25.397 Y-5.933
N15520 X24.642 Y-5.805
N15525 X22.376 Y-5.42
N15530 X21.621 Y-5.275
N15535 X20.865 Y-5.063
N15540 X18.6 Y-4.411
N15545 X17.844 Y-4.184
N15550 X17.519 Y-4.061
N15555 X16.334 Y-3.57
N15560 X14.823 Y-2.945
N15565 X14.068 Y-2.62
N15570 X13.931 Y-2.551
N15575 X13.312 Y-2.213
N15580 X11.046 Y-0.961
N15585 X10.669 Y-0.748
N15590 X10.291 Y-0.504
N15595 X9.984 Y-0.287
N15600 X7.856 Y1.223
N15605 X7.27 Y1.649
N15610 X6.883 Y1.978
N15615 X5.004 Y3.657
N15620 X4.352 Y4.243
N15625 X4.249 Y4.343
N15630 X3.647 Y4.998
N15635 X1.983 Y6.86
N15640 X1.627 Y7.263
N15645 X1.227 Y7.789
N15650 X-0.542 Y10.282
N15655 X-0.799 Y10.66
N15660 X-1.022 Y11.037
N15665 X-2.549 Y13.801
N15670 X-2.688 Y14.057
N15675 X-3.027 Y14.812
N15680 X-4.06 Y17.306
N15685 X-4.274 Y17.832
N15690 X-4.512 Y18.587
N15695 X-5.165 Y20.852
N15700 X-5.382 Y21.606
N15705 X-5.472 Y21.984
N15710 X-5.54 Y22.361
N15715 X-6.053 Y25.381
N15720 X-6.112 Y25.759
N15725 X-6.149 Y26.136
N15730 X-6.191 Y26.891
N15735 X-6.319 Y29.156
N15740 G3 X-8.534 Y29.931 I-1.268 J-0.071
N15745 G1 Z24.05
N15750 X31.577 Y-8.742
N15755 Z1.62
N15760 G19 G3 Y-7.472 Z0.35 J1.27 K0.
N15765 G17 G3 X30.307 Y-6.202 I-1.27 J0.
N15770 G1 X29.929
N15775 X29.174 Y-6.18
N15780 X26.153 Y-6.01
N15785 X25.775 Y-5.983
N15790 X25.397 Y-5.933
N15795 X24.642 Y-5.805
N15800 X22.376 Y-5.42
N15805 X21.621 Y-5.275
N15810 X20.865 Y-5.063
N15815 X18.6 Y-4.411
N15820 X17.844 Y-4.184
N15825 X17.519 Y-4.061
N15830 X16.334 Y-3.57
N15835 X14.823 Y-2.945
N15840 X14.068 Y-2.62
N15845 X13.931 Y-2.551
N15850 X13.312 Y-2.213
N15855 X11.046 Y-0.961
N15860 X10.669 Y-0.748
N15865 X10.291 Y-0.504
N15870 X9.984 Y-0.287
N15875 X7.856 Y1.223
N15880 X7.27 Y1.649
N15885 X6.883 Y1.978
N15890 X5.004 Y3.657
N15895 X4.352 Y4.243
N15900 X4.249 Y4.343
N15905 X3.647 Y4.998
N15910 X1.983 Y6.86
N15915 X1.627 Y7.263
N15920 X1.227 Y7.789
N15925 X-0.542 Y10.282
N15930 X-0.799 Y10.66
N15935 X-1.022 Y11.037
N15940 X-2.549 Y13.801
N15945 X-2.688 Y14.057
N15950 X-3.027 Y14.812
N15955 X-4.06 Y17.306
N15960 X-4.274 Y17.832
N15965 X-4.512 Y18.587
N15970 X-5.165 Y20.852
N15975 X-5.382 Y21.606
N15980 X-5.472 Y21.984
N15985 X-5.54 Y22.361
N15990 X-6.053 Y25.381
N15995 X-6.112 Y25.759
N16000 X-6.149 Y26.136
N16005 X-6.191 Y26.891
N16010 X-6.319 Y29.156
N16015 G3 X-8.534 Y29.931 I-1.268 J-0.071
N16020 G1 Z24.05
N16025 X31.577 Y-8.742
N16030 Z1.27
N16035 G19 G3 Y-7.472 Z0. J1.27 K0.
N16040 G17 G3 X30.307 Y-6.202 I-1.27 J0.
N16045 G1 X29.929
N16050 X29.174 Y-6.18
N16055 X26.153 Y-6.01
N16060 X25.775 Y-5.983
N16065 X25.397 Y-5.933
N16070 X24.642 Y-5.805
N16075 X22.376 Y-5.42
N16080 X21.621 Y-5.275
N16085 X20.865 Y-5.063
N16090 X18.6 Y-4.411
N16095 X17.844 Y-4.184
N16100 X17.519 Y-4.061
N16105 X16.334 Y-3.57
N16110 X14.823 Y-2.945
N16115 X14.068 Y-2.62
N16120 X13.931 Y-2.551
N16125 X13.312 Y-2.213
N16130 X11.046 Y-0.961
N16135 X10.669 Y-0.748
N16140 X10.291 Y-0.504
N16145 X9.984 Y-0.287
N16150 X7.856 Y1.223
N16155 X7.27 Y1.649
N16160 X6.883 Y1.978
N16165 X5.004 Y3.657
N16170 X4.352 Y4.243
N16175 X4.249 Y4.343
N16180 X3.647 Y4.998
N16185 X1.983 Y6.86
N16190 X1.627 Y7.263
N16195 X1.227 Y7.789
N16200 X-0.542 Y10.282
N16205 X-0.799 Y10.66
N16210 X-1.022 Y11.037
N16215 X-2.549 Y13.801
N16220 X-2.688 Y14.057
N16225 X-3.027 Y14.812
N16230 X-4.06 Y17.306
N16235 X-4.274 Y17.832
N16240 X-4.512 Y18.587
N16245 X-5.165 Y20.852
N16250 X-5.382 Y21.606
N16255 X-5.472 Y21.984
N16260 X-5.54 Y22.361
N16265 X-6.053 Y25.381
N16270 X-6.112 Y25.759
N16275 X-6.149 Y26.136
N16280 X-6.191 Y26.891
N16285 X-6.319 Y29.156
N16290 G3 X-8.534 Y29.931 I-1.268 J-0.071
N16295 G1 Z24.05
N16300 X17.701 Y30.938
N16305 Z19.258
N16310 Z18.05
N16315 G3 X15.591 Y29.911 I-0.842 J-0.951
N16320 G1 X15.683 Y28.401
N16325 X15.795 Y27.646
N16330 X15.933 Y26.891
N16335 X16.119 Y26.136
N16340 X16.334 Y25.446
N16345 X16.354 Y25.381
N16350 X16.623 Y24.626
N16355 X17.089 Y23.592
N16360 X17.334 Y23.116
N16365 X17.844 Y22.272
N16370 X18.291 Y21.606
N16375 X18.882 Y20.852
N16380 X19.355 Y20.304
N16385 X20.317 Y19.342
N16390 X20.865 Y18.903
N16395 X21.621 Y18.311
N16400 X22.376 Y17.84
N16405 X23.131 Y17.383
N16410 X23.799 Y17.077
N16415 X24.642 Y16.698
N16420 X25.397 Y16.451
N16425 X26.153 Y16.215
N16430 X26.908 Y16.051
N16435 X27.663 Y15.912
N16440 X28.419 Y15.82
N16445 X29.174 Y15.775
N16450 X29.929 Y15.736
N16455 X165.13
N16460 X165.885 Y15.771
N16465 X166.64 Y15.817
N16470 X167.396 Y15.9
N16475 X168.151 Y16.039
N16480 X168.906 Y16.195
N16485 X169.662 Y16.43
N16490 X170.417 Y16.668
N16495 X171.928 Y17.348
N16500 X172.683 Y17.8
N16505 X172.735 Y17.832
N16510 X173.438 Y18.26
N16515 X174.194 Y18.852
N16520 X174.807 Y19.342
N16525 X175.704 Y20.239
N16530 X176.242 Y20.852
N16535 X176.834 Y21.606
N16540 X177.215 Y22.164
N16545 X177.791 Y23.116
N16550 X177.97 Y23.447
N16555 X178.501 Y24.626
N16560 X178.725 Y25.237
N16565 X179.006 Y26.136
N16570 X179.191 Y26.891
N16575 X179.33 Y27.646
N16580 X179.442 Y28.401
N16585 X179.533 Y29.911
N16590 X179.536 Y30.666
N16595 Y168.818
N16600 X179.533 Y169.573
N16605 X179.442 Y171.083
N16610 X179.33 Y171.838
N16615 X179.191 Y172.593
N16620 X179.006 Y173.348
N16625 X178.725 Y174.247
N16630 X178.501 Y174.858
N16635 X177.97 Y176.037
N16640 X177.791 Y176.368
N16645 X177.215 Y177.32
N16650 X176.834 Y177.878
N16655 X176.242 Y178.633
N16660 X175.704 Y179.245
N16665 X174.807 Y180.143
N16670 X174.194 Y180.632
N16675 X173.438 Y181.224
N16680 X172.735 Y181.652
N16685 X172.683 Y181.684
N16690 X171.928 Y182.136
N16695 X170.417 Y182.816
N16700 X169.662 Y183.054
N16705 X168.906 Y183.289
N16710 X168.151 Y183.446
N16715 X167.396 Y183.584
N16720 X166.64 Y183.668
N16725 X165.885 Y183.713
N16730 X165.13 Y183.748
N16735 X29.929
N16740 X29.174 Y183.709
N16745 X28.419 Y183.664
N16750 X27.663 Y183.572
N16755 X26.908 Y183.434
N16760 X26.153 Y183.269
N16765 X25.397 Y183.034
N16770 X24.642 Y182.787
N16775 X23.799 Y182.407
N16780 X23.131 Y182.101
N16785 X22.376 Y181.645
N16790 X21.621 Y181.173
N16795 X20.865 Y180.581
N16800 X20.317 Y180.143
N16805 X19.355 Y179.18
N16810 X18.882 Y178.633
N16815 X18.291 Y177.878
N16820 X17.844 Y177.212
N16825 X17.334 Y176.368
N16830 X17.089 Y175.892
N16835 X16.623 Y174.858
N16840 X16.354 Y174.103
N16845 X16.119 Y173.348
N16850 X15.933 Y172.593
N16855 X15.795 Y171.838
N16860 X15.683 Y171.083
N16865 X15.591 Y169.573
N16870 X15.588 Y168.818
N16875 Y30.666
N16880 X15.591 Y29.911
N16885 X15.655 Y28.963 Z18.048
N16890 X15.691 Y28.49 Z18.045
N16895 X15.751 Y28.019 Z18.041
N16900 X15.939 Y27.143 Z18.032
N16905 X16.036 Y26.705 Z18.025
N16910 X16.165 Y26.276 Z18.018
N16915 X16.471 Y25.438 Z18.002
N16920 X16.823 Y24.618 Z17.983
N16925 X17.21 Y23.881 Z17.963
N16930 X17.635 Y23.166 Z17.941
N16935 X18.161 Y22.42 Z17.914
N16940 X18.736 Y21.711 Z17.885
N16945 X19.339 Y21.051 Z17.854
N16950 X19.996 Y20.444 Z17.822
N16955 X20.65 Y19.879 Z17.793
N16960 X20.997 Y19.621 Z17.777
N16965 X21.356 Y19.38 Z17.762
N16970 X21.712 Y19.139 Z17.747
N16975 X22.067 Y18.898 Z17.732
N16980 X22.253 Y18.792 Z17.725
N16985 X22.826 Y18.498 Z17.702
N16990 X23.535 Y18.13 Z17.675
N16995 X23.583 Y18.108 Z17.673
N17000 X23.982 Y17.959 Z17.658
N17005 X24.381 Y17.81 Z17.643
N17010 X24.779 Y17.66 Z17.628
N17015 X25.182 Y17.524 Z17.613
N17020 X25.596 Y17.423 Z17.598
N17025 X26.009 Y17.321 Z17.583
N17030 X26.418 Y17.221 Z17.569
N17035 X26.832 Y17.146 Z17.554
N17040 X27.249 Y17.095 Z17.539
N17045 X27.666 Y17.044 Z17.525
N17050 X28.489 Y16.98 Z17.496
N17055 X29.315 Y16.977 Z17.467
N17060 X30.12 Y16.99 Z17.439
N17065 X30.925 Y17.034 Z17.411
N17070 X35.65 Y17.297 Z17.246
N17075 X37.225 Y17.381 Z17.193
N17080 X38.8 Y17.454 Z17.147
N17085 X40.375 Y17.515 Z17.109
N17090 X41.95 Y17.563 Z17.079
N17095 X43.525 Y17.594 Z17.059
N17100 X45.1 Y17.608 Z17.05
N17105 X45.477 Y17.609
N17110 X165.13
N17115 X165.885 Y17.646
N17120 X166.64 Y17.691
N17125 X167.396 Y17.803
N17130 X168.151 Y17.941
N17135 X168.906 Y18.155
N17140 X169.662 Y18.39
N17145 X170.12 Y18.587
N17150 X170.417 Y18.72
N17155 X171.172 Y19.074
N17160 X171.928 Y19.53
N17165 X172.683 Y20.046
N17170 X173.438 Y20.637
N17175 X173.67 Y20.852
N17180 X174.425 Y21.606
N17185 X174.949 Y22.235
N17190 X175.048 Y22.361
N17195 X175.604 Y23.116
N17200 X176.06 Y23.871
N17205 X176.449 Y24.626
N17210 X176.789 Y25.381
N17215 X177.046 Y26.136
N17220 X177.281 Y26.891
N17225 X177.427 Y27.646
N17230 X177.566 Y28.401
N17235 X177.613 Y29.156
N17240 X177.658 Y29.911
N17245 X177.663 Y30.666
N17250 Y168.818
N17255 X177.658 Y169.573
N17260 X177.613 Y170.328
N17265 X177.566 Y171.083
N17270 X177.427 Y171.838
N17275 X177.281 Y172.593
N17280 X177.046 Y173.348
N17285 X176.789 Y174.103
N17290 X176.449 Y174.858
N17295 X176.06 Y175.613
N17300 X175.604 Y176.368
N17305 X175.048 Y177.123
N17310 X174.949 Y177.249
N17315 X174.425 Y177.878
N17320 X173.67 Y178.633
N17325 X173.438 Y178.847
N17330 X172.683 Y179.438
N17335 X171.928 Y179.954
N17340 X171.172 Y180.41
N17345 X170.417 Y180.764
N17350 X170.12 Y180.897
N17355 X169.662 Y181.094
N17360 X168.906 Y181.329
N17365 X168.151 Y181.543
N17370 X167.396 Y181.681
N17375 X166.64 Y181.793
N17380 X165.885 Y181.839
N17385 X165.13 Y181.875
N17390 X29.929
N17395 X29.174 Y181.835
N17400 X28.419 Y181.789
N17405 X27.663 Y181.67
N17410 X26.908 Y181.531
N17415 X26.153 Y181.309
N17420 X25.397 Y181.073
N17425 X25.004 Y180.897
N17430 X24.642 Y180.734
N17435 X23.887 Y180.371
N17440 X23.131 Y179.914
N17445 X22.376 Y179.387
N17450 X21.621 Y178.796
N17455 X21.454 Y178.633
N17460 X20.699 Y177.878
N17465 X20.11 Y177.166
N17470 X20.076 Y177.123
N17475 X19.52 Y176.368
N17480 X19.064 Y175.613
N17485 X18.675 Y174.858
N17490 X18.336 Y174.103
N17495 X18.079 Y173.348
N17500 X17.843 Y172.593
N17505 X17.697 Y171.838
N17510 X17.559 Y171.083
N17515 X17.512 Y170.328
N17520 X17.466 Y169.573
N17525 X17.461 Y168.818
N17530 Y30.666
N17535 X17.466 Y29.923
N17540 Y29.911
N17545 X17.512 Y29.156
N17550 X17.559 Y28.401
N17555 X17.697 Y27.646
N17560 X17.843 Y26.891
N17565 X17.844 Y26.888
N17570 X18.079 Y26.136
N17575 X18.336 Y25.381
N17580 X18.675 Y24.626
N17585 X19.064 Y23.871
N17590 X19.52 Y23.116
N17595 X20.076 Y22.361
N17600 X20.11 Y22.318
N17605 X20.699 Y21.606
N17610 X21.454 Y20.852
N17615 X21.621 Y20.689
N17620 X22.376 Y20.097
N17625 X23.131 Y19.57
N17630 X23.887 Y19.113
N17635 X24.642 Y18.75
N17640 X25.004 Y18.587
N17645 X25.397 Y18.411
N17650 X26.153 Y18.175
N17655 X26.908 Y17.953
N17660 X27.663 Y17.815
N17665 X28.419 Y17.695
N17670 X29.174 Y17.649
N17675 X29.929 Y17.609
N17680 X45.477
N17685 X47.052 Y17.618 Z17.044
N17690 X48.627 Y17.646 Z17.027
N17695 X50.202 Y17.69 Z16.999
N17700 X51.777 Y17.748 Z16.963
N17705 X53.352 Y17.818 Z16.919
N17710 X54.927 Y17.899 Z16.867
N17715 X59.652 Y18.162 Z16.702
N17720 X61.227 Y18.249 Z16.647
N17725 X62.802 Y18.333 Z16.592
N17730 X64.377 Y18.414 Z16.537
N17735 X65.952 Y18.492 Z16.482
N17740 X67.527 Y18.568 Z16.427
N17745 X69.102 Y18.642 Z16.372
N17750 X70.677 Y18.713 Z16.317
N17755 X72.252 Y18.782 Z16.262
N17760 X73.827 Y18.849 Z16.207
N17765 X75.402 Y18.906 Z16.159
N17770 X76.977 Y18.954 Z16.119
N17775 X78.552 Y18.991 Z16.086
N17780 X80.127 Y19.017 Z16.064
N17785 X81.702 Y19.03 Z16.052
N17790 X82.527 Y19.032 Z16.05
N17795 X165.13
N17800 X165.885 Y19.07
N17805 X166.64 Y19.116
N17810 X167.396 Y19.248
N17815 X167.904 Y19.342
N17820 X168.151 Y19.409
N17825 X168.906 Y19.645
N17830 X169.662 Y19.94
N17835 X170.417 Y20.28
N17840 X171.172 Y20.735
N17845 X171.364 Y20.852
N17850 X171.928 Y21.26
N17855 X172.369 Y21.606
N17860 X172.683 Y21.875
N17865 X173.438 Y22.631
N17870 X173.833 Y23.116
N17875 X174.194 Y23.577
N17880 X174.399 Y23.871
N17885 X174.949 Y24.782
N17890 X175.229 Y25.381
N17895 X175.556 Y26.136
N17900 X175.791 Y26.891
N17905 X175.982 Y27.646
N17910 X176.12 Y28.401
N17915 X176.188 Y29.156
N17920 X176.234 Y29.911
N17925 X176.24 Y30.666
N17930 Y168.818
N17935 X176.234 Y169.573
N17940 X176.188 Y170.328
N17945 X176.12 Y171.083
N17950 X175.982 Y171.838
N17955 X175.791 Y172.593
N17960 X175.556 Y173.348
N17965 X175.229 Y174.103
N17970 X174.949 Y174.703
N17975 X174.399 Y175.613
N17980 X174.194 Y175.908
N17985 X173.833 Y176.368
N17990 X173.438 Y176.854
N17995 X172.683 Y177.609
N18000 X172.369 Y177.878
N18005 X171.928 Y178.224
N18010 X171.364 Y178.633
N18015 X171.172 Y178.749
N18020 X170.417 Y179.204
N18025 X169.662 Y179.544
N18030 X168.906 Y179.84
N18035 X168.151 Y180.075
N18040 X167.904 Y180.143
N18045 X167.396 Y180.236
N18050 X166.64 Y180.368
N18055 X165.885 Y180.414
N18060 X165.13 Y180.452
N18065 X29.929
N18070 X29.174 Y180.41
N18075 X28.419 Y180.362
N18080 X27.22 Y180.143
N18085 X26.908 Y180.055
N18090 X26.153 Y179.819
N18095 X25.397 Y179.515
N18100 X25.114 Y179.388
N18105 X24.642 Y179.166
N18110 X23.76 Y178.633
N18115 X23.131 Y178.173
N18120 X22.755 Y177.878
N18125 X22.376 Y177.544
N18130 X21.621 Y176.788
N18135 X20.865 Y175.824
N18140 X20.726 Y175.613
N18145 X20.269 Y174.858
N18150 X20.11 Y174.581
N18155 X19.895 Y174.103
N18160 X19.568 Y173.348
N18165 X19.333 Y172.593
N18170 X19.143 Y171.838
N18175 X19.004 Y171.083
N18180 X18.936 Y170.328
N18185 X18.891 Y169.573
N18190 X18.884 Y168.818
N18195 Y30.666
N18200 X18.89 Y29.936
N18205 X18.891 Y29.911
N18210 X18.936 Y29.156
N18215 X19.004 Y28.401
N18220 X19.143 Y27.646
N18225 X19.333 Y26.891
N18230 X19.568 Y26.136
N18235 X19.895 Y25.381
N18240 X20.11 Y24.903
N18245 X20.269 Y24.626
N18250 X20.726 Y23.871
N18255 X20.865 Y23.66
N18260 X21.621 Y22.696
N18265 X22.376 Y21.94
N18270 X22.755 Y21.606
N18275 X23.131 Y21.312
N18280 X23.76 Y20.852
N18285 X24.642 Y20.318
N18290 X25.114 Y20.097
N18295 X25.397 Y19.969
N18300 X26.153 Y19.665
N18305 X26.908 Y19.429
N18310 X27.22 Y19.342
N18315 X28.419 Y19.122
N18320 X29.174 Y19.074
N18325 X29.929 Y19.032
N18330 X82.527
N18335 X84.102 Y19.039 Z16.044
N18340 X85.677 Y19.058 Z16.027
N18345 X87.252 Y19.088 Z15.999
N18350 X88.827 Y19.128 Z15.963
N18355 X90.402 Y19.175 Z15.919
N18360 X91.977 Y19.228 Z15.867
N18365 X93.552 Y19.284 Z15.812
N18370 X106.152 Y19.724 Z15.372
N18375 X109.302 Y19.834 Z15.262
N18380 X110.877 Y19.888 Z15.208
N18385 X112.452 Y19.936 Z15.16
N18390 X114.027 Y19.977 Z15.119
N18395 X115.602 Y20.009 Z15.087
N18400 X117.177 Y20.032 Z15.064
N18405 X118.752 Y20.044 Z15.052
N18410 X119.59 Y20.046 Z15.05
N18415 X165.13
N18420 X165.885 Y20.085
N18425 X166.079 Y20.097
N18430 X166.64 Y20.14
N18435 X167.396 Y20.278
N18440 X168.151 Y20.47
N18445 X168.906 Y20.711
N18450 X169.662 Y21.051
N18455 X170.417 Y21.462
N18460 X170.655 Y21.606
N18465 X171.172 Y21.955
N18470 X171.691 Y22.361
N18475 X171.928 Y22.552
N18480 X172.683 Y23.308
N18485 X173.138 Y23.871
N18490 X173.438 Y24.255
N18495 X173.671 Y24.626
N18500 X174.118 Y25.381
N18505 X174.458 Y26.136
N18510 X174.73 Y26.891
N18515 X174.949 Y27.63
N18520 X175.09 Y28.401
N18525 X175.173 Y29.156
N18530 X175.219 Y29.911
N18535 X175.226 Y30.666
N18540 Y168.818
N18545 X175.219 Y169.573
N18550 X175.173 Y170.328
N18555 X175.09 Y171.083
N18560 X174.949 Y171.854
N18565 X174.73 Y172.593
N18570 X174.458 Y173.348
N18575 X174.118 Y174.103
N18580 X173.671 Y174.858
N18585 X173.438 Y175.229
N18590 X173.138 Y175.613
N18595 X172.683 Y176.177
N18600 X171.928 Y176.932
N18605 X171.691 Y177.123
N18610 X171.172 Y177.529
N18615 X170.655 Y177.878
N18620 X170.417 Y178.022
N18625 X169.662 Y178.434
N18630 X168.906 Y178.774
N18635 X168.151 Y179.014
N18640 X167.396 Y179.206
N18645 X166.64 Y179.344
N18650 X166.079 Y179.388
N18655 X165.885 Y179.399
N18660 X165.13 Y179.438
N18665 X29.929
N18670 X29.174 Y179.395
N18675 X29.045 Y179.388
N18680 X28.419 Y179.333
N18685 X27.663 Y179.194
N18690 X26.908 Y178.994
N18695 X26.153 Y178.744
N18700 X25.397 Y178.404
N18705 X24.642 Y177.982
N18710 X24.469 Y177.878
N18715 X23.887 Y177.478
N18720 X23.434 Y177.123
N18725 X23.131 Y176.867
N18730 X22.633 Y176.368
N18735 X22.376 Y176.11
N18740 X21.987 Y175.613
N18745 X21.621 Y175.136
N18750 X21.453 Y174.858
N18755 X21.006 Y174.103
N18760 X20.666 Y173.348
N18765 X20.394 Y172.593
N18770 X20.172 Y171.838
N18775 X20.034 Y171.083
N18780 X19.951 Y170.328
N18785 X19.905 Y169.573
N18790 X19.898 Y168.818
N18795 Y30.666
N18800 X19.905 Y29.945
N18805 Y29.911
N18810 X19.951 Y29.156
N18815 X20.034 Y28.401
N18820 X20.11 Y27.986
N18825 X20.172 Y27.646
N18830 X20.394 Y26.891
N18835 X20.666 Y26.136
N18840 X21.006 Y25.381
N18845 X21.453 Y24.626
N18850 X21.621 Y24.348
N18855 X21.987 Y23.871
N18860 X22.376 Y23.374
N18865 X22.633 Y23.116
N18870 X23.131 Y22.617
N18875 X23.434 Y22.361
N18880 X23.887 Y22.006
N18885 X24.469 Y21.606
N18890 X24.642 Y21.502
N18895 X25.397 Y21.08
N18900 X26.153 Y20.74
N18905 X26.908 Y20.49
N18910 X27.663 Y20.29
N18915 X28.419 Y20.152
N18920 X29.045 Y20.097
N18925 X29.174 Y20.089
N18930 X29.929 Y20.046
N18935 X82.527
N18940 X119.59
N18945 X121.165 Y20.052 Z15.044
N18950 X122.74 Y20.069 Z15.027
N18955 X124.315 Y20.097 Z14.999
N18960 X125.89 Y20.133 Z14.963
N18965 X127.465 Y20.178 Z14.919
N18970 X129.04 Y20.229 Z14.867
N18975 X130.615 Y20.284 Z14.812
N18980 X132.19 Y20.338 Z14.757
N18985 X133.765 Y20.392 Z14.702
N18990 X135.34 Y20.444 Z14.647
N18995 X136.915 Y20.495 Z14.592
N19000 X138.49 Y20.544 Z14.537
N19005 X140.065 Y20.593 Z14.482
N19010 X141.64 Y20.64 Z14.427
N19015 X143.215 Y20.687 Z14.372
N19020 X144.79 Y20.732 Z14.317
N19025 X146.365 Y20.776 Z14.262
N19030 X147.94 Y20.819 Z14.208
N19035 X149.515 Y20.856 Z14.16
N19040 X151.09 Y20.887 Z14.119
N19045 X152.665 Y20.911 Z14.087
N19050 X154.24 Y20.928 Z14.064
N19055 X155.815 Y20.937 Z14.052
N19060 X156.656 Y20.938 Z14.05
N19065 X165.13
N19070 X165.885 Y20.978
N19075 X166.452 Y21.012
N19080 X166.475 Y21.016
N19085 X167.514 Y21.206
N19090 X167.537 Y21.212
N19095 X168.546 Y21.527
N19100 X168.564 Y21.534
N19105 X169.52 Y21.964
N19110 X169.544 Y21.976
N19115 X170.441 Y22.518
N19120 X170.464 Y22.533
N19125 X171.299 Y23.187
N19130 X171.321 Y23.206
N19135 X172.057 Y23.942
N19140 X172.079 Y23.966
N19145 X172.73 Y24.796
N19150 X172.745 Y24.817
N19155 X173.298 Y25.732
N19160 X173.308 Y25.753
N19165 X173.736 Y26.702
N19170 X173.745 Y26.726
N19175 X174.062 Y27.74
N19180 X174.067 Y27.764
N19185 X174.258 Y28.804
N19190 X174.26 Y28.826
N19195 X174.326 Y29.911
N19200 X174.334 Y30.666
N19205 Y168.818
N19210 X174.326 Y169.573
N19215 X174.26 Y170.658
N19220 X174.258 Y170.68
N19225 X174.067 Y171.72
N19230 X174.062 Y171.744
N19235 X173.745 Y172.758
N19240 X173.736 Y172.782
N19245 X173.308 Y173.732
N19250 X173.298 Y173.752
N19255 X172.745 Y174.668
N19260 X172.73 Y174.688
N19265 X172.079 Y175.519
N19270 X172.057 Y175.542
N19275 X171.321 Y176.278
N19280 X171.299 Y176.297
N19285 X170.464 Y176.951
N19290 X170.441 Y176.966
N19295 X169.544 Y177.508
N19300 X169.52 Y177.52
N19305 X168.564 Y177.95
N19310 X168.546 Y177.958
N19315 X167.537 Y178.272
N19320 X167.514 Y178.278
N19325 X166.475 Y178.469
N19330 X166.452 Y178.472
N19335 X165.885 Y178.506
N19340 X165.13 Y178.546
N19345 X29.929
N19350 X29.174 Y178.502
N19355 X28.678 Y178.472
N19360 X28.655 Y178.47
N19365 X27.616 Y178.279
N19370 X27.592 Y178.274
N19375 X26.574 Y177.956
N19380 X26.558 Y177.949
N19385 X25.61 Y177.523
N19390 X25.586 Y177.512
N19395 X24.68 Y176.964
N19400 X24.661 Y176.952
N19405 X23.817 Y176.291
N19410 X23.793 Y176.268
N19415 X23.061 Y175.536
N19420 X23.04 Y175.513
N19425 X22.393 Y174.687
N19430 X22.376 Y174.663
N19435 X21.824 Y173.749
N19440 X21.383 Y172.769
N19445 X21.375 Y172.747
N19450 X21.063 Y171.744
N19455 X21.057 Y171.72
N19460 X20.865 Y170.676
N19465 X20.864 Y170.654
N19470 X20.798 Y169.573
N19475 X20.79 Y168.818
N19480 Y30.666
N19485 X20.798 Y29.955
N19490 Y29.911
N19495 X20.864 Y28.83
N19500 X20.865 Y28.808
N19505 X21.057 Y27.764
N19510 X21.063 Y27.74
N19515 X21.375 Y26.737
N19520 X21.383 Y26.715
N19525 X21.824 Y25.735
N19530 X22.376 Y24.822
N19535 X22.393 Y24.797
N19540 X23.04 Y23.971
N19545 X23.061 Y23.948
N19550 X23.793 Y23.216
N19555 X23.817 Y23.194
N19560 X24.661 Y22.532
N19565 X24.68 Y22.52
N19570 X25.586 Y21.972
N19575 X25.61 Y21.962
N19580 X26.558 Y21.535
N19585 X26.574 Y21.528
N19590 X27.592 Y21.211
N19595 X27.616 Y21.205
N19600 X28.655 Y21.015
N19605 X28.678 Y21.012
N19610 X29.174 Y20.982
N19615 X29.929 Y20.938
N19620 X119.59
N19625 X156.656
N19630 X158.231 Y20.942 Z14.044
N19635 X159.806 Y20.955 Z14.027
N19640 X161.381 Y20.974 Z13.999
N19645 X162.956 Y21. Z13.963
N19650 X164.531 Y21.031 Z13.919
N19655 X165.335 Y21.055 Z13.893
N19660 X166.426 Y21.146 Z13.857
N19665 X166.453 Y21.15 Z13.856
N19670 X166.556 Y21.171 Z13.852
N19675 X166.971 Y21.257 Z13.838
N19680 X167.464 Y21.36 Z13.82
N19685 X167.49 Y21.366 Z13.819
N19690 X167.791 Y21.468 Z13.807
N19695 X168.371 Y21.663 Z13.786
N19700 X168.467 Y21.695 Z13.783
N19705 X168.491 Y21.704 Z13.782
N19710 X168.561 Y21.737 Z13.779
N19715 X169.296 Y22.089 Z13.75
N19720 X169.438 Y22.157 Z13.745
N19725 X169.461 Y22.171 Z13.744
N19730 X169.66 Y22.297 Z13.736
N19735 X170.324 Y22.719 Z13.709
N19740 X170.344 Y22.735 Z13.708
N19745 X170.689 Y23.017 Z13.692
N19750 X171.127 Y23.376 Z13.672
N19755 X171.146 Y23.393
N19760 X171.307 Y23.56 Z13.663
N19765 X171.858 Y24.136 Z13.636
N19770 X171.874 Y24.156 Z13.635
N19775 X172.488 Y24.975 Z13.599
N19780 X172.501 Y24.997 Z13.598
N19785 X173.001 Y25.865 Z13.563
N19790 X173.013 Y25.887 Z13.562
N19795 X173.416 Y26.837 Z13.526
N19800 X173.424 Y26.861 Z13.525
N19805 X173.467 Y27.01 Z13.52
N19810 X173.703 Y27.831 Z13.49
N19815 X173.708 Y27.856 Z13.489
N19820 X173.868 Y28.85 Z13.454
N19825 X173.87 Y28.876 Z13.453
N19830 X173.89 Y29.381 Z13.436
N19835 X173.913 Y30.188 Z13.408
N19840 X173.809 Y34.916 Z13.243
N19845 X173.776 Y36.491 Z13.19
N19850 X173.748 Y38.066 Z13.145
N19855 X173.724 Y39.641 Z13.107
N19860 X173.706 Y41.216 Z13.078
N19865 X173.693 Y42.791 Z13.058
N19870 X173.688 Y44.366 Z13.05
N19875 Y44.656
N19880 Y168.818
N19885 X173.679 Y169.573
N19890 X173.618 Y170.588
N19895 X173.614 Y170.611
N19900 X173.438 Y171.572
N19905 X173.434 Y171.589
N19910 X173.143 Y172.522
N19915 X173.134 Y172.546
N19920 X172.734 Y173.435
N19925 X172.723 Y173.457
N19930 X172.215 Y174.296
N19935 X172.203 Y174.314
N19940 X171.6 Y175.083
N19945 X171.582 Y175.104
N19950 X170.889 Y175.798
N19955 X170.868 Y175.815
N19960 X170.1 Y176.417
N19965 X170.084 Y176.427
N19970 X169.237 Y176.94
N19975 X168.342 Y177.342
N19980 X168.321 Y177.352
N19985 X167.372 Y177.647
N19990 X167.349 Y177.652
N19995 X166.381 Y177.83
N20000 X166.263 Y177.837
N20005 X165.589 Y177.878
N20010 X165.13 Y177.9
N20015 X29.929
N20020 X29.535 Y177.878
N20025 X28.749 Y177.83
N20030 X28.725 Y177.826
N20035 X27.781 Y177.653
N20040 X27.758 Y177.649
N20045 X26.812 Y177.354
N20050 X26.793 Y177.347
N20055 X25.893 Y176.942
N20060 X25.869 Y176.929
N20065 X25.03 Y176.421
N20070 X24.254 Y175.813
N20075 X24.236 Y175.798
N20080 X23.536 Y175.098
N20085 X23.521 Y175.08
N20090 X22.92 Y174.313
N20095 X22.91 Y174.298
N20100 X22.409 Y173.469
N20105 X22.396 Y173.447
N20110 X21.99 Y172.546
N20115 X21.981 Y172.522
N20120 X21.689 Y171.586
N20125 X21.685 Y171.566
N20130 X21.51 Y170.611
N20135 X21.506 Y170.588
N20140 X21.445 Y169.573
N20145 X21.436 Y168.818
N20150 Y30.666
N20155 X21.444 Y29.962
N20160 X21.445 Y29.911
N20165 X21.506 Y28.896
N20170 X21.51 Y28.873
N20175 X21.621 Y28.268
N20180 X21.685 Y27.918
N20185 X21.689 Y27.898
N20190 X21.981 Y26.962
N20195 X21.99 Y26.938
N20200 X22.396 Y26.037
N20205 X22.409 Y26.015
N20210 X22.91 Y25.186
N20215 X22.92 Y25.171
N20220 X23.521 Y24.405
N20225 X23.536 Y24.386
N20230 X24.236 Y23.687
N20235 X24.254 Y23.671
N20240 X25.03 Y23.063
N20245 X25.869 Y22.555
N20250 X25.893 Y22.542
N20255 X26.793 Y22.137
N20260 X26.812 Y22.13
N20265 X27.758 Y21.835
N20270 X27.852 Y21.818
N20275 X28.725 Y21.658
N20280 X28.749 Y21.654
N20285 X29.535 Y21.606
N20290 X29.929 Y21.584
N20295 X156.656
N20300 X165.13
N20305 X165.589 Y21.606
N20310 X166.357 Y21.653
N20315 X166.381 Y21.654
N20320 X167.349 Y21.832
N20325 X167.372 Y21.837
N20330 X168.321 Y22.133
N20335 X168.342 Y22.142
N20340 X169.237 Y22.545
N20345 X170.084 Y23.057
N20350 X170.1 Y23.067
