%
(CHAIR_FLEG_UPRIGHT)
(T3 D=0.639 CR=0. - ZMIN=-25.326 - FLAT END MILL)
N10 G90 G94 G17 G91.1
N15 G21
(WHEN USING FUSION 360 FOR PERSONAL USE, THE FEEDRATE OF)
(RAPID MOVES IS REDUCED TO MATCH THE FEEDRATE OF CUTTING)
(MOVES, WHICH CAN INCREASE MACHINING TIME. UNRESTRICTED RAPID)
(MOVES ARE AVAILABLE WITH A FUSION 360 SUBSCRIPTION.)
N20 G53 G0 Z0.
(2D CONTOUR1)
N25 T3 M6
N30 S10000 M3
N35 G17 G90 G94
N40 G54
N45 G64 P0.01 Q0.01
N50 G0 X0.239 Y115.517
N55 G43 Z15. H3
N60 G1 Z7.35 F2200.
N65 Z-6.286 F733.33
N70 X0.244 Z-6.311 F2200.
N75 X0.258 Y115.516 Z-6.331
N80 X0.279 Z-6.345
N85 X0.303 Z-6.35
N90 X0.367 Y115.515
N95 X0.392 Y115.52
N100 X0.412 Y115.533
N105 X0.427 Y115.554
N110 X0.432 Y115.578
N115 X0.443 Y116.576
N120 Y116.589
N125 X0.493 Y117.586
N130 X0.494 Y117.599
N135 X0.583 Y118.593
N140 X0.584 Y118.605
N145 X0.712 Y119.594
N150 X0.714 Y119.606
N155 X0.881 Y120.59
N160 X0.883 Y120.603
N165 X1.089 Y121.579
N170 X1.092 Y121.591
N175 X1.335 Y122.559
N180 X1.339 Y122.571
N185 X1.62 Y123.528
N190 X1.624 Y123.54
N195 X1.942 Y124.486
N200 X1.947 Y124.498
N205 X2.302 Y125.43
N210 X2.307 Y125.441
N215 X2.699 Y126.359
N220 X2.704 Y126.371
N225 X3.132 Y127.272
N230 X3.138 Y127.283
N235 X3.6 Y128.167
N240 X3.606 Y128.178
N245 X4.104 Y129.043
N250 X4.11 Y129.054
N255 X4.641 Y129.899
N260 X4.648 Y129.909
N265 X5.211 Y130.733
N270 X5.219 Y130.744
N275 X5.814 Y131.544
N280 X5.822 Y131.554
N285 X6.448 Y132.331
N290 X6.456 Y132.34
N295 X7.113 Y133.092
N300 X7.121 Y133.102
N305 X7.807 Y133.827
N310 X7.816 Y133.836
N315 X8.529 Y134.533
N320 X8.538 Y134.541
N325 X9.279 Y135.21
N330 X9.288 Y135.218
N335 X10.054 Y135.858
N340 X10.064 Y135.866
N345 X10.854 Y136.475
N350 X10.865 Y136.483
N355 X11.678 Y137.06
N360 X11.689 Y137.067
N365 X12.525 Y137.612
N370 X12.535 Y137.618
N375 X13.392 Y138.13
N380 X13.403 Y138.137
N385 X14.279 Y138.614
N390 X14.29 Y138.619
N395 X15.184 Y139.062
N400 X15.195 Y139.068
N405 X16.106 Y139.476
N410 X16.118 Y139.481
N415 X17.044 Y139.852
N420 X17.056 Y139.856
N425 X17.996 Y140.191
N430 X18.008 Y140.195
N435 X18.961 Y140.492
N440 X18.972 Y140.495
N445 X19.936 Y140.755
N450 X19.948 Y140.758
N455 X20.921 Y140.98
N460 X20.933 Y140.983
N465 X21.914 Y141.166
N470 X21.926 Y141.168
N475 X22.914 Y141.313
N480 X22.926 Y141.315
N485 X23.918 Y141.421
N490 X23.931 Y141.422
N495 X24.908 Y141.488
N500 X24.914
N505 X551.325 Y166.82
N510 G2 X551.659 Y166.516 I0.015 J-0.319
N515 G1 X555.015 Y96.749
N520 G2 X554.651 Y96.418 I-0.319 J-0.015
N525 G1 X468.474 Y108.629
N530 X466.055 Y108.952
N535 X463.633 Y109.236
N540 X461.206 Y109.481
N545 X458.776 Y109.687
N550 X456.343 Y109.854
N555 X453.907 Y109.983
N560 X451.469 Y110.072
N565 X449.03 Y110.122
N570 X446.591 Y110.132
N575 X444.152 Y110.105
N580 X441.713 Y110.037
N585 X439.824 Y109.958
N590 X275.266 Y102.038
N595 X276.166 Y83.33
N600 G2 X275.862 Y82.996 I-0.319 J-0.015
N605 G1 X28.301 Y71.082
N610 X28.295
N615 X27.298 Y71.054
N620 X27.285
N625 X26.287 Y71.065
N630 X26.275
N635 X25.278 Y71.115
N640 X25.266 Y71.116
N645 X24.272 Y71.205
N650 X24.259 Y71.206
N655 X23.27 Y71.334
N660 X23.257 Y71.336
N665 X22.273 Y71.503
N670 X22.261 Y71.505
N675 X21.285 Y71.711
N680 X21.272 Y71.714
N685 X20.305 Y71.957
N690 X20.293 Y71.96
N695 X19.335 Y72.242
N700 X19.323 Y72.246
N705 X18.378 Y72.564
N710 X18.366 Y72.569
N715 X17.434 Y72.924
N720 X17.422 Y72.929
N725 X16.504 Y73.321
N730 X16.493 Y73.326
N735 X15.591 Y73.754
N740 X15.58 Y73.759
N745 X14.696 Y74.222
N750 X14.685 Y74.228
N755 X13.82 Y74.725
N760 X13.809 Y74.732
N765 X12.964 Y75.263
N770 X12.954 Y75.27
N775 X12.13 Y75.833
N780 X12.12 Y75.84
N785 X11.319 Y76.436
N790 X11.31 Y76.444
N795 X10.533 Y77.07
N800 X10.523 Y77.078
N805 X9.772 Y77.735
N810 X9.762 Y77.743
N815 X9.037 Y78.428
N820 X9.028 Y78.437
N825 X8.331 Y79.151
N830 X8.322 Y79.16
N835 X7.653 Y79.9
N840 X7.645 Y79.91
N845 X7.005 Y80.676
N850 X6.998 Y80.685
N855 X6.389 Y81.476
N860 X6.381 Y81.486
N865 X5.804 Y82.3
N870 X5.797 Y82.31
N875 X5.252 Y83.146
N880 X5.245 Y83.157
N885 X4.734 Y84.013
N890 X4.727 Y84.024
N895 X4.25 Y84.9
N900 X4.244 Y84.911
N905 X3.801 Y85.805
N910 X3.796 Y85.817
N915 X3.388 Y86.728
N920 X3.383 Y86.739
N925 X3.012 Y87.665
N930 X3.008 Y87.677
N935 X2.673 Y88.617
N940 X2.669 Y88.629
N945 X2.371 Y89.581
N950 X2.368 Y89.594
N955 X2.108 Y90.557
N960 X2.105 Y90.569
N965 X1.883 Y91.542
N970 X1.881 Y91.554
N975 X1.697 Y92.535
N980 X1.695 Y92.547
N985 X1.551 Y93.535
N990 X1.549 Y93.547
N995 X1.443 Y94.539
N1000 X1.442 Y94.552
N1005 X1.376 Y95.529
N1010 Y95.535
N1015 X0.46 Y114.563
N1020 Y114.569
N1025 X0.432 Y115.566
N1030 Y115.578
N1035 X0.427 Y115.603
N1040 X0.413 Y115.624
N1045 X0.393 Y115.638
N1050 X0.368 Y115.643
N1055 X0.305 Y115.644
N1060 X0.28 Z-6.345
N1065 X0.259 Z-6.331
N1070 X0.246 Z-6.311
N1075 X0.241 Z-6.286
N1080 Z7.35
N1085 X0.239 Y115.517
N1090 Z5.
N1095 Z1. F733.33
N1100 Z-12.636
N1105 X0.244 Z-12.661 F2200.
N1110 X0.258 Y115.516 Z-12.681
N1115 X0.279 Z-12.695
N1120 X0.303 Z-12.7
N1125 X0.367 Y115.515
N1130 X0.392 Y115.52
N1135 X0.412 Y115.533
N1140 X0.427 Y115.554
N1145 X0.432 Y115.578
N1150 X0.443 Y116.576
N1155 Y116.589
N1160 X0.493 Y117.586
N1165 X0.494 Y117.599
N1170 X0.583 Y118.593
N1175 X0.584 Y118.605
N1180 X0.712 Y119.594
N1185 X0.714 Y119.606
N1190 X0.881 Y120.59
N1195 X0.883 Y120.603
N1200 X1.089 Y121.579
N1205 X1.092 Y121.591
N1210 X1.335 Y122.559
N1215 X1.339 Y122.571
N1220 X1.62 Y123.528
N1225 X1.624 Y123.54
N1230 X1.942 Y124.486
N1235 X1.947 Y124.498
N1240 X2.302 Y125.43
N1245 X2.307 Y125.441
N1250 X2.699 Y126.359
N1255 X2.704 Y126.371
N1260 X3.132 Y127.272
N1265 X3.138 Y127.283
N1270 X3.6 Y128.167
N1275 X3.606 Y128.178
N1280 X4.104 Y129.043
N1285 X4.11 Y129.054
N1290 X4.641 Y129.899
N1295 X4.648 Y129.909
N1300 X5.211 Y130.733
N1305 X5.219 Y130.744
N1310 X5.814 Y131.544
N1315 X5.822 Y131.554
N1320 X6.448 Y132.331
N1325 X6.456 Y132.34
N1330 X7.113 Y133.092
N1335 X7.121 Y133.102
N1340 X7.807 Y133.827
N1345 X7.816 Y133.836
N1350 X8.529 Y134.533
N1355 X8.538 Y134.541
N1360 X9.279 Y135.21
N1365 X9.288 Y135.218
N1370 X10.054 Y135.858
N1375 X10.064 Y135.866
N1380 X10.854 Y136.475
N1385 X10.865 Y136.483
N1390 X11.678 Y137.06
N1395 X11.689 Y137.067
N1400 X12.525 Y137.612
N1405 X12.535 Y137.618
N1410 X13.392 Y138.13
N1415 X13.403 Y138.137
N1420 X14.279 Y138.614
N1425 X14.29 Y138.619
N1430 X15.184 Y139.062
N1435 X15.195 Y139.068
N1440 X16.106 Y139.476
N1445 X16.118 Y139.481
N1450 X17.044 Y139.852
N1455 X17.056 Y139.856
N1460 X17.996 Y140.191
N1465 X18.008 Y140.195
N1470 X18.961 Y140.492
N1475 X18.972 Y140.495
N1480 X19.936 Y140.755
N1485 X19.948 Y140.758
N1490 X20.921 Y140.98
N1495 X20.933 Y140.983
N1500 X21.914 Y141.166
N1505 X21.926 Y141.168
N1510 X22.914 Y141.313
N1515 X22.926 Y141.315
N1520 X23.918 Y141.421
N1525 X23.931 Y141.422
N1530 X24.908 Y141.488
N1535 X24.914
N1540 X551.325 Y166.82
N1545 G2 X551.659 Y166.516 I0.015 J-0.319
N1550 G1 X555.015 Y96.749
N1555 G2 X554.651 Y96.418 I-0.319 J-0.015
N1560 G1 X468.474 Y108.629
N1565 X466.055 Y108.952
N1570 X463.633 Y109.236
N1575 X461.206 Y109.481
N1580 X458.776 Y109.687
N1585 X456.343 Y109.854
N1590 X453.907 Y109.983
N1595 X451.469 Y110.072
N1600 X449.03 Y110.122
N1605 X446.591 Y110.132
N1610 X444.152 Y110.105
N1615 X441.713 Y110.037
N1620 X439.824 Y109.958
N1625 X275.266 Y102.038
N1630 X276.166 Y83.33
N1635 G2 X275.862 Y82.996 I-0.319 J-0.015
N1640 G1 X28.301 Y71.082
N1645 X28.295
N1650 X27.298 Y71.054
N1655 X27.285
N1660 X26.287 Y71.065
N1665 X26.275
N1670 X25.278 Y71.115
N1675 X25.266 Y71.116
N1680 X24.272 Y71.205
N1685 X24.259 Y71.206
N1690 X23.27 Y71.334
N1695 X23.257 Y71.336
N1700 X22.273 Y71.503
N1705 X22.261 Y71.505
N1710 X21.285 Y71.711
N1715 X21.272 Y71.714
N1720 X20.305 Y71.957
N1725 X20.293 Y71.96
N1730 X19.335 Y72.242
N1735 X19.323 Y72.246
N1740 X18.378 Y72.564
N1745 X18.366 Y72.569
N1750 X17.434 Y72.924
N1755 X17.422 Y72.929
N1760 X16.504 Y73.321
N1765 X16.493 Y73.326
N1770 X15.591 Y73.754
N1775 X15.58 Y73.759
N1780 X14.696 Y74.222
N1785 X14.685 Y74.228
N1790 X13.82 Y74.725
N1795 X13.809 Y74.732
N1800 X12.964 Y75.263
N1805 X12.954 Y75.27
N1810 X12.13 Y75.833
N1815 X12.12 Y75.84
N1820 X11.319 Y76.436
N1825 X11.31 Y76.444
N1830 X10.533 Y77.07
N1835 X10.523 Y77.078
N1840 X9.772 Y77.735
N1845 X9.762 Y77.743
N1850 X9.037 Y78.428
N1855 X9.028 Y78.437
N1860 X8.331 Y79.151
N1865 X8.322 Y79.16
N1870 X7.653 Y79.9
N1875 X7.645 Y79.91
N1880 X7.005 Y80.676
N1885 X6.998 Y80.685
N1890 X6.389 Y81.476
N1895 X6.381 Y81.486
N1900 X5.804 Y82.3
N1905 X5.797 Y82.31
N1910 X5.252 Y83.146
N1915 X5.245 Y83.157
N1920 X4.734 Y84.013
N1925 X4.727 Y84.024
N1930 X4.25 Y84.9
N1935 X4.244 Y84.911
N1940 X3.801 Y85.805
N1945 X3.796 Y85.817
N1950 X3.388 Y86.728
N1955 X3.383 Y86.739
N1960 X3.012 Y87.665
N1965 X3.008 Y87.677
N1970 X2.673 Y88.617
N1975 X2.669 Y88.629
N1980 X2.371 Y89.581
N1985 X2.368 Y89.594
N1990 X2.108 Y90.557
N1995 X2.105 Y90.569
N2000 X1.883 Y91.542
N2005 X1.881 Y91.554
N2010 X1.697 Y92.535
N2015 X1.695 Y92.547
N2020 X1.551 Y93.535
N2025 X1.549 Y93.547
N2030 X1.443 Y94.539
N2035 X1.442 Y94.552
N2040 X1.376 Y95.529
N2045 Y95.535
N2050 X0.46 Y114.563
N2055 Y114.569
N2060 X0.432 Y115.566
N2065 Y115.578
N2070 X0.427 Y115.603
N2075 X0.413 Y115.624
N2080 X0.393 Y115.638
N2085 X0.368 Y115.643
N2090 X0.305 Y115.644
N2095 X0.28 Z-12.695
N2100 X0.259 Z-12.681
N2105 X0.246 Z-12.661
N2110 X0.241 Z-12.636
N2115 Z7.35
N2120 X0.239 Y115.517
N2125 Z5.
N2130 Z-5.35 F733.33
N2135 Z-18.986
N2140 X0.244 Z-19.011 F2200.
N2145 X0.258 Y115.516 Z-19.031
N2150 X0.279 Z-19.045
N2155 X0.303 Z-19.05
N2160 X0.367 Y115.515
N2165 X0.392 Y115.52
N2170 X0.412 Y115.533
N2175 X0.427 Y115.554
N2180 X0.432 Y115.578
N2185 X0.443 Y116.576
N2190 Y116.589
N2195 X0.493 Y117.586
N2200 X0.494 Y117.599
N2205 X0.583 Y118.593
N2210 X0.584 Y118.605
N2215 X0.712 Y119.594
N2220 X0.714 Y119.606
N2225 X0.881 Y120.59
N2230 X0.883 Y120.603
N2235 X1.089 Y121.579
N2240 X1.092 Y121.591
N2245 X1.335 Y122.559
N2250 X1.339 Y122.571
N2255 X1.62 Y123.528
N2260 X1.624 Y123.54
N2265 X1.942 Y124.486
N2270 X1.947 Y124.498
N2275 X2.302 Y125.43
N2280 X2.307 Y125.441
N2285 X2.699 Y126.359
N2290 X2.704 Y126.371
N2295 X3.132 Y127.272
N2300 X3.138 Y127.283
N2305 X3.6 Y128.167
N2310 X3.606 Y128.178
N2315 X4.104 Y129.043
N2320 X4.11 Y129.054
N2325 X4.641 Y129.899
N2330 X4.648 Y129.909
N2335 X5.211 Y130.733
N2340 X5.219 Y130.744
N2345 X5.814 Y131.544
N2350 X5.822 Y131.554
N2355 X6.448 Y132.331
N2360 X6.456 Y132.34
N2365 X7.113 Y133.092
N2370 X7.121 Y133.102
N2375 X7.807 Y133.827
N2380 X7.816 Y133.836
N2385 X8.529 Y134.533
N2390 X8.538 Y134.541
N2395 X9.279 Y135.21
N2400 X9.288 Y135.218
N2405 X10.054 Y135.858
N2410 X10.064 Y135.866
N2415 X10.854 Y136.475
N2420 X10.865 Y136.483
N2425 X11.678 Y137.06
N2430 X11.689 Y137.067
N2435 X12.525 Y137.612
N2440 X12.535 Y137.618
N2445 X13.392 Y138.13
N2450 X13.403 Y138.137
N2455 X14.279 Y138.614
N2460 X14.29 Y138.619
N2465 X15.184 Y139.062
N2470 X15.195 Y139.068
N2475 X16.106 Y139.476
N2480 X16.118 Y139.481
N2485 X17.044 Y139.852
N2490 X17.056 Y139.856
N2495 X17.996 Y140.191
N2500 X18.008 Y140.195
N2505 X18.961 Y140.492
N2510 X18.972 Y140.495
N2515 X19.936 Y140.755
N2520 X19.948 Y140.758
N2525 X20.921 Y140.98
N2530 X20.933 Y140.983
N2535 X21.914 Y141.166
N2540 X21.926 Y141.168
N2545 X22.914 Y141.313
N2550 X22.926 Y141.315
N2555 X23.918 Y141.421
N2560 X23.931 Y141.422
N2565 X24.908 Y141.488
N2570 X24.914
N2575 X551.325 Y166.82
N2580 G2 X551.659 Y166.516 I0.015 J-0.319
N2585 G1 X555.015 Y96.749
N2590 G2 X554.651 Y96.418 I-0.319 J-0.015
N2595 G1 X468.474 Y108.629
N2600 X466.055 Y108.952
N2605 X463.633 Y109.236
N2610 X461.206 Y109.481
N2615 X458.776 Y109.687
N2620 X456.343 Y109.854
N2625 X453.907 Y109.983
N2630 X451.469 Y110.072
N2635 X449.03 Y110.122
N2640 X446.591 Y110.132
N2645 X444.152 Y110.105
N2650 X441.713 Y110.037
N2655 X439.824 Y109.958
N2660 X275.266 Y102.038
N2665 X276.166 Y83.33
N2670 G2 X275.862 Y82.996 I-0.319 J-0.015
N2675 G1 X28.301 Y71.082
N2680 X28.295
N2685 X27.298 Y71.054
N2690 X27.285
N2695 X26.287 Y71.065
N2700 X26.275
N2705 X25.278 Y71.115
N2710 X25.266 Y71.116
N2715 X24.272 Y71.205
N2720 X24.259 Y71.206
N2725 X23.27 Y71.334
N2730 X23.257 Y71.336
N2735 X22.273 Y71.503
N2740 X22.261 Y71.505
N2745 X21.285 Y71.711
N2750 X21.272 Y71.714
N2755 X20.305 Y71.957
N2760 X20.293 Y71.96
N2765 X19.335 Y72.242
N2770 X19.323 Y72.246
N2775 X18.378 Y72.564
N2780 X18.366 Y72.569
N2785 X17.434 Y72.924
N2790 X17.422 Y72.929
N2795 X16.504 Y73.321
N2800 X16.493 Y73.326
N2805 X15.591 Y73.754
N2810 X15.58 Y73.759
N2815 X14.696 Y74.222
N2820 X14.685 Y74.228
N2825 X13.82 Y74.725
N2830 X13.809 Y74.732
N2835 X12.964 Y75.263
N2840 X12.954 Y75.27
N2845 X12.13 Y75.833
N2850 X12.12 Y75.84
N2855 X11.319 Y76.436
N2860 X11.31 Y76.444
N2865 X10.533 Y77.07
N2870 X10.523 Y77.078
N2875 X9.772 Y77.735
N2880 X9.762 Y77.743
N2885 X9.037 Y78.428
N2890 X9.028 Y78.437
N2895 X8.331 Y79.151
N2900 X8.322 Y79.16
N2905 X7.653 Y79.9
N2910 X7.645 Y79.91
N2915 X7.005 Y80.676
N2920 X6.998 Y80.685
N2925 X6.389 Y81.476
N2930 X6.381 Y81.486
N2935 X5.804 Y82.3
N2940 X5.797 Y82.31
N2945 X5.252 Y83.146
N2950 X5.245 Y83.157
N2955 X4.734 Y84.013
N2960 X4.727 Y84.024
N2965 X4.25 Y84.9
N2970 X4.244 Y84.911
N2975 X3.801 Y85.805
N2980 X3.796 Y85.817
N2985 X3.388 Y86.728
N2990 X3.383 Y86.739
N2995 X3.012 Y87.665
N3000 X3.008 Y87.677
N3005 X2.673 Y88.617
N3010 X2.669 Y88.629
N3015 X2.371 Y89.581
N3020 X2.368 Y89.594
N3025 X2.108 Y90.557
N3030 X2.105 Y90.569
N3035 X1.883 Y91.542
N3040 X1.881 Y91.554
N3045 X1.697 Y92.535
N3050 X1.695 Y92.547
N3055 X1.551 Y93.535
N3060 X1.549 Y93.547
N3065 X1.443 Y94.539
N3070 X1.442 Y94.552
N3075 X1.376 Y95.529
N3080 Y95.535
N3085 X0.46 Y114.563
N3090 Y114.569
N3095 X0.432 Y115.566
N3100 Y115.578
N3105 X0.427 Y115.603
N3110 X0.413 Y115.624
N3115 X0.393 Y115.638
N3120 X0.368 Y115.643
N3125 X0.305 Y115.644
N3130 X0.28 Z-19.045
N3135 X0.259 Z-19.031
N3140 X0.246 Z-19.011
N3145 X0.241 Z-18.986
N3150 Z7.35
N3155 X0.239 Y115.517
N3160 Z5.
N3165 Z-11.7 F733.33
N3170 Z-20.576
N3175 X0.244 Z-20.6 F2200.
N3180 X0.258 Y115.516 Z-20.621
N3185 X0.279 Z-20.635
N3190 X0.303 Z-20.64
N3195 X0.367 Y115.515
N3200 X0.392 Y115.52
N3205 X0.412 Y115.533
N3210 X0.427 Y115.554
N3215 X0.432 Y115.578
N3220 X0.443 Y116.576
N3225 Y116.589
N3230 X0.451 Y116.758
N3235 Z-20.44
N3240 X0.493 Y117.586
N3245 X0.494 Y117.599
N3250 X0.533 Y118.034
N3255 Z-20.64 F733.33
N3260 X0.583 Y118.593 F2200.
N3265 X0.584 Y118.605
N3270 X0.712 Y119.594
N3275 X0.714 Y119.606
N3280 X0.881 Y120.59
N3285 X0.883 Y120.603
N3290 X1.089 Y121.579
N3295 X1.092 Y121.591
N3300 X1.165 Y121.881
N3305 Z-20.44
N3310 X1.335 Y122.559
N3315 X1.339 Y122.571
N3320 X1.498 Y123.115
N3325 Z-20.64 F733.33
N3330 X1.62 Y123.528 F2200.
N3335 X1.624 Y123.54
N3340 X1.942 Y124.486
N3345 X1.947 Y124.498
N3350 X2.302 Y125.43
N3355 X2.307 Y125.441
N3360 X2.699 Y126.359
N3365 X2.704 Y126.371
N3370 X2.888 Y126.758
N3375 Z-20.44
N3380 X3.132 Y127.272
N3385 X3.138 Y127.283
N3390 X3.461 Y127.901
N3395 Z-20.64 F733.33
N3400 X3.6 Y128.167 F2200.
N3405 X3.606 Y128.178
N3410 X4.104 Y129.043
N3415 X4.11 Y129.054
N3420 X4.641 Y129.899
N3425 X4.648 Y129.909
N3430 X5.211 Y130.733
N3435 X5.219 Y130.744
N3440 X5.552 Y131.191
N3445 Z-20.44
N3450 X5.814 Y131.544
N3455 X5.822 Y131.554
N3460 X6.341 Y132.197
N3465 Z-20.64 F733.33
N3470 X6.448 Y132.331 F2200.
N3475 X6.456 Y132.34
N3480 X7.113 Y133.092
N3485 X7.121 Y133.102
N3490 X7.807 Y133.827
N3495 X7.816 Y133.836
N3500 X8.529 Y134.533
N3505 X8.538 Y134.541
N3510 X9.049 Y135.002
N3515 Z-20.44
N3520 X9.279 Y135.21
N3525 X9.288 Y135.218
N3530 X10.021 Y135.831
N3535 Z-20.64 F733.33
N3540 X10.054 Y135.858 F2200.
N3545 X10.064 Y135.866
N3550 X10.854 Y136.475
N3555 X10.865 Y136.483
N3560 X11.678 Y137.06
N3565 X11.689 Y137.067
N3570 X12.525 Y137.612
N3575 X12.535 Y137.618
N3580 X13.237 Y138.037
N3585 Z-20.44
N3590 X13.392 Y138.13
N3595 X13.403 Y138.137
N3600 X14.279 Y138.614
N3605 X14.29 Y138.619
N3610 X14.357 Y138.652
N3615 Z-20.64 F733.33
N3620 X15.184 Y139.062 F2200.
N3625 X15.195 Y139.068
N3630 X16.106 Y139.476
N3635 X16.118 Y139.481
N3640 X17.044 Y139.852
N3645 X17.056 Y139.856
N3650 X17.947 Y140.174
N3655 Z-20.44
N3660 X17.996 Y140.191
N3665 X18.008 Y140.195
N3670 X18.961 Y140.492
N3675 X18.972 Y140.495
N3680 X19.169 Y140.549
N3685 Z-20.64 F733.33
N3690 X19.936 Y140.755 F2200.
N3695 X19.948 Y140.758
N3700 X20.921 Y140.98
N3705 X20.933 Y140.983
N3710 X21.914 Y141.166
N3715 X21.926 Y141.168
N3720 X22.914 Y141.313
N3725 X22.926 Y141.315
N3730 X22.991 Y141.322
N3735 Z-20.44
N3740 X23.918 Y141.421
N3745 X23.931 Y141.422
N3750 X24.263 Y141.444
N3755 Z-20.64 F733.33
N3760 X24.908 Y141.488 F2200.
N3765 X24.914
N3770 X28.113 Y141.642
N3775 Z-20.44
N3780 X29.389 Y141.703
N3785 Z-20.64 F733.33
N3790 X33.224 Y141.888 F2200.
N3795 Z-20.44
N3800 X34.501 Y141.949
N3805 Z-20.64 F733.33
N3810 X38.336 Y142.134 F2200.
N3815 Z-20.44
N3820 X39.612 Y142.195
N3825 Z-20.64 F733.33
N3830 X43.447 Y142.38 F2200.
N3835 Z-20.44
N3840 X44.724 Y142.441
N3845 Z-20.64 F733.33
N3850 X48.558 Y142.626 F2200.
N3855 Z-20.44
N3860 X49.835 Y142.687
N3865 Z-20.64 F733.33
N3870 X53.67 Y142.872 F2200.
N3875 Z-20.44
N3880 X54.946 Y142.933
N3885 Z-20.64 F733.33
N3890 X58.781 Y143.118 F2200.
N3895 Z-20.44
N3900 X60.058 Y143.179
N3905 Z-20.64 F733.33
N3910 X63.893 Y143.364 F2200.
N3915 Z-20.44
N3920 X65.169 Y143.425
N3925 Z-20.64 F733.33
N3930 X69.004 Y143.61 F2200.
N3935 Z-20.44
N3940 X70.28 Y143.671
N3945 Z-20.64 F733.33
N3950 X74.115 Y143.856 F2200.
N3955 Z-20.44
N3960 X75.392 Y143.917
N3965 Z-20.64 F733.33
N3970 X79.227 Y144.102 F2200.
N3975 Z-20.44
N3980 X80.503 Y144.163
N3985 Z-20.64 F733.33
N3990 X84.338 Y144.348 F2200.
N3995 Z-20.44
N4000 X85.614 Y144.409
N4005 Z-20.64 F733.33
N4010 X89.449 Y144.594 F2200.
N4015 Z-20.44
N4020 X90.726 Y144.655
N4025 Z-20.64 F733.33
N4030 X94.561 Y144.84 F2200.
N4035 Z-20.44
N4040 X95.837 Y144.901
N4045 Z-20.64 F733.33
N4050 X99.672 Y145.086 F2200.
N4055 Z-20.44
N4060 X100.949 Y145.147
N4065 Z-20.64 F733.33
N4070 X104.783 Y145.332 F2200.
N4075 Z-20.44
N4080 X106.06 Y145.393
N4085 Z-20.64 F733.33
N4090 X109.894 Y145.578 F2200.
N4095 Z-20.44
N4100 X111.171 Y145.639
N4105 Z-20.64 F733.33
N4110 X115.006 Y145.824 F2200.
N4115 Z-20.44
N4120 X116.283 Y145.885
N4125 Z-20.64 F733.33
N4130 X120.117 Y146.07 F2200.
N4135 Z-20.44
N4140 X121.394 Y146.131
N4145 Z-20.64 F733.33
N4150 X125.229 Y146.316 F2200.
N4155 Z-20.44
N4160 X126.506 Y146.377
N4165 Z-20.64 F733.33
N4170 X130.34 Y146.561 F2200.
N4175 Z-20.44
N4180 X131.617 Y146.623
N4185 Z-20.64 F733.33
N4190 X135.451 Y146.807 F2200.
N4195 Z-20.44
N4200 X136.728 Y146.869
N4205 Z-20.64 F733.33
N4210 X140.563 Y147.053 F2200.
N4215 Z-20.44
N4220 X141.84 Y147.115
N4225 Z-20.64 F733.33
N4230 X145.674 Y147.299 F2200.
N4235 Z-20.44
N4240 X146.951 Y147.361
N4245 Z-20.64 F733.33
N4250 X150.785 Y147.545 F2200.
N4255 Z-20.44
N4260 X152.062 Y147.607
N4265 Z-20.64 F733.33
N4270 X155.897 Y147.791 F2200.
N4275 Z-20.44
N4280 X157.174 Y147.853
N4285 Z-20.64 F733.33
N4290 X161.008 Y148.037 F2200.
N4295 Z-20.44
N4300 X162.285 Y148.099
N4305 Z-20.64 F733.33
N4310 X166.119 Y148.283 F2200.
N4315 Z-20.44
N4320 X167.396 Y148.345
N4325 Z-20.64 F733.33
N4330 X171.231 Y148.529 F2200.
N4335 Z-20.44
N4340 X172.508 Y148.591
N4345 Z-20.64 F733.33
N4350 X176.342 Y148.775 F2200.
N4355 Z-20.44
N4360 X177.619 Y148.837
N4365 Z-20.64 F733.33
N4370 X181.454 Y149.021 F2200.
N4375 Z-20.44
N4380 X182.731 Y149.083
N4385 Z-20.64 F733.33
N4390 X186.565 Y149.267 F2200.
N4395 Z-20.44
N4400 X187.842 Y149.329
N4405 Z-20.64 F733.33
N4410 X191.676 Y149.513 F2200.
N4415 Z-20.44
N4420 X192.953 Y149.575
N4425 Z-20.64 F733.33
N4430 X196.788 Y149.759 F2200.
N4435 Z-20.44
N4440 X198.065 Y149.821
N4445 Z-20.64 F733.33
N4450 X201.899 Y150.005 F2200.
N4455 Z-20.44
N4460 X203.176 Y150.066
N4465 Z-20.64 F733.33
N4470 X207.01 Y150.251 F2200.
N4475 Z-20.44
N4480 X208.287 Y150.312
N4485 Z-20.64 F733.33
N4490 X212.122 Y150.497 F2200.
N4495 Z-20.44
N4500 X213.399 Y150.558
N4505 Z-20.64 F733.33
N4510 X217.233 Y150.743 F2200.
N4515 Z-20.44
N4520 X218.51 Y150.804
N4525 Z-20.64 F733.33
N4530 X222.344 Y150.989 F2200.
N4535 Z-20.44
N4540 X223.621 Y151.05
N4545 Z-20.64 F733.33
N4550 X227.456 Y151.235 F2200.
N4555 Z-20.44
N4560 X228.733 Y151.296
N4565 Z-20.64 F733.33
N4570 X232.567 Y151.481 F2200.
N4575 Z-20.44
N4580 X233.844 Y151.542
N4585 Z-20.64 F733.33
N4590 X237.679 Y151.727 F2200.
N4595 Z-20.44
N4600 X238.956 Y151.788
N4605 Z-20.64 F733.33
N4610 X242.79 Y151.973 F2200.
N4615 Z-20.44
N4620 X244.067 Y152.034
N4625 Z-20.64 F733.33
N4630 X247.901 Y152.219 F2200.
N4635 Z-20.44
N4640 X249.178 Y152.28
N4645 Z-20.64 F733.33
N4650 X253.013 Y152.465 F2200.
N4655 Z-20.44
N4660 X254.29 Y152.526
N4665 Z-20.64 F733.33
N4670 X258.124 Y152.711 F2200.
N4675 Z-20.44
N4680 X259.401 Y152.772
N4685 Z-20.64 F733.33
N4690 X263.235 Y152.957 F2200.
N4695 Z-20.44
N4700 X264.512 Y153.018
N4705 Z-20.64 F733.33
N4710 X268.347 Y153.203 F2200.
N4715 Z-20.44
N4720 X269.624 Y153.264
N4725 Z-20.64 F733.33
N4730 X273.458 Y153.449 F2200.
N4735 Z-20.44
N4740 X274.735 Y153.51
N4745 Z-20.64 F733.33
N4750 X278.569 Y153.695 F2200.
N4755 Z-20.44
N4760 X279.846 Y153.756
N4765 Z-20.64 F733.33
N4770 X283.681 Y153.941 F2200.
N4775 Z-20.44
N4780 X284.958 Y154.002
N4785 Z-20.64 F733.33
N4790 X288.792 Y154.187 F2200.
N4795 Z-20.44
N4800 X290.069 Y154.248
N4805 Z-20.64 F733.33
N4810 X293.904 Y154.433 F2200.
N4815 Z-20.44
N4820 X295.181 Y154.494
N4825 Z-20.64 F733.33
N4830 X299.015 Y154.678 F2200.
N4835 Z-20.44
N4840 X300.292 Y154.74
N4845 Z-20.64 F733.33
N4850 X304.126 Y154.924 F2200.
N4855 Z-20.44
N4860 X305.403 Y154.986
N4865 Z-20.64 F733.33
N4870 X309.238 Y155.17 F2200.
N4875 Z-20.44
N4880 X310.515 Y155.232
N4885 Z-20.64 F733.33
N4890 X314.349 Y155.416 F2200.
N4895 Z-20.44
N4900 X315.626 Y155.478
N4905 Z-20.64 F733.33
N4910 X319.46 Y155.662 F2200.
N4915 Z-20.44
N4920 X320.737 Y155.724
N4925 Z-20.64 F733.33
N4930 X324.572 Y155.908 F2200.
N4935 Z-20.44
N4940 X325.849 Y155.97
N4945 Z-20.64 F733.33
N4950 X329.683 Y156.154 F2200.
N4955 Z-20.44
N4960 X330.96 Y156.216
N4965 Z-20.64 F733.33
N4970 X334.794 Y156.4 F2200.
N4975 Z-20.44
N4980 X336.071 Y156.462
N4985 Z-20.64 F733.33
N4990 X339.906 Y156.646 F2200.
N4995 Z-20.44
N5000 X341.183 Y156.708
N5005 Z-20.64 F733.33
N5010 X345.017 Y156.892 F2200.
N5015 Z-20.44
N5020 X346.294 Y156.954
N5025 Z-20.64 F733.33
N5030 X350.129 Y157.138 F2200.
N5035 Z-20.44
N5040 X351.406 Y157.2
N5045 Z-20.64 F733.33
N5050 X355.24 Y157.384 F2200.
N5055 Z-20.44
N5060 X356.517 Y157.446
N5065 Z-20.64 F733.33
N5070 X360.351 Y157.63 F2200.
N5075 Z-20.44
N5080 X361.628 Y157.692
N5085 Z-20.64 F733.33
N5090 X365.463 Y157.876 F2200.
N5095 Z-20.44
N5100 X366.74 Y157.938
N5105 Z-20.64 F733.33
N5110 X370.574 Y158.122 F2200.
N5115 Z-20.44
N5120 X371.851 Y158.183
N5125 Z-20.64 F733.33
N5130 X375.685 Y158.368 F2200.
N5135 Z-20.44
N5140 X376.962 Y158.429
N5145 Z-20.64 F733.33
N5150 X380.797 Y158.614 F2200.
N5155 Z-20.44
N5160 X382.074 Y158.675
N5165 Z-20.64 F733.33
N5170 X385.908 Y158.86 F2200.
N5175 Z-20.44
N5180 X387.185 Y158.921
N5185 Z-20.64 F733.33
N5190 X391.019 Y159.106 F2200.
N5195 Z-20.44
N5200 X392.296 Y159.167
N5205 Z-20.64 F733.33
N5210 X396.131 Y159.352 F2200.
N5215 Z-20.44
N5220 X397.408 Y159.413
N5225 Z-20.64 F733.33
N5230 X401.242 Y159.598 F2200.
N5235 Z-20.44
N5240 X402.519 Y159.659
N5245 Z-20.64 F733.33
N5250 X406.354 Y159.844 F2200.
N5255 Z-20.44
N5260 X407.631 Y159.905
N5265 Z-20.64 F733.33
N5270 X411.465 Y160.09 F2200.
N5275 Z-20.44
N5280 X412.742 Y160.151
N5285 Z-20.64 F733.33
N5290 X416.576 Y160.336 F2200.
N5295 Z-20.44
N5300 X417.853 Y160.397
N5305 Z-20.64 F733.33
N5310 X421.688 Y160.582 F2200.
N5315 Z-20.44
N5320 X422.965 Y160.643
N5325 Z-20.64 F733.33
N5330 X426.799 Y160.828 F2200.
N5335 Z-20.44
N5340 X428.076 Y160.889
N5345 Z-20.64 F733.33
N5350 X431.91 Y161.074 F2200.
N5355 Z-20.44
N5360 X433.187 Y161.135
N5365 Z-20.64 F733.33
N5370 X437.022 Y161.32 F2200.
N5375 Z-20.44
N5380 X438.299 Y161.381
N5385 Z-20.64 F733.33
N5390 X442.133 Y161.566 F2200.
N5395 Z-20.44
N5400 X443.41 Y161.627
N5405 Z-20.64 F733.33
N5410 X447.244 Y161.812 F2200.
N5415 Z-20.44
N5420 X448.521 Y161.873
N5425 Z-20.64 F733.33
N5430 X452.356 Y162.058 F2200.
N5435 Z-20.44
N5440 X453.633 Y162.119
N5445 Z-20.64 F733.33
N5450 X457.467 Y162.304 F2200.
N5455 Z-20.44
N5460 X458.744 Y162.365
N5465 Z-20.64 F733.33
N5470 X462.579 Y162.55 F2200.
N5475 Z-20.44
N5480 X463.856 Y162.611
N5485 Z-20.64 F733.33
N5490 X467.69 Y162.795 F2200.
N5495 Z-20.44
N5500 X468.967 Y162.857
N5505 Z-20.64 F733.33
N5510 X472.801 Y163.041 F2200.
N5515 Z-20.44
N5520 X474.078 Y163.103
N5525 Z-20.64 F733.33
N5530 X477.913 Y163.287 F2200.
N5535 Z-20.44
N5540 X479.19 Y163.349
N5545 Z-20.64 F733.33
N5550 X483.024 Y163.533 F2200.
N5555 Z-20.44
N5560 X484.301 Y163.595
N5565 Z-20.64 F733.33
N5570 X488.135 Y163.779 F2200.
N5575 Z-20.44
N5580 X489.412 Y163.841
N5585 Z-20.64 F733.33
N5590 X493.247 Y164.025 F2200.
N5595 Z-20.44
N5600 X494.524 Y164.087
N5605 Z-20.64 F733.33
N5610 X498.358 Y164.271 F2200.
N5615 Z-20.44
N5620 X499.635 Y164.333
N5625 Z-20.64 F733.33
N5630 X503.469 Y164.517 F2200.
N5635 Z-20.44
N5640 X504.746 Y164.579
N5645 Z-20.64 F733.33
N5650 X508.581 Y164.763 F2200.
N5655 Z-20.44
N5660 X509.858 Y164.825
N5665 Z-20.64 F733.33
N5670 X513.692 Y165.009 F2200.
N5675 Z-20.44
N5680 X514.969 Y165.071
N5685 Z-20.64 F733.33
N5690 X518.804 Y165.255 F2200.
N5695 Z-20.44
N5700 X520.081 Y165.317
N5705 Z-20.64 F733.33
N5710 X523.915 Y165.501 F2200.
N5715 Z-20.44
N5720 X525.192 Y165.563
N5725 Z-20.64 F733.33
N5730 X529.026 Y165.747 F2200.
N5735 Z-20.44
N5740 X530.303 Y165.809
N5745 Z-20.64 F733.33
N5750 X534.138 Y165.993 F2200.
N5755 Z-20.44
N5760 X535.415 Y166.055
N5765 Z-20.64 F733.33
N5770 X539.249 Y166.239 F2200.
N5775 Z-20.44
N5780 X540.526 Y166.3
N5785 Z-20.64 F733.33
N5790 X544.36 Y166.485 F2200.
N5795 Z-20.44
N5800 X545.637 Y166.546
N5805 Z-20.64 F733.33
N5810 X549.472 Y166.731 F2200.
N5815 Z-20.44
N5820 X550.749 Y166.792
N5825 Z-20.64 F733.33
N5830 X551.325 Y166.82 F2200.
N5835 G2 X551.659 Y166.516 I0.015 J-0.319
N5840 G1 X551.816 Y163.258
N5845 Z-20.44
N5850 X551.877 Y161.981
N5855 Z-20.64 F733.33
N5860 X552.062 Y158.147 F2200.
N5865 Z-20.44
N5870 X552.123 Y156.87
N5875 Z-20.64 F733.33
N5880 X552.308 Y153.035 F2200.
N5885 Z-20.44
N5890 X552.369 Y151.758
N5895 Z-20.64 F733.33
N5900 X552.553 Y147.924 F2200.
N5905 Z-20.44
N5910 X552.615 Y146.647
N5915 Z-20.64 F733.33
N5920 X552.799 Y142.812 F2200.
N5925 Z-20.44
N5930 X552.861 Y141.535
N5935 Z-20.64 F733.33
N5940 X553.045 Y137.701 F2200.
N5945 Z-20.44
N5950 X553.107 Y136.424
N5955 Z-20.64 F733.33
N5960 X553.291 Y132.59 F2200.
N5965 Z-20.44
N5970 X553.353 Y131.313
N5975 Z-20.64 F733.33
N5980 X553.537 Y127.478 F2200.
N5985 Z-20.44
N5990 X553.598 Y126.201
N5995 Z-20.64 F733.33
N6000 X553.783 Y122.367 F2200.
N6005 Z-20.44
N6010 X553.844 Y121.09
N6015 Z-20.64 F733.33
N6020 X554.029 Y117.256 F2200.
N6025 Z-20.44
N6030 X554.09 Y115.979
N6035 Z-20.64 F733.33
N6040 X554.275 Y112.144 F2200.
N6045 Z-20.44
N6050 X554.336 Y110.867
N6055 Z-20.64 F733.33
N6060 X554.52 Y107.033 F2200.
N6065 Z-20.44
N6070 X554.582 Y105.756
N6075 Z-20.64 F733.33
N6080 X554.766 Y101.922 F2200.
N6085 Z-20.44
N6090 X554.828 Y100.645
N6095 Z-20.64 F733.33
N6100 X555.015 Y96.749 F2200.
N6105 G2 X554.713 Y96.415 I-0.319 J-0.015
N6110 G1 Z-20.44
N6115 X554.651 Y96.418
N6120 X553.446 Y96.588
N6125 Z-20.64 F733.33
N6130 X549.645 Y97.127 F2200.
N6135 Z-20.44
N6140 X548.379 Y97.306
N6145 Z-20.64 F733.33
N6150 X544.578 Y97.845 F2200.
N6155 Z-20.44
N6160 X543.313 Y98.024
N6165 Z-20.64 F733.33
N6170 X539.512 Y98.563 F2200.
N6175 Z-20.44
N6180 X538.246 Y98.742
N6185 Z-20.64 F733.33
N6190 X534.445 Y99.281 F2200.
N6195 Z-20.44
N6200 X533.18 Y99.46
N6205 Z-20.64 F733.33
N6210 X529.378 Y99.999 F2200.
N6215 Z-20.44
N6220 X528.112 Y100.178
N6225 Z-20.64 F733.33
N6230 X524.312 Y100.717 F2200.
N6235 Z-20.44
N6240 X523.046 Y100.896
N6245 Z-20.64 F733.33
N6250 X519.245 Y101.435 F2200.
N6255 Z-20.44
N6260 X517.979 Y101.614
N6265 Z-20.64 F733.33
N6270 X514.178 Y102.153 F2200.
N6275 Z-20.44
N6280 X512.912 Y102.332
N6285 Z-20.64 F733.33
N6290 X509.112 Y102.871 F2200.
N6295 Z-20.44
N6300 X507.846 Y103.05
N6305 Z-20.64 F733.33
N6310 X504.045 Y103.589 F2200.
N6315 Z-20.44
N6320 X502.779 Y103.768
N6325 Z-20.64 F733.33
N6330 X498.978 Y104.307 F2200.
N6335 Z-20.44
N6340 X497.712 Y104.486
N6345 Z-20.64 F733.33
N6350 X493.912 Y105.025 F2200.
N6355 Z-20.44
N6360 X492.646 Y105.204
N6365 Z-20.64 F733.33
N6370 X488.845 Y105.743 F2200.
N6375 Z-20.44
N6380 X487.579 Y105.922
N6385 Z-20.64 F733.33
N6390 X483.778 Y106.461 F2200.
N6395 Z-20.44
N6400 X482.513 Y106.64
N6405 Z-20.64 F733.33
N6410 X478.712 Y107.179 F2200.
N6415 Z-20.44
N6420 X477.447 Y107.358
N6425 Z-20.64 F733.33
N6430 X473.645 Y107.897 F2200.
N6435 Z-20.44
N6440 X472.38 Y108.076
N6445 Z-20.64 F733.33
N6450 X468.579 Y108.615 F2200.
N6455 Z-20.44
N6460 X468.474 Y108.629
N6465 X467.313 Y108.784
N6470 Z-20.64 F733.33
N6475 X466.055 Y108.952 F2200.
N6480 X463.633 Y109.236
N6485 X463.512 Y109.249
N6490 Z-20.44
N6495 X462.241 Y109.377
N6500 Z-20.64 F733.33
N6505 X461.206 Y109.481 F2200.
N6510 X458.776 Y109.687
N6515 X458.427 Y109.711
N6520 Z-20.44
N6525 X457.152 Y109.799
N6530 Z-20.64 F733.33
N6535 X456.343 Y109.854 F2200.
N6540 X453.907 Y109.983
N6545 X453.33 Y110.004
N6550 Z-20.44
N6555 X452.053 Y110.05
N6560 Z-20.64 F733.33
N6565 X451.469 Y110.072 F2200.
N6570 X449.03 Y110.122
N6575 X448.225 Y110.125
N6580 Z-20.44
N6585 X446.947 Y110.131
N6590 Z-20.64 F733.33
N6595 X446.591 Y110.132 F2200.
N6600 X444.152 Y110.105
N6605 X443.119 Y110.076
N6610 Z-20.44
N6615 X441.841 Y110.04
N6620 Z-20.64 F733.33
N6625 X441.713 Y110.037 F2200.
N6630 X439.824 Y109.958
N6635 X438.012 Y109.871
N6640 Z-20.44
N6645 X436.735 Y109.809
N6650 Z-20.64 F733.33
N6655 X432.9 Y109.625 F2200.
N6660 Z-20.44
N6665 X431.623 Y109.563
N6670 Z-20.64 F733.33
N6675 X427.789 Y109.379 F2200.
N6680 Z-20.44
N6685 X426.512 Y109.317
N6690 Z-20.64 F733.33
N6695 X422.678 Y109.133 F2200.
N6700 Z-20.44
N6705 X421.401 Y109.071
N6710 Z-20.64 F733.33
N6715 X417.566 Y108.887 F2200.
N6720 Z-20.44
N6725 X416.289 Y108.825
N6730 Z-20.64 F733.33
N6735 X412.455 Y108.641 F2200.
N6740 Z-20.44
N6745 X411.178 Y108.579
N6750 Z-20.64 F733.33
N6755 X407.344 Y108.395 F2200.
N6760 Z-20.44
N6765 X406.067 Y108.333
N6770 Z-20.64 F733.33
N6775 X402.232 Y108.149 F2200.
N6780 Z-20.44
N6785 X400.955 Y108.087
N6790 Z-20.64 F733.33
N6795 X397.121 Y107.903 F2200.
N6800 Z-20.44
N6805 X395.844 Y107.841
N6810 Z-20.64 F733.33
N6815 X392.009 Y107.657 F2200.
N6820 Z-20.44
N6825 X390.732 Y107.595
N6830 Z-20.64 F733.33
N6835 X386.898 Y107.411 F2200.
N6840 Z-20.44
N6845 X385.621 Y107.349
N6850 Z-20.64 F733.33
N6855 X381.787 Y107.165 F2200.
N6860 Z-20.44
N6865 X380.51 Y107.103
N6870 Z-20.64 F733.33
N6875 X376.675 Y106.919 F2200.
N6880 Z-20.44
N6885 X375.398 Y106.857
N6890 Z-20.64 F733.33
N6895 X371.564 Y106.673 F2200.
N6900 Z-20.44
N6905 X370.287 Y106.611
N6910 Z-20.64 F733.33
N6915 X366.453 Y106.427 F2200.
N6920 Z-20.44
N6925 X365.176 Y106.365
N6930 Z-20.64 F733.33
N6935 X361.341 Y106.181 F2200.
N6940 Z-20.44
N6945 X360.064 Y106.119
N6950 Z-20.64 F733.33
N6955 X356.23 Y105.935 F2200.
N6960 Z-20.44
N6965 X354.953 Y105.873
N6970 Z-20.64 F733.33
N6975 X351.119 Y105.689 F2200.
N6980 Z-20.44
N6985 X349.842 Y105.627
N6990 Z-20.64 F733.33
N6995 X346.007 Y105.443 F2200.
N7000 Z-20.44
N7005 X344.73 Y105.381
N7010 Z-20.64 F733.33
N7015 X340.896 Y105.197 F2200.
N7020 Z-20.44
N7025 X339.619 Y105.135
N7030 Z-20.64 F733.33
N7035 X335.784 Y104.951 F2200.
N7040 Z-20.44
N7045 X334.507 Y104.889
N7050 Z-20.64 F733.33
N7055 X330.673 Y104.705 F2200.
N7060 Z-20.44
N7065 X329.396 Y104.643
N7070 Z-20.64 F733.33
N7075 X325.562 Y104.459 F2200.
N7080 Z-20.44
N7085 X324.285 Y104.397
N7090 Z-20.64 F733.33
N7095 X320.45 Y104.213 F2200.
N7100 Z-20.44
N7105 X319.173 Y104.151
N7110 Z-20.64 F733.33
N7115 X315.339 Y103.967 F2200.
N7120 Z-20.44
N7125 X314.062 Y103.905
N7130 Z-20.64 F733.33
N7135 X310.228 Y103.721 F2200.
N7140 Z-20.44
N7145 X308.951 Y103.659
N7150 Z-20.64 F733.33
N7155 X305.116 Y103.475 F2200.
N7160 Z-20.44
N7165 X303.839 Y103.413
N7170 Z-20.64 F733.33
N7175 X300.005 Y103.229 F2200.
N7180 Z-20.44
N7185 X298.728 Y103.167
N7190 Z-20.64 F733.33
N7195 X294.894 Y102.983 F2200.
N7200 Z-20.44
N7205 X293.617 Y102.921
N7210 Z-20.64 F733.33
N7215 X289.782 Y102.737 F2200.
N7220 Z-20.44
N7225 X288.505 Y102.675
N7230 Z-20.64 F733.33
N7235 X284.671 Y102.491 F2200.
N7240 Z-20.44
N7245 X283.394 Y102.429
N7250 Z-20.64 F733.33
N7255 X279.559 Y102.245 F2200.
N7260 Z-20.44
N7265 X278.282 Y102.183
N7270 Z-20.64 F733.33
N7275 X275.266 Y102.038 F2200.
N7280 X275.275 Y101.859
N7285 Z-20.44
N7290 X275.336 Y100.582
N7295 Z-20.64 F733.33
N7300 X275.521 Y96.747 F2200.
N7305 Z-20.44
N7310 X275.582 Y95.471
N7315 Z-20.64 F733.33
N7320 X275.767 Y91.636 F2200.
N7325 Z-20.44
N7330 X275.828 Y90.359
N7335 Z-20.64 F733.33
N7340 X276.013 Y86.524 F2200.
N7345 Z-20.44
N7350 X276.074 Y85.248
N7355 Z-20.64 F733.33
N7360 X276.166 Y83.33 F2200.
N7365 G2 X275.862 Y82.996 I-0.319 J-0.015
N7370 G1 X273.945 Y82.904
N7375 Z-20.44
N7380 X272.668 Y82.842
N7385 Z-20.64 F733.33
N7390 X268.834 Y82.658 F2200.
N7395 Z-20.44
N7400 X267.557 Y82.596
N7405 Z-20.64 F733.33
N7410 X263.723 Y82.412 F2200.
N7415 Z-20.44
N7420 X262.446 Y82.35
N7425 Z-20.64 F733.33
N7430 X258.611 Y82.166 F2200.
N7435 Z-20.44
N7440 X257.334 Y82.104
N7445 Z-20.64 F733.33
N7450 X253.5 Y81.92 F2200.
N7455 Z-20.44
N7460 X252.223 Y81.858
N7465 Z-20.64 F733.33
N7470 X248.389 Y81.674 F2200.
N7475 Z-20.44
N7480 X247.112 Y81.612
N7485 Z-20.64 F733.33
N7490 X243.277 Y81.428 F2200.
N7495 Z-20.44
N7500 X242. Y81.366
N7505 Z-20.64 F733.33
N7510 X238.166 Y81.182 F2200.
N7515 Z-20.44
N7520 X236.889 Y81.12
N7525 Z-20.64 F733.33
N7530 X233.054 Y80.936 F2200.
N7535 Z-20.44
N7540 X231.777 Y80.874
N7545 Z-20.64 F733.33
N7550 X227.943 Y80.69 F2200.
N7555 Z-20.44
N7560 X226.666 Y80.628
N7565 Z-20.64 F733.33
N7570 X222.832 Y80.444 F2200.
N7575 Z-20.44
N7580 X221.555 Y80.382
N7585 Z-20.64 F733.33
N7590 X217.72 Y80.198 F2200.
N7595 Z-20.44
N7600 X216.443 Y80.136
N7605 Z-20.64 F733.33
N7610 X212.609 Y79.952 F2200.
N7615 Z-20.44
N7620 X211.332 Y79.89
N7625 Z-20.64 F733.33
N7630 X207.498 Y79.706 F2200.
N7635 Z-20.44
N7640 X206.221 Y79.645
N7645 Z-20.64 F733.33
N7650 X202.386 Y79.46 F2200.
N7655 Z-20.44
N7660 X201.109 Y79.399
N7665 Z-20.64 F733.33
N7670 X197.275 Y79.214 F2200.
N7675 Z-20.44
N7680 X195.998 Y79.153
N7685 Z-20.64 F733.33
N7690 X192.164 Y78.968 F2200.
N7695 Z-20.44
N7700 X190.887 Y78.907
N7705 Z-20.64 F733.33
N7710 X187.052 Y78.722 F2200.
N7715 Z-20.44
N7720 X185.775 Y78.661
N7725 Z-20.64 F733.33
N7730 X181.941 Y78.476 F2200.
N7735 Z-20.44
N7740 X180.664 Y78.415
N7745 Z-20.64 F733.33
N7750 X176.829 Y78.23 F2200.
N7755 Z-20.44
N7760 X175.552 Y78.169
N7765 Z-20.64 F733.33
N7770 X171.718 Y77.984 F2200.
N7775 Z-20.44
N7780 X170.441 Y77.923
N7785 Z-20.64 F733.33
N7790 X166.607 Y77.738 F2200.
N7795 Z-20.44
N7800 X165.33 Y77.677
N7805 Z-20.64 F733.33
N7810 X161.495 Y77.492 F2200.
N7815 Z-20.44
N7820 X160.218 Y77.431
N7825 Z-20.64 F733.33
N7830 X156.384 Y77.246 F2200.
N7835 Z-20.44
N7840 X155.107 Y77.185
N7845 Z-20.64 F733.33
N7850 X151.273 Y77. F2200.
N7855 Z-20.44
N7860 X149.996 Y76.939
N7865 Z-20.64 F733.33
N7870 X146.161 Y76.754 F2200.
N7875 Z-20.44
N7880 X144.884 Y76.693
N7885 Z-20.64 F733.33
N7890 X141.05 Y76.508 F2200.
N7895 Z-20.44
N7900 X139.773 Y76.447
N7905 Z-20.64 F733.33
N7910 X135.939 Y76.262 F2200.
N7915 Z-20.44
N7920 X134.662 Y76.201
N7925 Z-20.64 F733.33
N7930 X130.827 Y76.016 F2200.
N7935 Z-20.44
N7940 X129.55 Y75.955
N7945 Z-20.64 F733.33
N7950 X125.716 Y75.77 F2200.
N7955 Z-20.44
N7960 X124.439 Y75.709
N7965 Z-20.64 F733.33
N7970 X120.604 Y75.524 F2200.
N7975 Z-20.44
N7980 X119.327 Y75.463
N7985 Z-20.64 F733.33
N7990 X115.493 Y75.278 F2200.
N7995 Z-20.44
N8000 X114.216 Y75.217
N8005 Z-20.64 F733.33
N8010 X110.382 Y75.032 F2200.
N8015 Z-20.44
N8020 X109.105 Y74.971
N8025 Z-20.64 F733.33
N8030 X105.27 Y74.786 F2200.
N8035 Z-20.44
N8040 X103.993 Y74.725
N8045 Z-20.64 F733.33
N8050 X100.159 Y74.54 F2200.
N8055 Z-20.44
N8060 X98.882 Y74.479
N8065 Z-20.64 F733.33
N8070 X95.047 Y74.294 F2200.
N8075 Z-20.44
N8080 X93.771 Y74.233
N8085 Z-20.64 F733.33
N8090 X89.936 Y74.049 F2200.
N8095 Z-20.44
N8100 X88.659 Y73.987
N8105 Z-20.64 F733.33
N8110 X84.825 Y73.803 F2200.
N8115 Z-20.44
N8120 X83.548 Y73.741
N8125 Z-20.64 F733.33
N8130 X79.713 Y73.557 F2200.
N8135 Z-20.44
N8140 X78.437 Y73.495
N8145 Z-20.64 F733.33
N8150 X74.602 Y73.311 F2200.
N8155 Z-20.44
N8160 X73.325 Y73.249
N8165 Z-20.64 F733.33
N8170 X69.49 Y73.065 F2200.
N8175 Z-20.44
N8180 X68.214 Y73.003
N8185 Z-20.64 F733.33
N8190 X64.379 Y72.819 F2200.
N8195 Z-20.44
N8200 X63.103 Y72.757
N8205 Z-20.64 F733.33
N8210 X59.268 Y72.573 F2200.
N8215 Z-20.44
N8220 X57.991 Y72.511
N8225 Z-20.64 F733.33
N8230 X54.156 Y72.327 F2200.
N8235 Z-20.44
N8240 X52.88 Y72.265
N8245 Z-20.64 F733.33
N8250 X49.045 Y72.081 F2200.
N8255 Z-20.44
N8260 X47.768 Y72.019
N8265 Z-20.64 F733.33
N8270 X43.934 Y71.835 F2200.
N8275 Z-20.44
N8280 X42.657 Y71.773
N8285 Z-20.64 F733.33
N8290 X38.822 Y71.589 F2200.
N8295 Z-20.44
N8300 X37.546 Y71.527
N8305 Z-20.64 F733.33
N8310 X33.711 Y71.343 F2200.
N8315 Z-20.44
N8320 X32.434 Y71.281
N8325 Z-20.64 F733.33
N8330 X28.595 Y71.097 F2200.
N8335 Z-20.44
N8340 X28.301 Y71.082
N8345 X28.295
N8350 X27.318 Y71.054
N8355 Z-20.64 F733.33
N8360 X27.298 F2200.
N8365 X27.285
N8370 X26.287 Y71.065
N8375 X26.275
N8380 X25.278 Y71.115
N8385 X25.266 Y71.116
N8390 X24.272 Y71.205
N8395 X24.259 Y71.206
N8400 X23.427 Y71.314
N8405 Z-20.44
N8410 X23.27 Y71.334
N8415 X23.257 Y71.336
N8420 X22.273 Y71.503
N8425 X22.261 Y71.505
N8430 X22.167 Y71.525
N8435 Z-20.64 F733.33
N8440 X21.285 Y71.711 F2200.
N8445 X21.272 Y71.714
N8450 X20.305 Y71.957
N8455 X20.293 Y71.96
N8460 X19.335 Y72.242
N8465 X19.323 Y72.246
N8470 X18.406 Y72.555
N8475 Z-20.44
N8480 X18.378 Y72.564
N8485 X18.366 Y72.569
N8490 X17.434 Y72.924
N8495 X17.422 Y72.929
N8500 X17.214 Y73.018
N8505 Z-20.64 F733.33
N8510 X16.504 Y73.321 F2200.
N8515 X16.493 Y73.326
N8520 X15.591 Y73.754
N8525 X15.58 Y73.759
N8530 X14.696 Y74.222
N8535 X14.685 Y74.228
N8540 X13.82 Y74.725
N8545 X13.809 Y74.732
N8550 X13.735 Y74.778
N8555 Z-20.44
N8560 X12.964 Y75.263
N8565 X12.954 Y75.27
N8570 X12.661 Y75.47
N8575 Z-20.64 F733.33
N8580 X12.13 Y75.833 F2200.
N8585 X12.12 Y75.84
N8590 X11.319 Y76.436
N8595 X11.31 Y76.444
N8600 X10.533 Y77.07
N8605 X10.523 Y77.078
N8610 X9.772 Y77.735
N8615 X9.762 Y77.743
N8620 X9.605 Y77.892
N8625 Z-20.44
N8630 X9.037 Y78.428
N8635 X9.028 Y78.437
N8640 X8.69 Y78.784
N8645 Z-20.64 F733.33
N8650 X8.331 Y79.151 F2200.
N8655 X8.322 Y79.16
N8660 X7.653 Y79.9
N8665 X7.645 Y79.91
N8670 X7.005 Y80.676
N8675 X6.998 Y80.685
N8680 X6.389 Y81.476
N8685 X6.381 Y81.486
N8690 X6.181 Y81.768
N8695 Z-20.44
N8700 X5.804 Y82.3
N8705 X5.797 Y82.31
N8710 X5.461 Y82.825
N8715 Z-20.64 F733.33
N8720 X5.252 Y83.146 F2200.
N8725 X5.245 Y83.157
N8730 X4.734 Y84.013
N8735 X4.727 Y84.024
N8740 X4.25 Y84.9
N8745 X4.244 Y84.911
N8750 X3.801 Y85.805
N8755 X3.796 Y85.817
N8760 X3.601 Y86.251
N8765 Z-20.44
N8770 X3.388 Y86.728
N8775 X3.383 Y86.739
N8780 X3.107 Y87.429
N8785 Z-20.64 F733.33
N8790 X3.012 Y87.665 F2200.
N8795 X3.008 Y87.677
N8800 X2.673 Y88.617
N8805 X2.669 Y88.629
N8810 X2.371 Y89.581
N8815 X2.368 Y89.594
N8820 X2.108 Y90.557
N8825 X2.105 Y90.569
N8830 X1.971 Y91.159
N8835 Z-20.44
N8840 X1.883 Y91.542
N8845 X1.881 Y91.554
N8850 X1.72 Y92.412
N8855 Z-20.64 F733.33
N8860 X1.697 Y92.535 F2200.
N8865 X1.695 Y92.547
N8870 X1.551 Y93.535
N8875 X1.549 Y93.547
N8880 X1.443 Y94.539
N8885 X1.442 Y94.552
N8890 X1.376 Y95.529
N8895 Y95.535
N8900 X1.34 Y96.277
N8905 Z-20.44
N8910 X1.279 Y97.553
N8915 Z-20.64 F733.33
N8920 X1.094 Y101.388 F2200.
N8925 Z-20.44
N8930 X1.033 Y102.665
N8935 Z-20.64 F733.33
N8940 X0.848 Y106.499 F2200.
N8945 Z-20.44
N8950 X0.787 Y107.776
N8955 Z-20.64 F733.33
N8960 X0.602 Y111.61 F2200.
N8965 Z-20.44
N8970 X0.541 Y112.887
N8975 Z-20.64 F733.33
N8980 X0.46 Y114.563 F2200.
N8985 Y114.569
N8990 X0.432 Y115.566
N8995 Y115.578
N9000 X0.427 Y115.603
N9005 X0.413 Y115.624
N9010 X0.393 Y115.638
N9015 X0.368 Y115.643
N9020 X0.305 Y115.644
N9025 X0.28 Z-20.635
N9030 X0.259 Z-20.621
N9035 X0.246 Z-20.6
N9040 X0.241 Z-20.576
N9045 Z15.
N9050 X6.451 Y33.161
N9055 Z7.35
N9060 Z-6.286 F733.33
N9065 X6.456 Z-6.311 F2200.
N9070 X6.47 Y33.16 Z-6.331
N9075 X6.49 Y33.159 Z-6.345
N9080 X6.515 Y33.158 Z-6.35
N9085 X6.579 Y33.155
N9090 X6.603 Y33.159
N9095 X6.624 Y33.172
N9100 X6.639 Y33.192
N9105 X6.645 Y33.216
N9110 X6.693 Y34.285
N9115 X6.694 Y34.297
N9120 X6.781 Y35.363
N9125 X6.782 Y35.375
N9130 X6.908 Y36.437
N9135 X6.91 Y36.449
N9140 X7.075 Y37.506
N9145 X7.077 Y37.518
N9150 X7.28 Y38.568
N9155 X7.283 Y38.58
N9160 X7.525 Y39.622
N9165 X7.528 Y39.633
N9170 X7.808 Y40.666
N9175 X7.811 Y40.677
N9180 X8.128 Y41.699
N9185 X8.132 Y41.71
N9190 X8.487 Y42.72
N9195 X8.491 Y42.731
N9200 X8.883 Y43.726
N9205 X8.887 Y43.737
N9210 X9.315 Y44.718
N9215 X9.32 Y44.729
N9220 X9.783 Y45.693
N9225 X9.788 Y45.704
N9230 X10.287 Y46.651
N9235 X10.292 Y46.661
N9240 X10.825 Y47.589
N9245 X10.831 Y47.599
N9250 X11.398 Y48.507
N9255 X11.404 Y48.517
N9260 X12.003 Y49.403
N9265 X12.01 Y49.413
N9270 X12.641 Y50.277
N9275 X12.648 Y50.286
N9280 X13.311 Y51.126
N9285 X13.318 Y51.135
N9290 X14.011 Y51.951
N9295 X14.019 Y51.959
N9300 X14.741 Y52.749
N9305 X14.749 Y52.757
N9310 X15.5 Y53.52
N9315 X15.508 Y53.528
N9320 X16.286 Y54.263
N9325 X16.295 Y54.27
N9330 X17.1 Y54.976
N9335 X17.109 Y54.983
N9340 X17.938 Y55.659
N9345 X17.948 Y55.666
N9350 X18.802 Y56.311
N9355 X18.811 Y56.318
N9360 X19.688 Y56.931
N9365 X19.698 Y56.937
N9370 X20.597 Y57.518
N9375 X20.607 Y57.524
N9380 X21.526 Y58.071
N9385 X21.537 Y58.077
N9390 X22.476 Y58.59
N9395 X22.486 Y58.596
N9400 X23.443 Y59.074
N9405 X23.454 Y59.079
N9410 X24.428 Y59.522
N9415 X24.439 Y59.527
N9420 X25.428 Y59.934
N9425 X25.439 Y59.938
N9430 X26.443 Y60.308
N9435 X26.454 Y60.312
N9440 X27.471 Y60.646
N9445 X27.482 Y60.649
N9450 X28.51 Y60.945
N9455 X28.522 Y60.948
N9460 X29.56 Y61.206
N9465 X29.572 Y61.209
N9470 X30.619 Y61.429
N9475 X30.63 Y61.431
N9480 X31.685 Y61.613
N9485 X31.696 Y61.614
N9490 X32.757 Y61.757
N9495 X32.769 Y61.758
N9500 X33.834 Y61.862
N9505 X33.845 Y61.863
N9510 X34.78 Y61.922
N9515 X34.785
N9520 X576.483 Y87.246
N9525 G2 X576.807 Y87.008 I0.015 J-0.319
N9530 G1 X599.332 Y1.013
N9535 G2 X599.022 Y0.612 I-0.309 J-0.081
N9540 G1 X36.061 Y2.73
N9545 X36.055
N9550 X34.985 Y2.754
N9555 X34.974
N9560 X33.905 Y2.817
N9565 X33.894 Y2.818
N9570 X32.828 Y2.92
N9575 X32.817 Y2.921
N9580 X31.756 Y3.062
N9585 X31.744 Y3.064
N9590 X30.69 Y3.243
N9595 X30.678 Y3.245
N9600 X29.63 Y3.463
N9605 X29.619 Y3.466
N9610 X28.58 Y3.722
N9615 X28.569 Y3.725
N9620 X27.54 Y4.02
N9625 X27.529 Y4.023
N9630 X26.511 Y4.355
N9635 X26.5 Y4.358
N9640 X25.496 Y4.727
N9645 X25.485 Y4.731
N9650 X24.494 Y5.137
N9655 X24.484 Y5.141
N9660 X23.509 Y5.583
N9665 X23.498 Y5.588
N9670 X22.54 Y6.064
N9675 X22.53 Y6.07
N9680 X21.59 Y6.581
N9685 X21.58 Y6.587
N9690 X20.659 Y7.133
N9695 X20.649 Y7.139
N9700 X19.749 Y7.718
N9705 X19.74 Y7.724
N9710 X18.861 Y8.336
N9715 X18.852 Y8.342
N9720 X17.997 Y8.986
N9725 X17.987 Y8.993
N9730 X17.156 Y9.667
N9735 X17.147 Y9.675
N9740 X16.342 Y10.379
N9745 X16.333 Y10.386
N9750 X15.554 Y11.12
N9755 X15.545 Y11.128
N9760 X14.793 Y11.889
N9765 X14.785 Y11.897
N9770 X14.061 Y12.686
N9775 X14.054 Y12.694
N9780 X13.359 Y13.509
N9785 X13.352 Y13.518
N9790 X12.688 Y14.357
N9795 X12.681 Y14.366
N9800 X12.048 Y15.229
N9805 X12.041 Y15.239
N9810 X11.44 Y16.124
N9815 X11.434 Y16.134
N9820 X10.866 Y17.041
N9825 X10.86 Y17.051
N9830 X10.325 Y17.978
N9835 X10.32 Y17.988
N9840 X9.82 Y18.934
N9845 X9.814 Y18.944
N9850 X9.349 Y19.908
N9855 X9.344 Y19.919
N9860 X8.915 Y20.899
N9865 X8.91 Y20.91
N9870 X8.517 Y21.905
N9875 X8.513 Y21.916
N9880 X8.156 Y22.925
N9885 X8.153 Y22.936
N9890 X7.833 Y23.957
N9895 X7.83 Y23.968
N9900 X7.548 Y25.
N9905 X7.545 Y25.012
N9910 X7.302 Y26.054
N9915 X7.299 Y26.065
N9920 X7.094 Y27.115
N9925 X7.092 Y27.127
N9930 X6.925 Y28.184
N9935 X6.923 Y28.195
N9940 X6.795 Y29.258
N9945 X6.794 Y29.269
N9950 X6.705 Y30.336
N9955 Y30.344
N9960 X6.675 Y30.876
N9965 Y30.879
N9970 X6.667 Y31.047
N9975 Y31.053
N9980 X6.636 Y32.123
N9985 Y32.134
N9990 X6.645 Y33.204
N9995 Y33.216
N10000 X6.641 Y33.241
N10005 X6.629 Y33.262
N10010 X6.608 Y33.277
N10015 X6.584 Y33.283
N10020 X6.52 Y33.286
N10025 X6.496 Y33.287 Z-6.345
N10030 X6.475 Y33.288 Z-6.331
N10035 X6.461 Z-6.311
N10040 X6.457 Z-6.286
N10045 Z7.35
N10050 X6.451 Y33.161
N10055 Z5.
N10060 Z1. F733.33
N10065 Z-12.636
N10070 X6.456 Z-12.661 F2200.
N10075 X6.47 Y33.16 Z-12.681
N10080 X6.49 Y33.159 Z-12.695
N10085 X6.515 Y33.158 Z-12.7
N10090 X6.579 Y33.155
N10095 X6.603 Y33.159
N10100 X6.624 Y33.172
N10105 X6.639 Y33.192
N10110 X6.645 Y33.216
N10115 X6.693 Y34.285
N10120 X6.694 Y34.297
N10125 X6.781 Y35.363
N10130 X6.782 Y35.375
N10135 X6.908 Y36.437
N10140 X6.91 Y36.449
N10145 X7.075 Y37.506
N10150 X7.077 Y37.518
N10155 X7.28 Y38.568
N10160 X7.283 Y38.58
N10165 X7.525 Y39.622
N10170 X7.528 Y39.633
N10175 X7.808 Y40.666
N10180 X7.811 Y40.677
N10185 X8.128 Y41.699
N10190 X8.132 Y41.71
N10195 X8.487 Y42.72
N10200 X8.491 Y42.731
N10205 X8.883 Y43.726
N10210 X8.887 Y43.737
N10215 X9.315 Y44.718
N10220 X9.32 Y44.729
N10225 X9.783 Y45.693
N10230 X9.788 Y45.704
N10235 X10.287 Y46.651
N10240 X10.292 Y46.661
N10245 X10.825 Y47.589
N10250 X10.831 Y47.599
N10255 X11.398 Y48.507
N10260 X11.404 Y48.517
N10265 X12.003 Y49.403
N10270 X12.01 Y49.413
N10275 X12.641 Y50.277
N10280 X12.648 Y50.286
N10285 X13.311 Y51.126
N10290 X13.318 Y51.135
N10295 X14.011 Y51.951
N10300 X14.019 Y51.959
N10305 X14.741 Y52.749
N10310 X14.749 Y52.757
N10315 X15.5 Y53.52
N10320 X15.508 Y53.528
N10325 X16.286 Y54.263
N10330 X16.295 Y54.27
N10335 X17.1 Y54.976
N10340 X17.109 Y54.983
N10345 X17.938 Y55.659
N10350 X17.948 Y55.666
N10355 X18.802 Y56.311
N10360 X18.811 Y56.318
N10365 X19.688 Y56.931
N10370 X19.698 Y56.937
N10375 X20.597 Y57.518
N10380 X20.607 Y57.524
N10385 X21.526 Y58.071
N10390 X21.537 Y58.077
N10395 X22.476 Y58.59
N10400 X22.486 Y58.596
N10405 X23.443 Y59.074
N10410 X23.454 Y59.079
N10415 X24.428 Y59.522
N10420 X24.439 Y59.527
N10425 X25.428 Y59.934
N10430 X25.439 Y59.938
N10435 X26.443 Y60.308
N10440 X26.454 Y60.312
N10445 X27.471 Y60.646
N10450 X27.482 Y60.649
N10455 X28.51 Y60.945
N10460 X28.522 Y60.948
N10465 X29.56 Y61.206
N10470 X29.572 Y61.209
N10475 X30.619 Y61.429
N10480 X30.63 Y61.431
N10485 X31.685 Y61.613
N10490 X31.696 Y61.614
N10495 X32.757 Y61.757
N10500 X32.769 Y61.758
N10505 X33.834 Y61.862
N10510 X33.845 Y61.863
N10515 X34.78 Y61.922
N10520 X34.785
N10525 X576.483 Y87.246
N10530 G2 X576.807 Y87.008 I0.015 J-0.319
N10535 G1 X599.332 Y1.013
N10540 G2 X599.022 Y0.612 I-0.309 J-0.081
N10545 G1 X36.061 Y2.73
N10550 X36.055
N10555 X34.985 Y2.754
N10560 X34.974
N10565 X33.905 Y2.817
N10570 X33.894 Y2.818
N10575 X32.828 Y2.92
N10580 X32.817 Y2.921
N10585 X31.756 Y3.062
N10590 X31.744 Y3.064
N10595 X30.69 Y3.243
N10600 X30.678 Y3.245
N10605 X29.63 Y3.463
N10610 X29.619 Y3.466
N10615 X28.58 Y3.722
N10620 X28.569 Y3.725
N10625 X27.54 Y4.02
N10630 X27.529 Y4.023
N10635 X26.511 Y4.355
N10640 X26.5 Y4.358
N10645 X25.496 Y4.727
N10650 X25.485 Y4.731
N10655 X24.494 Y5.137
N10660 X24.484 Y5.141
N10665 X23.509 Y5.583
N10670 X23.498 Y5.588
N10675 X22.54 Y6.064
N10680 X22.53 Y6.07
N10685 X21.59 Y6.581
N10690 X21.58 Y6.587
N10695 X20.659 Y7.133
N10700 X20.649 Y7.139
N10705 X19.749 Y7.718
N10710 X19.74 Y7.724
N10715 X18.861 Y8.336
N10720 X18.852 Y8.342
N10725 X17.997 Y8.986
N10730 X17.987 Y8.993
N10735 X17.156 Y9.667
N10740 X17.147 Y9.675
N10745 X16.342 Y10.379
N10750 X16.333 Y10.386
N10755 X15.554 Y11.12
N10760 X15.545 Y11.128
N10765 X14.793 Y11.889
N10770 X14.785 Y11.897
N10775 X14.061 Y12.686
N10780 X14.054 Y12.694
N10785 X13.359 Y13.509
N10790 X13.352 Y13.518
N10795 X12.688 Y14.357
N10800 X12.681 Y14.366
N10805 X12.048 Y15.229
N10810 X12.041 Y15.239
N10815 X11.44 Y16.124
N10820 X11.434 Y16.134
N10825 X10.866 Y17.041
N10830 X10.86 Y17.051
N10835 X10.325 Y17.978
N10840 X10.32 Y17.988
N10845 X9.82 Y18.934
N10850 X9.814 Y18.944
N10855 X9.349 Y19.908
N10860 X9.344 Y19.919
N10865 X8.915 Y20.899
N10870 X8.91 Y20.91
N10875 X8.517 Y21.905
N10880 X8.513 Y21.916
N10885 X8.156 Y22.925
N10890 X8.153 Y22.936
N10895 X7.833 Y23.957
N10900 X7.83 Y23.968
N10905 X7.548 Y25.
N10910 X7.545 Y25.012
N10915 X7.302 Y26.054
N10920 X7.299 Y26.065
N10925 X7.094 Y27.115
N10930 X7.092 Y27.127
N10935 X6.925 Y28.184
N10940 X6.923 Y28.195
N10945 X6.795 Y29.258
N10950 X6.794 Y29.269
N10955 X6.705 Y30.336
N10960 Y30.344
N10965 X6.675 Y30.876
N10970 Y30.879
N10975 X6.667 Y31.047
N10980 Y31.053
N10985 X6.636 Y32.123
N10990 Y32.134
N10995 X6.645 Y33.204
N11000 Y33.216
N11005 X6.641 Y33.241
N11010 X6.629 Y33.262
N11015 X6.608 Y33.277
N11020 X6.584 Y33.283
N11025 X6.52 Y33.286
N11030 X6.496 Y33.287 Z-12.695
N11035 X6.475 Y33.288 Z-12.681
N11040 X6.461 Z-12.661
N11045 X6.457 Z-12.636
N11050 Z7.35
N11055 X6.451 Y33.161
N11060 Z5.
N11065 Z-5.35 F733.33
N11070 Z-18.986
N11075 X6.456 Z-19.011 F2200.
N11080 X6.47 Y33.16 Z-19.031
N11085 X6.49 Y33.159 Z-19.045
N11090 X6.515 Y33.158 Z-19.05
N11095 X6.579 Y33.155
N11100 X6.603 Y33.159
N11105 X6.624 Y33.172
N11110 X6.639 Y33.192
N11115 X6.645 Y33.216
N11120 X6.693 Y34.285
N11125 X6.694 Y34.297
N11130 X6.781 Y35.363
N11135 X6.782 Y35.375
N11140 X6.908 Y36.437
N11145 X6.91 Y36.449
N11150 X7.075 Y37.506
N11155 X7.077 Y37.518
N11160 X7.28 Y38.568
N11165 X7.283 Y38.58
N11170 X7.525 Y39.622
N11175 X7.528 Y39.633
N11180 X7.808 Y40.666
N11185 X7.811 Y40.677
N11190 X8.128 Y41.699
N11195 X8.132 Y41.71
N11200 X8.487 Y42.72
N11205 X8.491 Y42.731
N11210 X8.883 Y43.726
N11215 X8.887 Y43.737
N11220 X9.315 Y44.718
N11225 X9.32 Y44.729
N11230 X9.783 Y45.693
N11235 X9.788 Y45.704
N11240 X10.287 Y46.651
N11245 X10.292 Y46.661
N11250 X10.825 Y47.589
N11255 X10.831 Y47.599
N11260 X11.398 Y48.507
N11265 X11.404 Y48.517
N11270 X12.003 Y49.403
N11275 X12.01 Y49.413
N11280 X12.641 Y50.277
N11285 X12.648 Y50.286
N11290 X13.311 Y51.126
N11295 X13.318 Y51.135
N11300 X14.011 Y51.951
N11305 X14.019 Y51.959
N11310 X14.741 Y52.749
N11315 X14.749 Y52.757
N11320 X15.5 Y53.52
N11325 X15.508 Y53.528
N11330 X16.286 Y54.263
N11335 X16.295 Y54.27
N11340 X17.1 Y54.976
N11345 X17.109 Y54.983
N11350 X17.938 Y55.659
N11355 X17.948 Y55.666
N11360 X18.802 Y56.311
N11365 X18.811 Y56.318
N11370 X19.688 Y56.931
N11375 X19.698 Y56.937
N11380 X20.597 Y57.518
N11385 X20.607 Y57.524
N11390 X21.526 Y58.071
N11395 X21.537 Y58.077
N11400 X22.476 Y58.59
N11405 X22.486 Y58.596
N11410 X23.443 Y59.074
N11415 X23.454 Y59.079
N11420 X24.428 Y59.522
N11425 X24.439 Y59.527
N11430 X25.428 Y59.934
N11435 X25.439 Y59.938
N11440 X26.443 Y60.308
N11445 X26.454 Y60.312
N11450 X27.471 Y60.646
N11455 X27.482 Y60.649
N11460 X28.51 Y60.945
N11465 X28.522 Y60.948
N11470 X29.56 Y61.206
N11475 X29.572 Y61.209
N11480 X30.619 Y61.429
N11485 X30.63 Y61.431
N11490 X31.685 Y61.613
N11495 X31.696 Y61.614
N11500 X32.757 Y61.757
N11505 X32.769 Y61.758
N11510 X33.834 Y61.862
N11515 X33.845 Y61.863
N11520 X34.78 Y61.922
N11525 X34.785
N11530 X576.483 Y87.246
N11535 G2 X576.807 Y87.008 I0.015 J-0.319
N11540 G1 X599.332 Y1.013
N11545 G2 X599.022 Y0.612 I-0.309 J-0.081
N11550 G1 X36.061 Y2.73
N11555 X36.055
N11560 X34.985 Y2.754
N11565 X34.974
N11570 X33.905 Y2.817
N11575 X33.894 Y2.818
N11580 X32.828 Y2.92
N11585 X32.817 Y2.921
N11590 X31.756 Y3.062
N11595 X31.744 Y3.064
N11600 X30.69 Y3.243
N11605 X30.678 Y3.245
N11610 X29.63 Y3.463
N11615 X29.619 Y3.466
N11620 X28.58 Y3.722
N11625 X28.569 Y3.725
N11630 X27.54 Y4.02
N11635 X27.529 Y4.023
N11640 X26.511 Y4.355
N11645 X26.5 Y4.358
N11650 X25.496 Y4.727
N11655 X25.485 Y4.731
N11660 X24.494 Y5.137
N11665 X24.484 Y5.141
N11670 X23.509 Y5.583
N11675 X23.498 Y5.588
N11680 X22.54 Y6.064
N11685 X22.53 Y6.07
N11690 X21.59 Y6.581
N11695 X21.58 Y6.587
N11700 X20.659 Y7.133
N11705 X20.649 Y7.139
N11710 X19.749 Y7.718
N11715 X19.74 Y7.724
N11720 X18.861 Y8.336
N11725 X18.852 Y8.342
N11730 X17.997 Y8.986
N11735 X17.987 Y8.993
N11740 X17.156 Y9.667
N11745 X17.147 Y9.675
N11750 X16.342 Y10.379
N11755 X16.333 Y10.386
N11760 X15.554 Y11.12
N11765 X15.545 Y11.128
N11770 X14.793 Y11.889
N11775 X14.785 Y11.897
N11780 X14.061 Y12.686
N11785 X14.054 Y12.694
N11790 X13.359 Y13.509
N11795 X13.352 Y13.518
N11800 X12.688 Y14.357
N11805 X12.681 Y14.366
N11810 X12.048 Y15.229
N11815 X12.041 Y15.239
N11820 X11.44 Y16.124
N11825 X11.434 Y16.134
N11830 X10.866 Y17.041
N11835 X10.86 Y17.051
N11840 X10.325 Y17.978
N11845 X10.32 Y17.988
N11850 X9.82 Y18.934
N11855 X9.814 Y18.944
N11860 X9.349 Y19.908
N11865 X9.344 Y19.919
N11870 X8.915 Y20.899
N11875 X8.91 Y20.91
N11880 X8.517 Y21.905
N11885 X8.513 Y21.916
N11890 X8.156 Y22.925
N11895 X8.153 Y22.936
N11900 X7.833 Y23.957
N11905 X7.83 Y23.968
N11910 X7.548 Y25.
N11915 X7.545 Y25.012
N11920 X7.302 Y26.054
N11925 X7.299 Y26.065
N11930 X7.094 Y27.115
N11935 X7.092 Y27.127
N11940 X6.925 Y28.184
N11945 X6.923 Y28.195
N11950 X6.795 Y29.258
N11955 X6.794 Y29.269
N11960 X6.705 Y30.336
N11965 Y30.344
N11970 X6.675 Y30.876
N11975 Y30.879
N11980 X6.667 Y31.047
N11985 Y31.053
N11990 X6.636 Y32.123
N11995 Y32.134
N12000 X6.645 Y33.204
N12005 Y33.216
N12010 X6.641 Y33.241
N12015 X6.629 Y33.262
N12020 X6.608 Y33.277
N12025 X6.584 Y33.283
N12030 X6.52 Y33.286
N12035 X6.496 Y33.287 Z-19.045
N12040 X6.475 Y33.288 Z-19.031
N12045 X6.461 Z-19.011
N12050 X6.457 Z-18.986
N12055 Z7.35
N12060 X6.451 Y33.161
N12065 Z5.
N12070 Z-11.7 F733.33
N12075 Z-21.238
N12080 X6.515 Y33.158 F2200.
N12085 X6.579 Y33.155
N12090 X6.603 Y33.159
N12095 X6.624 Y33.172
N12100 X6.639 Y33.192
N12105 X6.645 Y33.216
N12110 X6.685 Y34.101
N12115 Z-21.438 F733.33
N12120 X6.693 Y34.285 F2200.
N12125 X6.694 Y34.297
N12130 X6.781 Y35.363
N12135 X6.782 Y35.375
N12140 X6.908 Y36.437
N12145 X6.91 Y36.449
N12150 X7.075 Y37.506
N12155 X7.077 Y37.518
N12160 X7.163 Y37.964
N12165 Z-21.238
N12170 X7.28 Y38.568
N12175 X7.283 Y38.58
N12180 X7.43 Y39.214
N12185 Z-21.438 F733.33
N12190 X7.525 Y39.622 F2200.
N12195 X7.528 Y39.633
N12200 X7.808 Y40.666
N12205 X7.811 Y40.677
N12210 X8.128 Y41.699
N12215 X8.132 Y41.71
N12220 X8.487 Y42.72
N12225 X8.491 Y42.731
N12230 X8.571 Y42.935
N12235 Z-21.238
N12240 X8.883 Y43.726
N12245 X8.887 Y43.737
N12250 X9.053 Y44.119
N12255 Z-21.438 F733.33
N12260 X9.315 Y44.718 F2200.
N12265 X9.32 Y44.729
N12270 X9.783 Y45.693
N12275 X9.788 Y45.704
N12280 X10.287 Y46.651
N12285 X10.292 Y46.661
N12290 X10.823 Y47.586
N12295 Z-21.238
N12300 X10.825 Y47.589
N12305 X10.831 Y47.599
N12310 X11.398 Y48.507
N12315 X11.404 Y48.517
N12320 X11.505 Y48.667
N12325 Z-21.438 F733.33
N12330 X12.003 Y49.403 F2200.
N12335 X12.01 Y49.413
N12340 X12.641 Y50.277
N12345 X12.648 Y50.286
N12350 X13.311 Y51.126
N12355 X13.318 Y51.135
N12360 X13.857 Y51.769
N12365 Z-21.238
N12370 X14.011 Y51.951
N12375 X14.019 Y51.959
N12380 X14.713 Y52.718
N12385 Z-21.438 F733.33
N12390 X14.741 Y52.749 F2200.
N12395 X14.749 Y52.757
N12400 X15.5 Y53.52
N12405 X15.508 Y53.528
N12410 X16.286 Y54.263
N12415 X16.295 Y54.27
N12420 X17.1 Y54.976
N12425 X17.109 Y54.983
N12430 X17.571 Y55.36
N12435 Z-21.238
N12440 X17.938 Y55.659
N12445 X17.948 Y55.666
N12450 X18.58 Y56.144
N12455 Z-21.438 F733.33
N12460 X18.802 Y56.311 F2200.
N12465 X18.811 Y56.318
N12470 X19.688 Y56.931
N12475 X19.698 Y56.937
N12480 X20.597 Y57.518
N12485 X20.607 Y57.524
N12490 X21.526 Y58.071
N12495 X21.537 Y58.077
N12500 X21.854 Y58.25
N12505 Z-21.238
N12510 X22.476 Y58.59
N12515 X22.486 Y58.596
N12520 X22.985 Y58.845
N12525 Z-21.438 F733.33
N12530 X23.443 Y59.074 F2200.
N12535 X23.454 Y59.079
N12540 X24.428 Y59.522
N12545 X24.439 Y59.527
N12550 X25.428 Y59.934
N12555 X25.439 Y59.938
N12560 X26.443 Y60.308
N12565 X26.454 Y60.312
N12570 X26.574 Y60.352
N12575 Z-21.238
N12580 X27.471 Y60.646
N12585 X27.482 Y60.649
N12590 X27.792 Y60.738
N12595 Z-21.438 F733.33
N12600 X28.51 Y60.945 F2200.
N12605 X28.522 Y60.948
N12610 X29.56 Y61.206
N12615 X29.572 Y61.209
N12620 X30.619 Y61.429
N12625 X30.63 Y61.431
N12630 X31.589 Y61.596
N12635 Z-21.238
N12640 X31.685 Y61.613
N12645 X31.696 Y61.614
N12650 X32.757 Y61.757
N12655 X32.769 Y61.758
N12660 X32.855 Y61.767
N12665 Z-21.438 F733.33
N12670 X33.834 Y61.862 F2200.
N12675 X33.845 Y61.863
N12680 X34.78 Y61.922
N12685 X34.785
N12690 X36.714 Y62.012
N12695 Z-21.238
N12700 X37.991 Y62.072
N12705 Z-21.438 F733.33
N12710 X41.827 Y62.251 F2200.
N12715 Z-21.238
N12720 X43.103 Y62.311
N12725 Z-21.438 F733.33
N12730 X46.939 Y62.49 F2200.
N12735 Z-21.238
N12740 X48.215 Y62.55
N12745 Z-21.438 F733.33
N12750 X52.051 Y62.729 F2200.
N12755 Z-21.238
N12760 X53.328 Y62.789
N12765 Z-21.438 F733.33
N12770 X57.164 Y62.968 F2200.
N12775 Z-21.238
N12780 X58.44 Y63.028
N12785 Z-21.438 F733.33
N12790 X62.276 Y63.207 F2200.
N12795 Z-21.238
N12800 X63.553 Y63.267
N12805 Z-21.438 F733.33
N12810 X67.388 Y63.446 F2200.
N12815 Z-21.238
N12820 X68.665 Y63.506
N12825 Z-21.438 F733.33
N12830 X72.501 Y63.685 F2200.
N12835 Z-21.238
N12840 X73.777 Y63.745
N12845 Z-21.438 F733.33
N12850 X77.613 Y63.924 F2200.
N12855 Z-21.238
N12860 X78.89 Y63.984
N12865 Z-21.438 F733.33
N12870 X82.726 Y64.163 F2200.
N12875 Z-21.238
N12880 X84.002 Y64.223
N12885 Z-21.438 F733.33
N12890 X87.838 Y64.402 F2200.
N12895 Z-21.238
N12900 X89.114 Y64.462
N12905 Z-21.438 F733.33
N12910 X92.95 Y64.641 F2200.
N12915 Z-21.238
N12920 X94.227 Y64.701
N12925 Z-21.438 F733.33
N12930 X98.063 Y64.88 F2200.
N12935 Z-21.238
N12940 X99.339 Y64.94
N12945 Z-21.438 F733.33
N12950 X103.175 Y65.119 F2200.
N12955 Z-21.238
N12960 X104.451 Y65.179
N12965 Z-21.438 F733.33
N12970 X108.288 Y65.358 F2200.
N12975 Z-21.238
N12980 X109.564 Y65.418
N12985 Z-21.438 F733.33
N12990 X113.4 Y65.597 F2200.
N12995 Z-21.238
N13000 X114.676 Y65.657
N13005 Z-21.438 F733.33
N13010 X118.512 Y65.836 F2200.
N13015 Z-21.238
N13020 X119.788 Y65.896
N13025 Z-21.438 F733.33
N13030 X123.625 Y66.075 F2200.
N13035 Z-21.238
N13040 X124.901 Y66.135
N13045 Z-21.438 F733.33
N13050 X128.737 Y66.314 F2200.
N13055 Z-21.238
N13060 X130.013 Y66.374
N13065 Z-21.438 F733.33
N13070 X133.85 Y66.553 F2200.
N13075 Z-21.238
N13080 X135.126 Y66.613
N13085 Z-21.438 F733.33
N13090 X138.962 Y66.792 F2200.
N13095 Z-21.238
N13100 X140.238 Y66.852
N13105 Z-21.438 F733.33
N13110 X144.074 Y67.031 F2200.
N13115 Z-21.238
N13120 X145.35 Y67.091
N13125 Z-21.438 F733.33
N13130 X149.187 Y67.27 F2200.
N13135 Z-21.238
N13140 X150.463 Y67.33
N13145 Z-21.438 F733.33
N13150 X154.299 Y67.509 F2200.
N13155 Z-21.238
N13160 X155.575 Y67.569
N13165 Z-21.438 F733.33
N13170 X159.411 Y67.748 F2200.
N13175 Z-21.238
N13180 X160.687 Y67.808
N13185 Z-21.438 F733.33
N13190 X164.524 Y67.987 F2200.
N13195 Z-21.238
N13200 X165.8 Y68.047
N13205 Z-21.438 F733.33
N13210 X169.636 Y68.226 F2200.
N13215 Z-21.238
N13220 X170.912 Y68.286
N13225 Z-21.438 F733.33
N13230 X174.749 Y68.465 F2200.
N13235 Z-21.238
N13240 X176.025 Y68.525
N13245 Z-21.438 F733.33
N13250 X179.861 Y68.704 F2200.
N13255 Z-21.238
N13260 X181.137 Y68.764
N13265 Z-21.438 F733.33
N13270 X184.973 Y68.943 F2200.
N13275 Z-21.238
N13280 X186.249 Y69.003
N13285 Z-21.438 F733.33
N13290 X190.086 Y69.182 F2200.
N13295 Z-21.238
N13300 X191.362 Y69.242
N13305 Z-21.438 F733.33
N13310 X195.198 Y69.421 F2200.
N13315 Z-21.238
N13320 X196.474 Y69.481
N13325 Z-21.438 F733.33
N13330 X200.31 Y69.66 F2200.
N13335 Z-21.238
N13340 X201.586 Y69.72
N13345 Z-21.438 F733.33
N13350 X205.423 Y69.899 F2200.
N13355 Z-21.238
N13360 X206.699 Y69.959
N13365 Z-21.438 F733.33
N13370 X210.535 Y70.138 F2200.
N13375 Z-21.238
N13380 X211.811 Y70.198
N13385 Z-21.438 F733.33
N13390 X215.648 Y70.377 F2200.
N13395 Z-21.238
N13400 X216.924 Y70.437
N13405 Z-21.438 F733.33
N13410 X220.76 Y70.616 F2200.
N13415 Z-21.238
N13420 X222.036 Y70.676
N13425 Z-21.438 F733.33
N13430 X225.872 Y70.855 F2200.
N13435 Z-21.238
N13440 X227.148 Y70.915
N13445 Z-21.438 F733.33
N13450 X230.985 Y71.094 F2200.
N13455 Z-21.238
N13460 X232.261 Y71.154
N13465 Z-21.438 F733.33
N13470 X236.097 Y71.333 F2200.
N13475 Z-21.238
N13480 X237.373 Y71.393
N13485 Z-21.438 F733.33
N13490 X241.209 Y71.572 F2200.
N13495 Z-21.238
N13500 X242.485 Y71.632
N13505 Z-21.438 F733.33
N13510 X246.322 Y71.811 F2200.
N13515 Z-21.238
N13520 X247.598 Y71.871
N13525 Z-21.438 F733.33
N13530 X251.434 Y72.05 F2200.
N13535 Z-21.238
N13540 X252.71 Y72.11
N13545 Z-21.438 F733.33
N13550 X256.547 Y72.289 F2200.
N13555 Z-21.238
N13560 X257.823 Y72.349
N13565 Z-21.438 F733.33
N13570 X261.659 Y72.528 F2200.
N13575 Z-21.238
N13580 X262.935 Y72.588
N13585 Z-21.438 F733.33
N13590 X266.771 Y72.767 F2200.
N13595 Z-21.238
N13600 X268.047 Y72.827
N13605 Z-21.438 F733.33
N13610 X271.884 Y73.006 F2200.
N13615 Z-21.238
N13620 X273.16 Y73.066
N13625 Z-21.438 F733.33
N13630 X276.996 Y73.245 F2200.
N13635 Z-21.238
N13640 X278.272 Y73.305
N13645 Z-21.438 F733.33
N13650 X282.108 Y73.484 F2200.
N13655 Z-21.238
N13660 X283.384 Y73.544
N13665 Z-21.438 F733.33
N13670 X287.221 Y73.723 F2200.
N13675 Z-21.238
N13680 X288.497 Y73.783
N13685 Z-21.438 F733.33
N13690 X292.333 Y73.962 F2200.
N13695 Z-21.238
N13700 X293.609 Y74.022
N13705 Z-21.438 F733.33
N13710 X297.446 Y74.201 F2200.
N13715 Z-21.238
N13720 X298.722 Y74.261
N13725 Z-21.438 F733.33
N13730 X302.558 Y74.44 F2200.
N13735 Z-21.238
N13740 X303.834 Y74.5
N13745 Z-21.438 F733.33
N13750 X307.67 Y74.679 F2200.
N13755 Z-21.238
N13760 X308.946 Y74.739
N13765 Z-21.438 F733.33
N13770 X312.783 Y74.918 F2200.
N13775 Z-21.238
N13780 X314.059 Y74.978
N13785 Z-21.438 F733.33
N13790 X317.895 Y75.157 F2200.
N13795 Z-21.238
N13800 X319.171 Y75.217
N13805 Z-21.438 F733.33
N13810 X323.008 Y75.396 F2200.
N13815 Z-21.238
N13820 X324.284 Y75.456
N13825 Z-21.438 F733.33
N13830 X328.12 Y75.635 F2200.
N13835 Z-21.238
N13840 X329.396 Y75.695
N13845 Z-21.438 F733.33
N13850 X333.232 Y75.874 F2200.
N13855 Z-21.238
N13860 X334.508 Y75.934
N13865 Z-21.438 F733.33
N13870 X338.345 Y76.113 F2200.
N13875 Z-21.238
N13880 X339.621 Y76.173
N13885 Z-21.438 F733.33
N13890 X343.457 Y76.352 F2200.
N13895 Z-21.238
N13900 X344.733 Y76.412
N13905 Z-21.438 F733.33
N13910 X348.569 Y76.591 F2200.
N13915 Z-21.238
N13920 X349.845 Y76.651
N13925 Z-21.438 F733.33
N13930 X353.682 Y76.83 F2200.
N13935 Z-21.238
N13940 X354.958 Y76.89
N13945 Z-21.438 F733.33
N13950 X358.794 Y77.069 F2200.
N13955 Z-21.238
N13960 X360.07 Y77.129
N13965 Z-21.438 F733.33
N13970 X363.907 Y77.308 F2200.
N13975 Z-21.238
N13980 X365.183 Y77.368
N13985 Z-21.438 F733.33
N13990 X369.019 Y77.547 F2200.
N13995 Z-21.238
N14000 X370.295 Y77.607
N14005 Z-21.438 F733.33
N14010 X374.131 Y77.786 F2200.
N14015 Z-21.238
N14020 X375.407 Y77.846
N14025 Z-21.438 F733.33
N14030 X379.244 Y78.025 F2200.
N14035 Z-21.238
N14040 X380.52 Y78.085
N14045 Z-21.438 F733.33
N14050 X384.356 Y78.264 F2200.
N14055 Z-21.238
N14060 X385.632 Y78.324
N14065 Z-21.438 F733.33
N14070 X389.468 Y78.503 F2200.
N14075 Z-21.238
N14080 X390.744 Y78.563
N14085 Z-21.438 F733.33
N14090 X394.581 Y78.742 F2200.
N14095 Z-21.238
N14100 X395.857 Y78.802
N14105 Z-21.438 F733.33
N14110 X399.693 Y78.981 F2200.
N14115 Z-21.238
N14120 X400.969 Y79.041
N14125 Z-21.438 F733.33
N14130 X404.806 Y79.22 F2200.
N14135 Z-21.238
N14140 X406.082 Y79.28
N14145 Z-21.438 F733.33
N14150 X409.918 Y79.459 F2200.
N14155 Z-21.238
N14160 X411.194 Y79.519
N14165 Z-21.438 F733.33
N14170 X415.03 Y79.698 F2200.
N14175 Z-21.238
N14180 X416.306 Y79.758
N14185 Z-21.438 F733.33
N14190 X420.143 Y79.937 F2200.
N14195 Z-21.238
N14200 X421.419 Y79.997
N14205 Z-21.438 F733.33
N14210 X425.255 Y80.176 F2200.
N14215 Z-21.238
N14220 X426.531 Y80.236
N14225 Z-21.438 F733.33
N14230 X430.367 Y80.415 F2200.
N14235 Z-21.238
N14240 X431.643 Y80.475
N14245 Z-21.438 F733.33
N14250 X435.48 Y80.654 F2200.
N14255 Z-21.238
N14260 X436.756 Y80.714
N14265 Z-21.438 F733.33
N14270 X440.592 Y80.893 F2200.
N14275 Z-21.238
N14280 X441.868 Y80.953
N14285 Z-21.438 F733.33
N14290 X445.705 Y81.132 F2200.
N14295 Z-21.238
N14300 X446.981 Y81.192
N14305 Z-21.438 F733.33
N14310 X450.817 Y81.371 F2200.
N14315 Z-21.238
N14320 X452.093 Y81.431
N14325 Z-21.438 F733.33
N14330 X455.929 Y81.61 F2200.
N14335 Z-21.238
N14340 X457.205 Y81.67
N14345 Z-21.438 F733.33
N14350 X461.042 Y81.849 F2200.
N14355 Z-21.238
N14360 X462.318 Y81.909
N14365 Z-21.438 F733.33
N14370 X466.154 Y82.088 F2200.
N14375 Z-21.238
N14380 X467.43 Y82.148
N14385 Z-21.438 F733.33
N14390 X471.266 Y82.327 F2200.
N14395 Z-21.238
N14400 X472.542 Y82.387
N14405 Z-21.438 F733.33
N14410 X476.379 Y82.566 F2200.
N14415 Z-21.238
N14420 X477.655 Y82.626
N14425 Z-21.438 F733.33
N14430 X481.491 Y82.805 F2200.
N14435 Z-21.238
N14440 X482.767 Y82.865
N14445 Z-21.438 F733.33
N14450 X486.604 Y83.044 F2200.
N14455 Z-21.238
N14460 X487.88 Y83.104
N14465 Z-21.438 F733.33
N14470 X491.716 Y83.283 F2200.
N14475 Z-21.238
N14480 X492.992 Y83.343
N14485 Z-21.438 F733.33
N14490 X496.828 Y83.522 F2200.
N14495 Z-21.238
N14500 X498.104 Y83.582
N14505 Z-21.438 F733.33
N14510 X501.941 Y83.761 F2200.
N14515 Z-21.238
N14520 X503.217 Y83.821
N14525 Z-21.438 F733.33
N14530 X507.053 Y84. F2200.
N14535 Z-21.238
N14540 X508.329 Y84.06
N14545 Z-21.438 F733.33
N14550 X512.165 Y84.239 F2200.
N14555 Z-21.238
N14560 X513.441 Y84.299
N14565 Z-21.438 F733.33
N14570 X517.278 Y84.478 F2200.
N14575 Z-21.238
N14580 X518.554 Y84.538
N14585 Z-21.438 F733.33
N14590 X522.39 Y84.717 F2200.
N14595 Z-21.238
N14600 X523.666 Y84.777
N14605 Z-21.438 F733.33
N14610 X527.503 Y84.956 F2200.
N14615 Z-21.238
N14620 X528.779 Y85.016
N14625 Z-21.438 F733.33
N14630 X532.615 Y85.195 F2200.
N14635 Z-21.238
N14640 X533.891 Y85.255
N14645 Z-21.438 F733.33
N14650 X537.727 Y85.434 F2200.
N14655 Z-21.238
N14660 X539.003 Y85.494
N14665 Z-21.438 F733.33
N14670 X542.84 Y85.673 F2200.
N14675 Z-21.238
N14680 X544.116 Y85.733
N14685 Z-21.438 F733.33
N14690 X547.952 Y85.912 F2200.
N14695 Z-21.238
N14700 X549.228 Y85.972
N14705 Z-21.438 F733.33
N14710 X553.064 Y86.151 F2200.
N14715 Z-21.238
N14720 X554.34 Y86.211
N14725 Z-21.438 F733.33
N14730 X558.177 Y86.39 F2200.
N14735 Z-21.238
N14740 X559.453 Y86.45
N14745 Z-21.438 F733.33
N14750 X563.289 Y86.629 F2200.
N14755 Z-21.238
N14760 X564.565 Y86.689
N14765 Z-21.438 F733.33
N14770 X568.402 Y86.868 F2200.
N14775 Z-21.238
N14780 X569.678 Y86.928
N14785 Z-21.438 F733.33
N14790 X573.514 Y87.107 F2200.
N14795 Z-21.238
N14800 X574.79 Y87.167
N14805 Z-21.438 F733.33
N14810 X576.483 Y87.246 F2200.
N14815 G2 X576.807 Y87.008 I0.015 J-0.319
N14820 G1 X577.351 Y84.933
N14825 Z-21.238
N14830 X577.674 Y83.696
N14835 Z-21.438 F733.33
N14840 X578.647 Y79.982 F2200.
N14845 Z-21.238
N14850 X578.971 Y78.745
N14855 Z-21.438 F733.33
N14860 X579.944 Y75.031 F2200.
N14865 Z-21.238
N14870 X580.268 Y73.794
N14875 Z-21.438 F733.33
N14880 X581.241 Y70.08 F2200.
N14885 Z-21.238
N14890 X581.565 Y68.843
N14895 Z-21.438 F733.33
N14900 X582.538 Y65.129 F2200.
N14905 Z-21.238
N14910 X582.862 Y63.892
N14915 Z-21.438 F733.33
N14920 X583.835 Y60.178 F2200.
N14925 Z-21.238
N14930 X584.159 Y58.942
N14935 Z-21.438 F733.33
N14940 X585.132 Y55.227 F2200.
N14945 Z-21.238
N14950 X585.455 Y53.991
N14955 Z-21.438 F733.33
N14960 X586.428 Y50.276 F2200.
N14965 Z-21.238
N14970 X586.752 Y49.04
N14975 Z-21.438 F733.33
N14980 X587.725 Y45.325 F2200.
N14985 Z-21.238
N14990 X588.049 Y44.089
N14995 Z-21.438 F733.33
N15000 X589.022 Y40.374 F2200.
N15005 Z-21.238
N15010 X589.346 Y39.138
N15015 Z-21.438 F733.33
N15020 X590.319 Y35.423 F2200.
N15025 Z-21.238
N15030 X590.643 Y34.187
N15035 Z-21.438 F733.33
N15040 X591.616 Y30.472 F2200.
N15045 Z-21.238
N15050 X591.939 Y29.236
N15055 Z-21.438 F733.33
N15060 X592.912 Y25.521 F2200.
N15065 Z-21.238
N15070 X593.236 Y24.285
N15075 Z-21.438 F733.33
N15080 X594.209 Y20.57 F2200.
N15085 Z-21.238
N15090 X594.533 Y19.334
N15095 Z-21.438 F733.33
N15100 X595.506 Y15.619 F2200.
N15105 Z-21.238
N15110 X595.83 Y14.383
N15115 Z-21.438 F733.33
N15120 X596.803 Y10.669 F2200.
N15125 Z-21.238
N15130 X597.127 Y9.432
N15135 Z-21.438 F733.33
N15140 X598.1 Y5.718 F2200.
N15145 Z-21.238
N15150 X598.424 Y4.481
N15155 Z-21.438 F733.33
N15160 X599.332 Y1.013 F2200.
N15165 G2 X599.022 Y0.612 I-0.309 J-0.081
N15170 G1 X598.767 Y0.613
N15175 Z-21.238
N15180 X597.489 Y0.618
N15185 Z-21.438 F733.33
N15190 X593.649 Y0.632 F2200.
N15195 Z-21.238
N15200 X592.371 Y0.637
N15205 Z-21.438 F733.33
N15210 X588.531 Y0.652 F2200.
N15215 Z-21.238
N15220 X587.253 Y0.656
N15225 Z-21.438 F733.33
N15230 X583.413 Y0.671 F2200.
N15235 Z-21.238
N15240 X582.135 Y0.676
N15245 Z-21.438 F733.33
N15250 X578.295 Y0.69 F2200.
N15255 Z-21.238
N15260 X577.017 Y0.695
N15265 Z-21.438 F733.33
N15270 X573.177 Y0.709 F2200.
N15275 Z-21.238
N15280 X571.899 Y0.714
N15285 Z-21.438 F733.33
N15290 X568.06 Y0.729 F2200.
N15295 Z-21.238
N15300 X566.782 Y0.733
N15305 Z-21.438 F733.33
N15310 X562.942 Y0.748 F2200.
N15315 Z-21.238
N15320 X561.664 Y0.753
N15325 Z-21.438 F733.33
N15330 X557.824 Y0.767 F2200.
N15335 Z-21.238
N15340 X556.546 Y0.772
N15345 Z-21.438 F733.33
N15350 X552.706 Y0.786 F2200.
N15355 Z-21.238
N15360 X551.428 Y0.791
N15365 Z-21.438 F733.33
N15370 X547.588 Y0.806 F2200.
N15375 Z-21.238
N15380 X546.31 Y0.81
N15385 Z-21.438 F733.33
N15390 X542.47 Y0.825 F2200.
N15395 Z-21.238
N15400 X541.192 Y0.83
N15405 Z-21.438 F733.33
N15410 X537.352 Y0.844 F2200.
N15415 Z-21.238
N15420 X536.074 Y0.849
N15425 Z-21.438 F733.33
N15430 X532.234 Y0.863 F2200.
N15435 Z-21.238
N15440 X530.956 Y0.868
N15445 Z-21.438 F733.33
N15450 X527.116 Y0.883 F2200.
N15455 Z-21.238
N15460 X525.838 Y0.887
N15465 Z-21.438 F733.33
N15470 X521.998 Y0.902 F2200.
N15475 Z-21.238
N15480 X520.72 Y0.907
N15485 Z-21.438 F733.33
N15490 X516.88 Y0.921 F2200.
N15495 Z-21.238
N15500 X515.602 Y0.926
N15505 Z-21.438 F733.33
N15510 X511.762 Y0.94 F2200.
N15515 Z-21.238
N15520 X510.484 Y0.945
N15525 Z-21.438 F733.33
N15530 X506.644 Y0.96 F2200.
N15535 Z-21.238
N15540 X505.366 Y0.964
N15545 Z-21.438 F733.33
N15550 X501.526 Y0.979 F2200.
N15555 Z-21.238
N15560 X500.248 Y0.984
N15565 Z-21.438 F733.33
N15570 X496.409 Y0.998 F2200.
N15575 Z-21.238
N15580 X495.131 Y1.003
N15585 Z-21.438 F733.33
N15590 X491.291 Y1.017 F2200.
N15595 Z-21.238
N15600 X490.013 Y1.022
N15605 Z-21.438 F733.33
N15610 X486.173 Y1.037 F2200.
N15615 Z-21.238
N15620 X484.895 Y1.041
N15625 Z-21.438 F733.33
N15630 X481.055 Y1.056 F2200.
N15635 Z-21.238
N15640 X479.777 Y1.061
N15645 Z-21.438 F733.33
N15650 X475.937 Y1.075 F2200.
N15655 Z-21.238
N15660 X474.659 Y1.08
N15665 Z-21.438 F733.33
N15670 X470.819 Y1.094 F2200.
N15675 Z-21.238
N15680 X469.541 Y1.099
N15685 Z-21.438 F733.33
N15690 X465.701 Y1.114 F2200.
N15695 Z-21.238
N15700 X464.423 Y1.118
N15705 Z-21.438 F733.33
N15710 X460.583 Y1.133 F2200.
N15715 Z-21.238
N15720 X459.305 Y1.138
N15725 Z-21.438 F733.33
N15730 X455.465 Y1.152 F2200.
N15735 Z-21.238
N15740 X454.187 Y1.157
N15745 Z-21.438 F733.33
N15750 X450.347 Y1.171 F2200.
N15755 Z-21.238
N15760 X449.069 Y1.176
N15765 Z-21.438 F733.33
N15770 X445.229 Y1.191 F2200.
N15775 Z-21.238
N15780 X443.951 Y1.195
N15785 Z-21.438 F733.33
N15790 X440.111 Y1.21 F2200.
N15795 Z-21.238
N15800 X438.833 Y1.215
N15805 Z-21.438 F733.33
N15810 X434.993 Y1.229 F2200.
N15815 Z-21.238
N15820 X433.715 Y1.234
N15825 Z-21.438 F733.33
N15830 X429.876 Y1.248 F2200.
N15835 Z-21.238
N15840 X428.598 Y1.253
N15845 Z-21.438 F733.33
N15850 X424.758 Y1.268 F2200.
N15855 Z-21.238
N15860 X423.48 Y1.272
N15865 Z-21.438 F733.33
N15870 X419.64 Y1.287 F2200.
N15875 Z-21.238
N15880 X418.362 Y1.292
N15885 Z-21.438 F733.33
N15890 X414.522 Y1.306 F2200.
N15895 Z-21.238
N15900 X413.244 Y1.311
N15905 Z-21.438 F733.33
N15910 X409.404 Y1.325 F2200.
N15915 Z-21.238
N15920 X408.126 Y1.33
N15925 Z-21.438 F733.33
N15930 X404.286 Y1.345 F2200.
N15935 Z-21.238
N15940 X403.008 Y1.349
N15945 Z-21.438 F733.33
N15950 X399.168 Y1.364 F2200.
N15955 Z-21.238
N15960 X397.89 Y1.369
N15965 Z-21.438 F733.33
N15970 X394.05 Y1.383 F2200.
N15975 Z-21.238
N15980 X392.772 Y1.388
N15985 Z-21.438 F733.33
N15990 X388.932 Y1.402 F2200.
N15995 Z-21.238
N16000 X387.654 Y1.407
N16005 Z-21.438 F733.33
N16010 X383.814 Y1.422 F2200.
N16015 Z-21.238
N16020 X382.536 Y1.427
N16025 Z-21.438 F733.33
N16030 X378.696 Y1.441 F2200.
N16035 Z-21.238
N16040 X377.418 Y1.446
N16045 Z-21.438 F733.33
N16050 X373.578 Y1.46 F2200.
N16055 Z-21.238
N16060 X372.3 Y1.465
N16065 Z-21.438 F733.33
N16070 X368.46 Y1.479 F2200.
N16075 Z-21.238
N16080 X367.182 Y1.484
N16085 Z-21.438 F733.33
N16090 X363.343 Y1.499 F2200.
N16095 Z-21.238
N16100 X362.065 Y1.504
N16105 Z-21.438 F733.33
N16110 X358.225 Y1.518 F2200.
N16115 Z-21.238
N16120 X356.947 Y1.523
N16125 Z-21.438 F733.33
N16130 X353.107 Y1.537 F2200.
N16135 Z-21.238
N16140 X351.829 Y1.542
N16145 Z-21.438 F733.33
N16150 X347.989 Y1.556 F2200.
N16155 Z-21.238
N16160 X346.711 Y1.561
N16165 Z-21.438 F733.33
N16170 X342.871 Y1.576 F2200.
N16175 Z-21.238
N16180 X341.593 Y1.581
N16185 Z-21.438 F733.33
N16190 X337.753 Y1.595 F2200.
N16195 Z-21.238
N16200 X336.475 Y1.6
N16205 Z-21.438 F733.33
N16210 X332.635 Y1.614 F2200.
N16215 Z-21.238
N16220 X331.357 Y1.619
N16225 Z-21.438 F733.33
N16230 X327.517 Y1.633 F2200.
N16235 Z-21.238
N16240 X326.239 Y1.638
N16245 Z-21.438 F733.33
N16250 X322.399 Y1.653 F2200.
N16255 Z-21.238
N16260 X321.121 Y1.658
N16265 Z-21.438 F733.33
N16270 X317.281 Y1.672 F2200.
N16275 Z-21.238
N16280 X316.003 Y1.677
N16285 Z-21.438 F733.33
N16290 X312.163 Y1.691 F2200.
N16295 Z-21.238
N16300 X310.885 Y1.696
N16305 Z-21.438 F733.33
N16310 X307.045 Y1.71 F2200.
N16315 Z-21.238
N16320 X305.767 Y1.715
N16325 Z-21.438 F733.33
N16330 X301.927 Y1.73 F2200.
N16335 Z-21.238
N16340 X300.649 Y1.735
N16345 Z-21.438 F733.33
N16350 X296.81 Y1.749 F2200.
N16355 Z-21.238
N16360 X295.532 Y1.754
N16365 Z-21.438 F733.33
N16370 X291.692 Y1.768 F2200.
N16375 Z-21.238
N16380 X290.414 Y1.773
N16385 Z-21.438 F733.33
N16390 X286.574 Y1.787 F2200.
N16395 Z-21.238
N16400 X285.296 Y1.792
N16405 Z-21.438 F733.33
N16410 X281.456 Y1.807 F2200.
N16415 Z-21.238
N16420 X280.178 Y1.812
N16425 Z-21.438 F733.33
N16430 X276.338 Y1.826 F2200.
N16435 Z-21.238
N16440 X275.06 Y1.831
N16445 Z-21.438 F733.33
N16450 X271.22 Y1.845 F2200.
N16455 Z-21.238
N16460 X269.942 Y1.85
N16465 Z-21.438 F733.33
N16470 X266.102 Y1.865 F2200.
N16475 Z-21.238
N16480 X264.824 Y1.869
N16485 Z-21.438 F733.33
N16490 X260.984 Y1.884 F2200.
N16495 Z-21.238
N16500 X259.706 Y1.889
N16505 Z-21.438 F733.33
N16510 X255.866 Y1.903 F2200.
N16515 Z-21.238
N16520 X254.588 Y1.908
N16525 Z-21.438 F733.33
N16530 X250.748 Y1.922 F2200.
N16535 Z-21.238
N16540 X249.47 Y1.927
N16545 Z-21.438 F733.33
N16550 X245.63 Y1.942 F2200.
N16555 Z-21.238
N16560 X244.352 Y1.946
N16565 Z-21.438 F733.33
N16570 X240.512 Y1.961 F2200.
N16575 Z-21.238
N16580 X239.234 Y1.966
N16585 Z-21.438 F733.33
N16590 X235.394 Y1.98 F2200.
N16595 Z-21.238
N16600 X234.116 Y1.985
N16605 Z-21.438 F733.33
N16610 X230.276 Y1.999 F2200.
N16615 Z-21.238
N16620 X228.998 Y2.004
N16625 Z-21.438 F733.33
N16630 X225.159 Y2.019 F2200.
N16635 Z-21.238
N16640 X223.881 Y2.023
N16645 Z-21.438 F733.33
N16650 X220.041 Y2.038 F2200.
N16655 Z-21.238
N16660 X218.763 Y2.043
N16665 Z-21.438 F733.33
N16670 X214.923 Y2.057 F2200.
N16675 Z-21.238
N16680 X213.645 Y2.062
N16685 Z-21.438 F733.33
N16690 X209.805 Y2.076 F2200.
N16695 Z-21.238
N16700 X208.527 Y2.081
N16705 Z-21.438 F733.33
N16710 X204.687 Y2.096 F2200.
N16715 Z-21.238
N16720 X203.409 Y2.1
N16725 Z-21.438 F733.33
N16730 X199.569 Y2.115 F2200.
N16735 Z-21.238
N16740 X198.291 Y2.12
N16745 Z-21.438 F733.33
N16750 X194.451 Y2.134 F2200.
N16755 Z-21.238
N16760 X193.173 Y2.139
N16765 Z-21.438 F733.33
N16770 X189.333 Y2.153 F2200.
N16775 Z-21.238
N16780 X188.055 Y2.158
N16785 Z-21.438 F733.33
N16790 X184.215 Y2.173 F2200.
N16795 Z-21.238
N16800 X182.937 Y2.177
N16805 Z-21.438 F733.33
N16810 X179.097 Y2.192 F2200.
N16815 Z-21.238
N16820 X177.819 Y2.197
N16825 Z-21.438 F733.33
N16830 X173.979 Y2.211 F2200.
N16835 Z-21.238
N16840 X172.701 Y2.216
N16845 Z-21.438 F733.33
N16850 X168.861 Y2.23 F2200.
N16855 Z-21.238
N16860 X167.583 Y2.235
N16865 Z-21.438 F733.33
N16870 X163.743 Y2.25 F2200.
N16875 Z-21.238
N16880 X162.465 Y2.254
N16885 Z-21.438 F733.33
N16890 X158.626 Y2.269 F2200.
N16895 Z-21.238
N16900 X157.348 Y2.274
N16905 Z-21.438 F733.33
N16910 X153.508 Y2.288 F2200.
N16915 Z-21.238
N16920 X152.23 Y2.293
N16925 Z-21.438 F733.33
N16930 X148.39 Y2.307 F2200.
N16935 Z-21.238
N16940 X147.112 Y2.312
N16945 Z-21.438 F733.33
N16950 X143.272 Y2.327 F2200.
N16955 Z-21.238
N16960 X141.994 Y2.331
N16965 Z-21.438 F733.33
N16970 X138.154 Y2.346 F2200.
N16975 Z-21.238
N16980 X136.876 Y2.351
N16985 Z-21.438 F733.33
N16990 X133.036 Y2.365 F2200.
N16995 Z-21.238
N17000 X131.758 Y2.37
N17005 Z-21.438 F733.33
N17010 X127.918 Y2.384 F2200.
N17015 Z-21.238
N17020 X126.64 Y2.389
N17025 Z-21.438 F733.33
N17030 X122.8 Y2.404 F2200.
N17035 Z-21.238
N17040 X121.522 Y2.408
N17045 Z-21.438 F733.33
N17050 X117.682 Y2.423 F2200.
N17055 Z-21.238
N17060 X116.404 Y2.428
N17065 Z-21.438 F733.33
N17070 X112.564 Y2.442 F2200.
N17075 Z-21.238
N17080 X111.286 Y2.447
N17085 Z-21.438 F733.33
N17090 X107.446 Y2.461 F2200.
N17095 Z-21.238
N17100 X106.168 Y2.466
N17105 Z-21.438 F733.33
N17110 X102.328 Y2.481 F2200.
N17115 Z-21.238
N17120 X101.05 Y2.485
N17125 Z-21.438 F733.33
N17130 X97.21 Y2.5 F2200.
N17135 Z-21.238
N17140 X95.932 Y2.505
N17145 Z-21.438 F733.33
N17150 X92.092 Y2.519 F2200.
N17155 Z-21.238
N17160 X90.814 Y2.524
N17165 Z-21.438 F733.33
N17170 X86.974 Y2.538 F2200.
N17175 Z-21.238
N17180 X85.696 Y2.543
N17185 Z-21.438 F733.33
N17190 X81.856 Y2.558 F2200.
N17195 Z-21.238
N17200 X80.578 Y2.562
N17205 Z-21.438 F733.33
N17210 X76.738 Y2.577 F2200.
N17215 Z-21.238
N17220 X75.461 Y2.582
N17225 Z-21.438 F733.33
N17230 X71.621 Y2.596 F2200.
N17235 Z-21.238
N17240 X70.343 Y2.601
N17245 Z-21.438 F733.33
N17250 X66.503 Y2.615 F2200.
N17255 Z-21.238
N17260 X65.225 Y2.62
N17265 Z-21.438 F733.33
N17270 X61.385 Y2.635 F2200.
N17275 Z-21.238
N17280 X60.107 Y2.639
N17285 Z-21.438 F733.33
N17290 X56.267 Y2.654 F2200.
N17295 Z-21.238
N17300 X54.989 Y2.659
N17305 Z-21.438 F733.33
N17310 X51.149 Y2.673 F2200.
N17315 Z-21.238
N17320 X49.871 Y2.678
N17325 Z-21.438 F733.33
N17330 X46.031 Y2.692 F2200.
N17335 Z-21.238
N17340 X44.753 Y2.697
N17345 Z-21.438 F733.33
N17350 X40.913 Y2.712 F2200.
N17355 Z-21.238
N17360 X39.635 Y2.716
N17365 Z-21.438 F733.33
N17370 X36.061 Y2.73 F2200.
N17375 X36.055
N17380 X35.785 Y2.736
N17385 Z-21.238
N17390 X34.985 Y2.754
N17395 X34.974
N17400 X34.508 Y2.781
N17405 Z-21.438 F733.33
N17410 X33.905 Y2.817 F2200.
N17415 X33.894 Y2.818
N17420 X32.828 Y2.92
N17425 X32.817 Y2.921
N17430 X31.756 Y3.062
N17435 X31.744 Y3.064
N17440 X30.69 Y3.243
N17445 X30.678 Y3.245
N17450 X30.644 Y3.252
N17455 Z-21.238
N17460 X29.63 Y3.463
N17465 X29.619 Y3.466
N17470 X29.395 Y3.521
N17475 Z-21.438 F733.33
N17480 X28.58 Y3.722 F2200.
N17485 X28.569 Y3.725
N17490 X27.54 Y4.02
N17495 X27.529 Y4.023
N17500 X26.511 Y4.355
N17505 X26.5 Y4.358
N17510 X25.673 Y4.662
N17515 Z-21.238
N17520 X25.496 Y4.727
N17525 X25.485 Y4.731
N17530 X24.494 Y5.137
N17535 X24.488 Y5.14
N17540 Z-21.438 F733.33
N17545 X24.484 Y5.141 F2200.
N17550 X23.509 Y5.583
N17555 X23.498 Y5.588
N17560 X22.54 Y6.064
N17565 X22.53 Y6.07
N17570 X21.59 Y6.581
N17575 X21.58 Y6.587
N17580 X21.024 Y6.916
N17585 Z-21.238
N17590 X20.659 Y7.133
N17595 X20.649 Y7.139
N17600 X19.941 Y7.594
N17605 Z-21.438 F733.33
N17610 X19.749 Y7.718 F2200.
N17615 X19.74 Y7.724
N17620 X18.861 Y8.336
N17625 X18.852 Y8.342
N17630 X17.997 Y8.986
N17635 X17.987 Y8.993
N17640 X17.156 Y9.667
N17645 X17.147 Y9.675
N17650 X16.838 Y9.945
N17655 Z-21.238
N17660 X16.342 Y10.379
N17665 X16.333 Y10.386
N17670 X15.891 Y10.802
N17675 Z-21.438 F733.33
N17680 X15.554 Y11.12 F2200.
N17685 X15.545 Y11.128
N17690 X14.793 Y11.889
N17695 X14.785 Y11.897
N17700 X14.061 Y12.686
N17705 X14.054 Y12.694
N17710 X13.359 Y13.509
N17715 X13.352 Y13.518
N17720 X13.243 Y13.655
N17725 Z-21.238
N17730 X12.688 Y14.357
N17735 X12.681 Y14.366
N17740 X12.461 Y14.666
N17745 Z-21.438 F733.33
N17750 X12.048 Y15.229 F2200.
N17755 X12.041 Y15.239
N17760 X11.44 Y16.124
N17765 X11.434 Y16.134
N17770 X10.866 Y17.041
N17775 X10.86 Y17.051
N17780 X10.35 Y17.936
N17785 Z-21.238
N17790 X10.325 Y17.978
N17795 X10.32 Y17.988
N17800 X9.82 Y18.934
N17805 X9.814 Y18.944
N17810 X9.755 Y19.067
N17815 Z-21.438 F733.33
N17820 X9.349 Y19.908 F2200.
N17825 X9.344 Y19.919
N17830 X8.915 Y20.899
N17835 X8.91 Y20.91
N17840 X8.517 Y21.905
N17845 X8.513 Y21.916
N17850 X8.251 Y22.657
N17855 Z-21.238
N17860 X8.156 Y22.925
N17865 X8.153 Y22.936
N17870 X7.859 Y23.874
N17875 Z-21.438 F733.33
N17880 X7.833 Y23.957 F2200.
N17885 X7.83 Y23.968
N17890 X7.548 Y25.
N17895 X7.545 Y25.012
N17900 X7.302 Y26.054
N17905 X7.299 Y26.065
N17910 X7.094 Y27.115
N17915 X7.092 Y27.127
N17920 X7.006 Y27.672
N17925 Z-21.238
N17930 X6.925 Y28.184
N17935 X6.923 Y28.195
N17940 X6.834 Y28.938
N17945 Z-21.438 F733.33
N17950 X6.795 Y29.258 F2200.
N17955 X6.794 Y29.269
N17960 X6.705 Y30.336
N17965 Y30.344
N17970 X6.675 Y30.876
N17975 Y30.879
N17980 X6.667 Y31.047
N17985 Y31.053
N17990 X6.636 Y32.123
N17995 Y32.134
N18000 X6.642 Y32.824
N18005 Z-21.238
N18010 X6.645 Y33.204
N18015 Y33.216
N18020 X6.641 Y33.241
N18025 X6.629 Y33.262
N18030 X6.608 Y33.277
N18035 X6.584 Y33.283
N18040 X6.457 Y33.288
N18045 Z15.
N18050 X960.985 Y-390.83
N18055 Z7.35
N18060 Z-6.286 F733.33
N18065 X960.981 Y-390.831 Z-6.311 F2200.
N18070 X960.967 Y-390.832 Z-6.331
N18075 X960.946 Y-390.833 Z-6.345
N18080 X960.922 Y-390.835 Z-6.35
N18085 X960.858 Y-390.841
N18090 X960.834 Y-390.847
N18095 X960.815 Y-390.863
N18100 X960.802 Y-390.885
N18105 X960.799 Y-390.909
N18110 X960.839 Y-391.406
N18115 X960.841 Y-391.431
N18120 X960.842 Y-391.93
N18125 Y-391.955
N18130 X960.804 Y-392.452
N18135 X960.801 Y-392.477
N18140 X960.725 Y-392.97
N18145 X960.72 Y-392.995
N18150 X960.605 Y-393.48
N18155 X960.598 Y-393.504
N18160 X960.445 Y-393.979
N18165 X960.436 Y-394.003
N18170 X960.246 Y-394.465
N18175 X960.236 Y-394.487
N18180 X960.011 Y-394.932
N18185 X959.999 Y-394.954
N18190 X959.74 Y-395.38
N18195 X959.726 Y-395.401
N18200 X959.434 Y-395.805
N18205 X959.418 Y-395.825
N18210 X959.095 Y-396.205
N18215 X959.079 Y-396.223
N18220 X958.727 Y-396.577
N18225 X958.708 Y-396.595
N18230 X958.329 Y-396.92
N18235 X958.31 Y-396.935
N18240 X957.908 Y-397.229
N18245 X957.887 Y-397.243
N18250 X957.462 Y-397.505
N18255 X957.44 Y-397.517
N18260 X956.996 Y-397.745
N18265 X956.973 Y-397.756
N18270 X956.513 Y-397.948
N18275 X956.497 Y-397.954
N18280 X956.357 Y-398.004
N18285 X956.354 Y-398.005
N18290 X931.996 Y-406.416
N18295 X931.992 Y-406.417
N18300 X930.652 Y-406.859
N18305 X930.644 Y-406.862
N18310 X929.292 Y-407.267
N18315 X929.283 Y-407.27
N18320 X927.92 Y-407.637
N18325 X927.911 Y-407.639
N18330 X926.539 Y-407.968
N18335 X926.531 Y-407.97
N18340 X925.15 Y-408.261
N18345 X925.141 Y-408.262
N18350 X923.752 Y-408.514
N18355 X923.743 Y-408.516
N18360 X922.348 Y-408.73
N18365 X922.339 Y-408.731
N18370 X920.939 Y-408.905
N18375 X920.931 Y-408.906
N18380 X919.526 Y-409.042
N18385 X919.517 Y-409.043
N18390 X918.109 Y-409.14
N18395 X918.1
N18400 X916.69 Y-409.198
N18405 X916.681
N18410 X915.27 Y-409.216
N18415 X915.261
N18420 X913.85 Y-409.195
N18425 X913.841
N18430 X912.431 Y-409.135
N18435 X912.423
N18440 X911.015 Y-409.036
N18445 X911.006 Y-409.035
N18450 X909.602 Y-408.897
N18455 X909.593 Y-408.896
N18460 X908.193 Y-408.719
N18465 X908.184 Y-408.718
N18470 X906.789 Y-408.502
N18475 X906.78 Y-408.5
N18480 X905.392 Y-408.245
N18485 X905.384 Y-408.244
N18490 X904.004 Y-407.951
N18495 X903.995 Y-407.949
N18500 X902.623 Y-407.618
N18505 X902.617 Y-407.616
N18510 X902.179 Y-407.501
N18515 X704.593 Y-354.987
N18520 X701.249 Y-354.119
N18525 X697.898 Y-353.289
N18530 X694.536 Y-352.496
N18535 X691.166 Y-351.743
N18540 X687.789 Y-351.027
N18545 X684.402 Y-350.35
N18550 X681.009 Y-349.711
N18555 X677.607 Y-349.111
N18560 X674.201 Y-348.55
N18565 X670.787 Y-348.026
N18570 X667.368 Y-347.542
N18575 X663.944 Y-347.097
N18580 X660.514 Y-346.69
N18585 X657.081 Y-346.322
N18590 X653.643 Y-345.993
N18595 X650.202 Y-345.704
N18600 X646.758 Y-345.453
N18605 X643.311 Y-345.242
N18610 X639.863 Y-345.069
N18615 X636.411 Y-344.936
N18620 X632.96 Y-344.841
N18625 X629.507 Y-344.786
N18630 X626.054 Y-344.771
N18635 X622.601 Y-344.794
N18640 X619.148 Y-344.856
N18645 X615.696 Y-344.958
N18650 X612.244 Y-345.099
N18655 X612.035 Y-345.108
N18660 X196.465 Y-364.705
N18665 X196.459
N18670 X195.394 Y-364.736
N18675 X195.382
N18680 X194.316 Y-364.727
N18685 X194.305
N18690 X193.241 Y-364.679
N18695 X193.229 Y-364.678
N18700 X192.167 Y-364.591
N18705 X192.155 Y-364.59
N18710 X191.097 Y-364.464
N18715 X191.086 Y-364.463
N18720 X190.034 Y-364.299
N18725 X190.022 Y-364.297
N18730 X188.976 Y-364.093
N18735 X188.964 Y-364.09
N18740 X187.926 Y-363.848
N18745 X187.915 Y-363.845
N18750 X186.887 Y-363.566
N18755 X186.876 Y-363.563
N18760 X185.859 Y-363.245
N18765 X185.848 Y-363.241
N18770 X184.843 Y-362.887
N18775 X184.832 Y-362.883
N18780 X183.841 Y-362.492
N18785 X183.83 Y-362.488
N18790 X182.854 Y-362.06
N18795 X182.843 Y-362.055
N18800 X181.884 Y-361.592
N18805 X181.874 Y-361.586
N18810 X180.932 Y-361.088
N18815 X180.921 Y-361.083
N18820 X179.998 Y-360.551
N18825 X179.988 Y-360.545
N18830 X179.085 Y-359.979
N18835 X179.075 Y-359.972
N18840 X178.194 Y-359.373
N18845 X178.185 Y-359.366
N18850 X177.327 Y-358.735
N18855 X177.318 Y-358.728
N18860 X176.483 Y-358.066
N18865 X176.473 Y-358.059
N18870 X175.663 Y-357.367
N18875 X175.655 Y-357.359
N18880 X174.871 Y-356.638
N18885 X174.862 Y-356.63
N18890 X174.105 Y-355.88
N18895 X174.097 Y-355.872
N18900 X173.368 Y-355.095
N18905 X173.36 Y-355.086
N18910 X172.661 Y-354.282
N18915 X172.654 Y-354.273
N18920 X171.984 Y-353.444
N18925 X171.976 Y-353.435
N18930 X171.337 Y-352.583
N18935 X171.33 Y-352.573
N18940 X170.724 Y-351.697
N18945 X170.718 Y-351.687
N18950 X170.143 Y-350.79
N18955 X170.137 Y-350.78
N18960 X169.597 Y-349.862
N18965 X169.591 Y-349.852
N18970 X169.084 Y-348.915
N18975 X169.079 Y-348.904
N18980 X168.607 Y-347.948
N18985 X168.601 Y-347.938
N18990 X168.165 Y-346.966
N18995 X168.161 Y-346.955
N19000 X167.76 Y-345.968
N19005 X167.756 Y-345.957
N19010 X167.392 Y-344.956
N19015 X167.388 Y-344.945
N19020 X167.062 Y-343.931
N19025 X167.058 Y-343.92
N19030 X166.769 Y-342.894
N19035 X166.767 Y-342.883
N19040 X166.515 Y-341.848
N19045 X166.512 Y-341.836
N19050 X166.299 Y-340.792
N19055 X166.297 Y-340.78
N19060 X166.123 Y-339.729
N19065 X166.121 Y-339.718
N19070 X165.985 Y-338.662
N19075 X165.984 Y-338.654
N19080 X165.98 Y-338.617
N19085 X165.878 Y-337.675
N19090 Y-337.669
N19095 X165.783 Y-336.608
N19100 X165.782 Y-336.597
N19105 X165.726 Y-335.533
N19110 Y-335.521
N19115 X165.709 Y-334.455
N19120 Y-334.443
N19125 X165.731 Y-333.378
N19130 Y-333.367
N19135 X165.792 Y-332.304
N19140 X165.793 Y-332.292
N19145 X165.894 Y-331.231
N19150 X165.895 Y-331.219
N19155 X166.034 Y-330.163
N19160 X166.036 Y-330.152
N19165 X166.214 Y-329.102
N19170 X166.216 Y-329.09
N19175 X166.433 Y-328.046
N19180 X166.436 Y-328.034
N19185 X166.691 Y-327.
N19190 X166.694 Y-326.989
N19195 X166.987 Y-325.965
N19200 X166.99 Y-325.954
N19205 X167.32 Y-324.941
N19210 X167.324 Y-324.93
N19215 X167.691 Y-323.93
N19220 X167.695 Y-323.919
N19225 X168.099 Y-322.933
N19230 X168.104 Y-322.922
N19235 X168.544 Y-321.952
N19240 X168.549 Y-321.942
N19245 X169.024 Y-320.988
N19250 X169.03 Y-320.977
N19255 X169.54 Y-320.042
N19260 X169.545 Y-320.032
N19265 X170.09 Y-319.116
N19270 X170.096 Y-319.106
N19275 X170.673 Y-318.21
N19280 X170.68 Y-318.2
N19285 X171.29 Y-317.327
N19290 X171.297 Y-317.317
N19295 X171.939 Y-316.467
N19300 X171.946 Y-316.459
N19305 X172.618 Y-315.632
N19310 X172.626 Y-315.622
N19315 X173.329 Y-314.821
N19320 X173.337 Y-314.813
N19325 X174.068 Y-314.039
N19330 X174.076 Y-314.03
N19335 X174.836 Y-313.283
N19340 X174.844 Y-313.275
N19345 X175.63 Y-312.556
N19350 X175.639 Y-312.548
N19355 X176.451 Y-311.859
N19360 X176.46 Y-311.852
N19365 X177.299 Y-311.193
N19370 X177.308 Y-311.186
N19375 X178.169 Y-310.558
N19380 X178.178 Y-310.551
N19385 X179.061 Y-309.955
N19390 X179.071 Y-309.949
N19395 X179.976 Y-309.387
N19400 X179.986 Y-309.381
N19405 X180.91 Y-308.852
N19410 X180.921 Y-308.846
N19415 X181.865 Y-308.351
N19420 X181.875 Y-308.346
N19425 X182.836 Y-307.886
N19430 X182.847 Y-307.881
N19435 X183.825 Y-307.457
N19440 X183.836 Y-307.452
N19445 X184.828 Y-307.065
N19450 X184.839 Y-307.061
N19455 X185.845 Y-306.71
N19460 X185.856 Y-306.707
N19465 X186.874 Y-306.393
N19470 X186.885 Y-306.389
N19475 X187.914 Y-306.113
N19480 X187.926 Y-306.111
N19485 X188.965 Y-305.873
N19490 X188.976 Y-305.87
N19495 X190.022 Y-305.67
N19500 X190.034 Y-305.668
N19505 X191.087 Y-305.507
N19510 X191.097 Y-305.506
N19515 X191.826 Y-305.418
N19520 X191.83 Y-305.417
N19525 X668.086 Y-253.812
N19530 X668.143 Y-253.811
N19535 X668.199 Y-253.82
N19540 X668.253 Y-253.839
N19545 X956.947 Y-385.634
N19550 X956.958 Y-385.64
N19555 X957.403 Y-385.864
N19560 X957.425 Y-385.876
N19565 X957.852 Y-386.136
N19570 X957.873 Y-386.15
N19575 X958.277 Y-386.441
N19580 X958.297 Y-386.456
N19585 X958.678 Y-386.779
N19590 X958.696 Y-386.796
N19595 X959.05 Y-387.147
N19600 X959.068 Y-387.166
N19605 X959.393 Y-387.545
N19610 X959.408 Y-387.564
N19615 X959.703 Y-387.966
N19620 X959.717 Y-387.987
N19625 X959.979 Y-388.412
N19630 X959.991 Y-388.434
N19635 X960.219 Y-388.877
N19640 X960.23 Y-388.9
N19645 X960.422 Y-389.361
N19650 X960.43 Y-389.384
N19655 X960.586 Y-389.857
N19660 X960.593 Y-389.881
N19665 X960.711 Y-390.366
N19670 X960.716 Y-390.391
N19675 X960.796 Y-390.884
N19680 X960.799 Y-390.909
N19685 X960.806 Y-390.933
N19690 X960.822 Y-390.953
N19695 X960.844 Y-390.965
N19700 X960.868 Y-390.968
N19705 X960.932 Y-390.963
N19710 X960.956 Y-390.961 Z-6.345
N19715 X960.977 Y-390.959 Z-6.331
N19720 X960.991 Y-390.958 Z-6.311
N19725 X960.996 Z-6.286
N19730 Z7.35
N19735 X960.985 Y-390.83
N19740 Z5.
N19745 Z1. F733.33
N19750 Z-12.636
N19755 X960.981 Y-390.831 Z-12.661 F2200.
N19760 X960.967 Y-390.832 Z-12.681
N19765 X960.946 Y-390.833 Z-12.695
N19770 X960.922 Y-390.835 Z-12.7
N19775 X960.858 Y-390.841
N19780 X960.834 Y-390.847
N19785 X960.815 Y-390.863
N19790 X960.802 Y-390.885
N19795 X960.799 Y-390.909
N19800 X960.839 Y-391.406
N19805 X960.841 Y-391.431
N19810 X960.842 Y-391.93
N19815 Y-391.955
N19820 X960.804 Y-392.452
N19825 X960.801 Y-392.477
N19830 X960.725 Y-392.97
N19835 X960.72 Y-392.995
N19840 X960.605 Y-393.48
N19845 X960.598 Y-393.504
N19850 X960.445 Y-393.979
N19855 X960.436 Y-394.003
N19860 X960.246 Y-394.465
N19865 X960.236 Y-394.487
N19870 X960.011 Y-394.932
N19875 X959.999 Y-394.954
N19880 X959.74 Y-395.38
N19885 X959.726 Y-395.401
N19890 X959.434 Y-395.805
N19895 X959.418 Y-395.825
N19900 X959.095 Y-396.205
N19905 X959.079 Y-396.223
N19910 X958.727 Y-396.577
N19915 X958.708 Y-396.595
N19920 X958.329 Y-396.92
N19925 X958.31 Y-396.935
N19930 X957.908 Y-397.229
N19935 X957.887 Y-397.243
N19940 X957.462 Y-397.505
N19945 X957.44 Y-397.517
N19950 X956.996 Y-397.745
N19955 X956.973 Y-397.756
N19960 X956.513 Y-397.948
N19965 X956.497 Y-397.954
N19970 X956.357 Y-398.004
N19975 X956.354 Y-398.005
N19980 X931.996 Y-406.416
N19985 X931.992 Y-406.417
N19990 X930.652 Y-406.859
N19995 X930.644 Y-406.862
N20000 X929.292 Y-407.267
N20005 X929.283 Y-407.27
N20010 X927.92 Y-407.637
N20015 X927.911 Y-407.639
N20020 X926.539 Y-407.968
N20025 X926.531 Y-407.97
N20030 X925.15 Y-408.261
N20035 X925.141 Y-408.262
N20040 X923.752 Y-408.514
N20045 X923.743 Y-408.516
N20050 X922.348 Y-408.73
N20055 X922.339 Y-408.731
N20060 X920.939 Y-408.905
N20065 X920.931 Y-408.906
N20070 X919.526 Y-409.042
N20075 X919.517 Y-409.043
N20080 X918.109 Y-409.14
N20085 X918.1
N20090 X916.69 Y-409.198
N20095 X916.681
N20100 X915.27 Y-409.216
N20105 X915.261
N20110 X913.85 Y-409.195
N20115 X913.841
N20120 X912.431 Y-409.135
N20125 X912.423
N20130 X911.015 Y-409.036
N20135 X911.006 Y-409.035
N20140 X909.602 Y-408.897
N20145 X909.593 Y-408.896
N20150 X908.193 Y-408.719
N20155 X908.184 Y-408.718
N20160 X906.789 Y-408.502
N20165 X906.78 Y-408.5
N20170 X905.392 Y-408.245
N20175 X905.384 Y-408.244
N20180 X904.004 Y-407.951
N20185 X903.995 Y-407.949
N20190 X902.623 Y-407.618
N20195 X902.617 Y-407.616
N20200 X902.179 Y-407.501
N20205 X704.593 Y-354.987
N20210 X701.249 Y-354.119
N20215 X697.898 Y-353.289
N20220 X694.536 Y-352.496
N20225 X691.166 Y-351.743
N20230 X687.789 Y-351.027
N20235 X684.402 Y-350.35
N20240 X681.009 Y-349.711
N20245 X677.607 Y-349.111
N20250 X674.201 Y-348.55
N20255 X670.787 Y-348.026
N20260 X667.368 Y-347.542
N20265 X663.944 Y-347.097
N20270 X660.514 Y-346.69
N20275 X657.081 Y-346.322
N20280 X653.643 Y-345.993
N20285 X650.202 Y-345.704
N20290 X646.758 Y-345.453
N20295 X643.311 Y-345.242
N20300 X639.863 Y-345.069
N20305 X636.411 Y-344.936
N20310 X632.96 Y-344.841
N20315 X629.507 Y-344.786
N20320 X626.054 Y-344.771
N20325 X622.601 Y-344.794
N20330 X619.148 Y-344.856
N20335 X615.696 Y-344.958
N20340 X612.244 Y-345.099
N20345 X612.035 Y-345.108
N20350 X196.465 Y-364.705
N20355 X196.459
N20360 X195.394 Y-364.736
N20365 X195.382
N20370 X194.316 Y-364.727
N20375 X194.305
N20380 X193.241 Y-364.679
N20385 X193.229 Y-364.678
N20390 X192.167 Y-364.591
N20395 X192.155 Y-364.59
N20400 X191.097 Y-364.464
N20405 X191.086 Y-364.463
N20410 X190.034 Y-364.299
N20415 X190.022 Y-364.297
N20420 X188.976 Y-364.093
N20425 X188.964 Y-364.09
N20430 X187.926 Y-363.848
N20435 X187.915 Y-363.845
N20440 X186.887 Y-363.566
N20445 X186.876 Y-363.563
N20450 X185.859 Y-363.245
N20455 X185.848 Y-363.241
N20460 X184.843 Y-362.887
N20465 X184.832 Y-362.883
N20470 X183.841 Y-362.492
N20475 X183.83 Y-362.488
N20480 X182.854 Y-362.06
N20485 X182.843 Y-362.055
N20490 X181.884 Y-361.592
N20495 X181.874 Y-361.586
N20500 X180.932 Y-361.088
N20505 X180.921 Y-361.083
N20510 X179.998 Y-360.551
N20515 X179.988 Y-360.545
N20520 X179.085 Y-359.979
N20525 X179.075 Y-359.972
N20530 X178.194 Y-359.373
N20535 X178.185 Y-359.366
N20540 X177.327 Y-358.735
N20545 X177.318 Y-358.728
N20550 X176.483 Y-358.066
N20555 X176.473 Y-358.059
N20560 X175.663 Y-357.367
N20565 X175.655 Y-357.359
N20570 X174.871 Y-356.638
N20575 X174.862 Y-356.63
N20580 X174.105 Y-355.88
N20585 X174.097 Y-355.872
N20590 X173.368 Y-355.095
N20595 X173.36 Y-355.086
N20600 X172.661 Y-354.282
N20605 X172.654 Y-354.273
N20610 X171.984 Y-353.444
N20615 X171.976 Y-353.435
N20620 X171.337 Y-352.583
N20625 X171.33 Y-352.573
N20630 X170.724 Y-351.697
N20635 X170.718 Y-351.687
N20640 X170.143 Y-350.79
N20645 X170.137 Y-350.78
N20650 X169.597 Y-349.862
N20655 X169.591 Y-349.852
N20660 X169.084 Y-348.915
N20665 X169.079 Y-348.904
N20670 X168.607 Y-347.948
N20675 X168.601 Y-347.938
N20680 X168.165 Y-346.966
N20685 X168.161 Y-346.955
N20690 X167.76 Y-345.968
N20695 X167.756 Y-345.957
N20700 X167.392 Y-344.956
N20705 X167.388 Y-344.945
N20710 X167.062 Y-343.931
N20715 X167.058 Y-343.92
N20720 X166.769 Y-342.894
N20725 X166.767 Y-342.883
N20730 X166.515 Y-341.848
N20735 X166.512 Y-341.836
N20740 X166.299 Y-340.792
N20745 X166.297 Y-340.78
N20750 X166.123 Y-339.729
N20755 X166.121 Y-339.718
N20760 X165.985 Y-338.662
N20765 X165.984 Y-338.654
N20770 X165.98 Y-338.617
N20775 X165.878 Y-337.675
N20780 Y-337.669
N20785 X165.783 Y-336.608
N20790 X165.782 Y-336.597
N20795 X165.726 Y-335.533
N20800 Y-335.521
N20805 X165.709 Y-334.455
N20810 Y-334.443
N20815 X165.731 Y-333.378
N20820 Y-333.367
N20825 X165.792 Y-332.304
N20830 X165.793 Y-332.292
N20835 X165.894 Y-331.231
N20840 X165.895 Y-331.219
N20845 X166.034 Y-330.163
N20850 X166.036 Y-330.152
N20855 X166.214 Y-329.102
N20860 X166.216 Y-329.09
N20865 X166.433 Y-328.046
N20870 X166.436 Y-328.034
N20875 X166.691 Y-327.
N20880 X166.694 Y-326.989
N20885 X166.987 Y-325.965
N20890 X166.99 Y-325.954
N20895 X167.32 Y-324.941
N20900 X167.324 Y-324.93
N20905 X167.691 Y-323.93
N20910 X167.695 Y-323.919
N20915 X168.099 Y-322.933
N20920 X168.104 Y-322.922
N20925 X168.544 Y-321.952
N20930 X168.549 Y-321.942
N20935 X169.024 Y-320.988
N20940 X169.03 Y-320.977
N20945 X169.54 Y-320.042
N20950 X169.545 Y-320.032
