%
(CHAIR_ARM)
(T3 D=0.639 CR=0. - ZMIN=-22.263 - FLAT END MILL)
N10 G90 G94 G17 G91.1
N15 G21
(WHEN USING FUSION 360 FOR PERSONAL USE, THE FEEDRATE OF)
(RAPID MOVES IS REDUCED TO MATCH THE FEEDRATE OF CUTTING)
(MOVES, WHICH CAN INCREASE MACHINING TIME. UNRESTRICTED RAPID)
(MOVES ARE AVAILABLE WITH A FUSION 360 SUBSCRIPTION.)
N20 G53 G0 Z0.
(2D CONTOUR1)
N25 T3 M6
N30 S10000 M3
N35 G17 G90 G94
N40 G54
N45 G64 P0.01 Q0.01
N50 G0 X427.796 Y32.27
N55 G43 Z15. H3
N60 G1 Z7.35 F2200.
N65 Z-6.286 F733.33
N70 X427.795 Y32.275 Z-6.311 F2200.
N75 X427.792 Y32.288 Z-6.331
N80 X427.788 Y32.309 Z-6.345
N85 X427.784 Y32.333 Z-6.35
N90 X427.772 Y32.395
N95 X427.763 Y32.419
N100 X427.745 Y32.436
N105 X427.722 Y32.446
N110 X427.698
N115 X282.152 Y5.157
N120 G2 X225.922 Y-0.069 I-56.23 J299.893
N125 G1 X25.65
N130 G2 X-0.069 Y25.65 I0. J25.719
N135 G1 Y63.75
N140 G2 X25.65 Y89.469 I25.719 J0.
N145 G1 X363.02
N150 X363.029
N155 X363.759 Y89.45
N160 X363.776 Y89.449
N165 X364.503 Y89.39
N170 X364.52 Y89.388
N175 X365.243 Y89.291
N180 X365.26 Y89.288
N185 X365.976 Y89.152
N190 X365.993 Y89.148
N195 X366.7 Y88.974
N200 X366.716 Y88.969
N205 X367.411 Y88.757
N210 X367.427 Y88.752
N215 X368.109 Y88.503
N220 X368.126 Y88.497
N225 X368.792 Y88.212
N230 X368.807 Y88.205
N235 X369.455 Y87.885
N240 X369.471 Y87.877
N245 X370.1 Y87.524
N250 X370.115 Y87.514
N255 X370.721 Y87.128
N260 X370.735 Y87.119
N265 X371.319 Y86.701
N270 X371.333 Y86.69
N275 X371.891 Y86.243
N280 X371.904 Y86.231
N285 X372.435 Y85.755
N290 X372.448 Y85.743
N295 X372.95 Y85.239
N300 X372.962 Y85.227
N305 X373.435 Y84.698
N310 X373.447 Y84.684
N315 X373.889 Y84.132
N320 X373.899 Y84.117
N325 X374.308 Y83.543
N330 X374.318 Y83.528
N335 X374.693 Y82.933
N340 X374.702 Y82.917
N345 X375.043 Y82.304
N350 X375.051 Y82.288
N355 X375.357 Y81.658
N360 X375.365 Y81.641
N365 X375.634 Y80.996
N370 X375.64 Y80.98
N375 X375.872 Y80.322
N380 X375.878 Y80.305
N385 X376.072 Y79.636
N390 X376.076 Y79.618
N395 X376.232 Y78.941
N400 X376.236 Y78.923
N405 X376.353 Y78.238
N410 X376.355 Y78.221
N415 X376.434 Y77.531
N420 X376.436 Y77.513
N425 X376.475 Y76.82
N430 Y76.807
N435 X376.48 Y76.455
N440 Y76.45
N445 Y57.72
N450 X453.781
N455 G2 X454.1 Y57.4 I0. J-0.319
N460 G1 Y49.883
N465 X454.096 Y49.832
N470 X454.084 Y49.782
N475 X454.064 Y49.734
N480 G2 X431.61 Y33.18 I-28.363 J14.966
N485 G1 X427.698 Y32.446
N490 X427.674 Y32.437
N495 X427.657 Y32.42
N500 X427.647 Y32.397
N505 X427.646 Y32.372
N510 X427.658 Y32.309
N515 X427.663 Y32.285 Z-6.345
N520 X427.667 Y32.265 Z-6.331
N525 X427.669 Y32.251 Z-6.311
N530 X427.67 Y32.246 Z-6.286
N535 Z7.35
N540 X427.796 Y32.27
N545 Z5.
N550 Z1. F733.33
N555 Z-12.636
N560 X427.795 Y32.275 Z-12.661 F2200.
N565 X427.792 Y32.288 Z-12.681
N570 X427.788 Y32.309 Z-12.695
N575 X427.784 Y32.333 Z-12.7
N580 X427.772 Y32.395
N585 X427.763 Y32.419
N590 X427.745 Y32.436
N595 X427.722 Y32.446
N600 X427.698
N605 X282.152 Y5.157
N610 G2 X225.922 Y-0.069 I-56.23 J299.893
N615 G1 X25.65
N620 G2 X-0.069 Y25.65 I0. J25.719
N625 G1 Y63.75
N630 G2 X25.65 Y89.469 I25.719 J0.
N635 G1 X363.02
N640 X363.029
N645 X363.759 Y89.45
N650 X363.776 Y89.449
N655 X364.503 Y89.39
N660 X364.52 Y89.388
N665 X365.243 Y89.291
N670 X365.26 Y89.288
N675 X365.976 Y89.152
N680 X365.993 Y89.148
N685 X366.7 Y88.974
N690 X366.716 Y88.969
N695 X367.411 Y88.757
N700 X367.427 Y88.752
N705 X368.109 Y88.503
N710 X368.126 Y88.497
N715 X368.792 Y88.212
N720 X368.807 Y88.205
N725 X369.455 Y87.885
N730 X369.471 Y87.877
N735 X370.1 Y87.524
N740 X370.115 Y87.514
N745 X370.721 Y87.128
N750 X370.735 Y87.119
N755 X371.319 Y86.701
N760 X371.333 Y86.69
N765 X371.891 Y86.243
N770 X371.904 Y86.231
N775 X372.435 Y85.755
N780 X372.448 Y85.743
N785 X372.95 Y85.239
N790 X372.962 Y85.227
N795 X373.435 Y84.698
N800 X373.447 Y84.684
N805 X373.889 Y84.132
N810 X373.899 Y84.117
N815 X374.308 Y83.543
N820 X374.318 Y83.528
N825 X374.693 Y82.933
N830 X374.702 Y82.917
N835 X375.043 Y82.304
N840 X375.051 Y82.288
N845 X375.357 Y81.658
N850 X375.365 Y81.641
N855 X375.634 Y80.996
N860 X375.64 Y80.98
N865 X375.872 Y80.322
N870 X375.878 Y80.305
N875 X376.072 Y79.636
N880 X376.076 Y79.618
N885 X376.232 Y78.941
N890 X376.236 Y78.923
N895 X376.353 Y78.238
N900 X376.355 Y78.221
N905 X376.434 Y77.531
N910 X376.436 Y77.513
N915 X376.475 Y76.82
N920 Y76.807
N925 X376.48 Y76.455
N930 Y76.45
N935 Y57.72
N940 X453.781
N945 G2 X454.1 Y57.4 I0. J-0.319
N950 G1 Y49.883
N955 X454.096 Y49.832
N960 X454.084 Y49.782
N965 X454.064 Y49.734
N970 G2 X431.61 Y33.18 I-28.363 J14.966
N975 G1 X427.698 Y32.446
N980 X427.674 Y32.437
N985 X427.657 Y32.42
N990 X427.647 Y32.397
N995 X427.646 Y32.372
N1000 X427.658 Y32.309
N1005 X427.663 Y32.285 Z-12.695
N1010 X427.667 Y32.265 Z-12.681
N1015 X427.669 Y32.251 Z-12.661
N1020 X427.67 Y32.246 Z-12.636
N1025 Z7.35
N1030 X427.796 Y32.27
N1035 Z5.
N1040 Z-5.35 F733.33
N1045 Z-18.986
N1050 X427.795 Y32.275 Z-19.011 F2200.
N1055 X427.792 Y32.288 Z-19.031
N1060 X427.788 Y32.309 Z-19.045
N1065 X427.784 Y32.333 Z-19.05
N1070 X427.772 Y32.395
N1075 X427.763 Y32.419
N1080 X427.745 Y32.436
N1085 X427.722 Y32.446
N1090 X427.698
N1095 X396.344 Y26.568
N1100 Z-17.183
N1105 X383.234 Y24.109
N1110 Z-19.05 F733.33
N1115 X319.442 Y12.148 F2200.
N1120 Z-17.183
N1125 X306.332 Y9.69
N1130 Z-19.05 F733.33
N1135 X282.152 Y5.157 F2200.
N1140 G2 X242.116 Y0.361 I-56.23 J299.893
N1145 G1 Z-17.183
N1150 G2 X228.783 Y-0.056 I-16.194 J304.689
N1155 G1 Z-19.05 F733.33
N1160 G2 X225.922 Y-0.069 I-2.862 J305.106 F2200.
N1165 G1 X163.87
N1170 Z-17.183
N1175 X150.531
N1180 Z-19.05 F733.33
N1185 X85.628 F2200.
N1190 Z-17.183
N1195 X72.289
N1200 Z-19.05 F733.33
N1205 X25.65 F2200.
N1210 G2 X7.96 Y6.98 I0. J25.719
N1215 G1 Z-17.183
N1220 G2 X1.63 Y16.455 I17.69 J18.67
N1225 G1 Z-19.05 F733.33
N1230 G2 X-0.069 Y25.65 I24.02 J9.195 F2200.
N1235 G1 Y63.75
N1240 G2 X7.15 Y81.617 I25.719 J0.
N1245 G1 Z-17.183
N1250 G2 X16.684 Y87.856 I18.5 J-17.867
N1255 G1 Z-19.05 F733.33
N1260 G2 X25.65 Y89.469 I8.966 J-24.106 F2200.
N1265 G1 X82.502
N1270 Z-17.183
N1275 X95.841
N1280 Z-19.05 F733.33
N1285 X160.745 F2200.
N1290 Z-17.183
N1295 X174.083
N1300 Z-19.05 F733.33
N1305 X238.986 F2200.
N1310 Z-17.183
N1315 X252.326
N1320 Z-19.05 F733.33
N1325 X317.229 F2200.
N1330 Z-17.183
N1335 X330.569
N1340 Z-19.05 F733.33
N1345 X363.02 F2200.
N1350 X363.029
N1355 X363.759 Y89.45
N1360 X363.776 Y89.449
N1365 X364.503 Y89.39
N1370 X364.52 Y89.388
N1375 X365.243 Y89.291
N1380 X365.26 Y89.288
N1385 X365.976 Y89.152
N1390 X365.993 Y89.148
N1395 X366.7 Y88.974
N1400 X366.716 Y88.969
N1405 X367.411 Y88.757
N1410 X367.427 Y88.752
N1415 X368.109 Y88.503
N1420 X368.126 Y88.497
N1425 X368.792 Y88.212
N1430 X368.807 Y88.205
N1435 X369.455 Y87.885
N1440 X369.471 Y87.877
N1445 X370.1 Y87.524
N1450 X370.115 Y87.514
N1455 X370.721 Y87.128
N1460 X370.735 Y87.119
N1465 X371.319 Y86.701
N1470 X371.333 Y86.69
N1475 X371.891 Y86.243
N1480 X371.904 Y86.231
N1485 X372.435 Y85.755
N1490 X372.448 Y85.743
N1495 X372.95 Y85.239
N1500 X372.962 Y85.227
N1505 X373.435 Y84.698
N1510 X373.447 Y84.684
N1515 X373.889 Y84.132
N1520 X373.899 Y84.117
N1525 X374.308 Y83.543
N1530 X374.318 Y83.528
N1535 X374.693 Y82.933
N1540 X374.702 Y82.917
N1545 X375.043 Y82.304
N1550 X375.051 Y82.288
N1555 X375.357 Y81.658
N1560 X375.365 Y81.641
N1565 X375.634 Y80.996
N1570 X375.64 Y80.98
N1575 X375.872 Y80.322
N1580 X375.878 Y80.305
N1585 X376.072 Y79.636
N1590 X376.076 Y79.618
N1595 X376.232 Y78.941
N1600 X376.236 Y78.923
N1605 X376.353 Y78.238
N1610 X376.355 Y78.221
N1615 X376.434 Y77.531
N1620 X376.436 Y77.513
N1625 X376.475 Y76.82
N1630 Y76.807
N1635 X376.48 Y76.455
N1640 Y76.45
N1645 Y64.296
N1650 Z-17.183
N1655 Y57.72
N1660 X376.864
N1665 Z-19.05 F733.33
N1670 X453.461 F2200.
N1675 Z-17.183
N1680 X453.781
N1685 G2 X454.1 Y57.4 I0. J-0.319
N1690 G1 Y50.333
N1695 Z-19.05 F733.33
N1700 Y49.883 F2200.
N1705 X454.096 Y49.832
N1710 X454.084 Y49.782
N1715 X454.064 Y49.734
N1720 G2 X431.61 Y33.18 I-28.363 J14.966
N1725 G1 X427.698 Y32.446
N1730 X427.674 Y32.437
N1735 X427.657 Y32.42
N1740 X427.647 Y32.397
N1745 X427.646 Y32.372
N1750 X427.658 Y32.309
N1755 X427.663 Y32.285 Z-19.045
N1760 X427.667 Y32.265 Z-19.031
N1765 X427.669 Y32.251 Z-19.011
N1770 X427.67 Y32.246 Z-18.986
N1775 Z7.35
N1780 X427.796 Y32.27
N1785 Z5.
N1790 Z-11.7 F733.33
N1795 Z-22.199
N1800 X427.795 Y32.275 Z-22.223 F2200.
N1805 X427.792 Y32.288 Z-22.244
N1810 X427.788 Y32.309 Z-22.258
N1815 X427.784 Y32.333 Z-22.263
N1820 X427.772 Y32.395
N1825 X427.763 Y32.419
N1830 X427.745 Y32.436
N1835 X427.722 Y32.446
N1840 X427.698
N1845 X396.344 Y26.568
N1850 Z-17.183
N1855 X383.234 Y24.109
N1860 Z-22.263 F733.33
N1865 X319.442 Y12.148 F2200.
N1870 Z-17.183
N1875 X306.332 Y9.69
N1880 Z-22.263 F733.33
N1885 X282.152 Y5.157 F2200.
N1890 G2 X242.116 Y0.361 I-56.23 J299.893
N1895 G1 Z-17.183
N1900 G2 X228.783 Y-0.056 I-16.194 J304.689
N1905 G1 Z-22.263 F733.33
N1910 G2 X225.922 Y-0.069 I-2.862 J305.106 F2200.
N1915 G1 X163.87
N1920 Z-17.183
N1925 X150.531
N1930 Z-22.263 F733.33
N1935 X85.628 F2200.
N1940 Z-17.183
N1945 X72.289
N1950 Z-22.263 F733.33
N1955 X25.65 F2200.
N1960 G2 X7.96 Y6.98 I0. J25.719
N1965 G1 Z-17.183
N1970 G2 X1.63 Y16.455 I17.69 J18.67
N1975 G1 Z-22.263 F733.33
N1980 G2 X-0.069 Y25.65 I24.02 J9.195 F2200.
N1985 G1 Y63.75
N1990 G2 X7.15 Y81.617 I25.719 J0.
N1995 G1 Z-17.183
N2000 G2 X16.684 Y87.856 I18.5 J-17.867
N2005 G1 Z-22.263 F733.33
N2010 G2 X25.65 Y89.469 I8.966 J-24.106 F2200.
N2015 G1 X82.502
N2020 Z-17.183
N2025 X95.841
N2030 Z-22.263 F733.33
N2035 X160.745 F2200.
N2040 Z-17.183
N2045 X174.083
N2050 Z-22.263 F733.33
N2055 X238.986 F2200.
N2060 Z-17.183
N2065 X252.326
N2070 Z-22.263 F733.33
N2075 X317.229 F2200.
N2080 Z-17.183
N2085 X330.569
N2090 Z-22.263 F733.33
N2095 X363.02 F2200.
N2100 X363.029
N2105 X363.759 Y89.45
N2110 X363.776 Y89.449
N2115 X364.503 Y89.39
N2120 X364.52 Y89.388
N2125 X365.243 Y89.291
N2130 X365.26 Y89.288
N2135 X365.976 Y89.152
N2140 X365.993 Y89.148
N2145 X366.7 Y88.974
N2150 X366.716 Y88.969
N2155 X367.411 Y88.757
N2160 X367.427 Y88.752
N2165 X368.109 Y88.503
N2170 X368.126 Y88.497
N2175 X368.792 Y88.212
N2180 X368.807 Y88.205
N2185 X369.455 Y87.885
N2190 X369.471 Y87.877
N2195 X370.1 Y87.524
N2200 X370.115 Y87.514
N2205 X370.721 Y87.128
N2210 X370.735 Y87.119
N2215 X371.319 Y86.701
N2220 X371.333 Y86.69
N2225 X371.891 Y86.243
N2230 X371.904 Y86.231
N2235 X372.435 Y85.755
N2240 X372.448 Y85.743
N2245 X372.95 Y85.239
N2250 X372.962 Y85.227
N2255 X373.435 Y84.698
N2260 X373.447 Y84.684
N2265 X373.889 Y84.132
N2270 X373.899 Y84.117
N2275 X374.308 Y83.543
N2280 X374.318 Y83.528
N2285 X374.693 Y82.933
N2290 X374.702 Y82.917
N2295 X375.043 Y82.304
N2300 X375.051 Y82.288
N2305 X375.357 Y81.658
N2310 X375.365 Y81.641
N2315 X375.634 Y80.996
N2320 X375.64 Y80.98
N2325 X375.872 Y80.322
N2330 X375.878 Y80.305
N2335 X376.072 Y79.636
N2340 X376.076 Y79.618
N2345 X376.232 Y78.941
N2350 X376.236 Y78.923
N2355 X376.353 Y78.238
N2360 X376.355 Y78.221
N2365 X376.434 Y77.531
N2370 X376.436 Y77.513
N2375 X376.475 Y76.82
N2380 Y76.807
N2385 X376.48 Y76.455
N2390 Y76.45
N2395 Y64.296
N2400 Z-17.183
N2405 Y57.72
N2410 X376.864
N2415 Z-22.263 F733.33
N2420 X453.461 F2200.
N2425 Z-17.183
N2430 X453.781
N2435 G2 X454.1 Y57.4 I0. J-0.319
N2440 G1 Y50.333
N2445 Z-22.263 F733.33
N2450 Y49.883 F2200.
N2455 X454.096 Y49.832
N2460 X454.084 Y49.782
N2465 X454.064 Y49.734
N2470 G2 X431.61 Y33.18 I-28.363 J14.966
N2475 G1 X427.698 Y32.446
N2480 X427.674 Y32.437
N2485 X427.657 Y32.42
N2490 X427.647 Y32.397
N2495 X427.646 Y32.372
N2500 X427.658 Y32.309
N2505 X427.663 Y32.285 Z-22.258
N2510 X427.667 Y32.265 Z-22.244
N2515 X427.669 Y32.251 Z-22.223
N2520 X427.67 Y32.246 Z-22.199
N2525 Z15.
N2530 M5
N2535 G53 G0 Z0.
N2540 M30
%
