%
(CHAIR_ARM_BACK_FLEG)
(T3 D=0.639 CR=0. - ZMIN=-22.272 - FLAT END MILL)
N10 G90 G94 G17 G91.1
N15 G21
(WHEN USING FUSION 360 FOR PERSONAL USE, THE FEEDRATE OF)
(RAPID MOVES IS REDUCED TO MATCH THE FEEDRATE OF CUTTING)
(MOVES, WHICH CAN INCREASE MACHINING TIME. UNRESTRICTED RAPID)
(MOVES ARE AVAILABLE WITH A FUSION 360 SUBSCRIPTION.)
N20 G53 G0 Z0.
(2D CONTOUR1)
N25 T3 M6
N30 S10000 M3
N35 G17 G90 G94
N40 G54
N45 G64 P0.01 Q0.01
N50 G0 X919.057 Y-308.7
N55 G43 Z15. H3
N60 G1 Z7.35 F2200.
N65 Z-6.286 F733.33
N70 X919.052 Y-308.701 Z-6.311 F2200.
N75 X919.038 Y-308.702 Z-6.331
N80 X919.017 Y-308.705 Z-6.345
N85 X918.993 Y-308.708 Z-6.35
N90 X918.93 Y-308.717
N95 X918.906 Y-308.725
N100 X918.887 Y-308.741
N105 X918.876 Y-308.763
N110 X918.875 Y-308.788
N115 X918.94 Y-309.282
N120 X918.942 Y-309.307
N125 X918.968 Y-309.805
N130 Y-309.83
N135 X918.955 Y-310.329
N140 X918.954 Y-310.355
N145 X918.901 Y-310.851
N150 X918.897 Y-310.875
N155 X918.807 Y-311.365
N160 X918.801 Y-311.39
N165 X918.671 Y-311.872
N170 X918.664 Y-311.895
N175 X918.498 Y-312.365
N180 X918.489 Y-312.389
N185 X918.286 Y-312.845
N190 X918.274 Y-312.868
N195 X918.035 Y-313.306
N200 X918.023 Y-313.327
N205 X917.752 Y-313.745
N210 X917.737 Y-313.766
N215 X917.433 Y-314.162
N220 X917.417 Y-314.181
N225 X917.083 Y-314.551
N230 X917.066 Y-314.569
N235 X916.704 Y-314.913
N240 X916.685 Y-314.93
N245 X916.297 Y-315.243
N250 X916.277 Y-315.257
N255 X915.866 Y-315.54
N260 X915.844 Y-315.554
N265 X915.411 Y-315.803
N270 X915.389 Y-315.815
N275 X914.939 Y-316.029
N280 X914.917 Y-316.038
N285 X914.451 Y-316.217
N290 X914.426 Y-316.225
N295 X913.948 Y-316.366
N300 X913.931 Y-316.371
N305 X913.786 Y-316.405
N310 X913.784
N315 X888.662 Y-322.143
N320 X888.658 Y-322.144
N325 X887.278 Y-322.439
N330 X887.269 Y-322.441
N335 X885.881 Y-322.698
N340 X885.872 Y-322.7
N345 X884.478 Y-322.918
N350 X884.47 Y-322.919
N355 X883.07 Y-323.098
N360 X883.061 Y-323.099
N365 X881.656 Y-323.24
N370 X881.647 Y-323.241
N375 X880.24 Y-323.342
N380 X880.231
N385 X878.821 Y-323.404
N390 X878.812
N395 X877.401 Y-323.427
N400 X877.392
N405 X875.98 Y-323.41
N410 X875.972
N415 X874.562 Y-323.355
N420 X874.552
N425 X873.144 Y-323.26
N430 X873.136 Y-323.259
N435 X871.731 Y-323.125
N440 X871.722 Y-323.124
N445 X870.321 Y-322.952
N450 X870.312 Y-322.951
N455 X868.917 Y-322.739
N460 X868.908 Y-322.737
N465 X867.519 Y-322.487
N470 X867.511 Y-322.486
N475 X866.13 Y-322.197
N480 X866.121 Y-322.195
N485 X864.748 Y-321.868
N490 X864.739 Y-321.866
N495 X863.375 Y-321.501
N500 X863.367 Y-321.498
N505 X862.015 Y-321.096
N510 X862.006 Y-321.094
N515 X860.665 Y-320.654
N520 X860.657 Y-320.651
N525 X859.329 Y-320.174
N530 X859.323 Y-320.171
N535 X858.902 Y-320.01
N540 X668.123 Y-246.527
N545 X664.893 Y-245.304
N550 X661.65 Y-244.119
N555 X658.393 Y-242.969
N560 X655.124 Y-241.857
N565 X651.842 Y-240.781
N570 X648.549 Y-239.743
N575 X645.243 Y-238.742
N580 X641.927 Y-237.779
N585 X638.599 Y-236.854
N590 X635.262 Y-235.967
N595 X631.915 Y-235.117
N600 X628.558 Y-234.306
N605 X625.192 Y-233.532
N610 X621.818 Y-232.797
N615 X618.436 Y-232.099
N620 X615.046 Y-231.441
N625 X611.648 Y-230.821
N630 X608.244 Y-230.239
N635 X604.834 Y-229.697
N640 X601.417 Y-229.192
N645 X597.996 Y-228.727
N650 X594.568 Y-228.3
N655 X591.137 Y-227.913
N660 X587.701 Y-227.564
N665 X584.261 Y-227.254
N670 X580.819 Y-226.984
N675 X577.372 Y-226.752
N680 X577.169 Y-226.739
N685 X161.906 Y-201.458
N690 X161.9
N695 X160.838 Y-201.374
N700 X160.826 Y-201.372
N705 X159.767 Y-201.248
N710 X159.755 Y-201.247
N715 X158.702 Y-201.085
N720 X158.691 Y-201.083
N725 X157.645 Y-200.882
N730 X157.633 Y-200.879
N735 X156.594 Y-200.64
N740 X156.583 Y-200.637
N745 X155.555 Y-200.361
N750 X155.544 Y-200.357
N755 X154.526 Y-200.042
N760 X154.514 Y-200.039
N765 X153.508 Y-199.687
N770 X153.497 Y-199.682
N775 X152.505 Y-199.293
N780 X152.495 Y-199.289
N785 X151.518 Y-198.864
N790 X151.507 Y-198.859
N795 X150.546 Y-198.399
N800 X150.535 Y-198.394
N805 X149.592 Y-197.898
N810 X149.582 Y-197.892
N815 X148.658 Y-197.362
N820 X148.648 Y-197.356
N825 X147.744 Y-196.792
N830 X147.734 Y-196.786
N835 X146.851 Y-196.19
N840 X146.841 Y-196.183
N845 X145.981 Y-195.554
N850 X145.972 Y-195.547
N855 X145.136 Y-194.887
N860 X145.127 Y-194.879
N865 X144.315 Y-194.189
N870 X144.306 Y-194.182
N875 X143.52 Y-193.462
N880 X143.512 Y-193.453
N885 X142.754 Y-192.705
N890 X142.746 Y-192.697
N895 X142.015 Y-191.922
N900 X142.007 Y-191.913
N905 X141.305 Y-191.111
N910 X141.297 Y-191.102
N915 X140.626 Y-190.275
N920 X140.619 Y-190.266
N925 X139.978 Y-189.415
N930 X139.971 Y-189.406
N935 X139.362 Y-188.532
N940 X139.355 Y-188.522
N945 X138.779 Y-187.626
N950 X138.773 Y-187.616
N955 X138.23 Y-186.7
N960 X138.224 Y-186.69
N965 X137.715 Y-185.754
N970 X137.71 Y-185.743
N975 X137.236 Y-184.789
N980 X137.231 Y-184.779
N985 X136.792 Y-183.808
N990 X136.787 Y-183.797
N995 X136.384 Y-182.811
N1000 X136.38 Y-182.8
N1005 X136.014 Y-181.8
N1010 X136.01 Y-181.789
N1015 X135.681 Y-180.776
N1020 X135.678 Y-180.765
N1025 X135.386 Y-179.74
N1030 X135.383 Y-179.728
N1035 X135.13 Y-178.694
N1040 X135.127 Y-178.683
N1045 X134.911 Y-177.639
N1050 X134.909 Y-177.627
N1055 X134.732 Y-176.577
N1060 X134.73 Y-176.565
N1065 X134.592 Y-175.509
N1070 X134.591 Y-175.498
N1075 X134.492 Y-174.437
N1080 X134.491 Y-174.425
N1085 X134.431 Y-173.362
N1090 Y-173.35
N1095 X134.41 Y-172.285
N1100 Y-172.279
N1105 Y-171.295
N1110 Y-171.289
N1115 X134.429 Y-170.224
N1120 Y-170.212
N1125 X134.488 Y-169.148
N1130 X134.489 Y-169.137
N1135 X134.587 Y-168.076
N1140 X134.588 Y-168.064
N1145 X134.725 Y-167.008
N1150 X134.727 Y-166.997
N1155 X134.902 Y-165.946
N1160 X134.904 Y-165.934
N1165 X135.119 Y-164.891
N1170 X135.122 Y-164.879
N1175 X135.374 Y-163.844
N1180 X135.377 Y-163.833
N1185 X135.667 Y-162.808
N1190 X135.67 Y-162.797
N1195 X135.998 Y-161.783
N1200 X136.002 Y-161.771
N1205 X136.367 Y-160.771
N1210 X136.371 Y-160.761
N1215 X136.772 Y-159.774
N1220 X136.777 Y-159.763
N1225 X137.215 Y-158.792
N1230 X137.22 Y-158.781
N1235 X137.693 Y-157.826
N1240 X137.698 Y-157.816
N1245 X138.206 Y-156.88
N1250 X138.212 Y-156.87
N1255 X138.753 Y-155.952
N1260 X138.759 Y-155.941
N1265 X139.335 Y-155.045
N1270 X139.342 Y-155.036
N1275 X139.95 Y-154.161
N1280 X139.956 Y-154.151
N1285 X140.595 Y-153.299
N1290 X140.603 Y-153.29
N1295 X141.274 Y-152.462
N1300 X141.281 Y-152.453
N1305 X141.981 Y-151.651
N1310 X141.989 Y-151.642
N1315 X142.719 Y-150.865
N1320 X142.727 Y-150.857
N1325 X143.485 Y-150.108
N1330 X143.494 Y-150.1
N1335 X144.278 Y-149.38
N1340 X144.287 Y-149.372
N1345 X145.098 Y-148.681
N1350 X145.107 Y-148.673
N1355 X145.943 Y-148.012
N1360 X145.952 Y-148.005
N1365 X146.811 Y-147.375
N1370 X146.821 Y-147.369
N1375 X147.703 Y-146.771
N1380 X147.713 Y-146.764
N1385 X148.616 Y-146.2
N1390 X148.626 Y-146.194
N1395 X149.55 Y-145.662
N1400 X149.56 Y-145.656
N1405 X150.502 Y-145.159
N1410 X150.513 Y-145.154
N1415 X151.474 Y-144.692
N1420 X151.484 Y-144.687
N1425 X152.46 Y-144.261
N1430 X152.471 Y-144.257
N1435 X153.463 Y-143.867
N1440 X153.474 Y-143.863
N1445 X154.479 Y-143.51
N1450 X154.49 Y-143.506
N1455 X155.507 Y-143.19
N1460 X155.518 Y-143.187
N1465 X156.547 Y-142.908
N1470 X156.559 Y-142.905
N1475 X157.597 Y-142.665
N1480 X157.608 Y-142.662
N1485 X158.654 Y-142.46
N1490 X158.666 Y-142.458
N1495 X159.719 Y-142.294
N1500 X159.731 Y-142.293
N1505 X160.789 Y-142.168
N1510 X160.801 Y-142.167
N1515 X161.863 Y-142.082
N1520 X161.874 Y-142.081
N1525 X162.938 Y-142.034
N1530 X162.948
N1535 X163.681 Y-142.025
N1540 X163.685
N1545 X642.729
N1550 X642.786 Y-142.03
N1555 X642.841 Y-142.045
N1560 X642.892 Y-142.069
N1565 X915.706 Y-304.172
N1570 X915.717 Y-304.179
N1575 X916.136 Y-304.451
N1580 X916.156 Y-304.465
N1585 X916.552 Y-304.768
N1590 X916.572 Y-304.785
N1595 X916.943 Y-305.119
N1600 X916.961 Y-305.136
N1605 X917.304 Y-305.498
N1610 X917.32 Y-305.517
N1615 X917.634 Y-305.904
N1620 X917.649 Y-305.924
N1625 X917.932 Y-306.335
N1630 X917.946 Y-306.356
N1635 X918.196 Y-306.788
N1640 X918.208 Y-306.811
N1645 X918.422 Y-307.261
N1650 X918.431 Y-307.283
N1655 X918.61 Y-307.749
N1660 X918.618 Y-307.773
N1665 X918.76 Y-308.251
N1670 X918.766 Y-308.275
N1675 X918.87 Y-308.763
N1680 X918.875 Y-308.788
N1685 X918.883 Y-308.812
N1690 X918.899 Y-308.831
N1695 X918.922 Y-308.842
N1700 X918.946 Y-308.843
N1705 X919.01 Y-308.835
N1710 X919.034 Y-308.832 Z-6.345
N1715 X919.055 Y-308.829 Z-6.331
N1720 X919.068 Y-308.827 Z-6.311
N1725 X919.073 Z-6.286
N1730 Z7.35
N1735 X919.057 Y-308.7
N1740 Z5.
N1745 Z1. F733.33
N1750 Z-10.082
N1755 X919.052 Y-308.701 Z-10.106 F2200.
N1760 X919.038 Y-308.702 Z-10.127
N1765 X919.017 Y-308.705 Z-10.141
N1770 X918.993 Y-308.708 Z-10.145
N1775 X918.93 Y-308.717
N1780 X918.906 Y-308.725
N1785 X918.887 Y-308.741
N1790 X918.876 Y-308.763
N1795 X918.875 Y-308.788
N1800 X918.94 Y-309.282
N1805 X918.942 Y-309.307
N1810 X918.968 Y-309.805
N1815 Y-309.83
N1820 X918.955 Y-310.329
N1825 X918.954 Y-310.355
N1830 X918.901 Y-310.851
N1835 X918.897 Y-310.875
N1840 X918.807 Y-311.365
N1845 X918.801 Y-311.39
N1850 X918.671 Y-311.872
N1855 X918.664 Y-311.895
N1860 X918.498 Y-312.365
N1865 X918.489 Y-312.389
N1870 X918.286 Y-312.845
N1875 X918.274 Y-312.868
N1880 X918.035 Y-313.306
N1885 X918.023 Y-313.327
N1890 X917.752 Y-313.745
N1895 X917.737 Y-313.766
N1900 X917.433 Y-314.162
N1905 X917.417 Y-314.181
N1910 X917.083 Y-314.551
N1915 X917.066 Y-314.569
N1920 X916.704 Y-314.913
N1925 X916.685 Y-314.93
N1930 X916.297 Y-315.243
N1935 X916.277 Y-315.257
N1940 X915.866 Y-315.54
N1945 X915.844 Y-315.554
N1950 X915.411 Y-315.803
N1955 X915.389 Y-315.815
N1960 X914.939 Y-316.029
N1965 X914.917 Y-316.038
N1970 X914.451 Y-316.217
N1975 X914.426 Y-316.225
N1980 X913.948 Y-316.366
N1985 X913.931 Y-316.371
N1990 X913.786 Y-316.405
N1995 X913.784
N2000 X888.662 Y-322.143
N2005 X888.658 Y-322.144
N2010 X887.278 Y-322.439
N2015 X887.269 Y-322.441
N2020 X885.881 Y-322.698
N2025 X885.872 Y-322.7
N2030 X884.478 Y-322.918
N2035 X884.47 Y-322.919
N2040 X883.07 Y-323.098
N2045 X883.061 Y-323.099
N2050 X881.656 Y-323.24
N2055 X881.647 Y-323.241
N2060 X880.24 Y-323.342
N2065 X880.231
N2070 X878.821 Y-323.404
N2075 X878.812
N2080 X877.401 Y-323.427
N2085 X877.392
N2090 X875.98 Y-323.41
N2095 X875.972
N2100 X874.562 Y-323.355
N2105 X874.552
N2110 X873.144 Y-323.26
N2115 X873.136 Y-323.259
N2120 X871.731 Y-323.125
N2125 X871.722 Y-323.124
N2130 X870.321 Y-322.952
N2135 X870.312 Y-322.951
N2140 X868.917 Y-322.739
N2145 X868.908 Y-322.737
N2150 X867.519 Y-322.487
N2155 X867.511 Y-322.486
N2160 X866.13 Y-322.197
N2165 X866.121 Y-322.195
N2170 X864.748 Y-321.868
N2175 X864.739 Y-321.866
N2180 X863.375 Y-321.501
N2185 X863.367 Y-321.498
N2190 X862.015 Y-321.096
N2195 X862.006 Y-321.094
N2200 X860.665 Y-320.654
N2205 X860.657 Y-320.651
N2210 X859.329 Y-320.174
N2215 X859.323 Y-320.171
N2220 X858.902 Y-320.01
N2225 X668.123 Y-246.527
N2230 X664.893 Y-245.304
N2235 X661.65 Y-244.119
N2240 X658.393 Y-242.969
N2245 X655.124 Y-241.857
N2250 X651.842 Y-240.781
N2255 X648.549 Y-239.743
N2260 X645.243 Y-238.742
N2265 X641.927 Y-237.779
N2270 X638.599 Y-236.854
N2275 X635.262 Y-235.967
N2280 X631.915 Y-235.117
N2285 X628.558 Y-234.306
N2290 X625.192 Y-233.532
N2295 X621.818 Y-232.797
N2300 X618.436 Y-232.099
N2305 X615.046 Y-231.441
N2310 X611.648 Y-230.821
N2315 X608.244 Y-230.239
N2320 X604.834 Y-229.697
N2325 X601.417 Y-229.192
N2330 X597.996 Y-228.727
N2335 X594.568 Y-228.3
N2340 X591.137 Y-227.913
N2345 X587.701 Y-227.564
N2350 X584.261 Y-227.254
N2355 X580.819 Y-226.984
N2360 X577.372 Y-226.752
N2365 X577.169 Y-226.739
N2370 X161.906 Y-201.458
N2375 X161.9
N2380 X160.838 Y-201.374
N2385 X160.826 Y-201.372
N2390 X159.767 Y-201.248
N2395 X159.755 Y-201.247
N2400 X158.702 Y-201.085
N2405 X158.691 Y-201.083
N2410 X157.645 Y-200.882
N2415 X157.633 Y-200.879
N2420 X156.594 Y-200.64
N2425 X156.583 Y-200.637
N2430 X155.555 Y-200.361
N2435 X155.544 Y-200.357
N2440 X154.526 Y-200.042
N2445 X154.514 Y-200.039
N2450 X153.508 Y-199.687
N2455 X153.497 Y-199.682
N2460 X152.505 Y-199.293
N2465 X152.495 Y-199.289
N2470 X151.518 Y-198.864
N2475 X151.507 Y-198.859
N2480 X150.546 Y-198.399
N2485 X150.535 Y-198.394
N2490 X149.592 Y-197.898
N2495 X149.582 Y-197.892
N2500 X148.658 Y-197.362
N2505 X148.648 Y-197.356
N2510 X147.744 Y-196.792
N2515 X147.734 Y-196.786
N2520 X146.851 Y-196.19
N2525 X146.841 Y-196.183
N2530 X145.981 Y-195.554
N2535 X145.972 Y-195.547
N2540 X145.136 Y-194.887
N2545 X145.127 Y-194.879
N2550 X144.315 Y-194.189
N2555 X144.306 Y-194.182
N2560 X143.52 Y-193.462
N2565 X143.512 Y-193.453
N2570 X142.754 Y-192.705
N2575 X142.746 Y-192.697
N2580 X142.015 Y-191.922
N2585 X142.007 Y-191.913
N2590 X141.305 Y-191.111
N2595 X141.297 Y-191.102
N2600 X140.626 Y-190.275
N2605 X140.619 Y-190.266
N2610 X139.978 Y-189.415
N2615 X139.971 Y-189.406
N2620 X139.362 Y-188.532
N2625 X139.355 Y-188.522
N2630 X138.779 Y-187.626
N2635 X138.773 Y-187.616
N2640 X138.23 Y-186.7
N2645 X138.224 Y-186.69
N2650 X137.715 Y-185.754
N2655 X137.71 Y-185.743
N2660 X137.236 Y-184.789
N2665 X137.231 Y-184.779
N2670 X136.792 Y-183.808
N2675 X136.787 Y-183.797
N2680 X136.384 Y-182.811
N2685 X136.38 Y-182.8
N2690 X136.014 Y-181.8
N2695 X136.01 Y-181.789
N2700 X135.681 Y-180.776
N2705 X135.678 Y-180.765
N2710 X135.386 Y-179.74
N2715 X135.383 Y-179.728
N2720 X135.13 Y-178.694
N2725 X135.127 Y-178.683
N2730 X134.911 Y-177.639
N2735 X134.909 Y-177.627
N2740 X134.732 Y-176.577
N2745 X134.73 Y-176.565
N2750 X134.592 Y-175.509
N2755 X134.591 Y-175.498
N2760 X134.492 Y-174.437
N2765 X134.491 Y-174.425
N2770 X134.431 Y-173.362
N2775 Y-173.35
N2780 X134.41 Y-172.285
N2785 Y-172.279
N2790 Y-171.295
N2795 Y-171.289
N2800 X134.429 Y-170.224
N2805 Y-170.212
N2810 X134.488 Y-169.148
N2815 X134.489 Y-169.137
N2820 X134.587 Y-168.076
N2825 X134.588 Y-168.064
N2830 X134.725 Y-167.008
N2835 X134.727 Y-166.997
N2840 X134.902 Y-165.946
N2845 X134.904 Y-165.934
N2850 X135.119 Y-164.891
N2855 X135.122 Y-164.879
N2860 X135.374 Y-163.844
N2865 X135.377 Y-163.833
N2870 X135.667 Y-162.808
N2875 X135.67 Y-162.797
N2880 X135.998 Y-161.783
N2885 X136.002 Y-161.771
N2890 X136.367 Y-160.771
N2895 X136.371 Y-160.761
N2900 X136.772 Y-159.774
N2905 X136.777 Y-159.763
N2910 X137.215 Y-158.792
N2915 X137.22 Y-158.781
N2920 X137.693 Y-157.826
N2925 X137.698 Y-157.816
N2930 X138.206 Y-156.88
N2935 X138.212 Y-156.87
N2940 X138.753 Y-155.952
N2945 X138.759 Y-155.941
N2950 X139.335 Y-155.045
N2955 X139.342 Y-155.036
N2960 X139.95 Y-154.161
N2965 X139.956 Y-154.151
N2970 X140.595 Y-153.299
N2975 X140.603 Y-153.29
N2980 X141.274 Y-152.462
N2985 X141.281 Y-152.453
N2990 X141.981 Y-151.651
N2995 X141.989 Y-151.642
N3000 X142.719 Y-150.865
N3005 X142.727 Y-150.857
N3010 X143.485 Y-150.108
N3015 X143.494 Y-150.1
N3020 X144.278 Y-149.38
N3025 X144.287 Y-149.372
N3030 X145.098 Y-148.681
N3035 X145.107 Y-148.673
N3040 X145.943 Y-148.012
N3045 X145.952 Y-148.005
N3050 X146.811 Y-147.375
N3055 X146.821 Y-147.369
N3060 X147.703 Y-146.771
N3065 X147.713 Y-146.764
N3070 X148.616 Y-146.2
N3075 X148.626 Y-146.194
N3080 X149.55 Y-145.662
N3085 X149.56 Y-145.656
N3090 X150.502 Y-145.159
N3095 X150.513 Y-145.154
N3100 X151.474 Y-144.692
N3105 X151.484 Y-144.687
N3110 X152.46 Y-144.261
N3115 X152.471 Y-144.257
N3120 X153.463 Y-143.867
N3125 X153.474 Y-143.863
N3130 X154.479 Y-143.51
N3135 X154.49 Y-143.506
N3140 X155.507 Y-143.19
N3145 X155.518 Y-143.187
N3150 X156.547 Y-142.908
N3155 X156.559 Y-142.905
N3160 X157.597 Y-142.665
N3165 X157.608 Y-142.662
N3170 X158.654 Y-142.46
N3175 X158.666 Y-142.458
N3180 X159.719 Y-142.294
N3185 X159.731 Y-142.293
N3190 X160.789 Y-142.168
N3195 X160.801 Y-142.167
N3200 X161.863 Y-142.082
N3205 X161.874 Y-142.081
N3210 X162.938 Y-142.034
N3215 X162.948
N3220 X163.681 Y-142.025
N3225 X163.685
N3230 X642.729
N3235 X642.786 Y-142.03
N3240 X642.841 Y-142.045
N3245 X642.892 Y-142.069
N3250 X915.706 Y-304.172
N3255 X915.717 Y-304.179
N3260 X916.136 Y-304.451
N3265 X916.156 Y-304.465
N3270 X916.552 Y-304.768
N3275 X916.572 Y-304.785
N3280 X916.943 Y-305.119
N3285 X916.961 Y-305.136
N3290 X917.304 Y-305.498
N3295 X917.32 Y-305.517
N3300 X917.634 Y-305.904
N3305 X917.649 Y-305.924
N3310 X917.932 Y-306.335
N3315 X917.946 Y-306.356
N3320 X918.196 Y-306.788
N3325 X918.208 Y-306.811
N3330 X918.422 Y-307.261
N3335 X918.431 Y-307.283
N3340 X918.61 Y-307.749
N3345 X918.618 Y-307.773
N3350 X918.76 Y-308.251
N3355 X918.766 Y-308.275
N3360 X918.87 Y-308.763
N3365 X918.875 Y-308.788
N3370 X918.883 Y-308.812
N3375 X918.899 Y-308.831
N3380 X918.922 Y-308.842
N3385 X918.946 Y-308.843
N3390 X919.01 Y-308.835
N3395 X919.034 Y-308.832 Z-10.141
N3400 X919.055 Y-308.829 Z-10.127
N3405 X919.068 Y-308.827 Z-10.106
N3410 X919.073 Z-10.082
N3415 Z7.35
N3420 X919.057 Y-308.7
N3425 Z5.
N3430 Z-2.795 F733.33
N3435 Z-13.741
N3440 X918.993 Y-308.708 F2200.
N3445 X918.93 Y-308.717
N3450 X918.906 Y-308.725
N3455 X918.887 Y-308.741
N3460 X918.876 Y-308.763
N3465 X918.875 Y-308.788
N3470 X918.94 Y-309.282
N3475 X918.942 Y-309.307
N3480 X918.963 Y-309.705
N3485 Z-13.941 F733.33
N3490 X918.968 Y-309.805 F2200.
N3495 Y-309.83
N3500 X918.955 Y-310.329
N3505 X918.954 Y-310.355
N3510 X918.901 Y-310.851
N3515 X918.897 Y-310.875
N3520 X918.807 Y-311.365
N3525 X918.801 Y-311.39
N3530 X918.671 Y-311.872
N3535 X918.664 Y-311.895
N3540 X918.498 Y-312.365
N3545 X918.489 Y-312.389
N3550 X918.286 Y-312.845
N3555 X918.274 Y-312.868
N3560 X918.035 Y-313.306
N3565 X918.023 Y-313.327
N3570 X917.854 Y-313.588
N3575 Z-13.741
N3580 X917.752 Y-313.745
N3585 X917.737 Y-313.766
N3590 X917.433 Y-314.162
N3595 X917.417 Y-314.181
N3600 X917.083 Y-314.551
N3605 X917.066 Y-314.569
N3610 X917.052 Y-314.582
N3615 Z-13.941 F733.33
N3620 X916.704 Y-314.913 F2200.
N3625 X916.685 Y-314.93
N3630 X916.297 Y-315.243
N3635 X916.277 Y-315.257
N3640 X915.866 Y-315.54
N3645 X915.844 Y-315.554
N3650 X915.411 Y-315.803
N3655 X915.389 Y-315.815
N3660 X914.939 Y-316.029
N3665 X914.917 Y-316.038
N3670 X914.451 Y-316.217
N3675 X914.426 Y-316.225
N3680 X913.948 Y-316.366
N3685 X913.931 Y-316.371
N3690 X913.786 Y-316.405
N3695 X913.784
N3700 X913.523 Y-316.465
N3705 Z-13.741
N3710 X912.277 Y-316.75
N3715 Z-13.941 F733.33
N3720 X908.525 Y-317.607 F2200.
N3725 Z-13.741
N3730 X907.279 Y-317.891
N3735 Z-13.941 F733.33
N3740 X903.526 Y-318.749 F2200.
N3745 Z-13.741
N3750 X902.28 Y-319.033
N3755 Z-13.941 F733.33
N3760 X898.527 Y-319.89 F2200.
N3765 Z-13.741
N3770 X897.281 Y-320.175
N3775 Z-13.941 F733.33
N3780 X893.529 Y-321.032 F2200.
N3785 Z-13.741
N3790 X892.283 Y-321.316
N3795 Z-13.941 F733.33
N3800 X888.662 Y-322.143 F2200.
N3805 X888.658 Y-322.144
N3810 X888.525 Y-322.173
N3815 Z-13.741
N3820 X887.278 Y-322.439
N3825 X887.275 Y-322.44
N3830 Z-13.941 F733.33
N3835 X887.269 Y-322.441 F2200.
N3840 X885.881 Y-322.698
N3845 X885.872 Y-322.7
N3850 X884.478 Y-322.918
N3855 X884.47 Y-322.919
N3860 X883.443 Y-323.05
N3865 Z-13.741
N3870 X883.07 Y-323.098
N3875 X883.061 Y-323.099
N3880 X882.172 Y-323.188
N3885 Z-13.941 F733.33
N3890 X881.656 Y-323.24 F2200.
N3895 X881.647 Y-323.241
N3900 X880.24 Y-323.342
N3905 X880.231
N3910 X878.821 Y-323.404
N3915 X878.812
N3920 X878.298 Y-323.413
N3925 Z-13.741
N3930 X877.401 Y-323.427
N3935 X877.392
N3940 X877.02 Y-323.423
N3945 Z-13.941 F733.33
N3950 X875.98 Y-323.41 F2200.
N3955 X875.972
N3960 X874.562 Y-323.355
N3965 X874.552
N3970 X873.144 Y-323.26
N3975 Z-13.741
N3980 X873.136 Y-323.259
N3985 X871.872 Y-323.138
N3990 Z-13.941 F733.33
N3995 X871.731 Y-323.125 F2200.
N4000 X871.722 Y-323.124
N4005 X870.321 Y-322.952
N4010 X870.312 Y-322.951
N4015 X868.917 Y-322.739
N4020 X868.908 Y-322.737
N4025 X868.032 Y-322.58
N4030 Z-13.741
N4035 X867.519 Y-322.487
N4040 X867.511 Y-322.486
N4045 X866.778 Y-322.332
N4050 Z-13.941 F733.33
N4055 X866.13 Y-322.197 F2200.
N4060 X866.121 Y-322.195
N4065 X864.748 Y-321.868
N4070 X864.739 Y-321.866
N4075 X863.375 Y-321.501
N4080 X863.367 Y-321.498
N4085 X863.013 Y-321.393
N4090 Z-13.741
N4095 X862.015 Y-321.096
N4100 X862.006 Y-321.094
N4105 X861.79 Y-321.022
N4110 Z-13.941 F733.33
N4115 X860.665 Y-320.654 F2200.
N4120 X860.657 Y-320.651
N4125 X859.329 Y-320.174
N4130 X859.323 Y-320.171
N4135 X858.902 Y-320.01
N4140 X858.145 Y-319.719
N4145 Z-13.741
N4150 X856.952 Y-319.259
N4155 Z-13.941 F733.33
N4160 X853.359 Y-317.876 F2200.
N4165 Z-13.741
N4170 X852.167 Y-317.416
N4175 Z-13.941 F733.33
N4180 X848.575 Y-316.033 F2200.
N4185 Z-13.741
N4190 X847.382 Y-315.573
N4195 Z-13.941 F733.33
N4200 X843.791 Y-314.19 F2200.
N4205 Z-13.741
N4210 X842.598 Y-313.731
N4215 Z-13.941 F733.33
N4220 X839.006 Y-312.347 F2200.
N4225 Z-13.741
N4230 X837.813 Y-311.888
N4235 Z-13.941 F733.33
N4240 X834.221 Y-310.504 F2200.
N4245 Z-13.741
N4250 X833.028 Y-310.045
N4255 Z-13.941 F733.33
N4260 X829.436 Y-308.661 F2200.
N4265 Z-13.741
N4270 X828.243 Y-308.202
N4275 Z-13.941 F733.33
N4280 X824.652 Y-306.818 F2200.
N4285 Z-13.741
N4290 X823.459 Y-306.359
N4295 Z-13.941 F733.33
N4300 X819.867 Y-304.975 F2200.
N4305 Z-13.741
N4310 X818.674 Y-304.516
N4315 Z-13.941 F733.33
N4320 X815.082 Y-303.132 F2200.
N4325 Z-13.741
N4330 X813.889 Y-302.673
N4335 Z-13.941 F733.33
N4340 X810.298 Y-301.289 F2200.
N4345 Z-13.741
N4350 X809.105 Y-300.83
N4355 Z-13.941 F733.33
N4360 X805.513 Y-299.446 F2200.
N4365 Z-13.741
N4370 X804.32 Y-298.987
N4375 Z-13.941 F733.33
N4380 X800.728 Y-297.603 F2200.
N4385 Z-13.741
N4390 X799.535 Y-297.144
N4395 Z-13.941 F733.33
N4400 X795.943 Y-295.76 F2200.
N4405 Z-13.741
N4410 X794.75 Y-295.301
N4415 Z-13.941 F733.33
N4420 X791.159 Y-293.918 F2200.
N4425 Z-13.741
N4430 X789.966 Y-293.458
N4435 Z-13.941 F733.33
N4440 X786.374 Y-292.074 F2200.
N4445 Z-13.741
N4450 X785.181 Y-291.615
N4455 Z-13.941 F733.33
N4460 X781.589 Y-290.231 F2200.
N4465 Z-13.741
N4470 X780.396 Y-289.772
N4475 Z-13.941 F733.33
N4480 X776.805 Y-288.389 F2200.
N4485 Z-13.741
N4490 X775.612 Y-287.929
N4495 Z-13.941 F733.33
N4500 X772.02 Y-286.546 F2200.
N4505 Z-13.741
N4510 X770.827 Y-286.086
N4515 Z-13.941 F733.33
N4520 X767.235 Y-284.703 F2200.
N4525 Z-13.741
N4530 X766.042 Y-284.243
N4535 Z-13.941 F733.33
N4540 X762.45 Y-282.86 F2200.
N4545 Z-13.741
N4550 X761.257 Y-282.4
N4555 Z-13.941 F733.33
N4560 X757.665 Y-281.017 F2200.
N4565 Z-13.741
N4570 X756.473 Y-280.557
N4575 Z-13.941 F733.33
N4580 X752.88 Y-279.174 F2200.
N4585 Z-13.741
N4590 X751.688 Y-278.714
N4595 Z-13.941 F733.33
N4600 X748.096 Y-277.331 F2200.
N4605 Z-13.741
N4610 X746.903 Y-276.872
N4615 Z-13.941 F733.33
N4620 X743.312 Y-275.488 F2200.
N4625 Z-13.741
N4630 X742.119 Y-275.029
N4635 Z-13.941 F733.33
N4640 X738.527 Y-273.645 F2200.
N4645 Z-13.741
N4650 X737.334 Y-273.186
N4655 Z-13.941 F733.33
N4660 X733.742 Y-271.802 F2200.
N4665 Z-13.741
N4670 X732.549 Y-271.343
N4675 Z-13.941 F733.33
N4680 X728.957 Y-269.959 F2200.
N4685 Z-13.741
N4690 X727.764 Y-269.5
N4695 Z-13.941 F733.33
N4700 X724.173 Y-268.116 F2200.
N4705 Z-13.741
N4710 X722.98 Y-267.657
N4715 Z-13.941 F733.33
N4720 X719.388 Y-266.273 F2200.
N4725 Z-13.741
N4730 X718.195 Y-265.814
N4735 Z-13.941 F733.33
N4740 X714.603 Y-264.43 F2200.
N4745 Z-13.741
N4750 X713.41 Y-263.971
N4755 Z-13.941 F733.33
N4760 X709.819 Y-262.587 F2200.
N4765 Z-13.741
N4770 X708.626 Y-262.128
N4775 Z-13.941 F733.33
N4780 X705.034 Y-260.744 F2200.
N4785 Z-13.741
N4790 X703.841 Y-260.285
N4795 Z-13.941 F733.33
N4800 X700.249 Y-258.901 F2200.
N4805 Z-13.741
N4810 X699.056 Y-258.442
N4815 Z-13.941 F733.33
N4820 X695.464 Y-257.058 F2200.
N4825 Z-13.741
N4830 X694.271 Y-256.599
N4835 Z-13.941 F733.33
N4840 X690.68 Y-255.216 F2200.
N4845 Z-13.741
N4850 X689.487 Y-254.756
N4855 Z-13.941 F733.33
N4860 X685.895 Y-253.373 F2200.
N4865 Z-13.741
N4870 X684.702 Y-252.913
N4875 Z-13.941 F733.33
N4880 X681.11 Y-251.53 F2200.
N4885 Z-13.741
N4890 X679.917 Y-251.07
N4895 Z-13.941 F733.33
N4900 X676.325 Y-249.687 F2200.
N4905 Z-13.741
N4910 X675.133 Y-249.227
N4915 Z-13.941 F733.33
N4920 X671.54 Y-247.844 F2200.
N4925 Z-13.741
N4930 X670.348 Y-247.384
N4935 Z-13.941 F733.33
N4940 X668.123 Y-246.527 F2200.
N4945 X666.755 Y-246.01
N4950 Z-13.741
N4955 X665.56 Y-245.557
N4960 Z-13.941 F733.33
N4965 X664.893 Y-245.304 F2200.
N4970 X661.952 Y-244.229
N4975 Z-13.741
N4980 X661.65 Y-244.119
N4985 X660.748 Y-243.8
N4990 Z-13.941 F733.33
N4995 X658.393 Y-242.969 F2200.
N5000 X657.119 Y-242.535
N5005 Z-13.741
N5010 X655.909 Y-242.124
N5015 Z-13.941 F733.33
N5020 X655.124 Y-241.857 F2200.
N5025 X652.259 Y-240.918
N5030 Z-13.741
N5035 X651.842 Y-240.781
N5040 X651.042 Y-240.529
N5045 Z-13.941 F733.33
N5050 X648.549 Y-239.743 F2200.
N5055 X647.371 Y-239.387
N5060 Z-13.741
N5065 X646.148 Y-239.016
N5070 Z-13.941 F733.33
N5075 X645.243 Y-238.742 F2200.
N5080 X642.46 Y-237.934
N5085 Z-13.741
N5090 X641.927 Y-237.779
N5095 X641.23 Y-237.586
N5100 Z-13.941 F733.33
N5105 X638.599 Y-236.854 F2200.
N5110 X637.523 Y-236.568
N5115 Z-13.741
N5120 X636.288 Y-236.24
N5125 Z-13.941 F733.33
N5130 X635.262 Y-235.967 F2200.
N5135 X632.565 Y-235.282
N5140 Z-13.741
N5145 X631.915 Y-235.117
N5150 X631.325 Y-234.975
N5155 Z-13.941 F733.33
N5160 X628.558 Y-234.306 F2200.
N5165 X627.586 Y-234.082
N5170 Z-13.741
N5175 X626.341 Y-233.796
N5180 Z-13.941 F733.33
N5185 X625.192 Y-233.532 F2200.
N5190 X622.588 Y-232.964
N5195 Z-13.741
N5200 X621.818 Y-232.797
N5205 X621.338 Y-232.698
N5210 Z-13.941 F733.33
N5215 X618.436 Y-232.099 F2200.
N5220 X617.571 Y-231.931
N5225 Z-13.741
N5230 X616.317 Y-231.688
N5235 Z-13.941 F733.33
N5240 X615.046 Y-231.441 F2200.
N5245 X612.538 Y-230.983
N5250 Z-13.741
N5255 X611.648 Y-230.821
N5260 X611.28 Y-230.758
N5265 Z-13.941 F733.33
N5270 X608.244 Y-230.239 F2200.
N5275 X607.489 Y-230.119
N5280 Z-13.741
N5285 X606.227 Y-229.918
N5290 Z-13.941 F733.33
N5295 X604.834 Y-229.697 F2200.
N5300 X602.427 Y-229.341
N5305 Z-13.741
N5310 X601.417 Y-229.192
N5315 X601.162 Y-229.158
N5320 Z-13.941 F733.33
N5325 X597.996 Y-228.727 F2200.
N5330 X597.352 Y-228.647
N5335 Z-13.741
N5340 X596.083 Y-228.489
N5345 Z-13.941 F733.33
N5350 X594.568 Y-228.3 F2200.
N5355 X592.266 Y-228.04
N5360 Z-13.741
N5365 X591.137 Y-227.913
N5370 X590.996 Y-227.898
N5375 Z-13.941 F733.33
N5380 X587.701 Y-227.564 F2200.
N5385 X587.171 Y-227.516
N5390 Z-13.741
N5395 X585.898 Y-227.402
N5400 Z-13.941 F733.33
N5405 X584.261 Y-227.254 F2200.
N5410 X582.068 Y-227.082
N5415 Z-13.741
N5420 X580.819 Y-226.984
N5425 X580.794 Y-226.982
N5430 Z-13.941 F733.33
N5435 X577.372 Y-226.752 F2200.
N5440 X577.169 Y-226.739
N5445 X576.957 Y-226.726
N5450 Z-13.741
N5455 X575.682 Y-226.648
N5460 Z-13.941 F733.33
N5465 X571.839 Y-226.414 F2200.
N5470 Z-13.741
N5475 X570.564 Y-226.337
N5480 Z-13.941 F733.33
N5485 X566.721 Y-226.103 F2200.
N5490 Z-13.741
N5495 X565.446 Y-226.025
N5500 Z-13.941 F733.33
N5505 X561.603 Y-225.791 F2200.
N5510 Z-13.741
N5515 X560.328 Y-225.714
N5520 Z-13.941 F733.33
N5525 X556.485 Y-225.48 F2200.
N5530 Z-13.741
N5535 X555.21 Y-225.402
N5540 Z-13.941 F733.33
N5545 X551.367 Y-225.168 F2200.
N5550 Z-13.741
N5555 X550.092 Y-225.09
N5560 Z-13.941 F733.33
N5565 X546.25 Y-224.857 F2200.
N5570 Z-13.741
N5575 X544.975 Y-224.779
N5580 Z-13.941 F733.33
N5585 X541.132 Y-224.545 F2200.
N5590 Z-13.741
N5595 X539.857 Y-224.467
N5600 Z-13.941 F733.33
N5605 X536.014 Y-224.233 F2200.
N5610 Z-13.741
N5615 X534.739 Y-224.156
N5620 Z-13.941 F733.33
N5625 X530.896 Y-223.922 F2200.
N5630 Z-13.741
N5635 X529.621 Y-223.844
N5640 Z-13.941 F733.33
N5645 X525.778 Y-223.61 F2200.
N5650 Z-13.741
N5655 X524.503 Y-223.533
N5660 Z-13.941 F733.33
N5665 X520.66 Y-223.299 F2200.
N5670 Z-13.741
N5675 X519.385 Y-223.221
N5680 Z-13.941 F733.33
N5685 X515.542 Y-222.987 F2200.
N5690 Z-13.741
N5695 X514.267 Y-222.909
N5700 Z-13.941 F733.33
N5705 X510.424 Y-222.676 F2200.
N5710 Z-13.741
N5715 X509.149 Y-222.598
N5720 Z-13.941 F733.33
N5725 X505.306 Y-222.364 F2200.
N5730 Z-13.741
N5735 X504.031 Y-222.286
N5740 Z-13.941 F733.33
N5745 X500.188 Y-222.052 F2200.
N5750 Z-13.741
N5755 X498.913 Y-221.975
N5760 Z-13.941 F733.33
N5765 X495.071 Y-221.741 F2200.
N5770 Z-13.741
N5775 X493.796 Y-221.663
N5780 Z-13.941 F733.33
N5785 X489.953 Y-221.429 F2200.
N5790 Z-13.741
N5795 X488.678 Y-221.352
N5800 Z-13.941 F733.33
N5805 X484.835 Y-221.118 F2200.
N5810 Z-13.741
N5815 X483.56 Y-221.04
N5820 Z-13.941 F733.33
N5825 X479.717 Y-220.806 F2200.
N5830 Z-13.741
N5835 X478.442 Y-220.728
N5840 Z-13.941 F733.33
N5845 X474.599 Y-220.495 F2200.
N5850 Z-13.741
N5855 X473.324 Y-220.417
N5860 Z-13.941 F733.33
N5865 X469.481 Y-220.183 F2200.
N5870 Z-13.741
N5875 X468.206 Y-220.105
N5880 Z-13.941 F733.33
N5885 X464.363 Y-219.871 F2200.
N5890 Z-13.741
N5895 X463.088 Y-219.794
N5900 Z-13.941 F733.33
N5905 X459.245 Y-219.56 F2200.
N5910 Z-13.741
N5915 X457.97 Y-219.482
N5920 Z-13.941 F733.33
N5925 X454.127 Y-219.248 F2200.
N5930 Z-13.741
N5935 X452.852 Y-219.171
N5940 Z-13.941 F733.33
N5945 X449.009 Y-218.937 F2200.
N5950 Z-13.741
N5955 X447.734 Y-218.859
N5960 Z-13.941 F733.33
N5965 X443.892 Y-218.625 F2200.
N5970 Z-13.741
N5975 X442.617 Y-218.547
N5980 Z-13.941 F733.33
N5985 X438.774 Y-218.314 F2200.
N5990 Z-13.741
N5995 X437.499 Y-218.236
N6000 Z-13.941 F733.33
N6005 X433.656 Y-218.002 F2200.
N6010 Z-13.741
N6015 X432.381 Y-217.924
N6020 Z-13.941 F733.33
N6025 X428.538 Y-217.69 F2200.
N6030 Z-13.741
N6035 X427.263 Y-217.613
N6040 Z-13.941 F733.33
N6045 X423.42 Y-217.379 F2200.
N6050 Z-13.741
N6055 X422.145 Y-217.301
N6060 Z-13.941 F733.33
N6065 X418.302 Y-217.067 F2200.
N6070 Z-13.741
N6075 X417.027 Y-216.99
N6080 Z-13.941 F733.33
N6085 X413.184 Y-216.756 F2200.
N6090 Z-13.741
N6095 X411.909 Y-216.678
N6100 Z-13.941 F733.33
N6105 X408.066 Y-216.444 F2200.
N6110 Z-13.741
N6115 X406.791 Y-216.366
N6120 Z-13.941 F733.33
N6125 X402.948 Y-216.132 F2200.
N6130 Z-13.741
N6135 X401.673 Y-216.055
N6140 Z-13.941 F733.33
N6145 X397.83 Y-215.821 F2200.
N6150 Z-13.741
N6155 X396.555 Y-215.743
N6160 Z-13.941 F733.33
N6165 X392.713 Y-215.509 F2200.
N6170 Z-13.741
N6175 X391.438 Y-215.432
N6180 Z-13.941 F733.33
N6185 X387.595 Y-215.198 F2200.
N6190 Z-13.741
N6195 X386.32 Y-215.12
N6200 Z-13.941 F733.33
N6205 X382.477 Y-214.886 F2200.
N6210 Z-13.741
N6215 X381.202 Y-214.809
N6220 Z-13.941 F733.33
N6225 X377.359 Y-214.575 F2200.
N6230 Z-13.741
N6235 X376.084 Y-214.497
N6240 Z-13.941 F733.33
N6245 X372.241 Y-214.263 F2200.
N6250 Z-13.741
N6255 X370.966 Y-214.185
N6260 Z-13.941 F733.33
N6265 X367.123 Y-213.951 F2200.
N6270 Z-13.741
N6275 X365.848 Y-213.874
N6280 Z-13.941 F733.33
N6285 X362.005 Y-213.64 F2200.
N6290 Z-13.741
N6295 X360.73 Y-213.562
N6300 Z-13.941 F733.33
N6305 X356.887 Y-213.328 F2200.
N6310 Z-13.741
N6315 X355.612 Y-213.251
N6320 Z-13.941 F733.33
N6325 X351.769 Y-213.017 F2200.
N6330 Z-13.741
N6335 X350.494 Y-212.939
N6340 Z-13.941 F733.33
N6345 X346.651 Y-212.705 F2200.
N6350 Z-13.741
N6355 X345.376 Y-212.627
N6360 Z-13.941 F733.33
N6365 X341.534 Y-212.394 F2200.
N6370 Z-13.741
N6375 X340.259 Y-212.316
N6380 Z-13.941 F733.33
N6385 X336.416 Y-212.082 F2200.
N6390 Z-13.741
N6395 X335.141 Y-212.004
N6400 Z-13.941 F733.33
N6405 X331.298 Y-211.77 F2200.
N6410 Z-13.741
N6415 X330.023 Y-211.693
N6420 Z-13.941 F733.33
N6425 X326.18 Y-211.459 F2200.
N6430 Z-13.741
N6435 X324.905 Y-211.381
N6440 Z-13.941 F733.33
N6445 X321.062 Y-211.147 F2200.
N6450 Z-13.741
N6455 X319.787 Y-211.07
N6460 Z-13.941 F733.33
N6465 X315.944 Y-210.836 F2200.
N6470 Z-13.741
N6475 X314.669 Y-210.758
N6480 Z-13.941 F733.33
N6485 X310.826 Y-210.524 F2200.
N6490 Z-13.741
N6495 X309.551 Y-210.446
N6500 Z-13.941 F733.33
N6505 X305.708 Y-210.213 F2200.
N6510 Z-13.741
N6515 X304.433 Y-210.135
N6520 Z-13.941 F733.33
N6525 X300.59 Y-209.901 F2200.
N6530 Z-13.741
N6535 X299.315 Y-209.823
N6540 Z-13.941 F733.33
N6545 X295.472 Y-209.589 F2200.
N6550 Z-13.741
N6555 X294.197 Y-209.512
N6560 Z-13.941 F733.33
N6565 X290.355 Y-209.278 F2200.
N6570 Z-13.741
N6575 X289.08 Y-209.2
N6580 Z-13.941 F733.33
N6585 X285.237 Y-208.966 F2200.
N6590 Z-13.741
N6595 X283.962 Y-208.889
N6600 Z-13.941 F733.33
N6605 X280.119 Y-208.655 F2200.
N6610 Z-13.741
N6615 X278.844 Y-208.577
N6620 Z-13.941 F733.33
N6625 X275.001 Y-208.343 F2200.
N6630 Z-13.741
N6635 X273.726 Y-208.265
N6640 Z-13.941 F733.33
N6645 X269.883 Y-208.032 F2200.
N6650 Z-13.741
N6655 X268.608 Y-207.954
N6660 Z-13.941 F733.33
N6665 X264.765 Y-207.72 F2200.
N6670 Z-13.741
N6675 X263.49 Y-207.642
N6680 Z-13.941 F733.33
N6685 X259.647 Y-207.408 F2200.
N6690 Z-13.741
N6695 X258.372 Y-207.331
N6700 Z-13.941 F733.33
N6705 X254.529 Y-207.097 F2200.
N6710 Z-13.741
N6715 X253.254 Y-207.019
N6720 Z-13.941 F733.33
N6725 X249.411 Y-206.785 F2200.
N6730 Z-13.741
N6735 X248.136 Y-206.708
N6740 Z-13.941 F733.33
N6745 X244.293 Y-206.474 F2200.
N6750 Z-13.741
N6755 X243.018 Y-206.396
N6760 Z-13.941 F733.33
N6765 X239.176 Y-206.162 F2200.
N6770 Z-13.741
N6775 X237.901 Y-206.084
N6780 Z-13.941 F733.33
N6785 X234.058 Y-205.851 F2200.
N6790 Z-13.741
N6795 X232.783 Y-205.773
N6800 Z-13.941 F733.33
N6805 X228.94 Y-205.539 F2200.
N6810 Z-13.741
N6815 X227.665 Y-205.461
N6820 Z-13.941 F733.33
N6825 X223.822 Y-205.227 F2200.
N6830 Z-13.741
N6835 X222.547 Y-205.15
N6840 Z-13.941 F733.33
N6845 X218.704 Y-204.916 F2200.
N6850 Z-13.741
N6855 X217.429 Y-204.838
N6860 Z-13.941 F733.33
N6865 X213.586 Y-204.604 F2200.
N6870 Z-13.741
N6875 X212.311 Y-204.527
N6880 Z-13.941 F733.33
N6885 X208.468 Y-204.293 F2200.
N6890 Z-13.741
N6895 X207.193 Y-204.215
N6900 Z-13.941 F733.33
N6905 X203.35 Y-203.981 F2200.
N6910 Z-13.741
N6915 X202.075 Y-203.903
N6920 Z-13.941 F733.33
N6925 X198.232 Y-203.669 F2200.
N6930 Z-13.741
N6935 X196.957 Y-203.592
N6940 Z-13.941 F733.33
N6945 X193.114 Y-203.358 F2200.
N6950 Z-13.741
N6955 X191.839 Y-203.28
N6960 Z-13.941 F733.33
N6965 X187.997 Y-203.046 F2200.
N6970 Z-13.741
N6975 X186.722 Y-202.969
N6980 Z-13.941 F733.33
N6985 X182.879 Y-202.735 F2200.
N6990 Z-13.741
N6995 X181.604 Y-202.657
N7000 Z-13.941 F733.33
N7005 X177.761 Y-202.423 F2200.
N7010 Z-13.741
N7015 X176.486 Y-202.346
N7020 Z-13.941 F733.33
N7025 X172.643 Y-202.112 F2200.
N7030 Z-13.741
N7035 X171.368 Y-202.034
N7040 Z-13.941 F733.33
N7045 X167.525 Y-201.8 F2200.
N7050 Z-13.741
N7055 X166.25 Y-201.722
N7060 Z-13.941 F733.33
N7065 X162.406 Y-201.488 F2200.
N7070 Z-13.741
N7075 X161.906 Y-201.458
N7080 X161.9
N7085 X161.131 Y-201.397
N7090 Z-13.941 F733.33
N7095 X160.838 Y-201.374 F2200.
N7100 X160.826 Y-201.372
N7105 X159.767 Y-201.248
N7110 X159.755 Y-201.247
N7115 X158.702 Y-201.085
N7120 X158.691 Y-201.083
N7125 X157.645 Y-200.882
N7130 X157.633 Y-200.879
N7135 X157.275 Y-200.797
N7140 Z-13.741
N7145 X156.594 Y-200.64
N7150 X156.583 Y-200.637
N7155 X156.035 Y-200.49
N7160 Z-13.941 F733.33
N7165 X155.555 Y-200.361 F2200.
N7170 X155.544 Y-200.357
N7175 X154.526 Y-200.042
N7180 X154.514 Y-200.039
N7185 X153.508 Y-199.687
N7190 X153.497 Y-199.682
N7195 X152.505 Y-199.293
N7200 X152.495 Y-199.289
N7205 X152.343 Y-199.223
N7210 Z-13.741
N7215 X151.518 Y-198.864
N7220 X151.507 Y-198.859
N7225 X151.177 Y-198.701
N7230 Z-13.941 F733.33
N7235 X150.546 Y-198.399 F2200.
N7240 X150.535 Y-198.394
N7245 X149.592 Y-197.898
N7250 X149.582 Y-197.892
N7255 X148.658 Y-197.362
N7260 X148.648 Y-197.356
N7265 X147.766 Y-196.806
N7270 Z-13.741
N7275 X147.744 Y-196.792
N7280 X147.734 Y-196.786
N7285 X146.851 Y-196.19
N7290 X146.841 Y-196.183
N7295 X146.71 Y-196.087
N7300 Z-13.941 F733.33
N7305 X145.981 Y-195.554 F2200.
N7310 X145.972 Y-195.547
N7315 X145.136 Y-194.887
N7320 X145.127 Y-194.879
N7325 X144.315 Y-194.189
N7330 X144.306 Y-194.182
N7335 X143.689 Y-193.616
N7340 Z-13.741
N7345 X143.52 Y-193.462
N7350 X143.512 Y-193.453
N7355 X142.773 Y-192.725
N7360 Z-13.941 F733.33
N7365 X142.754 Y-192.705 F2200.
N7370 X142.746 Y-192.697
N7375 X142.015 Y-191.922
N7380 X142.007 Y-191.913
N7385 X141.305 Y-191.111
N7390 X141.297 Y-191.102
N7395 X140.626 Y-190.275
N7400 X140.619 Y-190.266
N7405 X140.237 Y-189.759
N7410 Z-13.741
N7415 X139.978 Y-189.415
N7420 X139.971 Y-189.406
N7425 X139.493 Y-188.72
N7430 Z-13.941 F733.33
N7435 X139.362 Y-188.532 F2200.
N7440 X139.355 Y-188.522
N7445 X138.779 Y-187.626
N7450 X138.773 Y-187.616
N7455 X138.23 Y-186.7
N7460 X138.224 Y-186.69
N7465 X137.715 Y-185.754
N7470 X137.71 Y-185.743
N7475 X137.517 Y-185.354
N7480 Z-13.741
N7485 X137.236 Y-184.789
N7490 X137.231 Y-184.779
N7495 X136.969 Y-184.2
N7500 Z-13.941 F733.33
N7505 X136.792 Y-183.808 F2200.
N7510 X136.787 Y-183.797
N7515 X136.384 Y-182.811
N7520 X136.38 Y-182.8
N7525 X136.014 Y-181.8
N7530 X136.01 Y-181.789
N7535 X135.681 Y-180.776
N7540 X135.678 Y-180.765
N7545 X135.614 Y-180.541
N7550 Z-13.741
N7555 X135.386 Y-179.74
N7560 X135.383 Y-179.728
N7565 X135.28 Y-179.307
N7570 Z-13.941 F733.33
N7575 X135.13 Y-178.694 F2200.
N7580 X135.127 Y-178.683
N7585 X134.911 Y-177.639
N7590 X134.909 Y-177.627
N7595 X134.732 Y-176.577
N7600 X134.73 Y-176.565
N7605 X134.592 Y-175.509
N7610 X134.591 Y-175.498
N7615 X134.588 Y-175.466
N7620 Z-13.741
N7625 X134.492 Y-174.437
N7630 X134.491 Y-174.425
N7635 X134.478 Y-174.193
N7640 Z-13.941 F733.33
N7645 X134.431 Y-173.362 F2200.
N7650 Y-173.35
N7655 X134.41 Y-172.285
N7660 Y-172.279
N7665 Y-171.295
N7670 Y-171.289
N7675 X134.427 Y-170.3
N7680 Z-13.741
N7685 X134.429 Y-170.224
N7690 Y-170.212
N7695 X134.488 Y-169.148
N7700 X134.489 Y-169.137
N7705 X134.499 Y-169.024
N7710 Z-13.941 F733.33
N7715 X134.587 Y-168.076 F2200.
N7720 X134.588 Y-168.064
N7725 X134.725 Y-167.008
N7730 X134.727 Y-166.997
N7735 X134.902 Y-165.946
N7740 X134.904 Y-165.934
N7745 X135.063 Y-165.162
N7750 Z-13.741
N7755 X135.119 Y-164.891
N7760 X135.122 Y-164.879
N7765 X135.356 Y-163.918
N7770 Z-13.941 F733.33
N7775 X135.374 Y-163.844 F2200.
N7780 X135.377 Y-163.833
N7785 X135.667 Y-162.808
N7790 X135.67 Y-162.797
N7795 X135.998 Y-161.783
N7800 X136.002 Y-161.771
N7805 X136.367 Y-160.771
N7810 X136.371 Y-160.761
N7815 X136.592 Y-160.216
N7820 Z-13.741
N7825 X136.772 Y-159.774
N7830 X136.777 Y-159.763
N7835 X137.101 Y-159.044
N7840 Z-13.941 F733.33
N7845 X137.215 Y-158.792 F2200.
N7850 X137.22 Y-158.781
N7855 X137.693 Y-157.826
N7860 X137.698 Y-157.816
N7865 X138.206 Y-156.88
N7870 X138.212 Y-156.87
N7875 X138.753 Y-155.952
N7880 X138.759 Y-155.941
N7885 X138.968 Y-155.617
N7890 Z-13.741
N7895 X139.335 Y-155.045
N7900 X139.342 Y-155.036
N7905 X139.676 Y-154.554
N7910 Z-13.941 F733.33
N7915 X139.95 Y-154.161 F2200.
N7920 X139.956 Y-154.151
N7925 X140.595 Y-153.299
N7930 X140.603 Y-153.29
N7935 X141.274 Y-152.462
N7940 X141.281 Y-152.453
N7945 X141.981 Y-151.651
N7950 X141.989 Y-151.642
N7955 X142.115 Y-151.508
N7960 Z-13.741
N7965 X142.719 Y-150.865
N7970 X142.727 Y-150.857
N7975 X143.001 Y-150.587
N7980 Z-13.941 F733.33
N7985 X143.485 Y-150.108 F2200.
N7990 X143.494 Y-150.1
N7995 X144.278 Y-149.38
N8000 X144.287 Y-149.372
N8005 X145.098 Y-148.681
N8010 X145.107 Y-148.673
N8015 X145.937 Y-148.017
N8020 Z-13.741
N8025 X145.943 Y-148.012
N8030 X145.952 Y-148.005
N8035 X146.811 Y-147.375
N8040 X146.821 Y-147.369
N8045 X146.972 Y-147.266
N8050 Z-13.941 F733.33
N8055 X147.703 Y-146.771 F2200.
N8060 X147.713 Y-146.764
N8065 X148.616 Y-146.2
N8070 X148.626 Y-146.194
N8075 X149.55 Y-145.662
N8080 X149.56 Y-145.656
N8085 X150.318 Y-145.257
N8090 Z-13.741
N8095 X150.502 Y-145.159
N8100 X150.513 Y-145.154
N8105 X151.466 Y-144.696
N8110 Z-13.941 F733.33
N8115 X151.474 Y-144.692 F2200.
N8120 X151.484 Y-144.687
N8125 X152.46 Y-144.261
N8130 X152.471 Y-144.257
N8135 X153.463 Y-143.867
N8140 X153.474 Y-143.863
N8145 X154.479 Y-143.51
N8150 X154.49 Y-143.506
N8155 X155.115 Y-143.312
N8160 Z-13.741
N8165 X155.507 Y-143.19
N8170 X155.518 Y-143.187
N8175 X156.344 Y-142.963
N8180 Z-13.941 F733.33
N8185 X156.547 Y-142.908 F2200.
N8190 X156.559 Y-142.905
N8195 X157.597 Y-142.665
N8200 X157.608 Y-142.662
N8205 X158.654 Y-142.46
N8210 X158.666 Y-142.458
N8215 X159.719 Y-142.294
N8220 X159.731 Y-142.293
N8225 X160.179 Y-142.24
N8230 Z-13.741
N8235 X160.789 Y-142.168
N8240 X160.801 Y-142.167
N8245 X161.451 Y-142.114
N8250 Z-13.941 F733.33
N8255 X161.863 Y-142.082 F2200.
N8260 X161.874 Y-142.081
N8265 X162.938 Y-142.034
N8270 X162.948
N8275 X163.681 Y-142.025
N8280 X163.685
N8285 X165.329
N8290 Z-13.741
N8295 X166.607
N8300 Z-13.941 F733.33
N8305 X170.456 F2200.
N8310 Z-13.741
N8315 X171.734
N8320 Z-13.941 F733.33
N8325 X175.583 F2200.
N8330 Z-13.741
N8335 X176.861
N8340 Z-13.941 F733.33
N8345 X180.711 F2200.
N8350 Z-13.741
N8355 X181.989
N8360 Z-13.941 F733.33
N8365 X185.838 F2200.
N8370 Z-13.741
N8375 X187.116
N8380 Z-13.941 F733.33
N8385 X190.966 F2200.
N8390 Z-13.741
N8395 X192.244
N8400 Z-13.941 F733.33
N8405 X196.093 F2200.
N8410 Z-13.741
N8415 X197.371
N8420 Z-13.941 F733.33
N8425 X201.22 F2200.
N8430 Z-13.741
N8435 X202.498
N8440 Z-13.941 F733.33
N8445 X206.348 F2200.
N8450 Z-13.741
N8455 X207.626
N8460 Z-13.941 F733.33
N8465 X211.475 F2200.
N8470 Z-13.741
N8475 X212.753
N8480 Z-13.941 F733.33
N8485 X216.602 F2200.
N8490 Z-13.741
N8495 X217.88
N8500 Z-13.941 F733.33
N8505 X221.73 F2200.
N8510 Z-13.741
N8515 X223.008
N8520 Z-13.941 F733.33
N8525 X226.857 F2200.
N8530 Z-13.741
N8535 X228.135
N8540 Z-13.941 F733.33
N8545 X231.985 F2200.
N8550 Z-13.741
N8555 X233.263
N8560 Z-13.941 F733.33
N8565 X237.112 F2200.
N8570 Z-13.741
N8575 X238.39
N8580 Z-13.941 F733.33
N8585 X242.239 F2200.
N8590 Z-13.741
N8595 X243.517
N8600 Z-13.941 F733.33
N8605 X247.367 F2200.
N8610 Z-13.741
N8615 X248.645
N8620 Z-13.941 F733.33
N8625 X252.494 F2200.
N8630 Z-13.741
N8635 X253.772
N8640 Z-13.941 F733.33
N8645 X257.621 F2200.
N8650 Z-13.741
N8655 X258.899
N8660 Z-13.941 F733.33
N8665 X262.749 F2200.
N8670 Z-13.741
N8675 X264.027
N8680 Z-13.941 F733.33
N8685 X267.876 F2200.
N8690 Z-13.741
N8695 X269.154
N8700 Z-13.941 F733.33
N8705 X273.004 F2200.
N8710 Z-13.741
N8715 X274.282
N8720 Z-13.941 F733.33
N8725 X278.131 F2200.
N8730 Z-13.741
N8735 X279.409
N8740 Z-13.941 F733.33
N8745 X283.258 F2200.
N8750 Z-13.741
N8755 X284.536
N8760 Z-13.941 F733.33
N8765 X288.386 F2200.
N8770 Z-13.741
N8775 X289.664
N8780 Z-13.941 F733.33
N8785 X293.513 F2200.
N8790 Z-13.741
N8795 X294.791
N8800 Z-13.941 F733.33
N8805 X298.64 F2200.
N8810 Z-13.741
N8815 X299.918
N8820 Z-13.941 F733.33
N8825 X303.768 F2200.
N8830 Z-13.741
N8835 X305.046
N8840 Z-13.941 F733.33
N8845 X308.895 F2200.
N8850 Z-13.741
N8855 X310.173
N8860 Z-13.941 F733.33
N8865 X314.023 F2200.
N8870 Z-13.741
N8875 X315.301
N8880 Z-13.941 F733.33
N8885 X319.15 F2200.
N8890 Z-13.741
N8895 X320.428
N8900 Z-13.941 F733.33
N8905 X324.277 F2200.
N8910 Z-13.741
N8915 X325.555
N8920 Z-13.941 F733.33
N8925 X329.405 F2200.
N8930 Z-13.741
N8935 X330.683
N8940 Z-13.941 F733.33
N8945 X334.532 F2200.
N8950 Z-13.741
N8955 X335.81
N8960 Z-13.941 F733.33
N8965 X339.659 F2200.
N8970 Z-13.741
N8975 X340.937
N8980 Z-13.941 F733.33
N8985 X344.787 F2200.
N8990 Z-13.741
N8995 X346.065
N9000 Z-13.941 F733.33
N9005 X349.914 F2200.
N9010 Z-13.741
N9015 X351.192
N9020 Z-13.941 F733.33
N9025 X355.042 F2200.
N9030 Z-13.741
N9035 X356.32
N9040 Z-13.941 F733.33
N9045 X360.169 F2200.
N9050 Z-13.741
N9055 X361.447
N9060 Z-13.941 F733.33
N9065 X365.296 F2200.
N9070 Z-13.741
N9075 X366.574
N9080 Z-13.941 F733.33
N9085 X370.424 F2200.
N9090 Z-13.741
N9095 X371.702
N9100 Z-13.941 F733.33
N9105 X375.551 F2200.
N9110 Z-13.741
N9115 X376.829
N9120 Z-13.941 F733.33
N9125 X380.678 F2200.
N9130 Z-13.741
N9135 X381.956
N9140 Z-13.941 F733.33
N9145 X385.806 F2200.
N9150 Z-13.741
N9155 X387.084
N9160 Z-13.941 F733.33
N9165 X390.933 F2200.
N9170 Z-13.741
N9175 X392.211
N9180 Z-13.941 F733.33
N9185 X396.061 F2200.
N9190 Z-13.741
N9195 X397.339
N9200 Z-13.941 F733.33
N9205 X401.188 F2200.
N9210 Z-13.741
N9215 X402.466
N9220 Z-13.941 F733.33
N9225 X406.315 F2200.
N9230 Z-13.741
N9235 X407.593
N9240 Z-13.941 F733.33
N9245 X411.443 F2200.
N9250 Z-13.741
N9255 X412.721
N9260 Z-13.941 F733.33
N9265 X416.57 F2200.
N9270 Z-13.741
N9275 X417.848
N9280 Z-13.941 F733.33
N9285 X421.697 F2200.
N9290 Z-13.741
N9295 X422.975
N9300 Z-13.941 F733.33
N9305 X426.825 F2200.
N9310 Z-13.741
N9315 X428.103
N9320 Z-13.941 F733.33
N9325 X431.952 F2200.
N9330 Z-13.741
N9335 X433.23
N9340 Z-13.941 F733.33
N9345 X437.08 F2200.
N9350 Z-13.741
N9355 X438.358
N9360 Z-13.941 F733.33
N9365 X442.207 F2200.
N9370 Z-13.741
N9375 X443.485
N9380 Z-13.941 F733.33
N9385 X447.334 F2200.
N9390 Z-13.741
N9395 X448.612
N9400 Z-13.941 F733.33
N9405 X452.462 F2200.
N9410 Z-13.741
N9415 X453.74
N9420 Z-13.941 F733.33
N9425 X457.589 F2200.
N9430 Z-13.741
N9435 X458.867
N9440 Z-13.941 F733.33
N9445 X462.717 F2200.
N9450 Z-13.741
N9455 X463.995
N9460 Z-13.941 F733.33
N9465 X467.844 F2200.
N9470 Z-13.741
N9475 X469.122
N9480 Z-13.941 F733.33
N9485 X472.971 F2200.
N9490 Z-13.741
N9495 X474.249
N9500 Z-13.941 F733.33
N9505 X478.099 F2200.
N9510 Z-13.741
N9515 X479.377
N9520 Z-13.941 F733.33
N9525 X483.226 F2200.
N9530 Z-13.741
N9535 X484.504
N9540 Z-13.941 F733.33
N9545 X488.353 F2200.
N9550 Z-13.741
N9555 X489.631
N9560 Z-13.941 F733.33
N9565 X493.481 F2200.
N9570 Z-13.741
N9575 X494.759
N9580 Z-13.941 F733.33
N9585 X498.608 F2200.
N9590 Z-13.741
N9595 X499.886
N9600 Z-13.941 F733.33
N9605 X503.736 F2200.
N9610 Z-13.741
N9615 X505.014
N9620 Z-13.941 F733.33
N9625 X508.863 F2200.
N9630 Z-13.741
N9635 X510.141
N9640 Z-13.941 F733.33
N9645 X513.99 F2200.
N9650 Z-13.741
N9655 X515.268
N9660 Z-13.941 F733.33
N9665 X519.118 F2200.
N9670 Z-13.741
N9675 X520.396
N9680 Z-13.941 F733.33
N9685 X524.245 F2200.
N9690 Z-13.741
N9695 X525.523
N9700 Z-13.941 F733.33
N9705 X529.372 F2200.
N9710 Z-13.741
N9715 X530.65
N9720 Z-13.941 F733.33
N9725 X534.5 F2200.
N9730 Z-13.741
N9735 X535.778
N9740 Z-13.941 F733.33
N9745 X539.627 F2200.
N9750 Z-13.741
N9755 X540.905
N9760 Z-13.941 F733.33
N9765 X544.755 F2200.
N9770 Z-13.741
N9775 X546.033
N9780 Z-13.941 F733.33
N9785 X549.882 F2200.
N9790 Z-13.741
N9795 X551.16
N9800 Z-13.941 F733.33
N9805 X555.009 F2200.
N9810 Z-13.741
N9815 X556.287
N9820 Z-13.941 F733.33
N9825 X560.137 F2200.
N9830 Z-13.741
N9835 X561.415
N9840 Z-13.941 F733.33
N9845 X565.264 F2200.
N9850 Z-13.741
N9855 X566.542
N9860 Z-13.941 F733.33
N9865 X570.391 F2200.
N9870 Z-13.741
N9875 X571.669
N9880 Z-13.941 F733.33
N9885 X575.519 F2200.
N9890 Z-13.741
N9895 X576.797
N9900 Z-13.941 F733.33
N9905 X580.646 F2200.
N9910 Z-13.741
N9915 X581.924
N9920 Z-13.941 F733.33
N9925 X585.774 F2200.
N9930 Z-13.741
N9935 X587.052
N9940 Z-13.941 F733.33
N9945 X590.901 F2200.
N9950 Z-13.741
N9955 X592.179
N9960 Z-13.941 F733.33
N9965 X596.028 F2200.
N9970 Z-13.741
N9975 X597.306
N9980 Z-13.941 F733.33
N9985 X601.156 F2200.
N9990 Z-13.741
N9995 X602.434
N10000 Z-13.941 F733.33
N10005 X606.283 F2200.
N10010 Z-13.741
N10015 X607.561
N10020 Z-13.941 F733.33
N10025 X611.41 F2200.
N10030 Z-13.741
N10035 X612.688
N10040 Z-13.941 F733.33
N10045 X616.538 F2200.
N10050 Z-13.741
N10055 X617.816
N10060 Z-13.941 F733.33
N10065 X621.665 F2200.
N10070 Z-13.741
N10075 X622.943
N10080 Z-13.941 F733.33
N10085 X626.793 F2200.
N10090 Z-13.741
N10095 X628.071
N10100 Z-13.941 F733.33
N10105 X631.92 F2200.
N10110 Z-13.741
N10115 X633.198
N10120 Z-13.941 F733.33
N10125 X637.047 F2200.
N10130 Z-13.741
N10135 X638.325
N10140 Z-13.941 F733.33
N10145 X642.274 F2200.
N10150 Z-13.741
N10155 X642.729
N10160 X642.786 Y-142.03
N10165 X642.841 Y-142.045
N10170 X642.892 Y-142.069
N10175 X643.514 Y-142.439
N10180 Z-13.941 F733.33
N10185 X646.824 Y-144.406 F2200.
N10190 Z-13.741
N10195 X647.923 Y-145.058
N10200 Z-13.941 F733.33
N10205 X651.232 Y-147.025 F2200.
N10210 Z-13.741
N10215 X652.331 Y-147.678
N10220 Z-13.941 F733.33
N10225 X655.64 Y-149.644 F2200.
N10230 Z-13.741
N10235 X656.739 Y-150.297
N10240 Z-13.941 F733.33
N10245 X660.048 Y-152.263 F2200.
N10250 Z-13.741
N10255 X661.146 Y-152.916
N10260 Z-13.941 F733.33
N10265 X664.455 Y-154.882 F2200.
N10270 Z-13.741
N10275 X665.554 Y-155.535
N10280 Z-13.941 F733.33
N10285 X668.863 Y-157.501 F2200.
N10290 Z-13.741
N10295 X669.962 Y-158.154
N10300 Z-13.941 F733.33
N10305 X673.271 Y-160.12 F2200.
N10310 Z-13.741
N10315 X674.37 Y-160.773
N10320 Z-13.941 F733.33
N10325 X677.679 Y-162.739 F2200.
N10330 Z-13.741
N10335 X678.778 Y-163.392
N10340 Z-13.941 F733.33
N10345 X682.087 Y-165.359 F2200.
N10350 Z-13.741
N10355 X683.186 Y-166.011
N10360 Z-13.941 F733.33
N10365 X686.495 Y-167.978 F2200.
N10370 Z-13.741
N10375 X687.594 Y-168.63
N10380 Z-13.941 F733.33
N10385 X690.903 Y-170.597 F2200.
N10390 Z-13.741
N10395 X692.002 Y-171.25
N10400 Z-13.941 F733.33
N10405 X695.311 Y-173.216 F2200.
N10410 Z-13.741
N10415 X696.41 Y-173.869
N10420 Z-13.941 F733.33
N10425 X699.719 Y-175.835 F2200.
N10430 Z-13.741
N10435 X700.817 Y-176.488
N10440 Z-13.941 F733.33
N10445 X704.127 Y-178.454 F2200.
N10450 Z-13.741
N10455 X705.226 Y-179.107
N10460 Z-13.941 F733.33
N10465 X708.535 Y-181.074 F2200.
N10470 Z-13.741
N10475 X709.634 Y-181.726
N10480 Z-13.941 F733.33
N10485 X712.943 Y-183.693 F2200.
N10490 Z-13.741
N10495 X714.042 Y-184.346
N10500 Z-13.941 F733.33
N10505 X717.351 Y-186.312 F2200.
N10510 Z-13.741
N10515 X718.45 Y-186.965
N10520 Z-13.941 F733.33
N10525 X721.759 Y-188.931 F2200.
N10530 Z-13.741
N10535 X722.857 Y-189.584
N10540 Z-13.941 F733.33
N10545 X726.167 Y-191.55 F2200.
N10550 Z-13.741
N10555 X727.265 Y-192.203
N10560 Z-13.941 F733.33
N10565 X730.575 Y-194.169 F2200.
N10570 Z-13.741
N10575 X731.673 Y-194.822
N10580 Z-13.941 F733.33
N10585 X734.983 Y-196.789 F2200.
N10590 Z-13.741
N10595 X736.082 Y-197.441
N10600 Z-13.941 F733.33
N10605 X739.391 Y-199.408 F2200.
N10610 Z-13.741
N10615 X740.49 Y-200.061
N10620 Z-13.941 F733.33
N10625 X743.799 Y-202.027 F2200.
N10630 Z-13.741
N10635 X744.898 Y-202.68
N10640 Z-13.941 F733.33
N10645 X748.207 Y-204.646 F2200.
N10650 Z-13.741
N10655 X749.305 Y-205.299
N10660 Z-13.941 F733.33
N10665 X752.614 Y-207.265 F2200.
N10670 Z-13.741
N10675 X753.713 Y-207.918
N10680 Z-13.941 F733.33
N10685 X757.022 Y-209.884 F2200.
N10690 Z-13.741
N10695 X758.121 Y-210.537
N10700 Z-13.941 F733.33
N10705 X761.43 Y-212.503 F2200.
N10710 Z-13.741
N10715 X762.529 Y-213.156
N10720 Z-13.941 F733.33
N10725 X765.838 Y-215.122 F2200.
N10730 Z-13.741
N10735 X766.937 Y-215.775
N10740 Z-13.941 F733.33
N10745 X770.246 Y-217.742 F2200.
N10750 Z-13.741
N10755 X771.345 Y-218.394
N10760 Z-13.941 F733.33
N10765 X774.654 Y-220.361 F2200.
N10770 Z-13.741
N10775 X775.753 Y-221.014
N10780 Z-13.941 F733.33
N10785 X779.062 Y-222.98 F2200.
N10790 Z-13.741
N10795 X780.161 Y-223.633
N10800 Z-13.941 F733.33
N10805 X783.47 Y-225.599 F2200.
N10810 Z-13.741
N10815 X784.569 Y-226.252
N10820 Z-13.941 F733.33
N10825 X787.878 Y-228.218 F2200.
N10830 Z-13.741
N10835 X788.976 Y-228.871
N10840 Z-13.941 F733.33
N10845 X792.286 Y-230.838 F2200.
N10850 Z-13.741
N10855 X793.385 Y-231.49
N10860 Z-13.941 F733.33
N10865 X796.694 Y-233.457 F2200.
N10870 Z-13.741
N10875 X797.793 Y-234.109
N10880 Z-13.941 F733.33
N10885 X801.102 Y-236.076 F2200.
N10890 Z-13.741
N10895 X802.201 Y-236.729
N10900 Z-13.941 F733.33
N10905 X805.51 Y-238.695 F2200.
N10910 Z-13.741
N10915 X806.609 Y-239.348
N10920 Z-13.941 F733.33
N10925 X809.918 Y-241.314 F2200.
N10930 Z-13.741
N10935 X811.016 Y-241.967
N10940 Z-13.941 F733.33
N10945 X814.326 Y-243.933 F2200.
N10950 Z-13.741
N10955 X815.424 Y-244.586
N10960 Z-13.941 F733.33
N10965 X818.734 Y-246.553 F2200.
N10970 Z-13.741
N10975 X819.833 Y-247.205
N10980 Z-13.941 F733.33
N10985 X823.142 Y-249.172 F2200.
N10990 Z-13.741
N10995 X824.241 Y-249.825
N11000 Z-13.941 F733.33
N11005 X827.55 Y-251.791 F2200.
N11010 Z-13.741
N11015 X828.649 Y-252.444
N11020 Z-13.941 F733.33
N11025 X831.958 Y-254.41 F2200.
N11030 Z-13.741
N11035 X833.057 Y-255.063
N11040 Z-13.941 F733.33
N11045 X836.366 Y-257.029 F2200.
N11050 Z-13.741
N11055 X837.464 Y-257.682
N11060 Z-13.941 F733.33
N11065 X840.773 Y-259.648 F2200.
N11070 Z-13.741
N11075 X841.872 Y-260.301
N11080 Z-13.941 F733.33
N11085 X845.181 Y-262.267 F2200.
N11090 Z-13.741
N11095 X846.28 Y-262.92
N11100 Z-13.941 F733.33
N11105 X849.589 Y-264.886 F2200.
N11110 Z-13.741
N11115 X850.688 Y-265.539
N11120 Z-13.941 F733.33
N11125 X853.997 Y-267.505 F2200.
N11130 Z-13.741
N11135 X855.096 Y-268.158
N11140 Z-13.941 F733.33
N11145 X858.405 Y-270.125 F2200.
N11150 Z-13.741
N11155 X859.504 Y-270.777
N11160 Z-13.941 F733.33
N11165 X862.813 Y-272.744 F2200.
N11170 Z-13.741
N11175 X863.912 Y-273.397
N11180 Z-13.941 F733.33
N11185 X867.221 Y-275.363 F2200.
N11190 Z-13.741
N11195 X868.32 Y-276.016
N11200 Z-13.941 F733.33
N11205 X871.629 Y-277.982 F2200.
N11210 Z-13.741
N11215 X872.727 Y-278.635
N11220 Z-13.941 F733.33
N11225 X876.037 Y-280.601 F2200.
N11230 Z-13.741
N11235 X877.136 Y-281.254
N11240 Z-13.941 F733.33
N11245 X880.445 Y-283.221 F2200.
N11250 Z-13.741
N11255 X881.544 Y-283.873
N11260 Z-13.941 F733.33
N11265 X884.853 Y-285.84 F2200.
N11270 Z-13.741
N11275 X885.952 Y-286.493
N11280 Z-13.941 F733.33
N11285 X889.261 Y-288.459 F2200.
N11290 Z-13.741
N11295 X890.36 Y-289.112
N11300 Z-13.941 F733.33
N11305 X893.669 Y-291.078 F2200.
N11310 Z-13.741
N11315 X894.768 Y-291.731
N11320 Z-13.941 F733.33
N11325 X898.077 Y-293.697 F2200.
N11330 Z-13.741
N11335 X899.175 Y-294.35
N11340 Z-13.941 F733.33
N11345 X902.485 Y-296.316 F2200.
N11350 Z-13.741
N11355 X903.583 Y-296.969
N11360 Z-13.941 F733.33
N11365 X906.893 Y-298.936 F2200.
N11370 Z-13.741
N11375 X907.992 Y-299.588
N11380 Z-13.941 F733.33
N11385 X911.301 Y-301.555 F2200.
N11390 Z-13.741
N11395 X912.4 Y-302.208
N11400 Z-13.941 F733.33
N11405 X915.706 Y-304.172 F2200.
N11410 X915.717 Y-304.179
N11415 X915.734 Y-304.19
N11420 Z-13.741
N11425 X916.136 Y-304.451
N11430 X916.156 Y-304.465
N11435 X916.552 Y-304.768
N11440 X916.572 Y-304.785
N11445 X916.76 Y-304.954
N11450 Z-13.941 F733.33
N11455 X916.943 Y-305.119 F2200.
N11460 X916.961 Y-305.136
N11465 X917.304 Y-305.498
N11470 X917.32 Y-305.517
N11475 X917.634 Y-305.904
N11480 X917.649 Y-305.924
N11485 X917.932 Y-306.335
N11490 X917.946 Y-306.356
N11495 X918.196 Y-306.788
N11500 X918.208 Y-306.811
N11505 X918.422 Y-307.261
N11510 X918.431 Y-307.283
N11515 X918.61 Y-307.749
N11520 X918.618 Y-307.773
N11525 X918.76 Y-308.251
N11530 X918.766 Y-308.275
N11535 X918.801 Y-308.437
N11540 Z-13.741
N11545 X918.87 Y-308.763
N11550 X918.875 Y-308.788
N11555 X918.883 Y-308.812
N11560 X918.899 Y-308.831
N11565 X918.922 Y-308.842
N11570 X918.946 Y-308.843
N11575 X919.073 Y-308.827
N11580 Z15.
N11585 X460.866 Y51.07
N11590 Z7.35
N11595 Z-6.286 F733.33
N11600 X460.865 Y51.075 Z-6.311 F2200.
N11605 X460.862 Y51.088 Z-6.331
N11610 X460.858 Y51.109 Z-6.345
N11615 X460.854 Y51.133 Z-6.35
N11620 X460.842 Y51.195
N11625 X460.833 Y51.219
N11630 X460.815 Y51.236
N11635 X460.792 Y51.246
N11640 X460.768
N11645 X315.222 Y23.957
N11650 G2 X258.992 Y18.73 I-56.23 J299.893
N11655 G1 X58.72
N11660 G2 X33.001 Y44.45 I0. J25.72
N11665 G1 Y82.55
N11670 G2 X58.72 Y108.27 I25.719 J0.
N11675 G1 X396.09
N11680 X396.099 Y108.269
N11685 X396.829 Y108.249
N11690 X396.845 Y108.248
N11695 X397.573 Y108.19
N11700 X397.591 Y108.189
N11705 X398.313 Y108.091
N11710 X398.33 Y108.088
N11715 X399.046 Y107.952
N11720 X399.063 Y107.948
N11725 X399.77 Y107.773
N11730 X399.786 Y107.769
N11735 X400.482 Y107.557
N11740 X400.498 Y107.551
N11745 X401.179 Y107.303
N11750 X401.196 Y107.297
N11755 X401.862 Y107.012
N11760 X401.877 Y107.005
N11765 X402.526 Y106.686
N11770 X402.542 Y106.677
N11775 X403.17 Y106.323
N11780 X403.184 Y106.315
N11785 X403.791 Y105.929
N11790 X403.806 Y105.919
N11795 X404.389 Y105.501
N11800 X404.403 Y105.49
N11805 X404.961 Y105.042
N11810 X404.974 Y105.031
N11815 X405.505 Y104.555
N11820 X405.518 Y104.543
N11825 X406.021 Y104.04
N11830 X406.033 Y104.027
N11835 X406.505 Y103.498
N11840 X406.517 Y103.484
N11845 X406.959 Y102.931
N11850 X406.969 Y102.917
N11855 X407.378 Y102.342
N11860 X407.388 Y102.328
N11865 X407.764 Y101.733
N11870 X407.773 Y101.717
N11875 X408.113 Y101.104
N11880 X408.121 Y101.088
N11885 X408.427 Y100.457
N11890 X408.435 Y100.441
N11895 X408.704 Y99.796
N11900 X408.71 Y99.78
N11905 X408.942 Y99.122
N11910 X408.948 Y99.105
N11915 X409.142 Y98.436
N11920 X409.146 Y98.418
N11925 X409.302 Y97.741
N11930 X409.306 Y97.723
N11935 X409.424 Y97.039
N11940 X409.426 Y97.02
N11945 X409.504 Y96.331
N11950 X409.506 Y96.313
N11955 X409.546 Y95.621
N11960 Y95.607
N11965 X409.551 Y95.255
N11970 X409.552 Y95.25
N11975 Y76.52
N11980 X486.851
N11985 G2 X487.171 Y76.2 I0. J-0.32
N11990 G1 Y68.683
N11995 X487.166 Y68.632
N12000 X487.154 Y68.582
N12005 X487.134 Y68.534
N12010 G2 X464.68 Y51.98 I-28.363 J14.966
N12015 G1 X460.768 Y51.246
N12020 X460.744 Y51.237
N12025 X460.727 Y51.22
N12030 X460.717 Y51.197
N12035 X460.716 Y51.172
N12040 X460.728 Y51.109
N12045 X460.733 Y51.085 Z-6.345
N12050 X460.737 Y51.065 Z-6.331
N12055 X460.739 Y51.051 Z-6.311
N12060 X460.74 Y51.046 Z-6.286
N12065 Z7.35
N12070 X460.866 Y51.07
N12075 Z5.
N12080 Z1. F733.33
N12085 Z-12.636
N12090 X460.865 Y51.075 Z-12.661 F2200.
N12095 X460.862 Y51.088 Z-12.681
N12100 X460.858 Y51.109 Z-12.695
N12105 X460.854 Y51.133 Z-12.7
N12110 X460.842 Y51.195
N12115 X460.833 Y51.219
N12120 X460.815 Y51.236
N12125 X460.792 Y51.246
N12130 X460.768
N12135 X315.222 Y23.957
N12140 G2 X258.992 Y18.73 I-56.23 J299.893
N12145 G1 X58.72
N12150 G2 X33.001 Y44.45 I0. J25.72
N12155 G1 Y82.55
N12160 G2 X58.72 Y108.27 I25.719 J0.
N12165 G1 X396.09
N12170 X396.099 Y108.269
N12175 X396.829 Y108.249
N12180 X396.845 Y108.248
N12185 X397.573 Y108.19
N12190 X397.591 Y108.189
N12195 X398.313 Y108.091
N12200 X398.33 Y108.088
N12205 X399.046 Y107.952
N12210 X399.063 Y107.948
N12215 X399.77 Y107.773
N12220 X399.786 Y107.769
N12225 X400.482 Y107.557
N12230 X400.498 Y107.551
N12235 X401.179 Y107.303
N12240 X401.196 Y107.297
N12245 X401.862 Y107.012
N12250 X401.877 Y107.005
N12255 X402.526 Y106.686
N12260 X402.542 Y106.677
N12265 X403.17 Y106.323
N12270 X403.184 Y106.315
N12275 X403.791 Y105.929
N12280 X403.806 Y105.919
N12285 X404.389 Y105.501
N12290 X404.403 Y105.49
N12295 X404.961 Y105.042
N12300 X404.974 Y105.031
N12305 X405.505 Y104.555
N12310 X405.518 Y104.543
N12315 X406.021 Y104.04
N12320 X406.033 Y104.027
N12325 X406.505 Y103.498
N12330 X406.517 Y103.484
N12335 X406.959 Y102.931
N12340 X406.969 Y102.917
N12345 X407.378 Y102.342
N12350 X407.388 Y102.328
N12355 X407.764 Y101.733
N12360 X407.773 Y101.717
N12365 X408.113 Y101.104
N12370 X408.121 Y101.088
N12375 X408.427 Y100.457
N12380 X408.435 Y100.441
N12385 X408.704 Y99.796
N12390 X408.71 Y99.78
N12395 X408.942 Y99.122
N12400 X408.948 Y99.105
N12405 X409.142 Y98.436
N12410 X409.146 Y98.418
N12415 X409.302 Y97.741
N12420 X409.306 Y97.723
N12425 X409.424 Y97.039
N12430 X409.426 Y97.02
N12435 X409.504 Y96.331
N12440 X409.506 Y96.313
N12445 X409.546 Y95.621
N12450 Y95.607
N12455 X409.551 Y95.255
N12460 X409.552 Y95.25
N12465 Y76.52
N12470 X486.851
N12475 G2 X487.171 Y76.2 I0. J-0.32
N12480 G1 Y68.683
N12485 X487.166 Y68.632
N12490 X487.154 Y68.582
N12495 X487.134 Y68.534
N12500 G2 X464.68 Y51.98 I-28.363 J14.966
N12505 G1 X460.768 Y51.246
N12510 X460.744 Y51.237
N12515 X460.727 Y51.22
N12520 X460.717 Y51.197
N12525 X460.716 Y51.172
N12530 X460.728 Y51.109
N12535 X460.733 Y51.085 Z-12.695
N12540 X460.737 Y51.065 Z-12.681
N12545 X460.739 Y51.051 Z-12.661
N12550 X460.74 Y51.046 Z-12.636
N12555 Z7.35
N12560 X460.866 Y51.07
N12565 Z5.
N12570 Z-5.35 F733.33
N12575 Z-18.983
N12580 X460.865 Y51.075 Z-19.007 F2200.
N12585 X460.862 Y51.088 Z-19.028
N12590 X460.858 Y51.109 Z-19.042
N12595 X460.854 Y51.133 Z-19.046
N12600 X460.842 Y51.195
N12605 X460.833 Y51.219
N12610 X460.815 Y51.236
N12615 X460.792 Y51.246
N12620 X460.768
N12625 X459.751 Y51.056
N12630 Z-18.847
N12635 X458.495 Y50.82
N12640 Z-19.046 F733.33
N12645 X454.702 Y50.109 F2200.
N12650 Z-18.847
N12655 X453.446 Y49.874
N12660 Z-19.046 F733.33
N12665 X449.652 Y49.162 F2200.
N12670 Z-18.847
N12675 X448.396 Y48.927
N12680 Z-19.046 F733.33
N12685 X444.603 Y48.216 F2200.
N12690 Z-18.847
N12695 X443.347 Y47.98
N12700 Z-19.046 F733.33
N12705 X439.554 Y47.269 F2200.
N12710 Z-18.847
N12715 X438.298 Y47.033
N12720 Z-19.046 F733.33
N12725 X434.505 Y46.322 F2200.
N12730 Z-18.847
N12735 X433.249 Y46.087
N12740 Z-19.046 F733.33
N12745 X429.456 Y45.375 F2200.
N12750 Z-18.847
N12755 X428.2 Y45.14
N12760 Z-19.046 F733.33
N12765 X424.407 Y44.429 F2200.
N12770 Z-18.847
N12775 X423.151 Y44.193
N12780 Z-19.046 F733.33
N12785 X419.358 Y43.482 F2200.
N12790 Z-18.847
N12795 X418.102 Y43.247
N12800 Z-19.046 F733.33
N12805 X414.308 Y42.535 F2200.
N12810 Z-18.847
N12815 X413.052 Y42.3
N12820 Z-19.046 F733.33
N12825 X409.259 Y41.589 F2200.
N12830 Z-18.847
N12835 X408.003 Y41.353
N12840 Z-19.046 F733.33
N12845 X404.21 Y40.642 F2200.
N12850 Z-18.847
N12855 X402.954 Y40.406
N12860 Z-19.046 F733.33
N12865 X399.161 Y39.695 F2200.
N12870 Z-18.847
N12875 X397.905 Y39.46
N12880 Z-19.046 F733.33
N12885 X394.112 Y38.748 F2200.
N12890 Z-18.847
N12895 X392.856 Y38.513
N12900 Z-19.046 F733.33
N12905 X389.063 Y37.802 F2200.
N12910 Z-18.847
N12915 X387.807 Y37.566
N12920 Z-19.046 F733.33
N12925 X384.014 Y36.855 F2200.
N12930 Z-18.847
N12935 X382.758 Y36.62
N12940 Z-19.046 F733.33
N12945 X378.964 Y35.908 F2200.
N12950 Z-18.847
N12955 X377.708 Y35.673
N12960 Z-19.046 F733.33
N12965 X373.915 Y34.962 F2200.
N12970 Z-18.847
N12975 X372.659 Y34.726
N12980 Z-19.046 F733.33
N12985 X368.866 Y34.015 F2200.
N12990 Z-18.847
N12995 X367.61 Y33.779
N13000 Z-19.046 F733.33
N13005 X363.817 Y33.068 F2200.
N13010 Z-18.847
N13015 X362.561 Y32.833
N13020 Z-19.046 F733.33
N13025 X358.768 Y32.121 F2200.
N13030 Z-18.847
N13035 X357.512 Y31.886
N13040 Z-19.046 F733.33
N13045 X353.719 Y31.175 F2200.
N13050 Z-18.847
N13055 X352.463 Y30.939
N13060 Z-19.046 F733.33
N13065 X348.67 Y30.228 F2200.
N13070 Z-18.847
N13075 X347.414 Y29.993
N13080 Z-19.046 F733.33
N13085 X343.621 Y29.281 F2200.
N13090 Z-18.847
N13095 X342.365 Y29.046
N13100 Z-19.046 F733.33
N13105 X338.571 Y28.335 F2200.
N13110 Z-18.847
N13115 X337.315 Y28.099
N13120 Z-19.046 F733.33
N13125 X333.522 Y27.388 F2200.
N13130 Z-18.847
N13135 X332.266 Y27.152
N13140 Z-19.046 F733.33
N13145 X328.473 Y26.441 F2200.
N13150 Z-18.847
N13155 X327.217 Y26.206
N13160 Z-19.046 F733.33
N13165 X323.424 Y25.494 F2200.
N13170 Z-18.847
N13175 X322.168 Y25.259
N13180 Z-19.046 F733.33
N13185 X318.375 Y24.548 F2200.
N13190 Z-18.847
N13195 X317.119 Y24.312
N13200 Z-19.046 F733.33
N13205 X315.222 Y23.957 F2200.
N13210 G2 X313.322 Y23.607 I-56.23 J299.893
N13215 G1 Z-18.847
N13220 G2 X312.064 Y23.382 I-54.33 J300.243
N13225 G1 Z-19.046 F733.33
N13230 G2 X308.254 Y22.733 I-53.072 J300.468 F2200.
N13235 G1 Z-18.847
N13240 G2 X306.992 Y22.53 I-49.262 J301.117
N13245 G1 Z-19.046 F733.33
N13250 G2 X303.172 Y21.946 I-48. J301.32 F2200.
N13255 G1 Z-18.847
N13260 G2 X301.907 Y21.764 I-44.18 J301.904
N13265 G1 Z-19.046 F733.33
N13270 G2 X298.078 Y21.244 I-42.915 J302.086 F2200.
N13275 G1 Z-18.847
N13280 G2 X296.81 Y21.083 I-39.086 J302.606
N13285 G1 Z-19.046 F733.33
N13290 G2 X292.972 Y20.629 I-37.819 J302.767 F2200.
N13295 G1 Z-18.847
N13300 G2 X291.702 Y20.489 I-33.98 J303.221
N13305 G1 Z-19.046 F733.33
N13310 G2 X287.858 Y20.099 I-32.71 J303.361 F2200.
N13315 G1 Z-18.847
N13320 G2 X286.585 Y19.981 I-28.866 J303.751
N13325 G1 Z-19.046 F733.33
N13330 G2 X282.734 Y19.656 I-27.594 J303.869 F2200.
N13335 G1 Z-18.847
N13340 G2 X281.46 Y19.559 I-23.743 J304.194
N13345 G1 Z-19.046 F733.33
N13350 G2 X277.604 Y19.299 I-22.468 J304.291 F2200.
N13355 G1 Z-18.847
N13360 G2 X276.328 Y19.223 I-18.612 J304.551
N13365 G1 Z-19.046 F733.33
N13370 G2 X272.469 Y19.028 I-17.336 J304.627 F2200.
N13375 G1 Z-18.847
N13380 G2 X271.192 Y18.975 I-13.477 J304.822
N13385 G1 Z-19.046 F733.33
N13390 G2 X267.33 Y18.844 I-12.2 J304.875 F2200.
N13395 G1 Z-18.847
N13400 G2 X266.052 Y18.812 I-8.338 J305.006
N13405 G1 Z-19.046 F733.33
N13410 G2 X262.188 Y18.747 I-7.061 J305.038 F2200.
N13415 G1 Z-18.847
N13420 G2 X260.91 Y18.737 I-3.196 J305.103
N13425 G1 Z-19.046 F733.33
N13430 G2 X258.992 Y18.73 I-1.918 J305.113 F2200.
N13435 G1 X257.048
N13440 Z-18.847
N13445 X255.77
N13450 Z-19.046 F733.33
N13455 X251.911 F2200.
N13460 Z-18.847
N13465 X250.633
N13470 Z-19.046 F733.33
N13475 X246.774 F2200.
N13480 Z-18.847
N13485 X245.496
N13490 Z-19.046 F733.33
N13495 X241.637 F2200.
N13500 Z-18.847
N13505 X240.359
N13510 Z-19.046 F733.33
N13515 X236.5 F2200.
N13520 Z-18.847
N13525 X235.222
N13530 Z-19.046 F733.33
N13535 X231.363 F2200.
N13540 Z-18.847
N13545 X230.085
N13550 Z-19.046 F733.33
N13555 X226.225 F2200.
N13560 Z-18.847
N13565 X224.947
N13570 Z-19.046 F733.33
N13575 X221.088 F2200.
N13580 Z-18.847
N13585 X219.81
N13590 Z-19.046 F733.33
N13595 X215.951 F2200.
N13600 Z-18.847
N13605 X214.673
N13610 Z-19.046 F733.33
N13615 X210.814 F2200.
N13620 Z-18.847
N13625 X209.536
N13630 Z-19.046 F733.33
N13635 X205.677 F2200.
N13640 Z-18.847
N13645 X204.399
N13650 Z-19.046 F733.33
N13655 X200.54 F2200.
N13660 Z-18.847
N13665 X199.262
N13670 Z-19.046 F733.33
N13675 X195.403 F2200.
N13680 Z-18.847
N13685 X194.125
N13690 Z-19.046 F733.33
N13695 X190.266 F2200.
N13700 Z-18.847
N13705 X188.988
N13710 Z-19.046 F733.33
N13715 X185.128 F2200.
N13720 Z-18.847
N13725 X183.85
N13730 Z-19.046 F733.33
N13735 X179.991 F2200.
N13740 Z-18.847
N13745 X178.713
N13750 Z-19.046 F733.33
N13755 X174.854 F2200.
N13760 Z-18.847
N13765 X173.576
N13770 Z-19.046 F733.33
N13775 X169.717 F2200.
N13780 Z-18.847
N13785 X168.439
N13790 Z-19.046 F733.33
N13795 X164.58 F2200.
N13800 Z-18.847
N13805 X163.302
N13810 Z-19.046 F733.33
N13815 X159.443 F2200.
N13820 Z-18.847
N13825 X158.165
N13830 Z-19.046 F733.33
N13835 X154.306 F2200.
N13840 Z-18.847
N13845 X153.028
N13850 Z-19.046 F733.33
N13855 X149.169 F2200.
N13860 Z-18.847
N13865 X147.891
N13870 Z-19.046 F733.33
N13875 X144.031 F2200.
N13880 Z-18.847
N13885 X142.753
N13890 Z-19.046 F733.33
N13895 X138.894 F2200.
N13900 Z-18.847
N13905 X137.616
N13910 Z-19.046 F733.33
N13915 X133.757 F2200.
N13920 Z-18.847
N13925 X132.479
N13930 Z-19.046 F733.33
N13935 X128.62 F2200.
N13940 Z-18.847
N13945 X127.342
N13950 Z-19.046 F733.33
N13955 X123.483 F2200.
N13960 Z-18.847
N13965 X122.205
N13970 Z-19.046 F733.33
N13975 X118.346 F2200.
N13980 Z-18.847
N13985 X117.068
N13990 Z-19.046 F733.33
N13995 X113.209 F2200.
N14000 Z-18.847
N14005 X111.931
N14010 Z-19.046 F733.33
N14015 X108.072 F2200.
N14020 Z-18.847
N14025 X106.794
N14030 Z-19.046 F733.33
N14035 X102.934 F2200.
N14040 Z-18.847
N14045 X101.656
N14050 Z-19.046 F733.33
N14055 X97.797 F2200.
N14060 Z-18.847
N14065 X96.519
N14070 Z-19.046 F733.33
N14075 X92.66 F2200.
N14080 Z-18.847
N14085 X91.382
N14090 Z-19.046 F733.33
N14095 X87.523 F2200.
N14100 Z-18.847
N14105 X86.245
N14110 Z-19.046 F733.33
N14115 X82.386 F2200.
N14120 Z-18.847
N14125 X81.108
N14130 Z-19.046 F733.33
N14135 X77.249 F2200.
N14140 Z-18.847
N14145 X75.971
N14150 Z-19.046 F733.33
N14155 X72.112 F2200.
N14160 Z-18.847
N14165 X70.834
N14170 Z-19.046 F733.33
N14175 X66.975 F2200.
N14180 Z-18.847
N14185 X65.697
N14190 Z-19.046 F733.33
N14195 X61.838 F2200.
N14200 Z-18.847
N14205 X60.56
N14210 Z-19.046 F733.33
N14215 X58.72 F2200.
N14220 G2 X56.669 Y18.812 I0. J25.72
N14225 G1 Z-18.847
N14230 G2 X55.398 Y18.946 I2.051 J25.638
N14235 G1 Z-19.046 F733.33
N14240 G2 X51.561 Y19.747 I3.322 J25.504 F2200.
N14245 G1 Z-18.847
N14250 G2 X50.343 Y20.133 I7.159 J24.703
N14255 G1 Z-19.046 F733.33
N14260 G2 X46.745 Y21.689 I8.378 J24.317 F2200.
N14265 G1 Z-18.847
N14270 G2 X45.629 Y22.312 I11.976 J22.761
N14275 G1 Z-19.046 F733.33
N14280 G2 X42.417 Y24.558 I13.091 J22.138 F2200.
N14285 G1 Z-18.847
N14290 G2 X41.449 Y25.393 I16.303 J19.892
N14295 G1 Z-19.046 F733.33
N14300 G2 X38.753 Y28.239 I17.271 J19.057 F2200.
N14305 G1 Z-18.847
N14310 G2 X37.973 Y29.25 I19.967 J16.211
N14315 G1 Z-19.046 F733.33
N14320 G2 X35.904 Y32.58 I20.748 J15.2 F2200.
N14325 G1 Z-18.847
N14330 G2 X35.342 Y33.728 I22.816 J11.87
N14335 G1 Z-19.046 F733.33
N14340 G2 X33.985 Y37.405 I23.378 J10.722 F2200.
N14345 G1 Z-18.847
N14350 G2 X33.665 Y38.642 I24.736 J7.045
N14355 G1 Z-19.046 F733.33
N14360 G2 X33.074 Y42.517 I25.055 J5.808 F2200.
N14365 G1 Z-18.847
N14370 G2 X33.009 Y43.794 I25.647 J1.933
N14375 G1 Z-19.046 F733.33
N14380 G2 X33.001 Y44.45 I25.711 J0.656 F2200.
N14385 G1 Y47.669
N14390 Z-18.847
N14395 Y48.947
N14400 Z-19.046 F733.33
N14405 Y52.806 F2200.
N14410 Z-18.847
N14415 Y54.084
N14420 Z-19.046 F733.33
N14425 Y57.943 F2200.
N14430 Z-18.847
N14435 Y59.221
N14440 Z-19.046 F733.33
N14445 Y63.08 F2200.
N14450 Z-18.847
N14455 Y64.358
N14460 Z-19.046 F733.33
N14465 Y68.217 F2200.
N14470 Z-18.847
N14475 Y69.495
N14480 Z-19.046 F733.33
N14485 Y73.354 F2200.
N14490 Z-18.847
N14495 Y74.632
N14500 Z-19.046 F733.33
N14505 Y78.492 F2200.
N14510 Z-18.847
N14515 Y79.77
N14520 Z-19.046 F733.33
N14525 Y82.55 F2200.
N14530 G2 X33.024 Y83.65 I25.719 J0.
N14535 G1 Z-18.847
N14540 G2 X33.111 Y84.925 I25.696 J-1.1
N14545 G1 Z-19.046 F733.33
N14550 G2 X33.769 Y88.789 I25.61 J-2.375 F2200.
N14555 G1 Z-18.847
N14560 G2 X34.11 Y90.021 I24.951 J-6.239
N14565 G1 Z-19.046 F733.33
N14570 G2 X35.531 Y93.674 I24.611 J-7.471 F2200.
N14575 G1 Z-18.847
N14580 G2 X36.112 Y94.812 I23.189 J-11.124
N14585 G1 Z-19.046 F733.33
N14590 G2 X38.238 Y98.105 I22.608 J-12.262 F2200.
N14595 G1 Z-18.847
N14600 G2 X39.036 Y99.104 I20.482 J-15.555
N14605 G1 Z-19.046 F733.33
N14610 G2 X41.78 Y101.903 I19.684 J-16.554 F2200.
N14615 G1 Z-18.847
N14620 G2 X42.762 Y102.72 I16.94 J-19.353
N14625 G1 Z-19.046 F733.33
N14630 G2 X46.013 Y104.911 I15.958 J-20.17 F2200.
N14635 G1 Z-18.847
N14640 G2 X47.139 Y105.515 I12.708 J-22.361
N14645 G1 Z-19.046 F733.33
N14650 G2 X50.764 Y107.008 I11.581 J-22.965 F2200.
N14655 G1 Z-18.847
N14660 G2 X51.988 Y107.373 I7.957 J-24.458
N14665 G1 Z-19.046 F733.33
N14670 G2 X55.839 Y108.108 I6.732 J-24.823 F2200.
N14675 G1 Z-18.847
N14680 G2 X57.112 Y108.219 I2.882 J-25.558
N14685 G1 Z-19.046 F733.33
N14690 G2 X58.72 Y108.27 I1.608 J-25.669 F2200.
N14695 G1 X60.998
N14700 Z-18.847
N14705 X62.276
N14710 Z-19.046 F733.33
N14715 X66.135 F2200.
N14720 Z-18.847
N14725 X67.413
N14730 Z-19.046 F733.33
N14735 X71.272 F2200.
N14740 Z-18.847
N14745 X72.55
N14750 Z-19.046 F733.33
N14755 X76.409 F2200.
N14760 Z-18.847
N14765 X77.687
N14770 Z-19.046 F733.33
N14775 X81.546 F2200.
N14780 Z-18.847
N14785 X82.824
N14790 Z-19.046 F733.33
N14795 X86.683 F2200.
N14800 Z-18.847
N14805 X87.961
N14810 Z-19.046 F733.33
N14815 X91.82 F2200.
N14820 Z-18.847
N14825 X93.098
N14830 Z-19.046 F733.33
N14835 X96.957 F2200.
N14840 Z-18.847
N14845 X98.235
N14850 Z-19.046 F733.33
N14855 X102.095 F2200.
N14860 Z-18.847
N14865 X103.373
N14870 Z-19.046 F733.33
N14875 X107.232 F2200.
N14880 Z-18.847
N14885 X108.51
N14890 Z-19.046 F733.33
N14895 X112.369 F2200.
N14900 Z-18.847
N14905 X113.647
N14910 Z-19.046 F733.33
N14915 X117.506 F2200.
N14920 Z-18.847
N14925 X118.784
N14930 Z-19.046 F733.33
N14935 X122.643 F2200.
N14940 Z-18.847
N14945 X123.921
N14950 Z-19.046 F733.33
N14955 X127.78 F2200.
N14960 Z-18.847
N14965 X129.058
N14970 Z-19.046 F733.33
N14975 X132.917 F2200.
N14980 Z-18.847
N14985 X134.195
N14990 Z-19.046 F733.33
N14995 X138.055 F2200.
N15000 Z-18.847
N15005 X139.333
N15010 Z-19.046 F733.33
N15015 X143.192 F2200.
N15020 Z-18.847
N15025 X144.47
N15030 Z-19.046 F733.33
N15035 X148.329 F2200.
N15040 Z-18.847
N15045 X149.607
N15050 Z-19.046 F733.33
N15055 X153.466 F2200.
N15060 Z-18.847
N15065 X154.744
N15070 Z-19.046 F733.33
N15075 X158.603 F2200.
N15080 Z-18.847
N15085 X159.881
N15090 Z-19.046 F733.33
N15095 X163.74 F2200.
N15100 Z-18.847
N15105 X165.018
N15110 Z-19.046 F733.33
N15115 X168.877 F2200.
N15120 Z-18.847
N15125 X170.155
N15130 Z-19.046 F733.33
N15135 X174.014 F2200.
N15140 Z-18.847
N15145 X175.292
N15150 Z-19.046 F733.33
N15155 X179.152 F2200.
N15160 Z-18.847
N15165 X180.43
N15170 Z-19.046 F733.33
N15175 X184.289 F2200.
N15180 Z-18.847
N15185 X185.567
N15190 Z-19.046 F733.33
N15195 X189.426 F2200.
N15200 Z-18.847
N15205 X190.704
N15210 Z-19.046 F733.33
N15215 X194.563 F2200.
N15220 Z-18.847
N15225 X195.841
N15230 Z-19.046 F733.33
N15235 X199.7 F2200.
N15240 Z-18.847
N15245 X200.978
N15250 Z-19.046 F733.33
N15255 X204.837 F2200.
N15260 Z-18.847
N15265 X206.115
N15270 Z-19.046 F733.33
N15275 X209.974 F2200.
N15280 Z-18.847
N15285 X211.252
N15290 Z-19.046 F733.33
N15295 X215.111 F2200.
N15300 Z-18.847
N15305 X216.389
N15310 Z-19.046 F733.33
N15315 X220.249 F2200.
N15320 Z-18.847
N15325 X221.527
N15330 Z-19.046 F733.33
N15335 X225.386 F2200.
N15340 Z-18.847
N15345 X226.664
N15350 Z-19.046 F733.33
N15355 X230.523 F2200.
N15360 Z-18.847
N15365 X231.801
N15370 Z-19.046 F733.33
N15375 X235.66 F2200.
N15380 Z-18.847
N15385 X236.938
N15390 Z-19.046 F733.33
N15395 X240.797 F2200.
N15400 Z-18.847
N15405 X242.075
N15410 Z-19.046 F733.33
N15415 X245.934 F2200.
N15420 Z-18.847
N15425 X247.212
N15430 Z-19.046 F733.33
N15435 X251.071 F2200.
N15440 Z-18.847
N15445 X252.349
N15450 Z-19.046 F733.33
N15455 X256.208 F2200.
N15460 Z-18.847
N15465 X257.486
N15470 Z-19.046 F733.33
N15475 X261.346 F2200.
N15480 Z-18.847
N15485 X262.624
N15490 Z-19.046 F733.33
N15495 X266.483 F2200.
N15500 Z-18.847
N15505 X267.761
N15510 Z-19.046 F733.33
N15515 X271.62 F2200.
N15520 Z-18.847
N15525 X272.898
N15530 Z-19.046 F733.33
N15535 X276.757 F2200.
N15540 Z-18.847
N15545 X278.035
N15550 Z-19.046 F733.33
N15555 X281.894 F2200.
N15560 Z-18.847
N15565 X283.172
N15570 Z-19.046 F733.33
N15575 X287.031 F2200.
N15580 Z-18.847
N15585 X288.309
N15590 Z-19.046 F733.33
N15595 X292.168 F2200.
N15600 Z-18.847
N15605 X293.446
N15610 Z-19.046 F733.33
N15615 X297.305 F2200.
N15620 Z-18.847
N15625 X298.583
N15630 Z-19.046 F733.33
N15635 X302.443 F2200.
N15640 Z-18.847
N15645 X303.721
N15650 Z-19.046 F733.33
N15655 X307.58 F2200.
N15660 Z-18.847
N15665 X308.858
N15670 Z-19.046 F733.33
N15675 X312.717 F2200.
N15680 Z-18.847
N15685 X313.995
N15690 Z-19.046 F733.33
N15695 X317.854 F2200.
N15700 Z-18.847
N15705 X319.132
N15710 Z-19.046 F733.33
N15715 X322.991 F2200.
N15720 Z-18.847
N15725 X324.269
N15730 Z-19.046 F733.33
N15735 X328.128 F2200.
N15740 Z-18.847
N15745 X329.406
N15750 Z-19.046 F733.33
N15755 X333.265 F2200.
N15760 Z-18.847
N15765 X334.543
N15770 Z-19.046 F733.33
N15775 X338.402 F2200.
N15780 Z-18.847
N15785 X339.68
N15790 Z-19.046 F733.33
N15795 X343.54 F2200.
N15800 Z-18.847
N15805 X344.818
N15810 Z-19.046 F733.33
N15815 X348.677 F2200.
N15820 Z-18.847
N15825 X349.955
N15830 Z-19.046 F733.33
N15835 X353.814 F2200.
N15840 Z-18.847
N15845 X355.092
N15850 Z-19.046 F733.33
N15855 X358.951 F2200.
N15860 Z-18.847
N15865 X360.229
N15870 Z-19.046 F733.33
N15875 X364.088 F2200.
N15880 Z-18.847
N15885 X365.366
N15890 Z-19.046 F733.33
N15895 X369.225 F2200.
N15900 Z-18.847
N15905 X370.503
N15910 Z-19.046 F733.33
N15915 X374.362 F2200.
N15920 Z-18.847
N15925 X375.64
N15930 Z-19.046 F733.33
N15935 X379.499 F2200.
N15940 Z-18.847
N15945 X380.777
N15950 Z-19.046 F733.33
N15955 X384.637 F2200.
N15960 Z-18.847
N15965 X385.915
N15970 Z-19.046 F733.33
N15975 X389.774 F2200.
N15980 Z-18.847
N15985 X391.052
N15990 Z-19.046 F733.33
N15995 X394.911 F2200.
N16000 Z-18.847
N16005 X396.09
N16010 X396.099 Y108.269
N16015 X396.189 Y108.267
N16020 Z-19.046 F733.33
N16025 X396.829 Y108.249 F2200.
N16030 X396.845 Y108.248
N16035 X397.573 Y108.19
N16040 X397.591 Y108.189
N16045 X398.313 Y108.091
N16050 X398.33 Y108.088
N16055 X399.046 Y107.952
N16060 X399.063 Y107.948
N16065 X399.77 Y107.773
N16070 X399.786 Y107.769
N16075 X400.096 Y107.674
N16080 Z-18.847
N16085 X400.482 Y107.557
N16090 X400.498 Y107.551
N16095 X401.179 Y107.303
N16100 X401.196 Y107.297
N16105 X401.302 Y107.251
N16110 Z-19.046 F733.33
N16115 X401.862 Y107.012 F2200.
N16120 X401.877 Y107.005
N16125 X402.526 Y106.686
N16130 X402.542 Y106.677
N16135 X403.17 Y106.323
N16140 X403.184 Y106.315
N16145 X403.791 Y105.929
N16150 X403.806 Y105.919
N16155 X404.389 Y105.501
N16160 X404.403 Y105.49
N16165 X404.72 Y105.236
N16170 Z-18.847
N16175 X404.961 Y105.042
N16180 X404.974 Y105.031
N16185 X405.505 Y104.555
N16190 X405.518 Y104.543
N16195 X405.675 Y104.386
N16200 Z-19.046 F733.33
N16205 X406.021 Y104.04 F2200.
N16210 X406.033 Y104.027
N16215 X406.505 Y103.498
N16220 X406.517 Y103.484
N16225 X406.959 Y102.931
N16230 X406.969 Y102.917
N16235 X407.378 Y102.342
N16240 X407.388 Y102.328
N16245 X407.764 Y101.733
N16250 X407.773 Y101.717
N16255 X408.055 Y101.209
N16260 Z-18.847
N16265 X408.113 Y101.104
N16270 X408.121 Y101.088
N16275 X408.427 Y100.457
N16280 X408.435 Y100.441
N16285 X408.597 Y100.052
N16290 Z-19.046 F733.33
N16295 X408.704 Y99.796 F2200.
N16300 X408.71 Y99.78
N16305 X408.942 Y99.122
N16310 X408.948 Y99.105
N16315 X409.142 Y98.436
N16320 X409.146 Y98.418
N16325 X409.302 Y97.741
N16330 X409.306 Y97.723
N16335 X409.424 Y97.039
N16340 X409.426 Y97.02
N16345 X409.504 Y96.331
N16350 X409.506 Y96.313
N16355 X409.513 Y96.185
N16360 Z-18.847
N16365 X409.546 Y95.621
N16370 Y95.607
N16375 X409.551 Y95.255
N16380 X409.552 Y95.25
N16385 Y94.908
N16390 Z-19.046 F733.33
N16395 Y91.041 F2200.
N16400 Z-18.847
N16405 Y89.763
N16410 Z-19.046 F733.33
N16415 Y85.904 F2200.
N16420 Z-18.847
N16425 Y84.626
N16430 Z-19.046 F733.33
N16435 Y80.767 F2200.
N16440 Z-18.847
N16445 Y79.489
N16450 Z-19.046 F733.33
N16455 Y76.52 F2200.
N16460 X409.802
N16465 Z-18.847
N16470 X411.08
N16475 Z-19.046 F733.33
N16480 X414.939 F2200.
N16485 Z-18.847
N16490 X416.217
N16495 Z-19.046 F733.33
N16500 X420.076 F2200.
N16505 Z-18.847
N16510 X421.354
N16515 Z-19.046 F733.33
N16520 X425.213 F2200.
N16525 Z-18.847
N16530 X426.491
N16535 Z-19.046 F733.33
N16540 X430.35 F2200.
N16545 Z-18.847
N16550 X431.628
N16555 Z-19.046 F733.33
N16560 X435.488 F2200.
N16565 Z-18.847
N16570 X436.766
N16575 Z-19.046 F733.33
N16580 X440.625 F2200.
N16585 Z-18.847
N16590 X441.903
N16595 Z-19.046 F733.33
N16600 X445.762 F2200.
N16605 Z-18.847
N16610 X447.04
N16615 Z-19.046 F733.33
N16620 X450.899 F2200.
N16625 Z-18.847
N16630 X452.177
N16635 Z-19.046 F733.33
N16640 X456.036 F2200.
N16645 Z-18.847
N16650 X457.314
N16655 Z-19.046 F733.33
N16660 X461.173 F2200.
N16665 Z-18.847
N16670 X462.451
N16675 Z-19.046 F733.33
N16680 X466.31 F2200.
N16685 Z-18.847
N16690 X467.588
N16695 Z-19.046 F733.33
N16700 X471.447 F2200.
N16705 Z-18.847
N16710 X472.725
N16715 Z-19.046 F733.33
N16720 X476.585 F2200.
N16725 Z-18.847
N16730 X477.863
N16735 Z-19.046 F733.33
N16740 X481.722 F2200.
N16745 Z-18.847
N16750 X483.
N16755 Z-19.046 F733.33
N16760 X486.851 F2200.
N16765 G2 X487.171 Y76.2 I0. J-0.32
N16770 G1 Y76.192
N16775 Z-18.847
N16780 Y74.914
N16785 Z-19.046 F733.33
N16790 Y71.055 F2200.
N16795 Z-18.847
N16800 Y69.777
N16805 Z-19.046 F733.33
N16810 Y68.683 F2200.
N16815 X487.166 Y68.632
N16820 X487.154 Y68.582
N16825 X487.134 Y68.534
N16830 G2 X485.721 Y66.118 I-28.363 J14.966
N16835 G1 Z-18.847
N16840 G2 X485.007 Y65.058 I-26.95 J17.382
N16845 G1 Z-19.046 F733.33
N16850 G2 X482.569 Y62.004 I-26.236 J18.442 F2200.
N16855 G1 Z-18.847
N16860 G2 X481.693 Y61.073 I-23.798 J21.497
N16865 G1 Z-19.046 F733.33
N16870 G2 X478.795 Y58.451 I-22.923 J22.428 F2200.
N16875 G1 Z-18.847
N16880 G2 X477.781 Y57.673 I-20.024 J25.05
N16885 G1 Z-19.046 F733.33
N16890 G2 X474.498 Y55.552 I-19.01 J25.828 F2200.
N16895 G1 Z-18.847
N16900 G2 X473.372 Y54.948 I-15.728 J27.948
N16905 G1 Z-19.046 F733.33
N16910 G2 X469.79 Y53.384 I-14.602 J28.553 F2200.
N16915 G1 Z-18.847
N16920 G2 X468.581 Y52.968 I-11.02 J30.117
N16925 G1 Z-19.046 F733.33
N16930 G2 X464.8 Y52.003 I-9.811 J30.532 F2200.
N16935 G1 Z-18.847
N16940 X464.68 Y51.98
N16945 X463.544 Y51.767
N16950 Z-19.046 F733.33
N16955 X460.768 Y51.246 F2200.
N16960 X460.744 Y51.237
N16965 X460.727 Y51.22
N16970 X460.717 Y51.197
N16975 X460.716 Y51.172
N16980 X460.728 Y51.109
N16985 X460.733 Y51.085 Z-19.042
N16990 X460.737 Y51.065 Z-19.028
N16995 X460.739 Y51.051 Z-19.007
N17000 X460.74 Y51.046 Z-18.983
N17005 Z15.
N17010 X18.544 Y150.645
N17015 Z7.35
N17020 Z-6.286 F733.33
N17025 X18.549 Z-6.311 F2200.
N17030 X18.563 Y150.644 Z-6.331
N17035 X18.584 Z-6.345
N17040 X18.608 Y150.643 Z-6.35
N17045 X18.672 Y150.64
N17050 X18.697 Y150.644
N17055 X18.718 Y150.657
N17060 X18.733 Y150.677
N17065 X18.738 Y150.701
N17070 X18.782 Y151.77
N17075 X18.783 Y151.782
N17080 X18.866 Y152.849
N17085 X18.867 Y152.86
N17090 X18.989 Y153.923
N17095 X18.991 Y153.935
N17100 X19.152 Y154.993
N17105 X19.154 Y155.005
N17110 X19.354 Y156.056
N17115 X19.356 Y156.067
N17120 X19.594 Y157.11
N17125 X19.597 Y157.122
N17130 X19.873 Y158.154
N17135 X19.876 Y158.166
N17140 X20.19 Y159.189
N17145 X20.193 Y159.2
N17150 X20.544 Y160.211
N17155 X20.548 Y160.222
N17160 X20.936 Y161.219
N17165 X20.941 Y161.23
N17170 X21.365 Y162.212
N17175 X21.37 Y162.222
N17180 X21.829 Y163.189
N17185 X21.835 Y163.2
N17190 X22.329 Y164.148
N17195 X22.335 Y164.158
N17200 X22.864 Y165.088
N17205 X22.87 Y165.098
N17210 X23.433 Y166.008
N17215 X23.44 Y166.018
N17220 X24.036 Y166.907
N17225 X24.042 Y166.917
N17230 X24.67 Y167.783
N17235 X24.677 Y167.792
N17240 X25.337 Y168.634
N17245 X25.344 Y168.643
N17250 X26.034 Y169.461
N17255 X26.042 Y169.47
N17260 X26.761 Y170.262
N17265 X26.769 Y170.27
N17270 X27.517 Y171.036
N17275 X27.525 Y171.045
N17280 X28.301 Y171.782
N17285 X28.309 Y171.789
N17290 X29.111 Y172.498
N17295 X29.12 Y172.506
N17300 X29.948 Y173.184
N17305 X29.957 Y173.191
N17310 X30.808 Y173.839
N17315 X30.818 Y173.846
N17320 X31.693 Y174.462
N17325 X31.702 Y174.469
N17330 X32.599 Y175.053
N17335 X32.609 Y175.059
N17340 X33.527 Y175.61
N17345 X33.537 Y175.616
N17350 X34.474 Y176.132
N17355 X34.484 Y176.137
N17360 X35.44 Y176.619
N17365 X35.45 Y176.624
N17370 X36.423 Y177.071
N17375 X36.434 Y177.076
N17380 X37.422 Y177.486
N17385 X37.432 Y177.49
N17390 X38.435 Y177.865
N17395 X38.446 Y177.869
N17400 X39.462 Y178.206
N17405 X39.473 Y178.21
N17410 X40.5 Y178.51
N17415 X40.512 Y178.513
N17420 X41.549 Y178.775
N17425 X41.561 Y178.777
N17430 X42.607 Y179.
N17435 X42.618 Y179.003
N17440 X43.672 Y179.189
N17445 X43.684 Y179.191
N17450 X44.744 Y179.337
N17455 X44.756 Y179.338
N17460 X45.82 Y179.446
N17465 X45.831 Y179.447
N17470 X46.765 Y179.509
N17475 X46.77
N17480 X588.369 Y206.867
N17485 G2 X588.694 Y206.63 I0.016 J-0.319
N17490 G1 X611.542 Y120.732
N17495 G2 X611.233 Y120.33 I-0.309 J-0.082
N17500 G1 X48.269
N17505 X48.263 Y120.331
N17510 X47.193 Y120.351
N17515 X47.181
N17520 X46.113 Y120.409
N17525 X46.101 Y120.41
N17530 X45.035 Y120.508
N17535 X45.023 Y120.509
N17540 X43.962 Y120.646
N17545 X43.95 Y120.648
N17550 X42.895 Y120.824
N17555 X42.883 Y120.826
N17560 X41.835 Y121.04
N17565 X41.823 Y121.042
N17570 X40.784 Y121.294
N17575 X40.772 Y121.298
N17580 X39.742 Y121.589
N17585 X39.731 Y121.592
N17590 X38.712 Y121.919
N17595 X38.701 Y121.923
N17600 X37.695 Y122.288
N17605 X37.684 Y122.292
N17610 X36.692 Y122.694
N17615 X36.681 Y122.698
N17620 X35.705 Y123.136
N17625 X35.694 Y123.141
N17630 X34.734 Y123.614
N17635 X34.724 Y123.62
N17640 X33.782 Y124.128
N17645 X33.772 Y124.134
N17650 X32.849 Y124.676
N17655 X32.839 Y124.682
N17660 X31.937 Y125.257
N17665 X31.927 Y125.263
N17670 X31.047 Y125.871
N17675 X31.037 Y125.878
N17680 X30.18 Y126.518
N17685 X30.171 Y126.525
N17690 X29.337 Y127.196
N17695 X29.328 Y127.204
N17700 X28.52 Y127.905
N17705 X28.511 Y127.912
N17710 X27.729 Y128.642
N17715 X27.72 Y128.651
N17720 X26.965 Y129.41
N17725 X26.957 Y129.418
N17730 X26.231 Y130.203
N17735 X26.223 Y130.212
N17740 X25.525 Y131.024
N17745 X25.518 Y131.033
N17750 X24.851 Y131.869
N17755 X24.844 Y131.878
N17760 X24.208 Y132.739
N17765 X24.201 Y132.749
N17770 X23.597 Y133.632
N17775 X23.59 Y133.641
N17780 X23.019 Y134.545
N17785 X23.013 Y134.555
N17790 X22.475 Y135.48
N17795 X22.469 Y135.491
N17800 X21.966 Y136.435
N17805 X21.96 Y136.445
N17810 X21.492 Y137.407
N17815 X21.487 Y137.418
N17820 X21.054 Y138.396
N17825 X21.049 Y138.406
N17830 X20.652 Y139.4
N17835 X20.648 Y139.411
N17840 X20.288 Y140.418
N17845 X20.284 Y140.43
N17850 X19.961 Y141.45
N17855 X19.958 Y141.461
N17860 X19.672 Y142.492
N17865 X19.669 Y142.503
N17870 X19.421 Y143.544
N17875 X19.419 Y143.555
N17880 X19.21 Y144.604
N17885 X19.207 Y144.616
N17890 X19.037 Y145.673
N17895 X19.035 Y145.685
N17900 X18.903 Y146.746
N17905 X18.902 Y146.757
N17910 X18.809 Y147.823
N17915 X18.808 Y147.832
N17920 X18.777 Y148.362
N17925 Y148.365
N17930 X18.768 Y148.533
N17935 Y148.539
N17940 X18.733 Y149.609
N17945 Y149.62
N17950 X18.738 Y150.689
N17955 Y150.701
N17960 X18.735 Y150.726
N17965 X18.722 Y150.747
N17970 X18.701 Y150.762
N17975 X18.677 Y150.768
N17980 X18.613 Y150.77
N17985 X18.589 Y150.771 Z-6.345
N17990 X18.568 Y150.772 Z-6.331
N17995 X18.554 Y150.773 Z-6.311
N18000 X18.549 Z-6.286
N18005 Z7.35
N18010 X18.544 Y150.645
N18015 Z5.
N18020 Z1. F733.33
N18025 Z-12.636
N18030 X18.549 Z-12.661 F2200.
N18035 X18.563 Y150.644 Z-12.681
N18040 X18.584 Z-12.695
N18045 X18.608 Y150.643 Z-12.7
N18050 X18.672 Y150.64
N18055 X18.697 Y150.644
N18060 X18.718 Y150.657
N18065 X18.733 Y150.677
N18070 X18.738 Y150.701
N18075 X18.782 Y151.77
N18080 X18.783 Y151.782
N18085 X18.866 Y152.849
N18090 X18.867 Y152.86
N18095 X18.989 Y153.923
N18100 X18.991 Y153.935
N18105 X19.152 Y154.993
N18110 X19.154 Y155.005
N18115 X19.354 Y156.056
N18120 X19.356 Y156.067
N18125 X19.594 Y157.11
N18130 X19.597 Y157.122
N18135 X19.873 Y158.154
N18140 X19.876 Y158.166
N18145 X20.19 Y159.189
N18150 X20.193 Y159.2
N18155 X20.544 Y160.211
N18160 X20.548 Y160.222
N18165 X20.936 Y161.219
N18170 X20.941 Y161.23
N18175 X21.365 Y162.212
N18180 X21.37 Y162.222
N18185 X21.829 Y163.189
N18190 X21.835 Y163.2
N18195 X22.329 Y164.148
N18200 X22.335 Y164.158
N18205 X22.864 Y165.088
N18210 X22.87 Y165.098
N18215 X23.433 Y166.008
N18220 X23.44 Y166.018
N18225 X24.036 Y166.907
N18230 X24.042 Y166.917
N18235 X24.67 Y167.783
N18240 X24.677 Y167.792
N18245 X25.337 Y168.634
N18250 X25.344 Y168.643
N18255 X26.034 Y169.461
N18260 X26.042 Y169.47
N18265 X26.761 Y170.262
N18270 X26.769 Y170.27
N18275 X27.517 Y171.036
N18280 X27.525 Y171.045
N18285 X28.301 Y171.782
N18290 X28.309 Y171.789
N18295 X29.111 Y172.498
N18300 X29.12 Y172.506
N18305 X29.948 Y173.184
N18310 X29.957 Y173.191
N18315 X30.808 Y173.839
N18320 X30.818 Y173.846
N18325 X31.693 Y174.462
N18330 X31.702 Y174.469
N18335 X32.599 Y175.053
N18340 X32.609 Y175.059
N18345 X33.527 Y175.61
N18350 X33.537 Y175.616
N18355 X34.474 Y176.132
N18360 X34.484 Y176.137
N18365 X35.44 Y176.619
N18370 X35.45 Y176.624
N18375 X36.423 Y177.071
N18380 X36.434 Y177.076
N18385 X37.422 Y177.486
N18390 X37.432 Y177.49
N18395 X38.435 Y177.865
N18400 X38.446 Y177.869
N18405 X39.462 Y178.206
N18410 X39.473 Y178.21
N18415 X40.5 Y178.51
N18420 X40.512 Y178.513
N18425 X41.549 Y178.775
N18430 X41.561 Y178.777
N18435 X42.607 Y179.
N18440 X42.618 Y179.003
N18445 X43.672 Y179.189
N18450 X43.684 Y179.191
N18455 X44.744 Y179.337
N18460 X44.756 Y179.338
N18465 X45.82 Y179.446
N18470 X45.831 Y179.447
N18475 X46.765 Y179.509
N18480 X46.77
N18485 X588.369 Y206.867
N18490 G2 X588.694 Y206.63 I0.016 J-0.319
N18495 G1 X611.542 Y120.732
N18500 G2 X611.233 Y120.33 I-0.309 J-0.082
N18505 G1 X48.269
N18510 X48.263 Y120.331
N18515 X47.193 Y120.351
N18520 X47.181
N18525 X46.113 Y120.409
N18530 X46.101 Y120.41
N18535 X45.035 Y120.508
N18540 X45.023 Y120.509
N18545 X43.962 Y120.646
N18550 X43.95 Y120.648
N18555 X42.895 Y120.824
N18560 X42.883 Y120.826
N18565 X41.835 Y121.04
N18570 X41.823 Y121.042
N18575 X40.784 Y121.294
N18580 X40.772 Y121.298
N18585 X39.742 Y121.589
N18590 X39.731 Y121.592
N18595 X38.712 Y121.919
N18600 X38.701 Y121.923
N18605 X37.695 Y122.288
N18610 X37.684 Y122.292
N18615 X36.692 Y122.694
N18620 X36.681 Y122.698
N18625 X35.705 Y123.136
N18630 X35.694 Y123.141
N18635 X34.734 Y123.614
N18640 X34.724 Y123.62
N18645 X33.782 Y124.128
N18650 X33.772 Y124.134
N18655 X32.849 Y124.676
N18660 X32.839 Y124.682
N18665 X31.937 Y125.257
N18670 X31.927 Y125.263
N18675 X31.047 Y125.871
N18680 X31.037 Y125.878
N18685 X30.18 Y126.518
N18690 X30.171 Y126.525
N18695 X29.337 Y127.196
N18700 X29.328 Y127.204
N18705 X28.52 Y127.905
N18710 X28.511 Y127.912
N18715 X27.729 Y128.642
N18720 X27.72 Y128.651
N18725 X26.965 Y129.41
N18730 X26.957 Y129.418
N18735 X26.231 Y130.203
N18740 X26.223 Y130.212
N18745 X25.525 Y131.024
N18750 X25.518 Y131.033
N18755 X24.851 Y131.869
N18760 X24.844 Y131.878
N18765 X24.208 Y132.739
N18770 X24.201 Y132.749
N18775 X23.597 Y133.632
N18780 X23.59 Y133.641
N18785 X23.019 Y134.545
N18790 X23.013 Y134.555
N18795 X22.475 Y135.48
N18800 X22.469 Y135.491
N18805 X21.966 Y136.435
N18810 X21.96 Y136.445
N18815 X21.492 Y137.407
N18820 X21.487 Y137.418
N18825 X21.054 Y138.396
N18830 X21.049 Y138.406
N18835 X20.652 Y139.4
N18840 X20.648 Y139.411
N18845 X20.288 Y140.418
N18850 X20.284 Y140.43
N18855 X19.961 Y141.45
N18860 X19.958 Y141.461
N18865 X19.672 Y142.492
N18870 X19.669 Y142.503
N18875 X19.421 Y143.544
N18880 X19.419 Y143.555
N18885 X19.21 Y144.604
N18890 X19.207 Y144.616
N18895 X19.037 Y145.673
N18900 X19.035 Y145.685
N18905 X18.903 Y146.746
N18910 X18.902 Y146.757
N18915 X18.809 Y147.823
N18920 X18.808 Y147.832
N18925 X18.777 Y148.362
N18930 Y148.365
N18935 X18.768 Y148.533
N18940 Y148.539
N18945 X18.733 Y149.609
N18950 Y149.62
N18955 X18.738 Y150.689
N18960 Y150.701
N18965 X18.735 Y150.726
N18970 X18.722 Y150.747
N18975 X18.701 Y150.762
N18980 X18.677 Y150.768
N18985 X18.613 Y150.77
N18990 X18.589 Y150.771 Z-12.695
N18995 X18.568 Y150.772 Z-12.681
N19000 X18.554 Y150.773 Z-12.661
N19005 X18.549 Z-12.636
N19010 Z7.35
N19015 X18.544 Y150.645
N19020 Z5.
N19025 Z-5.35 F733.33
N19030 Z-18.986
N19035 X18.549 Z-19.011 F2200.
N19040 X18.563 Y150.644 Z-19.031
N19045 X18.584 Z-19.045
N19050 X18.608 Y150.643 Z-19.05
N19055 X18.672 Y150.64
N19060 X18.697 Y150.644
N19065 X18.718 Y150.657
N19070 X18.733 Y150.677
N19075 X18.738 Y150.701
N19080 X18.782 Y151.77
N19085 X18.783 Y151.782
N19090 X18.866 Y152.849
N19095 X18.867 Y152.86
N19100 X18.989 Y153.923
N19105 X18.991 Y153.935
N19110 X19.152 Y154.993
N19115 X19.154 Y155.005
N19120 X19.354 Y156.056
N19125 X19.356 Y156.067
N19130 X19.594 Y157.11
N19135 X19.597 Y157.122
N19140 X19.873 Y158.154
N19145 X19.876 Y158.166
N19150 X20.19 Y159.189
N19155 X20.193 Y159.2
N19160 X20.544 Y160.211
N19165 X20.548 Y160.222
N19170 X20.936 Y161.219
N19175 X20.941 Y161.23
N19180 X21.365 Y162.212
N19185 X21.37 Y162.222
N19190 X21.829 Y163.189
N19195 X21.835 Y163.2
N19200 X22.329 Y164.148
N19205 X22.335 Y164.158
N19210 X22.864 Y165.088
N19215 X22.87 Y165.098
N19220 X23.433 Y166.008
N19225 X23.44 Y166.018
N19230 X24.036 Y166.907
N19235 X24.042 Y166.917
N19240 X24.67 Y167.783
N19245 X24.677 Y167.792
N19250 X25.337 Y168.634
N19255 X25.344 Y168.643
N19260 X26.034 Y169.461
N19265 X26.042 Y169.47
N19270 X26.761 Y170.262
N19275 X26.769 Y170.27
N19280 X27.517 Y171.036
N19285 X27.525 Y171.045
N19290 X28.301 Y171.782
N19295 X28.309 Y171.789
N19300 X29.111 Y172.498
N19305 X29.12 Y172.506
N19310 X29.948 Y173.184
N19315 X29.957 Y173.191
N19320 X30.808 Y173.839
N19325 X30.818 Y173.846
N19330 X31.693 Y174.462
N19335 X31.702 Y174.469
N19340 X32.599 Y175.053
N19345 X32.609 Y175.059
N19350 X33.527 Y175.61
N19355 X33.537 Y175.616
N19360 X34.474 Y176.132
N19365 X34.484 Y176.137
N19370 X35.44 Y176.619
N19375 X35.45 Y176.624
N19380 X36.423 Y177.071
N19385 X36.434 Y177.076
N19390 X37.422 Y177.486
N19395 X37.432 Y177.49
N19400 X38.435 Y177.865
N19405 X38.446 Y177.869
N19410 X39.462 Y178.206
N19415 X39.473 Y178.21
N19420 X40.5 Y178.51
N19425 X40.512 Y178.513
N19430 X41.549 Y178.775
N19435 X41.561 Y178.777
N19440 X42.607 Y179.
N19445 X42.618 Y179.003
N19450 X43.672 Y179.189
N19455 X43.684 Y179.191
N19460 X44.744 Y179.337
N19465 X44.756 Y179.338
N19470 X45.82 Y179.446
N19475 X45.831 Y179.447
N19480 X46.765 Y179.509
N19485 X46.77
N19490 X588.369 Y206.867
N19495 G2 X588.694 Y206.63 I0.016 J-0.319
N19500 G1 X611.542 Y120.732
N19505 G2 X611.233 Y120.33 I-0.309 J-0.082
N19510 G1 X48.269
N19515 X48.263 Y120.331
N19520 X47.193 Y120.351
N19525 X47.181
N19530 X46.113 Y120.409
N19535 X46.101 Y120.41
N19540 X45.035 Y120.508
N19545 X45.023 Y120.509
N19550 X43.962 Y120.646
N19555 X43.95 Y120.648
N19560 X42.895 Y120.824
N19565 X42.883 Y120.826
N19570 X41.835 Y121.04
N19575 X41.823 Y121.042
N19580 X40.784 Y121.294
N19585 X40.772 Y121.298
N19590 X39.742 Y121.589
N19595 X39.731 Y121.592
N19600 X38.712 Y121.919
N19605 X38.701 Y121.923
N19610 X37.695 Y122.288
N19615 X37.684 Y122.292
N19620 X36.692 Y122.694
N19625 X36.681 Y122.698
N19630 X35.705 Y123.136
N19635 X35.694 Y123.141
N19640 X34.734 Y123.614
N19645 X34.724 Y123.62
N19650 X33.782 Y124.128
N19655 X33.772 Y124.134
N19660 X32.849 Y124.676
N19665 X32.839 Y124.682
N19670 X31.937 Y125.257
N19675 X31.927 Y125.263
N19680 X31.047 Y125.871
N19685 X31.037 Y125.878
N19690 X30.18 Y126.518
N19695 X30.171 Y126.525
N19700 X29.337 Y127.196
N19705 X29.328 Y127.204
N19710 X28.52 Y127.905
N19715 X28.511 Y127.912
N19720 X27.729 Y128.642
N19725 X27.72 Y128.651
N19730 X26.965 Y129.41
N19735 X26.957 Y129.418
N19740 X26.231 Y130.203
N19745 X26.223 Y130.212
N19750 X25.525 Y131.024
N19755 X25.518 Y131.033
N19760 X24.851 Y131.869
N19765 X24.844 Y131.878
N19770 X24.208 Y132.739
N19775 X24.201 Y132.749
N19780 X23.597 Y133.632
N19785 X23.59 Y133.641
N19790 X23.019 Y134.545
N19795 X23.013 Y134.555
N19800 X22.475 Y135.48
N19805 X22.469 Y135.491
N19810 X21.966 Y136.435
N19815 X21.96 Y136.445
N19820 X21.492 Y137.407
N19825 X21.487 Y137.418
N19830 X21.054 Y138.396
N19835 X21.049 Y138.406
N19840 X20.652 Y139.4
N19845 X20.648 Y139.411
N19850 X20.288 Y140.418
N19855 X20.284 Y140.43
N19860 X19.961 Y141.45
N19865 X19.958 Y141.461
N19870 X19.672 Y142.492
N19875 X19.669 Y142.503
N19880 X19.421 Y143.544
N19885 X19.419 Y143.555
N19890 X19.21 Y144.604
N19895 X19.207 Y144.616
N19900 X19.037 Y145.673
N19905 X19.035 Y145.685
N19910 X18.903 Y146.746
N19915 X18.902 Y146.757
N19920 X18.809 Y147.823
N19925 X18.808 Y147.832
N19930 X18.777 Y148.362
N19935 Y148.365
N19940 X18.768 Y148.533
N19945 Y148.539
N19950 X18.733 Y149.609
N19955 Y149.62
N19960 X18.738 Y150.689
N19965 Y150.701
N19970 X18.735 Y150.726
N19975 X18.722 Y150.747
N19980 X18.701 Y150.762
N19985 X18.677 Y150.768
N19990 X18.613 Y150.77
N19995 X18.589 Y150.771 Z-19.045
N20000 X18.568 Y150.772 Z-19.031
N20005 X18.554 Y150.773 Z-19.011
N20010 X18.549 Z-18.986
N20015 Z7.35
N20020 X18.544 Y150.645
N20025 Z5.
N20030 Z-11.7 F733.33
N20035 Z-20.498
N20040 X18.608 Y150.643 F2200.
N20045 X18.672 Y150.64
N20050 X18.697 Y150.644
N20055 X18.718 Y150.657
N20060 X18.733 Y150.677
N20065 X18.738 Y150.701
N20070 X18.775 Y151.587
N20075 Z-20.698 F733.33
N20080 X18.782 Y151.77 F2200.
N20085 X18.783 Y151.782
N20090 X18.866 Y152.849
N20095 X18.867 Y152.86
N20100 X18.989 Y153.923
N20105 X18.991 Y153.935
N20110 X19.152 Y154.993
N20115 X19.154 Y155.005
N20120 X19.239 Y155.452
N20125 Z-20.498
N20130 X19.354 Y156.056
N20135 X19.356 Y156.067
N20140 X19.501 Y156.703
N20145 Z-20.698 F733.33
N20150 X19.594 Y157.11 F2200.
N20155 X19.597 Y157.122
N20160 X19.873 Y158.154
N20165 X19.876 Y158.166
N20170 X20.19 Y159.189
N20175 X20.193 Y159.2
N20180 X20.544 Y160.211
N20185 X20.548 Y160.222
N20190 X20.629 Y160.428
N20195 Z-20.498
N20200 X20.936 Y161.219
N20205 X20.941 Y161.23
N20210 X21.107 Y161.614
N20215 Z-20.698 F733.33
N20220 X21.365 Y162.212 F2200.
N20225 X21.37 Y162.222
N20230 X21.829 Y163.189
N20235 X21.835 Y163.2
N20240 X22.329 Y164.148
N20245 X22.335 Y164.158
N20250 X22.864 Y165.087
N20255 Z-20.498
N20260 Y165.088
N20265 X22.87 Y165.098
N20270 X23.433 Y166.008
N20275 X23.44 Y166.018
N20280 X23.542 Y166.17
N20285 Z-20.698 F733.33
N20290 X24.036 Y166.907 F2200.
N20295 X24.042 Y166.917
N20300 X24.67 Y167.783
N20305 X24.677 Y167.792
N20310 X25.337 Y168.634
N20315 X25.344 Y168.643
N20320 X25.882 Y169.28
N20325 Z-20.498
N20330 X26.034 Y169.461
N20335 X26.042 Y169.47
N20340 X26.734 Y170.232
N20345 Z-20.698 F733.33
N20350 X26.761 Y170.262 F2200.
N20355 X26.769 Y170.27
N20360 X27.517 Y171.036
N20365 X27.525 Y171.045
N20370 X28.301 Y171.782
N20375 X28.309 Y171.789
N20380 X29.111 Y172.498
N20385 X29.12 Y172.506
N20390 X29.583 Y172.885
N20395 Z-20.498
N20400 X29.948 Y173.184
N20405 X29.957 Y173.191
N20410 X30.59 Y173.673
N20415 Z-20.698 F733.33
N20420 X30.808 Y173.839 F2200.
N20425 X30.818 Y173.846
N20430 X31.693 Y174.462
N20435 X31.702 Y174.469
N20440 X32.599 Y175.053
N20445 X32.609 Y175.059
N20450 X33.527 Y175.61
N20455 X33.537 Y175.616
N20460 X33.855 Y175.791
N20465 Z-20.498
N20470 X34.474 Y176.132
N20475 X34.484 Y176.137
N20480 X34.984 Y176.389
N20485 Z-20.698 F733.33
N20490 X35.44 Y176.619 F2200.
N20495 X35.45 Y176.624
N20500 X36.423 Y177.071
N20505 X36.434 Y177.076
