%
(CHAIR_BACKLEG)
(T3 D=0.639 CR=0. - ZMIN=-20.525 - FLAT END MILL)
N10 G90 G94 G17 G91.1
N15 G21
(WHEN USING FUSION 360 FOR PERSONAL USE, THE FEEDRATE OF)
(RAPID MOVES IS REDUCED TO MATCH THE FEEDRATE OF CUTTING)
(MOVES, WHICH CAN INCREASE MACHINING TIME. UNRESTRICTED RAPID)
(MOVES ARE AVAILABLE WITH A FUSION 360 SUBSCRIPTION.)
N20 G53 G0 Z0.
(2D CONTOUR1)
N25 T3 M6
N30 S10000 M3
N35 G17 G90 G94
N40 G54
N45 G64 P0.01 Q0.01
N50 G0 X789.367 Y15.946
N55 G43 Z15. H3
N60 G1 Z7.35 F2200.
N65 Z-6.286 F733.33
N70 X789.362 Y15.945 Z-6.311 F2200.
N75 X789.348 Y15.943 Z-6.331
N80 X789.328 Y15.941 Z-6.345
N85 X789.303 Y15.937 Z-6.35
N90 X789.24 Y15.929
N95 X789.216 Y15.921
N100 X789.198 Y15.905
N105 X789.187 Y15.882
N110 X789.185 Y15.858
N115 X789.186 Y15.845
N120 X789.231 Y15.348
N125 X789.232 Y15.323
N130 X789.238 Y14.825
N135 Y14.8
N140 X789.205 Y14.302
N145 X789.202 Y14.277
N150 X789.13 Y13.783
N155 X789.125 Y13.758
N160 X789.014 Y13.272
N165 X789.008 Y13.248
N170 X788.86 Y12.772
N175 X788.852 Y12.748
N180 X788.665 Y12.285
N185 X788.655 Y12.262
N190 X788.434 Y11.815
N195 X788.422 Y11.793
N200 X788.166 Y11.365
N205 X788.153 Y11.344
N210 X787.865 Y10.937
N215 X787.849 Y10.917
N220 X787.529 Y10.534
N225 X787.512 Y10.515
N230 X787.163 Y10.158
N235 X787.145 Y10.141
N240 X786.77 Y9.813
N245 X786.751 Y9.797
N250 X786.351 Y9.499
N255 X786.33 Y9.485
N260 X785.907 Y9.22
N265 X785.885 Y9.207
N270 X785.443 Y8.976
N275 X785.421 Y8.965
N280 X784.963 Y8.769
N285 X784.939 Y8.76
N290 X784.466 Y8.6
N295 X784.451 Y8.596
N300 X784.308 Y8.555
N305 X784.304 Y8.554
N310 X759.418 Y1.862
N315 X759.414 Y1.861
N320 X758.047 Y1.514
N325 X758.038 Y1.512
N330 X756.661 Y1.202
N335 X756.652 Y1.2
N340 X755.267 Y0.929
N345 X755.259 Y0.928
N350 X753.867 Y0.695
N355 X753.858 Y0.694
N360 X752.46 Y0.5
N365 X752.451 Y0.499
N370 X751.048 Y0.344
N375 X751.039
N380 X749.633 Y0.228
N385 X749.624 Y0.227
N390 X748.215 Y0.151
N395 X748.206 Y0.15
N400 X746.795 Y0.113
N405 X746.787
N410 X745.376 Y0.114
N415 X745.367
N420 X743.956 Y0.155
N425 X743.947 Y0.156
N430 X742.538 Y0.236
N435 X742.529
N440 X741.123 Y0.356
N445 X741.114
N450 X739.712 Y0.515
N455 X739.703 Y0.516
N460 X738.305 Y0.713
N465 X738.297 Y0.714
N470 X736.906 Y0.95
N475 X736.897 Y0.952
N480 X735.513 Y1.226
N485 X735.504 Y1.228
N490 X734.127 Y1.541
N495 X734.119 Y1.543
N500 X732.753 Y1.893
N505 X732.744 Y1.896
N510 X731.387 Y2.284
N515 X731.378 Y2.287
N520 X730.034 Y2.713
N525 X730.028 Y2.715
N530 X729.599 Y2.86
N535 X729.598
N540 X536.156 Y69.029
N545 X532.882 Y70.128
N550 X529.596 Y71.19
N555 X526.299 Y72.214
N560 X522.989 Y73.201
N565 X519.669 Y74.151
N570 X516.338 Y75.063
N575 X512.998 Y75.937
N580 X509.647 Y76.773
N585 X506.288 Y77.571
N590 X502.918 Y78.33
N595 X499.542 Y79.052
N600 X496.157 Y79.735
N605 X492.764 Y80.38
N610 X489.365 Y80.986
N615 X485.958 Y81.554
N620 X482.546 Y82.083
N625 X479.128 Y82.573
N630 X475.704 Y83.025
N635 X472.276 Y83.437
N640 X468.843 Y83.811
N645 X465.406 Y84.146
N650 X461.965 Y84.442
N655 X458.522 Y84.698
N660 X455.076 Y84.916
N665 X451.627 Y85.095
N670 X448.176 Y85.234
N675 X444.724 Y85.334
N680 X444.515 Y85.339
N685 X28.588 Y94.778
N690 X28.583
N695 X27.518 Y94.822
N700 X27.506 Y94.823
N705 X26.444 Y94.905
N710 X26.432 Y94.907
N715 X25.374 Y95.028
N720 X25.362 Y95.03
N725 X24.309 Y95.191
N730 X24.298 Y95.193
N735 X23.251 Y95.392
N740 X23.239 Y95.395
N745 X22.201 Y95.632
N750 X22.189 Y95.635
N755 X21.16 Y95.911
N760 X21.149 Y95.914
N765 X20.131 Y96.228
N770 X20.12 Y96.231
N775 X19.114 Y96.582
N780 X19.102 Y96.586
N785 X18.11 Y96.974
N790 X18.099 Y96.978
N795 X17.122 Y97.402
N800 X17.111 Y97.407
N805 X16.15 Y97.866
N810 X16.139 Y97.871
N815 X15.195 Y98.366
N820 X15.185 Y98.372
N825 X14.26 Y98.901
N830 X14.25 Y98.907
N835 X13.345 Y99.469
N840 X13.335 Y99.475
N845 X12.452 Y100.071
N850 X12.442 Y100.078
N855 X11.581 Y100.705
N860 X11.572 Y100.712
N865 X10.735 Y101.371
N870 X10.726 Y101.378
N875 X9.913 Y102.067
N880 X9.904 Y102.075
N885 X9.117 Y102.794
N890 X9.109 Y102.802
N895 X8.349 Y103.549
N900 X8.341 Y103.558
N905 X7.61 Y104.332
N910 X7.602 Y104.34
N915 X6.899 Y105.141
N920 X6.891 Y105.15
N925 X6.219 Y105.976
N930 X6.211 Y105.986
N935 X5.569 Y106.837
N940 X5.563 Y106.846
N945 X4.952 Y107.719
N950 X4.946 Y107.729
N955 X4.368 Y108.624
N960 X4.362 Y108.634
N965 X3.818 Y109.55
N970 X3.812 Y109.56
N975 X3.302 Y110.495
N980 X3.296 Y110.505
N985 X2.821 Y111.459
N990 X2.816 Y111.47
N995 X2.376 Y112.44
N1000 X2.371 Y112.451
N1005 X1.967 Y113.437
N1010 X1.963 Y113.448
N1015 X1.595 Y114.448
N1020 X1.591 Y114.459
N1025 X1.261 Y115.471
N1030 X1.257 Y115.482
N1035 X0.964 Y116.507
N1040 X0.961 Y116.518
N1045 X0.706 Y117.552
N1050 X0.703 Y117.564
N1055 X0.487 Y118.607
N1060 X0.484 Y118.618
N1065 X0.306 Y119.668
N1070 X0.304 Y119.68
N1075 X0.165 Y120.737
N1080 X0.163 Y120.749
N1085 X0.063 Y121.809
N1090 X0.062 Y121.821
N1095 X0. Y122.885
N1100 Y122.891
N1105 X-0.002 Y122.929
N1110 X-0.038 Y123.876
N1115 Y123.882
N1120 X-0.059 Y124.947
N1125 Y124.958
N1130 X-0.041 Y126.023
N1135 X-0.04 Y126.035
N1140 X0.017 Y127.099
N1145 X0.018 Y127.111
N1150 X0.114 Y128.172
N1155 X0.115 Y128.184
N1160 X0.251 Y129.241
N1165 X0.253 Y129.252
N1170 X0.427 Y130.303
N1175 X0.429 Y130.315
N1180 X0.642 Y131.359
N1185 X0.644 Y131.37
N1190 X0.895 Y132.405
N1195 X0.898 Y132.417
N1200 X1.187 Y133.442
N1205 X1.191 Y133.453
N1210 X1.517 Y134.467
N1215 X1.521 Y134.478
N1220 X1.884 Y135.48
N1225 X1.889 Y135.491
N1230 X2.289 Y136.478
N1235 X2.293 Y136.489
N1240 X2.73 Y137.461
N1245 X2.735 Y137.471
N1250 X3.206 Y138.427
N1255 X3.212 Y138.438
N1260 X3.718 Y139.375
N1265 X3.724 Y139.385
N1270 X4.265 Y140.303
N1275 X4.271 Y140.313
N1280 X4.845 Y141.21
N1285 X4.851 Y141.22
N1290 X5.458 Y142.096
N1295 X5.465 Y142.105
N1300 X6.103 Y142.958
N1305 X6.11 Y142.968
N1310 X6.78 Y143.797
N1315 X6.788 Y143.806
N1320 X7.487 Y144.609
N1325 X7.495 Y144.617
N1330 X8.223 Y145.395
N1335 X8.232 Y145.404
N1340 X8.988 Y146.154
N1345 X8.997 Y146.162
N1350 X9.781 Y146.883
N1355 X9.789 Y146.891
N1360 X10.599 Y147.584
N1365 X10.608 Y147.591
N1370 X11.443 Y148.253
N1375 X11.452 Y148.26
N1380 X12.311 Y148.891
N1385 X12.32 Y148.898
N1390 X13.201 Y149.497
N1395 X13.211 Y149.504
N1400 X14.114 Y150.07
N1405 X14.124 Y150.076
N1410 X15.047 Y150.608
N1415 X15.057 Y150.613
N1420 X15.998 Y151.112
N1425 X16.009 Y151.118
N1430 X16.969 Y151.581
N1435 X16.979 Y151.586
N1440 X17.955 Y152.013
N1445 X17.966 Y152.017
N1450 X18.957 Y152.409
N1455 X18.968 Y152.413
N1460 X19.972 Y152.768
N1465 X19.984 Y152.772
N1470 X21.001 Y153.089
N1475 X21.012 Y153.092
N1480 X22.04 Y153.372
N1485 X22.051 Y153.375
N1490 X23.089 Y153.617
N1495 X23.1 Y153.62
N1500 X24.146 Y153.824
N1505 X24.158 Y153.826
N1510 X25.21 Y153.991
N1515 X25.222 Y153.992
N1520 X26.28 Y154.118
N1525 X26.292 Y154.119
N1530 X27.354 Y154.206
N1535 X27.363 Y154.207
N1540 X28.096 Y154.244
N1545 X28.1
N1550 X506.796 Y172.503
N1555 X506.853 Y172.5
N1560 X506.908 Y172.487
N1565 X506.961 Y172.465
N1570 X785.758 Y20.854
N1575 X785.768 Y20.848
N1580 X786.197 Y20.592
N1585 X786.219 Y20.578
N1590 X786.626 Y20.29
N1595 X786.645 Y20.275
N1600 X787.029 Y19.956
N1605 X787.048 Y19.939
N1610 X787.405 Y19.59
N1615 X787.423 Y19.572
N1620 X787.751 Y19.197
N1625 X787.766 Y19.177
N1630 X788.064 Y18.777
N1635 X788.078 Y18.757
N1640 X788.344 Y18.335
N1645 X788.357 Y18.313
N1650 X788.589 Y17.871
N1655 X788.6 Y17.848
N1660 X788.796 Y17.39
N1665 X788.805 Y17.367
N1670 X788.965 Y16.894
N1675 X788.972 Y16.87
N1680 X789.095 Y16.387
N1685 X789.1 Y16.361
N1690 X789.183 Y15.87
N1695 X789.185 Y15.858
N1700 X789.193 Y15.834
N1705 X789.209 Y15.815
N1710 X789.232 Y15.804
N1715 X789.256 Y15.802
N1720 X789.32 Y15.811
N1725 X789.344 Y15.814 Z-6.345
N1730 X789.365 Y15.817 Z-6.331
N1735 X789.378 Y15.818 Z-6.311
N1740 X789.383 Y15.819 Z-6.286
N1745 Z7.35
N1750 X789.367 Y15.946
N1755 Z5.
N1760 Z1. F733.33
N1765 Z-12.636
N1770 X789.362 Y15.945 Z-12.661 F2200.
N1775 X789.348 Y15.943 Z-12.681
N1780 X789.328 Y15.941 Z-12.695
N1785 X789.303 Y15.937 Z-12.7
N1790 X789.24 Y15.929
N1795 X789.216 Y15.921
N1800 X789.198 Y15.905
N1805 X789.187 Y15.882
N1810 X789.185 Y15.858
N1815 X789.186 Y15.845
N1820 X789.231 Y15.348
N1825 X789.232 Y15.323
N1830 X789.238 Y14.825
N1835 Y14.8
N1840 X789.205 Y14.302
N1845 X789.202 Y14.277
N1850 X789.13 Y13.783
N1855 X789.125 Y13.758
N1860 X789.014 Y13.272
N1865 X789.008 Y13.248
N1870 X788.86 Y12.772
N1875 X788.852 Y12.748
N1880 X788.665 Y12.285
N1885 X788.655 Y12.262
N1890 X788.434 Y11.815
N1895 X788.422 Y11.793
N1900 X788.166 Y11.365
N1905 X788.153 Y11.344
N1910 X787.865 Y10.937
N1915 X787.849 Y10.917
N1920 X787.529 Y10.534
N1925 X787.512 Y10.515
N1930 X787.163 Y10.158
N1935 X787.145 Y10.141
N1940 X786.77 Y9.813
N1945 X786.751 Y9.797
N1950 X786.351 Y9.499
N1955 X786.33 Y9.485
N1960 X785.907 Y9.22
N1965 X785.885 Y9.207
N1970 X785.443 Y8.976
N1975 X785.421 Y8.965
N1980 X784.963 Y8.769
N1985 X784.939 Y8.76
N1990 X784.466 Y8.6
N1995 X784.451 Y8.596
N2000 X784.308 Y8.555
N2005 X784.304 Y8.554
N2010 X759.418 Y1.862
N2015 X759.414 Y1.861
N2020 X758.047 Y1.514
N2025 X758.038 Y1.512
N2030 X756.661 Y1.202
N2035 X756.652 Y1.2
N2040 X755.267 Y0.929
N2045 X755.259 Y0.928
N2050 X753.867 Y0.695
N2055 X753.858 Y0.694
N2060 X752.46 Y0.5
N2065 X752.451 Y0.499
N2070 X751.048 Y0.344
N2075 X751.039
N2080 X749.633 Y0.228
N2085 X749.624 Y0.227
N2090 X748.215 Y0.151
N2095 X748.206 Y0.15
N2100 X746.795 Y0.113
N2105 X746.787
N2110 X745.376 Y0.114
N2115 X745.367
N2120 X743.956 Y0.155
N2125 X743.947 Y0.156
N2130 X742.538 Y0.236
N2135 X742.529
N2140 X741.123 Y0.356
N2145 X741.114
N2150 X739.712 Y0.515
N2155 X739.703 Y0.516
N2160 X738.305 Y0.713
N2165 X738.297 Y0.714
N2170 X736.906 Y0.95
N2175 X736.897 Y0.952
N2180 X735.513 Y1.226
N2185 X735.504 Y1.228
N2190 X734.127 Y1.541
N2195 X734.119 Y1.543
N2200 X732.753 Y1.893
N2205 X732.744 Y1.896
N2210 X731.387 Y2.284
N2215 X731.378 Y2.287
N2220 X730.034 Y2.713
N2225 X730.028 Y2.715
N2230 X729.599 Y2.86
N2235 X729.598
N2240 X536.156 Y69.029
N2245 X532.882 Y70.128
N2250 X529.596 Y71.19
N2255 X526.299 Y72.214
N2260 X522.989 Y73.201
N2265 X519.669 Y74.151
N2270 X516.338 Y75.063
N2275 X512.998 Y75.937
N2280 X509.647 Y76.773
N2285 X506.288 Y77.571
N2290 X502.918 Y78.33
N2295 X499.542 Y79.052
N2300 X496.157 Y79.735
N2305 X492.764 Y80.38
N2310 X489.365 Y80.986
N2315 X485.958 Y81.554
N2320 X482.546 Y82.083
N2325 X479.128 Y82.573
N2330 X475.704 Y83.025
N2335 X472.276 Y83.437
N2340 X468.843 Y83.811
N2345 X465.406 Y84.146
N2350 X461.965 Y84.442
N2355 X458.522 Y84.698
N2360 X455.076 Y84.916
N2365 X451.627 Y85.095
N2370 X448.176 Y85.234
N2375 X444.724 Y85.334
N2380 X444.515 Y85.339
N2385 X28.588 Y94.778
N2390 X28.583
N2395 X27.518 Y94.822
N2400 X27.506 Y94.823
N2405 X26.444 Y94.905
N2410 X26.432 Y94.907
N2415 X25.374 Y95.028
N2420 X25.362 Y95.03
N2425 X24.309 Y95.191
N2430 X24.298 Y95.193
N2435 X23.251 Y95.392
N2440 X23.239 Y95.395
N2445 X22.201 Y95.632
N2450 X22.189 Y95.635
N2455 X21.16 Y95.911
N2460 X21.149 Y95.914
N2465 X20.131 Y96.228
N2470 X20.12 Y96.231
N2475 X19.114 Y96.582
N2480 X19.102 Y96.586
N2485 X18.11 Y96.974
N2490 X18.099 Y96.978
N2495 X17.122 Y97.402
N2500 X17.111 Y97.407
N2505 X16.15 Y97.866
N2510 X16.139 Y97.871
N2515 X15.195 Y98.366
N2520 X15.185 Y98.372
N2525 X14.26 Y98.901
N2530 X14.25 Y98.907
N2535 X13.345 Y99.469
N2540 X13.335 Y99.475
N2545 X12.452 Y100.071
N2550 X12.442 Y100.078
N2555 X11.581 Y100.705
N2560 X11.572 Y100.712
N2565 X10.735 Y101.371
N2570 X10.726 Y101.378
N2575 X9.913 Y102.067
N2580 X9.904 Y102.075
N2585 X9.117 Y102.794
N2590 X9.109 Y102.802
N2595 X8.349 Y103.549
N2600 X8.341 Y103.558
N2605 X7.61 Y104.332
N2610 X7.602 Y104.34
N2615 X6.899 Y105.141
N2620 X6.891 Y105.15
N2625 X6.219 Y105.976
N2630 X6.211 Y105.986
N2635 X5.569 Y106.837
N2640 X5.563 Y106.846
N2645 X4.952 Y107.719
N2650 X4.946 Y107.729
N2655 X4.368 Y108.624
N2660 X4.362 Y108.634
N2665 X3.818 Y109.55
N2670 X3.812 Y109.56
N2675 X3.302 Y110.495
N2680 X3.296 Y110.505
N2685 X2.821 Y111.459
N2690 X2.816 Y111.47
N2695 X2.376 Y112.44
N2700 X2.371 Y112.451
N2705 X1.967 Y113.437
N2710 X1.963 Y113.448
N2715 X1.595 Y114.448
N2720 X1.591 Y114.459
N2725 X1.261 Y115.471
N2730 X1.257 Y115.482
N2735 X0.964 Y116.507
N2740 X0.961 Y116.518
N2745 X0.706 Y117.552
N2750 X0.703 Y117.564
N2755 X0.487 Y118.607
N2760 X0.484 Y118.618
N2765 X0.306 Y119.668
N2770 X0.304 Y119.68
N2775 X0.165 Y120.737
N2780 X0.163 Y120.749
N2785 X0.063 Y121.809
N2790 X0.062 Y121.821
N2795 X0. Y122.885
N2800 Y122.891
N2805 X-0.002 Y122.929
N2810 X-0.038 Y123.876
N2815 Y123.882
N2820 X-0.059 Y124.947
N2825 Y124.958
N2830 X-0.041 Y126.023
N2835 X-0.04 Y126.035
N2840 X0.017 Y127.099
N2845 X0.018 Y127.111
N2850 X0.114 Y128.172
N2855 X0.115 Y128.184
N2860 X0.251 Y129.241
N2865 X0.253 Y129.252
N2870 X0.427 Y130.303
N2875 X0.429 Y130.315
N2880 X0.642 Y131.359
N2885 X0.644 Y131.37
N2890 X0.895 Y132.405
N2895 X0.898 Y132.417
N2900 X1.187 Y133.442
N2905 X1.191 Y133.453
N2910 X1.517 Y134.467
N2915 X1.521 Y134.478
N2920 X1.884 Y135.48
N2925 X1.889 Y135.491
N2930 X2.289 Y136.478
N2935 X2.293 Y136.489
N2940 X2.73 Y137.461
N2945 X2.735 Y137.471
N2950 X3.206 Y138.427
N2955 X3.212 Y138.438
N2960 X3.718 Y139.375
N2965 X3.724 Y139.385
N2970 X4.265 Y140.303
N2975 X4.271 Y140.313
N2980 X4.845 Y141.21
N2985 X4.851 Y141.22
N2990 X5.458 Y142.096
N2995 X5.465 Y142.105
N3000 X6.103 Y142.958
N3005 X6.11 Y142.968
N3010 X6.78 Y143.797
N3015 X6.788 Y143.806
N3020 X7.487 Y144.609
N3025 X7.495 Y144.617
N3030 X8.223 Y145.395
N3035 X8.232 Y145.404
N3040 X8.988 Y146.154
N3045 X8.997 Y146.162
N3050 X9.781 Y146.883
N3055 X9.789 Y146.891
N3060 X10.599 Y147.584
N3065 X10.608 Y147.591
N3070 X11.443 Y148.253
N3075 X11.452 Y148.26
N3080 X12.311 Y148.891
N3085 X12.32 Y148.898
N3090 X13.201 Y149.497
N3095 X13.211 Y149.504
N3100 X14.114 Y150.07
N3105 X14.124 Y150.076
N3110 X15.047 Y150.608
N3115 X15.057 Y150.613
N3120 X15.998 Y151.112
N3125 X16.009 Y151.118
N3130 X16.969 Y151.581
N3135 X16.979 Y151.586
N3140 X17.955 Y152.013
N3145 X17.966 Y152.017
N3150 X18.957 Y152.409
N3155 X18.968 Y152.413
N3160 X19.972 Y152.768
N3165 X19.984 Y152.772
N3170 X21.001 Y153.089
N3175 X21.012 Y153.092
N3180 X22.04 Y153.372
N3185 X22.051 Y153.375
N3190 X23.089 Y153.617
N3195 X23.1 Y153.62
N3200 X24.146 Y153.824
N3205 X24.158 Y153.826
N3210 X25.21 Y153.991
N3215 X25.222 Y153.992
N3220 X26.28 Y154.118
N3225 X26.292 Y154.119
N3230 X27.354 Y154.206
N3235 X27.363 Y154.207
N3240 X28.096 Y154.244
N3245 X28.1
N3250 X506.796 Y172.503
N3255 X506.853 Y172.5
N3260 X506.908 Y172.487
N3265 X506.961 Y172.465
N3270 X785.758 Y20.854
N3275 X785.768 Y20.848
N3280 X786.197 Y20.592
N3285 X786.219 Y20.578
N3290 X786.626 Y20.29
N3295 X786.645 Y20.275
N3300 X787.029 Y19.956
N3305 X787.048 Y19.939
N3310 X787.405 Y19.59
N3315 X787.423 Y19.572
N3320 X787.751 Y19.197
N3325 X787.766 Y19.177
N3330 X788.064 Y18.777
N3335 X788.078 Y18.757
N3340 X788.344 Y18.335
N3345 X788.357 Y18.313
N3350 X788.589 Y17.871
N3355 X788.6 Y17.848
N3360 X788.796 Y17.39
N3365 X788.805 Y17.367
N3370 X788.965 Y16.894
N3375 X788.972 Y16.87
N3380 X789.095 Y16.387
N3385 X789.1 Y16.361
N3390 X789.183 Y15.87
N3395 X789.185 Y15.858
N3400 X789.193 Y15.834
N3405 X789.209 Y15.815
N3410 X789.232 Y15.804
N3415 X789.256 Y15.802
N3420 X789.32 Y15.811
N3425 X789.344 Y15.814 Z-12.695
N3430 X789.365 Y15.817 Z-12.681
N3435 X789.378 Y15.818 Z-12.661
N3440 X789.383 Y15.819 Z-12.636
N3445 Z7.35
N3450 X789.367 Y15.946
N3455 Z5.
N3460 Z-5.35 F733.33
N3465 Z-15.445
N3470 X789.303 Y15.937 F2200.
N3475 X789.296 Y15.936
N3480 Z-16.612 F733.33
N3485 X789.24 Y15.929 F2200.
N3490 X789.216 Y15.921
N3495 X789.198 Y15.905
N3500 X789.187 Y15.882
N3505 X789.185 Y15.858
N3510 X789.186 Y15.845
N3515 X789.231 Y15.348
N3520 X789.232 Y15.323
N3525 X789.238 Y14.825
N3530 Y14.8
N3535 X789.205 Y14.302
N3540 X789.202 Y14.277
N3545 X789.13 Y13.783
N3550 X789.125 Y13.758
N3555 X789.014 Y13.272
N3560 X789.008 Y13.248
N3565 X788.86 Y12.772
N3570 X788.852 Y12.748
N3575 X788.665 Y12.285
N3580 X788.655 Y12.262
N3585 X788.434 Y11.815
N3590 X788.422 Y11.793
N3595 X788.166 Y11.365
N3600 X788.153 Y11.344
N3605 X787.865 Y10.937
N3610 X787.849 Y10.917
N3615 X787.529 Y10.534
N3620 X787.512 Y10.515
N3625 X787.163 Y10.158
N3630 X787.145 Y10.141
N3635 X786.77 Y9.813
N3640 X786.751 Y9.797
N3645 X786.351 Y9.499
N3650 X786.33 Y9.485
N3655 X785.907 Y9.22
N3660 X785.885 Y9.207
N3665 X785.443 Y8.976
N3670 X785.421 Y8.965
N3675 X784.963 Y8.769
N3680 X784.939 Y8.76
N3685 X784.466 Y8.6
N3690 X784.451 Y8.596
N3695 X784.308 Y8.555
N3700 X784.304 Y8.554
N3705 X778.088 Y6.883
N3710 Z-15.445
N3715 X765.206 Y3.419
N3720 Z-16.612 F733.33
N3725 X759.418 Y1.862 F2200.
N3730 X759.414 Y1.861
N3735 X758.047 Y1.514
N3740 X758.038 Y1.512
N3745 X756.661 Y1.202
N3750 X756.652 Y1.2
N3755 X755.267 Y0.929
N3760 X755.259 Y0.928
N3765 X753.867 Y0.695
N3770 X753.858 Y0.694
N3775 X753.492 Y0.643
N3780 Z-15.445
N3785 X752.46 Y0.5
N3790 X752.451 Y0.499
N3795 X751.048 Y0.344
N3800 X751.039
N3805 X749.633 Y0.228
N3810 X749.624 Y0.227
N3815 X748.215 Y0.151
N3820 X748.206 Y0.15
N3825 X746.795 Y0.113
N3830 X746.787
N3835 X745.376 Y0.114
N3840 X745.367
N3845 X743.956 Y0.155
N3850 X743.947 Y0.156
N3855 X742.538 Y0.236
N3860 X742.529
N3865 X741.123 Y0.356
N3870 X741.114
N3875 X740.154 Y0.465
N3880 Z-16.612 F733.33
N3885 X739.712 Y0.515 F2200.
N3890 X739.703 Y0.516
N3895 X738.305 Y0.713
N3900 X738.297 Y0.714
N3905 X736.906 Y0.95
N3910 X736.897 Y0.952
N3915 X735.513 Y1.226
N3920 X735.504 Y1.228
N3925 X734.127 Y1.541
N3930 X734.119 Y1.543
N3935 X732.753 Y1.893
N3940 X732.744 Y1.896
N3945 X731.387 Y2.284
N3950 X731.378 Y2.287
N3955 X730.034 Y2.713
N3960 X730.028 Y2.715
N3965 X729.599 Y2.86
N3970 X729.598
N3975 X728.432 Y3.259
N3980 Z-15.445
N3985 X715.811 Y7.576
N3990 Z-16.612 F733.33
N3995 X704.469 Y11.455 F2200.
N4000 Z-15.445
N4005 X691.848 Y15.773
N4010 Z-16.612 F733.33
N4015 X680.506 Y19.652 F2200.
N4020 Z-15.445
N4025 X667.885 Y23.969
N4030 Z-16.612 F733.33
N4035 X656.542 Y27.849 F2200.
N4040 Z-15.445
N4045 X643.921 Y32.167
N4050 Z-16.612 F733.33
N4055 X632.579 Y36.046 F2200.
N4060 Z-15.445
N4065 X619.958 Y40.363
N4070 Z-16.612 F733.33
N4075 X608.615 Y44.243 F2200.
N4080 Z-15.445
N4085 X595.994 Y48.56
N4090 Z-16.612 F733.33
N4095 X584.652 Y52.44 F2200.
N4100 Z-15.445
N4105 X572.031 Y56.757
N4110 Z-16.612 F733.33
N4115 X560.689 Y60.637 F2200.
N4120 Z-15.445
N4125 X548.068 Y64.954
N4130 Z-16.612 F733.33
N4135 X536.732 Y68.832 F2200.
N4140 Z-15.445
N4145 X536.156 Y69.029
N4150 X532.882 Y70.128
N4155 X529.596 Y71.19
N4160 X526.299 Y72.214
N4165 X524.026 Y72.892
N4170 Z-16.612 F733.33
N4175 X522.989 Y73.201 F2200.
N4180 X519.669 Y74.151
N4185 X516.338 Y75.063
N4190 X512.998 Y75.937
N4195 X512.495 Y76.062
N4200 Z-15.445
N4205 X509.647 Y76.773
N4210 X506.288 Y77.571
N4215 X502.918 Y78.33
N4220 X499.542 Y79.052
N4225 X499.498 Y79.061
N4230 Z-16.612 F733.33
N4235 X496.157 Y79.735 F2200.
N4240 X492.764 Y80.38
N4245 X489.365 Y80.986
N4250 X487.742 Y81.257
N4255 Z-15.445
N4260 X485.958 Y81.554
N4265 X482.546 Y82.083
N4270 X479.128 Y82.573
N4275 X475.704 Y83.025
N4280 X474.54 Y83.165
N4285 Z-16.612 F733.33
N4290 X472.276 Y83.437 F2200.
N4295 X468.843 Y83.811
N4300 X465.406 Y84.146
N4305 X462.643 Y84.383
N4310 Z-15.445
N4315 X461.965 Y84.442
N4320 X458.522 Y84.698
N4325 X455.076 Y84.916
N4330 X451.627 Y85.095
N4335 X449.329 Y85.187
N4340 Z-16.612 F733.33
N4345 X448.176 Y85.234 F2200.
N4350 X444.724 Y85.334
N4355 X444.515 Y85.339
N4360 X437.358 Y85.502
N4365 Z-15.445
N4370 X424.022 Y85.804
N4375 Z-16.612 F733.33
N4380 X412.038 Y86.076 F2200.
N4385 Z-15.445
N4390 X398.702 Y86.379
N4395 Z-16.612 F733.33
N4400 X386.718 Y86.651 F2200.
N4405 Z-15.445
N4410 X373.382 Y86.953
N4415 Z-16.612 F733.33
N4420 X361.398 Y87.225 F2200.
N4425 Z-15.445
N4430 X348.062 Y87.528
N4435 Z-16.612 F733.33
N4440 X336.078 Y87.8 F2200.
N4445 Z-15.445
N4450 X322.742 Y88.103
N4455 Z-16.612 F733.33
N4460 X310.758 Y88.374 F2200.
N4465 Z-15.445
N4470 X297.422 Y88.677
N4475 Z-16.612 F733.33
N4480 X285.438 Y88.949 F2200.
N4485 Z-15.445
N4490 X272.102 Y89.252
N4495 Z-16.612 F733.33
N4500 X260.118 Y89.524 F2200.
N4505 Z-15.445
N4510 X246.782 Y89.826
N4515 Z-16.612 F733.33
N4520 X234.798 Y90.098 F2200.
N4525 Z-15.445
N4530 X221.462 Y90.401
N4535 Z-16.612 F733.33
N4540 X209.478 Y90.673 F2200.
N4545 Z-15.445
N4550 X196.142 Y90.976
N4555 Z-16.612 F733.33
N4560 X184.158 Y91.247 F2200.
N4565 Z-15.445
N4570 X170.822 Y91.55
N4575 Z-16.612 F733.33
N4580 X158.838 Y91.822 F2200.
N4585 Z-15.445
N4590 X145.502 Y92.125
N4595 Z-16.612 F733.33
N4600 X133.518 Y92.397 F2200.
N4605 Z-15.445
N4610 X120.182 Y92.699
N4615 Z-16.612 F733.33
N4620 X108.198 Y92.971 F2200.
N4625 Z-15.445
N4630 X94.862 Y93.274
N4635 Z-16.612 F733.33
N4640 X82.878 Y93.546 F2200.
N4645 Z-15.445
N4650 X69.542 Y93.848
N4655 Z-16.612 F733.33
N4660 X57.558 Y94.12 F2200.
N4665 Z-15.445
N4670 X44.222 Y94.423
N4675 Z-16.612 F733.33
N4680 X32.23 Y94.695 F2200.
N4685 Z-15.445
N4690 X28.588 Y94.778
N4695 X28.583
N4700 X27.518 Y94.822
N4705 X27.506 Y94.823
N4710 X26.444 Y94.905
N4715 X26.432 Y94.907
N4720 X25.374 Y95.028
N4725 X25.362 Y95.03
N4730 X24.309 Y95.191
N4735 X24.298 Y95.193
N4740 X23.251 Y95.392
N4745 X23.239 Y95.395
N4750 X22.201 Y95.632
N4755 X22.189 Y95.635
N4760 X21.16 Y95.911
N4765 X21.149 Y95.914
N4770 X20.131 Y96.228
N4775 X20.12 Y96.231
N4780 X19.614 Y96.408
N4785 Z-16.612 F733.33
N4790 X19.114 Y96.582 F2200.
N4795 X19.102 Y96.586
N4800 X18.11 Y96.974
N4805 X18.099 Y96.978
N4810 X17.122 Y97.402
N4815 X17.111 Y97.407
N4820 X16.15 Y97.866
N4825 X16.139 Y97.871
N4830 X15.195 Y98.366
N4835 X15.185 Y98.372
N4840 X14.26 Y98.901
N4845 X14.25 Y98.907
N4850 X13.345 Y99.469
N4855 X13.335 Y99.475
N4860 X12.452 Y100.071
N4865 X12.442 Y100.078
N4870 X11.581 Y100.705
N4875 X11.572 Y100.712
N4880 X10.735 Y101.371
N4885 X10.726 Y101.378
N4890 X9.913 Y102.067
N4895 X9.904 Y102.075
N4900 X9.117 Y102.794
N4905 X9.109 Y102.802
N4910 X8.402 Y103.497
N4915 Z-15.445
N4920 X8.349 Y103.549
N4925 X8.341 Y103.558
N4930 X7.61 Y104.332
N4935 X7.602 Y104.34
N4940 X6.899 Y105.141
N4945 X6.891 Y105.15
N4950 X6.219 Y105.976
N4955 X6.211 Y105.986
N4960 X5.569 Y106.837
N4965 X5.563 Y106.846
N4970 X4.952 Y107.719
N4975 X4.946 Y107.729
N4980 X4.368 Y108.624
N4985 X4.362 Y108.634
N4990 X3.818 Y109.55
N4995 X3.812 Y109.56
N5000 X3.302 Y110.495
N5005 X3.296 Y110.505
N5010 X2.821 Y111.459
N5015 X2.816 Y111.47
N5020 X2.376 Y112.44
N5025 X2.371 Y112.451
N5030 X1.967 Y113.437
N5035 X1.963 Y113.448
N5040 X1.861 Y113.724
N5045 Z-16.612 F733.33
N5050 X1.595 Y114.448 F2200.
N5055 X1.591 Y114.459
N5060 X1.261 Y115.471
N5065 X1.257 Y115.482
N5070 X0.964 Y116.507
N5075 X0.961 Y116.518
N5080 X0.706 Y117.552
N5085 X0.703 Y117.564
N5090 X0.487 Y118.607
N5095 X0.484 Y118.618
N5100 X0.306 Y119.668
N5105 X0.304 Y119.68
N5110 X0.165 Y120.737
N5115 X0.163 Y120.749
N5120 X0.063 Y121.809
N5125 X0.062 Y121.821
N5130 X0. Y122.885
N5135 Y122.891
N5140 X-0.002 Y122.929
N5145 X-0.038 Y123.876
N5150 Y123.882
N5155 X-0.059 Y124.947
N5160 Y124.958
N5165 X-0.041 Y126.023
N5170 X-0.04 Y126.035
N5175 X0.004 Y126.865
N5180 Z-15.445
N5185 X0.017 Y127.099
N5190 X0.018 Y127.111
N5195 X0.114 Y128.172
N5200 X0.115 Y128.184
N5205 X0.251 Y129.241
N5210 X0.253 Y129.252
N5215 X0.427 Y130.303
N5220 X0.429 Y130.315
N5225 X0.642 Y131.359
N5230 X0.644 Y131.37
N5235 X0.895 Y132.405
N5240 X0.898 Y132.417
N5245 X1.187 Y133.442
N5250 X1.191 Y133.453
N5255 X1.517 Y134.467
N5260 X1.521 Y134.478
N5265 X1.884 Y135.48
N5270 X1.889 Y135.491
N5275 X2.289 Y136.478
N5280 X2.293 Y136.489
N5285 X2.73 Y137.461
N5290 X2.735 Y137.471
N5295 X3.206 Y138.427
N5300 X3.212 Y138.438
N5305 X3.275 Y138.555
N5310 Z-16.612 F733.33
N5315 X3.718 Y139.375 F2200.
N5320 X3.724 Y139.385
N5325 X4.265 Y140.303
N5330 X4.271 Y140.313
N5335 X4.845 Y141.21
N5340 X4.851 Y141.22
N5345 X5.458 Y142.096
N5350 X5.465 Y142.105
N5355 X6.103 Y142.958
N5360 X6.11 Y142.968
N5365 X6.78 Y143.797
N5370 X6.788 Y143.806
N5375 X7.487 Y144.609
N5380 X7.495 Y144.617
N5385 X8.223 Y145.395
N5390 X8.232 Y145.404
N5395 X8.988 Y146.154
N5400 X8.997 Y146.162
N5405 X9.781 Y146.883
N5410 X9.789 Y146.891
N5415 X10.599 Y147.584
N5420 X10.608 Y147.591
N5425 X11.443 Y148.253
N5430 X11.452 Y148.26
N5435 X11.928 Y148.61
N5440 Z-15.445
N5445 X12.311 Y148.891
N5450 X12.32 Y148.898
N5455 X13.201 Y149.497
N5460 X13.211 Y149.504
N5465 X14.114 Y150.07
N5470 X14.124 Y150.076
N5475 X15.047 Y150.608
N5480 X15.057 Y150.613
N5485 X15.998 Y151.112
N5490 X16.009 Y151.118
N5495 X16.969 Y151.581
N5500 X16.979 Y151.586
N5505 X17.955 Y152.013
N5510 X17.966 Y152.017
N5515 X18.957 Y152.409
N5520 X18.968 Y152.413
N5525 X19.972 Y152.768
N5530 X19.984 Y152.772
N5535 X21.001 Y153.089
N5540 X21.012 Y153.092
N5545 X22.04 Y153.372
N5550 X22.051 Y153.375
N5555 X22.995 Y153.595
N5560 Z-16.612 F733.33
N5565 X23.089 Y153.617 F2200.
N5570 X23.1 Y153.62
N5575 X24.146 Y153.824
N5580 X24.158 Y153.826
N5585 X25.21 Y153.991
N5590 X25.222 Y153.992
N5595 X26.28 Y154.118
N5600 X26.292 Y154.119
N5605 X27.354 Y154.206
N5610 X27.363 Y154.207
N5615 X28.096 Y154.244
N5620 X28.1
N5625 X35.598 Y154.53
N5630 Z-15.445
N5635 X48.928 Y155.039
N5640 Z-16.612 F733.33
N5645 X60.906 Y155.496 F2200.
N5650 Z-15.445
N5655 X74.236 Y156.004
N5660 Z-16.612 F733.33
N5665 X86.215 Y156.461 F2200.
N5670 Z-15.445
N5675 X99.544 Y156.969
N5680 Z-16.612 F733.33
N5685 X111.522 Y157.426 F2200.
N5690 Z-15.445
N5695 X124.851 Y157.935
N5700 Z-16.612 F733.33
N5705 X136.831 Y158.392 F2200.
N5710 Z-15.445
N5715 X150.16 Y158.9
N5720 Z-16.612 F733.33
N5725 X162.139 Y159.357 F2200.
N5730 Z-15.445
N5735 X175.468 Y159.865
N5740 Z-16.612 F733.33
N5745 X187.447 Y160.322 F2200.
N5750 Z-15.445
N5755 X200.776 Y160.831
N5760 Z-16.612 F733.33
N5765 X212.755 Y161.288 F2200.
N5770 Z-15.445
N5775 X226.084 Y161.796
N5780 Z-16.612 F733.33
N5785 X238.063 Y162.253 F2200.
N5790 Z-15.445
N5795 X251.392 Y162.761
N5800 Z-16.612 F733.33
N5805 X263.371 Y163.218 F2200.
N5810 Z-15.445
N5815 X276.7 Y163.727
N5820 Z-16.612 F733.33
N5825 X288.679 Y164.184 F2200.
N5830 Z-15.445
N5835 X302.008 Y164.692
N5840 Z-16.612 F733.33
N5845 X313.988 Y165.149 F2200.
N5850 Z-15.445
N5855 X327.317 Y165.657
N5860 Z-16.612 F733.33
N5865 X339.296 Y166.114 F2200.
N5870 Z-15.445
N5875 X352.625 Y166.623
N5880 Z-16.612 F733.33
N5885 X364.604 Y167.08 F2200.
N5890 Z-15.445
N5895 X377.933 Y167.588
N5900 Z-16.612 F733.33
N5905 X389.912 Y168.045 F2200.
N5910 Z-15.445
N5915 X403.241 Y168.553
N5920 Z-16.612 F733.33
N5925 X415.22 Y169.01 F2200.
N5930 Z-15.445
N5935 X428.549 Y169.519
N5940 Z-16.612 F733.33
N5945 X440.528 Y169.976 F2200.
N5950 Z-15.445
N5955 X453.857 Y170.484
N5960 Z-16.612 F733.33
N5965 X465.836 Y170.941 F2200.
N5970 Z-15.445
N5975 X479.165 Y171.449
N5980 Z-16.612 F733.33
N5985 X491.144 Y171.906 F2200.
N5990 Z-15.445
N5995 X504.473 Y172.415
N6000 Z-16.612 F733.33
N6005 X506.796 Y172.503 F2200.
N6010 X506.853 Y172.5
N6015 X506.908 Y172.487
N6020 X506.961 Y172.465
N6025 X515.45 Y167.848
N6030 Z-15.445
N6035 X527.169 Y161.475
N6040 Z-16.612 F733.33
N6045 X537.7 Y155.748 F2200.
N6050 Z-15.445
N6055 X549.419 Y149.376
N6060 Z-16.612 F733.33
N6065 X559.95 Y143.649 F2200.
N6070 Z-15.445
N6075 X571.668 Y137.277
N6080 Z-16.612 F733.33
N6085 X582.199 Y131.55 F2200.
N6090 Z-15.445
N6095 X593.918 Y125.177
N6100 Z-16.612 F733.33
N6105 X604.448 Y119.451 F2200.
N6110 Z-15.445
N6115 X616.167 Y113.078
N6120 Z-16.612 F733.33
N6125 X626.698 Y107.351 F2200.
N6130 Z-15.445
N6135 X638.416 Y100.979
N6140 Z-16.612 F733.33
N6145 X648.947 Y95.252 F2200.
N6150 Z-15.445
N6155 X660.666 Y88.879
N6160 Z-16.612 F733.33
N6165 X671.196 Y83.153 F2200.
N6170 Z-15.445
N6175 X682.915 Y76.78
N6180 Z-16.612 F733.33
N6185 X693.446 Y71.053 F2200.
N6190 Z-15.445
N6195 X705.165 Y64.68
N6200 Z-16.612 F733.33
N6205 X715.695 Y58.954 F2200.
N6210 Z-15.445
N6215 X727.414 Y52.581
N6220 Z-16.612 F733.33
N6225 X737.945 Y46.854 F2200.
N6230 Z-15.445
N6235 X749.664 Y40.482
N6240 Z-16.612 F733.33
N6245 X760.194 Y34.755 F2200.
N6250 Z-15.445
N6255 X771.913 Y28.383
N6260 Z-16.612 F733.33
N6265 X785.758 Y20.854 F2200.
N6270 X785.768 Y20.848
N6275 X785.849 Y20.8
N6280 Z-15.445
N6285 X786.197 Y20.592
N6290 X786.219 Y20.578
N6295 X786.626 Y20.29
N6300 X786.645 Y20.275
N6305 X787.029 Y19.956
N6310 X787.048 Y19.939
N6315 X787.405 Y19.59
N6320 X787.423 Y19.572
N6325 X787.751 Y19.197
N6330 X787.766 Y19.177
N6335 X788.064 Y18.777
N6340 X788.078 Y18.757
N6345 X788.344 Y18.335
N6350 X788.357 Y18.313
N6355 X788.589 Y17.871
N6360 X788.6 Y17.848
N6365 X788.796 Y17.39
N6370 X788.805 Y17.367
N6375 X788.965 Y16.894
N6380 X788.972 Y16.87
N6385 X789.095 Y16.387
N6390 X789.1 Y16.361
N6395 X789.133 Y16.166
N6400 Z-16.612 F733.33
N6405 X789.183 Y15.87 F2200.
N6410 X789.185 Y15.858
N6415 X789.193 Y15.834
N6420 X789.209 Y15.815
N6425 X789.232 Y15.804
N6430 X789.256 Y15.802
N6435 X789.32 Y15.811
N6440 X789.345 Y15.814 Z-16.607
N6445 X789.366 Y15.817 Z-16.592
N6450 X789.379 Y15.818 Z-16.57
N6455 Z-15.445
N6460 X789.383 Y15.819
N6465 Z7.35
N6470 X789.367 Y15.946
N6475 Z5.
N6480 Z-9.262 F733.33
N6485 Z-15.445
N6490 X789.303 Y15.937 F2200.
N6495 X789.296 Y15.936
N6500 Z-20.525 F733.33
N6505 X789.24 Y15.929 F2200.
N6510 X789.216 Y15.921
N6515 X789.198 Y15.905
N6520 X789.187 Y15.882
N6525 X789.185 Y15.858
N6530 X789.186 Y15.845
N6535 X789.231 Y15.348
N6540 X789.232 Y15.323
N6545 X789.238 Y14.825
N6550 Y14.8
N6555 X789.205 Y14.302
N6560 X789.202 Y14.277
N6565 X789.13 Y13.783
N6570 X789.125 Y13.758
N6575 X789.014 Y13.272
N6580 X789.008 Y13.248
N6585 X788.86 Y12.772
N6590 X788.852 Y12.748
N6595 X788.665 Y12.285
N6600 X788.655 Y12.262
N6605 X788.434 Y11.815
N6610 X788.422 Y11.793
N6615 X788.166 Y11.365
N6620 X788.153 Y11.344
N6625 X787.865 Y10.937
N6630 X787.849 Y10.917
N6635 X787.529 Y10.534
N6640 X787.512 Y10.515
N6645 X787.163 Y10.158
N6650 X787.145 Y10.141
N6655 X786.77 Y9.813
N6660 X786.751 Y9.797
N6665 X786.351 Y9.499
N6670 X786.33 Y9.485
N6675 X785.907 Y9.22
N6680 X785.885 Y9.207
N6685 X785.443 Y8.976
N6690 X785.421 Y8.965
N6695 X784.963 Y8.769
N6700 X784.939 Y8.76
N6705 X784.466 Y8.6
N6710 X784.451 Y8.596
N6715 X784.308 Y8.555
N6720 X784.304 Y8.554
N6725 X778.088 Y6.883
N6730 Z-15.445
N6735 X765.206 Y3.419
N6740 Z-20.525 F733.33
N6745 X759.418 Y1.862 F2200.
N6750 X759.414 Y1.861
N6755 X758.047 Y1.514
N6760 X758.038 Y1.512
N6765 X756.661 Y1.202
N6770 X756.652 Y1.2
N6775 X755.267 Y0.929
N6780 X755.259 Y0.928
N6785 X753.867 Y0.695
N6790 X753.858 Y0.694
N6795 X753.492 Y0.643
N6800 Z-15.445
N6805 X752.46 Y0.5
N6810 X752.451 Y0.499
N6815 X751.048 Y0.344
N6820 X751.039
N6825 X749.633 Y0.228
N6830 X749.624 Y0.227
N6835 X748.215 Y0.151
N6840 X748.206 Y0.15
N6845 X746.795 Y0.113
N6850 X746.787
N6855 X745.376 Y0.114
N6860 X745.367
N6865 X743.956 Y0.155
N6870 X743.947 Y0.156
N6875 X742.538 Y0.236
N6880 X742.529
N6885 X741.123 Y0.356
N6890 X741.114
N6895 X740.154 Y0.465
N6900 Z-20.525 F733.33
N6905 X739.712 Y0.515 F2200.
N6910 X739.703 Y0.516
N6915 X738.305 Y0.713
N6920 X738.297 Y0.714
N6925 X736.906 Y0.95
N6930 X736.897 Y0.952
N6935 X735.513 Y1.226
N6940 X735.504 Y1.228
N6945 X734.127 Y1.541
N6950 X734.119 Y1.543
N6955 X732.753 Y1.893
N6960 X732.744 Y1.896
N6965 X731.387 Y2.284
N6970 X731.378 Y2.287
N6975 X730.034 Y2.713
N6980 X730.028 Y2.715
N6985 X729.599 Y2.86
N6990 X729.598
N6995 X728.432 Y3.259
N7000 Z-15.445
N7005 X715.811 Y7.576
N7010 Z-20.525 F733.33
N7015 X704.469 Y11.455 F2200.
N7020 Z-15.445
N7025 X691.848 Y15.773
N7030 Z-20.525 F733.33
N7035 X680.506 Y19.652 F2200.
N7040 Z-15.445
N7045 X667.885 Y23.969
N7050 Z-20.525 F733.33
N7055 X656.542 Y27.849 F2200.
N7060 Z-15.445
N7065 X643.921 Y32.167
N7070 Z-20.525 F733.33
N7075 X632.579 Y36.046 F2200.
N7080 Z-15.445
N7085 X619.958 Y40.363
N7090 Z-20.525 F733.33
N7095 X608.615 Y44.243 F2200.
N7100 Z-15.445
N7105 X595.994 Y48.56
N7110 Z-20.525 F733.33
N7115 X584.652 Y52.44 F2200.
N7120 Z-15.445
N7125 X572.031 Y56.757
N7130 Z-20.525 F733.33
N7135 X560.689 Y60.637 F2200.
N7140 Z-15.445
N7145 X548.068 Y64.954
N7150 Z-20.525 F733.33
N7155 X536.732 Y68.832 F2200.
N7160 Z-15.445
N7165 X536.156 Y69.029
N7170 X532.882 Y70.128
N7175 X529.596 Y71.19
N7180 X526.299 Y72.214
N7185 X524.026 Y72.892
N7190 Z-20.525 F733.33
N7195 X522.989 Y73.201 F2200.
N7200 X519.669 Y74.151
N7205 X516.338 Y75.063
N7210 X512.998 Y75.937
N7215 X512.495 Y76.062
N7220 Z-15.445
N7225 X509.647 Y76.773
N7230 X506.288 Y77.571
N7235 X502.918 Y78.33
N7240 X499.542 Y79.052
N7245 X499.498 Y79.061
N7250 Z-20.525 F733.33
N7255 X496.157 Y79.735 F2200.
N7260 X492.764 Y80.38
N7265 X489.365 Y80.986
N7270 X487.742 Y81.257
N7275 Z-15.445
N7280 X485.958 Y81.554
N7285 X482.546 Y82.083
N7290 X479.128 Y82.573
N7295 X475.704 Y83.025
N7300 X474.54 Y83.165
N7305 Z-20.525 F733.33
N7310 X472.276 Y83.437 F2200.
N7315 X468.843 Y83.811
N7320 X465.406 Y84.146
N7325 X462.643 Y84.383
N7330 Z-15.445
N7335 X461.965 Y84.442
N7340 X458.522 Y84.698
N7345 X455.076 Y84.916
N7350 X451.627 Y85.095
N7355 X449.329 Y85.187
N7360 Z-20.525 F733.33
N7365 X448.176 Y85.234 F2200.
N7370 X444.724 Y85.334
N7375 X444.515 Y85.339
N7380 X437.358 Y85.502
N7385 Z-15.445
N7390 X424.022 Y85.804
N7395 Z-20.525 F733.33
N7400 X412.038 Y86.076 F2200.
N7405 Z-15.445
N7410 X398.702 Y86.379
N7415 Z-20.525 F733.33
N7420 X386.718 Y86.651 F2200.
N7425 Z-15.445
N7430 X373.382 Y86.953
N7435 Z-20.525 F733.33
N7440 X361.398 Y87.225 F2200.
N7445 Z-15.445
N7450 X348.062 Y87.528
N7455 Z-20.525 F733.33
N7460 X336.078 Y87.8 F2200.
N7465 Z-15.445
N7470 X322.742 Y88.103
N7475 Z-20.525 F733.33
N7480 X310.758 Y88.374 F2200.
N7485 Z-15.445
N7490 X297.422 Y88.677
N7495 Z-20.525 F733.33
N7500 X285.438 Y88.949 F2200.
N7505 Z-15.445
N7510 X272.102 Y89.252
N7515 Z-20.525 F733.33
N7520 X260.118 Y89.524 F2200.
N7525 Z-15.445
N7530 X246.782 Y89.826
N7535 Z-20.525 F733.33
N7540 X234.798 Y90.098 F2200.
N7545 Z-15.445
N7550 X221.462 Y90.401
N7555 Z-20.525 F733.33
N7560 X209.478 Y90.673 F2200.
N7565 Z-15.445
N7570 X196.142 Y90.976
N7575 Z-20.525 F733.33
N7580 X184.158 Y91.247 F2200.
N7585 Z-15.445
N7590 X170.822 Y91.55
N7595 Z-20.525 F733.33
N7600 X158.838 Y91.822 F2200.
N7605 Z-15.445
N7610 X145.502 Y92.125
N7615 Z-20.525 F733.33
N7620 X133.518 Y92.397 F2200.
N7625 Z-15.445
N7630 X120.182 Y92.699
N7635 Z-20.525 F733.33
N7640 X108.198 Y92.971 F2200.
N7645 Z-15.445
N7650 X94.862 Y93.274
N7655 Z-20.525 F733.33
N7660 X82.878 Y93.546 F2200.
N7665 Z-15.445
N7670 X69.542 Y93.848
N7675 Z-20.525 F733.33
N7680 X57.558 Y94.12 F2200.
N7685 Z-15.445
N7690 X44.222 Y94.423
N7695 Z-20.525 F733.33
N7700 X32.23 Y94.695 F2200.
N7705 Z-15.445
N7710 X28.588 Y94.778
N7715 X28.583
N7720 X27.518 Y94.822
N7725 X27.506 Y94.823
N7730 X26.444 Y94.905
N7735 X26.432 Y94.907
N7740 X25.374 Y95.028
N7745 X25.362 Y95.03
N7750 X24.309 Y95.191
N7755 X24.298 Y95.193
N7760 X23.251 Y95.392
N7765 X23.239 Y95.395
N7770 X22.201 Y95.632
N7775 X22.189 Y95.635
N7780 X21.16 Y95.911
N7785 X21.149 Y95.914
N7790 X20.131 Y96.228
N7795 X20.12 Y96.231
N7800 X19.614 Y96.408
N7805 Z-20.525 F733.33
N7810 X19.114 Y96.582 F2200.
N7815 X19.102 Y96.586
N7820 X18.11 Y96.974
N7825 X18.099 Y96.978
N7830 X17.122 Y97.402
N7835 X17.111 Y97.407
N7840 X16.15 Y97.866
N7845 X16.139 Y97.871
N7850 X15.195 Y98.366
N7855 X15.185 Y98.372
N7860 X14.26 Y98.901
N7865 X14.25 Y98.907
N7870 X13.345 Y99.469
N7875 X13.335 Y99.475
N7880 X12.452 Y100.071
N7885 X12.442 Y100.078
N7890 X11.581 Y100.705
N7895 X11.572 Y100.712
N7900 X10.735 Y101.371
N7905 X10.726 Y101.378
N7910 X9.913 Y102.067
N7915 X9.904 Y102.075
N7920 X9.117 Y102.794
N7925 X9.109 Y102.802
N7930 X8.402 Y103.497
N7935 Z-15.445
N7940 X8.349 Y103.549
N7945 X8.341 Y103.558
N7950 X7.61 Y104.332
N7955 X7.602 Y104.34
N7960 X6.899 Y105.141
N7965 X6.891 Y105.15
N7970 X6.219 Y105.976
N7975 X6.211 Y105.986
N7980 X5.569 Y106.837
N7985 X5.563 Y106.846
N7990 X4.952 Y107.719
N7995 X4.946 Y107.729
N8000 X4.368 Y108.624
N8005 X4.362 Y108.634
N8010 X3.818 Y109.55
N8015 X3.812 Y109.56
N8020 X3.302 Y110.495
N8025 X3.296 Y110.505
N8030 X2.821 Y111.459
N8035 X2.816 Y111.47
N8040 X2.376 Y112.44
N8045 X2.371 Y112.451
N8050 X1.967 Y113.437
N8055 X1.963 Y113.448
N8060 X1.861 Y113.724
N8065 Z-20.525 F733.33
N8070 X1.595 Y114.448 F2200.
N8075 X1.591 Y114.459
N8080 X1.261 Y115.471
N8085 X1.257 Y115.482
N8090 X0.964 Y116.507
N8095 X0.961 Y116.518
N8100 X0.706 Y117.552
N8105 X0.703 Y117.564
N8110 X0.487 Y118.607
N8115 X0.484 Y118.618
N8120 X0.306 Y119.668
N8125 X0.304 Y119.68
N8130 X0.165 Y120.737
N8135 X0.163 Y120.749
N8140 X0.063 Y121.809
N8145 X0.062 Y121.821
N8150 X0. Y122.885
N8155 Y122.891
N8160 X-0.002 Y122.929
N8165 X-0.038 Y123.876
N8170 Y123.882
N8175 X-0.059 Y124.947
N8180 Y124.958
N8185 X-0.041 Y126.023
N8190 X-0.04 Y126.035
N8195 X0.004 Y126.865
N8200 Z-15.445
N8205 X0.017 Y127.099
N8210 X0.018 Y127.111
N8215 X0.114 Y128.172
N8220 X0.115 Y128.184
N8225 X0.251 Y129.241
N8230 X0.253 Y129.252
N8235 X0.427 Y130.303
N8240 X0.429 Y130.315
N8245 X0.642 Y131.359
N8250 X0.644 Y131.37
N8255 X0.895 Y132.405
N8260 X0.898 Y132.417
N8265 X1.187 Y133.442
N8270 X1.191 Y133.453
N8275 X1.517 Y134.467
N8280 X1.521 Y134.478
N8285 X1.884 Y135.48
N8290 X1.889 Y135.491
N8295 X2.289 Y136.478
N8300 X2.293 Y136.489
N8305 X2.73 Y137.461
N8310 X2.735 Y137.471
N8315 X3.206 Y138.427
N8320 X3.212 Y138.438
N8325 X3.275 Y138.555
N8330 Z-20.525 F733.33
N8335 X3.718 Y139.375 F2200.
N8340 X3.724 Y139.385
N8345 X4.265 Y140.303
N8350 X4.271 Y140.313
N8355 X4.845 Y141.21
N8360 X4.851 Y141.22
N8365 X5.458 Y142.096
N8370 X5.465 Y142.105
N8375 X6.103 Y142.958
N8380 X6.11 Y142.968
N8385 X6.78 Y143.797
N8390 X6.788 Y143.806
N8395 X7.487 Y144.609
N8400 X7.495 Y144.617
N8405 X8.223 Y145.395
N8410 X8.232 Y145.404
N8415 X8.988 Y146.154
N8420 X8.997 Y146.162
N8425 X9.781 Y146.883
N8430 X9.789 Y146.891
N8435 X10.599 Y147.584
N8440 X10.608 Y147.591
N8445 X11.443 Y148.253
N8450 X11.452 Y148.26
N8455 X11.928 Y148.61
N8460 Z-15.445
N8465 X12.311 Y148.891
N8470 X12.32 Y148.898
N8475 X13.201 Y149.497
N8480 X13.211 Y149.504
N8485 X14.114 Y150.07
N8490 X14.124 Y150.076
N8495 X15.047 Y150.608
N8500 X15.057 Y150.613
N8505 X15.998 Y151.112
N8510 X16.009 Y151.118
N8515 X16.969 Y151.581
N8520 X16.979 Y151.586
N8525 X17.955 Y152.013
N8530 X17.966 Y152.017
N8535 X18.957 Y152.409
N8540 X18.968 Y152.413
N8545 X19.972 Y152.768
N8550 X19.984 Y152.772
N8555 X21.001 Y153.089
N8560 X21.012 Y153.092
N8565 X22.04 Y153.372
N8570 X22.051 Y153.375
N8575 X22.995 Y153.595
N8580 Z-20.525 F733.33
N8585 X23.089 Y153.617 F2200.
N8590 X23.1 Y153.62
N8595 X24.146 Y153.824
N8600 X24.158 Y153.826
N8605 X25.21 Y153.991
N8610 X25.222 Y153.992
N8615 X26.28 Y154.118
N8620 X26.292 Y154.119
N8625 X27.354 Y154.206
N8630 X27.363 Y154.207
N8635 X28.096 Y154.244
N8640 X28.1
N8645 X35.598 Y154.53
N8650 Z-15.445
N8655 X48.928 Y155.039
N8660 Z-20.525 F733.33
N8665 X60.906 Y155.496 F2200.
N8670 Z-15.445
N8675 X74.236 Y156.004
N8680 Z-20.525 F733.33
N8685 X86.215 Y156.461 F2200.
N8690 Z-15.445
N8695 X99.544 Y156.969
N8700 Z-20.525 F733.33
N8705 X111.522 Y157.426 F2200.
N8710 Z-15.445
N8715 X124.851 Y157.935
N8720 Z-20.525 F733.33
N8725 X136.831 Y158.392 F2200.
N8730 Z-15.445
N8735 X150.16 Y158.9
N8740 Z-20.525 F733.33
N8745 X162.139 Y159.357 F2200.
N8750 Z-15.445
N8755 X175.468 Y159.865
N8760 Z-20.525 F733.33
N8765 X187.447 Y160.322 F2200.
N8770 Z-15.445
N8775 X200.776 Y160.831
N8780 Z-20.525 F733.33
N8785 X212.755 Y161.288 F2200.
N8790 Z-15.445
N8795 X226.084 Y161.796
N8800 Z-20.525 F733.33
N8805 X238.063 Y162.253 F2200.
N8810 Z-15.445
N8815 X251.392 Y162.761
N8820 Z-20.525 F733.33
N8825 X263.371 Y163.218 F2200.
N8830 Z-15.445
N8835 X276.7 Y163.727
N8840 Z-20.525 F733.33
N8845 X288.679 Y164.184 F2200.
N8850 Z-15.445
N8855 X302.008 Y164.692
N8860 Z-20.525 F733.33
N8865 X313.988 Y165.149 F2200.
N8870 Z-15.445
N8875 X327.317 Y165.657
N8880 Z-20.525 F733.33
N8885 X339.296 Y166.114 F2200.
N8890 Z-15.445
N8895 X352.625 Y166.623
N8900 Z-20.525 F733.33
N8905 X364.604 Y167.08 F2200.
N8910 Z-15.445
N8915 X377.933 Y167.588
N8920 Z-20.525 F733.33
N8925 X389.912 Y168.045 F2200.
N8930 Z-15.445
N8935 X403.241 Y168.553
N8940 Z-20.525 F733.33
N8945 X415.22 Y169.01 F2200.
N8950 Z-15.445
N8955 X428.549 Y169.519
N8960 Z-20.525 F733.33
N8965 X440.528 Y169.976 F2200.
N8970 Z-15.445
N8975 X453.857 Y170.484
N8980 Z-20.525 F733.33
N8985 X465.836 Y170.941 F2200.
N8990 Z-15.445
N8995 X479.165 Y171.449
N9000 Z-20.525 F733.33
N9005 X491.144 Y171.906 F2200.
N9010 Z-15.445
N9015 X504.473 Y172.415
N9020 Z-20.525 F733.33
N9025 X506.796 Y172.503 F2200.
N9030 X506.853 Y172.5
N9035 X506.908 Y172.487
N9040 X506.961 Y172.465
N9045 X515.45 Y167.848
N9050 Z-15.445
N9055 X527.169 Y161.475
N9060 Z-20.525 F733.33
N9065 X537.7 Y155.748 F2200.
N9070 Z-15.445
N9075 X549.419 Y149.376
N9080 Z-20.525 F733.33
N9085 X559.95 Y143.649 F2200.
N9090 Z-15.445
N9095 X571.668 Y137.277
N9100 Z-20.525 F733.33
N9105 X582.199 Y131.55 F2200.
N9110 Z-15.445
N9115 X593.918 Y125.177
N9120 Z-20.525 F733.33
N9125 X604.448 Y119.451 F2200.
N9130 Z-15.445
N9135 X616.167 Y113.078
N9140 Z-20.525 F733.33
N9145 X626.698 Y107.351 F2200.
N9150 Z-15.445
N9155 X638.416 Y100.979
N9160 Z-20.525 F733.33
N9165 X648.947 Y95.252 F2200.
N9170 Z-15.445
N9175 X660.666 Y88.879
N9180 Z-20.525 F733.33
N9185 X671.196 Y83.153 F2200.
N9190 Z-15.445
N9195 X682.915 Y76.78
N9200 Z-20.525 F733.33
N9205 X693.446 Y71.053 F2200.
N9210 Z-15.445
N9215 X705.165 Y64.68
N9220 Z-20.525 F733.33
N9225 X715.695 Y58.954 F2200.
N9230 Z-15.445
N9235 X727.414 Y52.581
N9240 Z-20.525 F733.33
N9245 X737.945 Y46.854 F2200.
N9250 Z-15.445
N9255 X749.664 Y40.482
N9260 Z-20.525 F733.33
N9265 X760.194 Y34.755 F2200.
N9270 Z-15.445
N9275 X771.913 Y28.383
N9280 Z-20.525 F733.33
N9285 X785.758 Y20.854 F2200.
N9290 X785.768 Y20.848
N9295 X785.849 Y20.8
N9300 Z-15.445
N9305 X786.197 Y20.592
N9310 X786.219 Y20.578
N9315 X786.626 Y20.29
N9320 X786.645 Y20.275
N9325 X787.029 Y19.956
N9330 X787.048 Y19.939
N9335 X787.405 Y19.59
N9340 X787.423 Y19.572
N9345 X787.751 Y19.197
N9350 X787.766 Y19.177
N9355 X788.064 Y18.777
N9360 X788.078 Y18.757
N9365 X788.344 Y18.335
N9370 X788.357 Y18.313
N9375 X788.589 Y17.871
N9380 X788.6 Y17.848
N9385 X788.796 Y17.39
N9390 X788.805 Y17.367
N9395 X788.965 Y16.894
N9400 X788.972 Y16.87
N9405 X789.095 Y16.387
N9410 X789.1 Y16.361
N9415 X789.133 Y16.166
N9420 Z-20.525 F733.33
N9425 X789.183 Y15.87 F2200.
N9430 X789.185 Y15.858
N9435 X789.193 Y15.834
N9440 X789.209 Y15.815
N9445 X789.232 Y15.804
N9450 X789.256 Y15.802
N9455 X789.32 Y15.811
N9460 X789.345 Y15.814 Z-20.519
N9465 X789.366 Y15.817 Z-20.504
N9470 X789.379 Y15.818 Z-20.482
N9475 Z-15.445
N9480 X789.383 Y15.819
N9485 Z15.
N9490 M5
N9495 G53 G0 Z0.
N9500 M30
%
