%
(CHAIR_FLEG_UPRIGHT_FIXED1)
(T3 D=0.639 CR=0. - ZMIN=-21.438 - FLAT END MILL)
N10 G90 G94 G17 G91.1
N15 G21
(WHEN USING FUSION 360 FOR PERSONAL USE, THE FEEDRATE OF)
(RAPID MOVES IS REDUCED TO MATCH THE FEEDRATE OF CUTTING)
(MOVES, WHICH CAN INCREASE MACHINING TIME. UNRESTRICTED RAPID)
(MOVES ARE AVAILABLE WITH A FUSION 360 SUBSCRIPTION.)
N20 G53 G0 Z0.
(2D CONTOUR1)
N25 T3 M6
N30 S10000 M3
N35 G17 G90 G94
N40 G54
N45 G64 P0.01 Q0.01
N50 G0 X0.239 Y115.517
N55 G43 Z15. H3
N60 G1 Z7.35 F2200.
N65 Z-6.286 F733.33
N70 X0.244 Z-6.311 F2200.
N75 X0.258 Y115.516 Z-6.331
N80 X0.279 Z-6.345
N85 X0.303 Z-6.35
N90 X0.367 Y115.515
N95 X0.392 Y115.52
N100 X0.412 Y115.533
N105 X0.427 Y115.554
N110 X0.432 Y115.578
N115 X0.443 Y116.576
N120 Y116.589
N125 X0.493 Y117.586
N130 X0.494 Y117.599
N135 X0.583 Y118.593
N140 X0.584 Y118.605
N145 X0.712 Y119.594
N150 X0.714 Y119.606
N155 X0.881 Y120.59
N160 X0.883 Y120.603
N165 X1.089 Y121.579
N170 X1.092 Y121.591
N175 X1.335 Y122.559
N180 X1.339 Y122.571
N185 X1.62 Y123.528
N190 X1.624 Y123.54
N195 X1.942 Y124.486
N200 X1.947 Y124.498
N205 X2.302 Y125.43
N210 X2.307 Y125.441
N215 X2.699 Y126.359
N220 X2.704 Y126.371
N225 X3.132 Y127.272
N230 X3.138 Y127.283
N235 X3.6 Y128.167
N240 X3.606 Y128.178
N245 X4.104 Y129.043
N250 X4.11 Y129.054
N255 X4.641 Y129.899
N260 X4.648 Y129.909
N265 X5.211 Y130.733
N270 X5.219 Y130.744
N275 X5.814 Y131.544
N280 X5.822 Y131.554
N285 X6.448 Y132.331
N290 X6.456 Y132.34
N295 X7.113 Y133.092
N300 X7.121 Y133.102
N305 X7.807 Y133.827
N310 X7.816 Y133.836
N315 X8.529 Y134.533
N320 X8.538 Y134.541
N325 X9.279 Y135.21
N330 X9.288 Y135.218
N335 X10.054 Y135.858
N340 X10.064 Y135.866
N345 X10.854 Y136.475
N350 X10.865 Y136.483
N355 X11.678 Y137.06
N360 X11.689 Y137.067
N365 X12.525 Y137.612
N370 X12.535 Y137.618
N375 X13.392 Y138.13
N380 X13.403 Y138.137
N385 X14.279 Y138.614
N390 X14.29 Y138.619
N395 X15.184 Y139.062
N400 X15.195 Y139.068
N405 X16.106 Y139.476
N410 X16.118 Y139.481
N415 X17.044 Y139.852
N420 X17.056 Y139.856
N425 X17.996 Y140.191
N430 X18.008 Y140.195
N435 X18.961 Y140.492
N440 X18.972 Y140.495
N445 X19.936 Y140.755
N450 X19.948 Y140.758
N455 X20.921 Y140.98
N460 X20.933 Y140.983
N465 X21.914 Y141.166
N470 X21.926 Y141.168
N475 X22.914 Y141.313
N480 X22.926 Y141.315
N485 X23.918 Y141.421
N490 X23.931 Y141.422
N495 X24.908 Y141.488
N500 X24.914
N505 X551.325 Y166.82
N510 G2 X551.659 Y166.516 I0.015 J-0.319
N515 G1 X555.015 Y96.749
N520 G2 X554.651 Y96.418 I-0.319 J-0.015
N525 G1 X468.474 Y108.629
N530 X466.055 Y108.952
N535 X463.633 Y109.236
N540 X461.206 Y109.481
N545 X458.776 Y109.687
N550 X456.343 Y109.854
N555 X453.907 Y109.983
N560 X451.469 Y110.072
N565 X449.03 Y110.122
N570 X446.591 Y110.132
N575 X444.152 Y110.105
N580 X441.713 Y110.037
N585 X439.824 Y109.958
N590 X275.266 Y102.038
N595 X276.166 Y83.33
N600 G2 X275.862 Y82.996 I-0.319 J-0.015
N605 G1 X28.301 Y71.082
N610 X28.295
N615 X27.298 Y71.054
N620 X27.285
N625 X26.287 Y71.065
N630 X26.275
N635 X25.278 Y71.115
N640 X25.266 Y71.116
N645 X24.272 Y71.205
N650 X24.259 Y71.206
N655 X23.27 Y71.334
N660 X23.257 Y71.336
N665 X22.273 Y71.503
N670 X22.261 Y71.505
N675 X21.285 Y71.711
N680 X21.272 Y71.714
N685 X20.305 Y71.957
N690 X20.293 Y71.96
N695 X19.335 Y72.242
N700 X19.323 Y72.246
N705 X18.378 Y72.564
N710 X18.366 Y72.569
N715 X17.434 Y72.924
N720 X17.422 Y72.929
N725 X16.504 Y73.321
N730 X16.493 Y73.326
N735 X15.591 Y73.754
N740 X15.58 Y73.759
N745 X14.696 Y74.222
N750 X14.685 Y74.228
N755 X13.82 Y74.725
N760 X13.809 Y74.732
N765 X12.964 Y75.263
N770 X12.954 Y75.27
N775 X12.13 Y75.833
N780 X12.12 Y75.84
N785 X11.319 Y76.436
N790 X11.31 Y76.444
N795 X10.533 Y77.07
N800 X10.523 Y77.078
N805 X9.772 Y77.735
N810 X9.762 Y77.743
N815 X9.037 Y78.428
N820 X9.028 Y78.437
N825 X8.331 Y79.151
N830 X8.322 Y79.16
N835 X7.653 Y79.9
N840 X7.645 Y79.91
N845 X7.005 Y80.676
N850 X6.998 Y80.685
N855 X6.389 Y81.476
N860 X6.381 Y81.486
N865 X5.804 Y82.3
N870 X5.797 Y82.31
N875 X5.252 Y83.146
N880 X5.245 Y83.157
N885 X4.734 Y84.013
N890 X4.727 Y84.024
N895 X4.25 Y84.9
N900 X4.244 Y84.911
N905 X3.801 Y85.805
N910 X3.796 Y85.817
N915 X3.388 Y86.728
N920 X3.383 Y86.739
N925 X3.012 Y87.665
N930 X3.008 Y87.677
N935 X2.673 Y88.617
N940 X2.669 Y88.629
N945 X2.371 Y89.581
N950 X2.368 Y89.594
N955 X2.108 Y90.557
N960 X2.105 Y90.569
N965 X1.883 Y91.542
N970 X1.881 Y91.554
N975 X1.697 Y92.535
N980 X1.695 Y92.547
N985 X1.551 Y93.535
N990 X1.549 Y93.547
N995 X1.443 Y94.539
N1000 X1.442 Y94.552
N1005 X1.376 Y95.529
N1010 Y95.535
N1015 X0.46 Y114.563
N1020 Y114.569
N1025 X0.432 Y115.566
N1030 Y115.578
N1035 X0.427 Y115.603
N1040 X0.413 Y115.624
N1045 X0.393 Y115.638
N1050 X0.368 Y115.643
N1055 X0.305 Y115.644
N1060 X0.28 Z-6.345
N1065 X0.259 Z-6.331
N1070 X0.246 Z-6.311
N1075 X0.241 Z-6.286
N1080 Z7.35
N1085 X0.239 Y115.517
N1090 Z5.
N1095 Z1. F733.33
N1100 Z-12.636
N1105 X0.244 Z-12.661 F2200.
N1110 X0.258 Y115.516 Z-12.681
N1115 X0.279 Z-12.695
N1120 X0.303 Z-12.7
N1125 X0.367 Y115.515
N1130 X0.392 Y115.52
N1135 X0.412 Y115.533
N1140 X0.427 Y115.554
N1145 X0.432 Y115.578
N1150 X0.443 Y116.576
N1155 Y116.589
N1160 X0.493 Y117.586
N1165 X0.494 Y117.599
N1170 X0.583 Y118.593
N1175 X0.584 Y118.605
N1180 X0.712 Y119.594
N1185 X0.714 Y119.606
N1190 X0.881 Y120.59
N1195 X0.883 Y120.603
N1200 X1.089 Y121.579
N1205 X1.092 Y121.591
N1210 X1.335 Y122.559
N1215 X1.339 Y122.571
N1220 X1.62 Y123.528
N1225 X1.624 Y123.54
N1230 X1.942 Y124.486
N1235 X1.947 Y124.498
N1240 X2.302 Y125.43
N1245 X2.307 Y125.441
N1250 X2.699 Y126.359
N1255 X2.704 Y126.371
N1260 X3.132 Y127.272
N1265 X3.138 Y127.283
N1270 X3.6 Y128.167
N1275 X3.606 Y128.178
N1280 X4.104 Y129.043
N1285 X4.11 Y129.054
N1290 X4.641 Y129.899
N1295 X4.648 Y129.909
N1300 X5.211 Y130.733
N1305 X5.219 Y130.744
N1310 X5.814 Y131.544
N1315 X5.822 Y131.554
N1320 X6.448 Y132.331
N1325 X6.456 Y132.34
N1330 X7.113 Y133.092
N1335 X7.121 Y133.102
N1340 X7.807 Y133.827
N1345 X7.816 Y133.836
N1350 X8.529 Y134.533
N1355 X8.538 Y134.541
N1360 X9.279 Y135.21
N1365 X9.288 Y135.218
N1370 X10.054 Y135.858
N1375 X10.064 Y135.866
N1380 X10.854 Y136.475
N1385 X10.865 Y136.483
N1390 X11.678 Y137.06
N1395 X11.689 Y137.067
N1400 X12.525 Y137.612
N1405 X12.535 Y137.618
N1410 X13.392 Y138.13
N1415 X13.403 Y138.137
N1420 X14.279 Y138.614
N1425 X14.29 Y138.619
N1430 X15.184 Y139.062
N1435 X15.195 Y139.068
N1440 X16.106 Y139.476
N1445 X16.118 Y139.481
N1450 X17.044 Y139.852
N1455 X17.056 Y139.856
N1460 X17.996 Y140.191
N1465 X18.008 Y140.195
N1470 X18.961 Y140.492
N1475 X18.972 Y140.495
N1480 X19.936 Y140.755
N1485 X19.948 Y140.758
N1490 X20.921 Y140.98
N1495 X20.933 Y140.983
N1500 X21.914 Y141.166
N1505 X21.926 Y141.168
N1510 X22.914 Y141.313
N1515 X22.926 Y141.315
N1520 X23.918 Y141.421
N1525 X23.931 Y141.422
N1530 X24.908 Y141.488
N1535 X24.914
N1540 X551.325 Y166.82
N1545 G2 X551.659 Y166.516 I0.015 J-0.319
N1550 G1 X555.015 Y96.749
N1555 G2 X554.651 Y96.418 I-0.319 J-0.015
N1560 G1 X468.474 Y108.629
N1565 X466.055 Y108.952
N1570 X463.633 Y109.236
N1575 X461.206 Y109.481
N1580 X458.776 Y109.687
N1585 X456.343 Y109.854
N1590 X453.907 Y109.983
N1595 X451.469 Y110.072
N1600 X449.03 Y110.122
N1605 X446.591 Y110.132
N1610 X444.152 Y110.105
N1615 X441.713 Y110.037
N1620 X439.824 Y109.958
N1625 X275.266 Y102.038
N1630 X276.166 Y83.33
N1635 G2 X275.862 Y82.996 I-0.319 J-0.015
N1640 G1 X28.301 Y71.082
N1645 X28.295
N1650 X27.298 Y71.054
N1655 X27.285
N1660 X26.287 Y71.065
N1665 X26.275
N1670 X25.278 Y71.115
N1675 X25.266 Y71.116
N1680 X24.272 Y71.205
N1685 X24.259 Y71.206
N1690 X23.27 Y71.334
N1695 X23.257 Y71.336
N1700 X22.273 Y71.503
N1705 X22.261 Y71.505
N1710 X21.285 Y71.711
N1715 X21.272 Y71.714
N1720 X20.305 Y71.957
N1725 X20.293 Y71.96
N1730 X19.335 Y72.242
N1735 X19.323 Y72.246
N1740 X18.378 Y72.564
N1745 X18.366 Y72.569
N1750 X17.434 Y72.924
N1755 X17.422 Y72.929
N1760 X16.504 Y73.321
N1765 X16.493 Y73.326
N1770 X15.591 Y73.754
N1775 X15.58 Y73.759
N1780 X14.696 Y74.222
N1785 X14.685 Y74.228
N1790 X13.82 Y74.725
N1795 X13.809 Y74.732
N1800 X12.964 Y75.263
N1805 X12.954 Y75.27
N1810 X12.13 Y75.833
N1815 X12.12 Y75.84
N1820 X11.319 Y76.436
N1825 X11.31 Y76.444
N1830 X10.533 Y77.07
N1835 X10.523 Y77.078
N1840 X9.772 Y77.735
N1845 X9.762 Y77.743
N1850 X9.037 Y78.428
N1855 X9.028 Y78.437
N1860 X8.331 Y79.151
N1865 X8.322 Y79.16
N1870 X7.653 Y79.9
N1875 X7.645 Y79.91
N1880 X7.005 Y80.676
N1885 X6.998 Y80.685
N1890 X6.389 Y81.476
N1895 X6.381 Y81.486
N1900 X5.804 Y82.3
N1905 X5.797 Y82.31
N1910 X5.252 Y83.146
N1915 X5.245 Y83.157
N1920 X4.734 Y84.013
N1925 X4.727 Y84.024
N1930 X4.25 Y84.9
N1935 X4.244 Y84.911
N1940 X3.801 Y85.805
N1945 X3.796 Y85.817
N1950 X3.388 Y86.728
N1955 X3.383 Y86.739
N1960 X3.012 Y87.665
N1965 X3.008 Y87.677
N1970 X2.673 Y88.617
N1975 X2.669 Y88.629
N1980 X2.371 Y89.581
N1985 X2.368 Y89.594
N1990 X2.108 Y90.557
N1995 X2.105 Y90.569
N2000 X1.883 Y91.542
N2005 X1.881 Y91.554
N2010 X1.697 Y92.535
N2015 X1.695 Y92.547
N2020 X1.551 Y93.535
N2025 X1.549 Y93.547
N2030 X1.443 Y94.539
N2035 X1.442 Y94.552
N2040 X1.376 Y95.529
N2045 Y95.535
N2050 X0.46 Y114.563
N2055 Y114.569
N2060 X0.432 Y115.566
N2065 Y115.578
N2070 X0.427 Y115.603
N2075 X0.413 Y115.624
N2080 X0.393 Y115.638
N2085 X0.368 Y115.643
N2090 X0.305 Y115.644
N2095 X0.28 Z-12.695
N2100 X0.259 Z-12.681
N2105 X0.246 Z-12.661
N2110 X0.241 Z-12.636
N2115 Z7.35
N2120 X0.239 Y115.517
N2125 Z5.
N2130 Z-5.35 F733.33
N2135 Z-18.986
N2140 X0.244 Z-19.011 F2200.
N2145 X0.258 Y115.516 Z-19.031
N2150 X0.279 Z-19.045
N2155 X0.303 Z-19.05
N2160 X0.367 Y115.515
N2165 X0.392 Y115.52
N2170 X0.412 Y115.533
N2175 X0.427 Y115.554
N2180 X0.432 Y115.578
N2185 X0.443 Y116.576
N2190 Y116.589
N2195 X0.493 Y117.586
N2200 X0.494 Y117.599
N2205 X0.583 Y118.593
N2210 X0.584 Y118.605
N2215 X0.712 Y119.594
N2220 X0.714 Y119.606
N2225 X0.881 Y120.59
N2230 X0.883 Y120.603
N2235 X1.089 Y121.579
N2240 X1.092 Y121.591
N2245 X1.335 Y122.559
N2250 X1.339 Y122.571
N2255 X1.62 Y123.528
N2260 X1.624 Y123.54
N2265 X1.942 Y124.486
N2270 X1.947 Y124.498
N2275 X2.302 Y125.43
N2280 X2.307 Y125.441
N2285 X2.699 Y126.359
N2290 X2.704 Y126.371
N2295 X3.132 Y127.272
N2300 X3.138 Y127.283
N2305 X3.6 Y128.167
N2310 X3.606 Y128.178
N2315 X4.104 Y129.043
N2320 X4.11 Y129.054
N2325 X4.641 Y129.899
N2330 X4.648 Y129.909
N2335 X5.211 Y130.733
N2340 X5.219 Y130.744
N2345 X5.814 Y131.544
N2350 X5.822 Y131.554
N2355 X6.448 Y132.331
N2360 X6.456 Y132.34
N2365 X7.113 Y133.092
N2370 X7.121 Y133.102
N2375 X7.807 Y133.827
N2380 X7.816 Y133.836
N2385 X8.529 Y134.533
N2390 X8.538 Y134.541
N2395 X9.279 Y135.21
N2400 X9.288 Y135.218
N2405 X10.054 Y135.858
N2410 X10.064 Y135.866
N2415 X10.854 Y136.475
N2420 X10.865 Y136.483
N2425 X11.678 Y137.06
N2430 X11.689 Y137.067
N2435 X12.525 Y137.612
N2440 X12.535 Y137.618
N2445 X13.392 Y138.13
N2450 X13.403 Y138.137
N2455 X14.279 Y138.614
N2460 X14.29 Y138.619
N2465 X15.184 Y139.062
N2470 X15.195 Y139.068
N2475 X16.106 Y139.476
N2480 X16.118 Y139.481
N2485 X17.044 Y139.852
N2490 X17.056 Y139.856
N2495 X17.996 Y140.191
N2500 X18.008 Y140.195
N2505 X18.961 Y140.492
N2510 X18.972 Y140.495
N2515 X19.936 Y140.755
N2520 X19.948 Y140.758
N2525 X20.921 Y140.98
N2530 X20.933 Y140.983
N2535 X21.914 Y141.166
N2540 X21.926 Y141.168
N2545 X22.914 Y141.313
N2550 X22.926 Y141.315
N2555 X23.918 Y141.421
N2560 X23.931 Y141.422
N2565 X24.908 Y141.488
N2570 X24.914
N2575 X551.325 Y166.82
N2580 G2 X551.659 Y166.516 I0.015 J-0.319
N2585 G1 X555.015 Y96.749
N2590 G2 X554.651 Y96.418 I-0.319 J-0.015
N2595 G1 X468.474 Y108.629
N2600 X466.055 Y108.952
N2605 X463.633 Y109.236
N2610 X461.206 Y109.481
N2615 X458.776 Y109.687
N2620 X456.343 Y109.854
N2625 X453.907 Y109.983
N2630 X451.469 Y110.072
N2635 X449.03 Y110.122
N2640 X446.591 Y110.132
N2645 X444.152 Y110.105
N2650 X441.713 Y110.037
N2655 X439.824 Y109.958
N2660 X275.266 Y102.038
N2665 X276.166 Y83.33
N2670 G2 X275.862 Y82.996 I-0.319 J-0.015
N2675 G1 X28.301 Y71.082
N2680 X28.295
N2685 X27.298 Y71.054
N2690 X27.285
N2695 X26.287 Y71.065
N2700 X26.275
N2705 X25.278 Y71.115
N2710 X25.266 Y71.116
N2715 X24.272 Y71.205
N2720 X24.259 Y71.206
N2725 X23.27 Y71.334
N2730 X23.257 Y71.336
N2735 X22.273 Y71.503
N2740 X22.261 Y71.505
N2745 X21.285 Y71.711
N2750 X21.272 Y71.714
N2755 X20.305 Y71.957
N2760 X20.293 Y71.96
N2765 X19.335 Y72.242
N2770 X19.323 Y72.246
N2775 X18.378 Y72.564
N2780 X18.366 Y72.569
N2785 X17.434 Y72.924
N2790 X17.422 Y72.929
N2795 X16.504 Y73.321
N2800 X16.493 Y73.326
N2805 X15.591 Y73.754
N2810 X15.58 Y73.759
N2815 X14.696 Y74.222
N2820 X14.685 Y74.228
N2825 X13.82 Y74.725
N2830 X13.809 Y74.732
N2835 X12.964 Y75.263
N2840 X12.954 Y75.27
N2845 X12.13 Y75.833
N2850 X12.12 Y75.84
N2855 X11.319 Y76.436
N2860 X11.31 Y76.444
N2865 X10.533 Y77.07
N2870 X10.523 Y77.078
N2875 X9.772 Y77.735
N2880 X9.762 Y77.743
N2885 X9.037 Y78.428
N2890 X9.028 Y78.437
N2895 X8.331 Y79.151
N2900 X8.322 Y79.16
N2905 X7.653 Y79.9
N2910 X7.645 Y79.91
N2915 X7.005 Y80.676
N2920 X6.998 Y80.685
N2925 X6.389 Y81.476
N2930 X6.381 Y81.486
N2935 X5.804 Y82.3
N2940 X5.797 Y82.31
N2945 X5.252 Y83.146
N2950 X5.245 Y83.157
N2955 X4.734 Y84.013
N2960 X4.727 Y84.024
N2965 X4.25 Y84.9
N2970 X4.244 Y84.911
N2975 X3.801 Y85.805
N2980 X3.796 Y85.817
N2985 X3.388 Y86.728
N2990 X3.383 Y86.739
N2995 X3.012 Y87.665
N3000 X3.008 Y87.677
N3005 X2.673 Y88.617
N3010 X2.669 Y88.629
N3015 X2.371 Y89.581
N3020 X2.368 Y89.594
N3025 X2.108 Y90.557
N3030 X2.105 Y90.569
N3035 X1.883 Y91.542
N3040 X1.881 Y91.554
N3045 X1.697 Y92.535
N3050 X1.695 Y92.547
N3055 X1.551 Y93.535
N3060 X1.549 Y93.547
N3065 X1.443 Y94.539
N3070 X1.442 Y94.552
N3075 X1.376 Y95.529
N3080 Y95.535
N3085 X0.46 Y114.563
N3090 Y114.569
N3095 X0.432 Y115.566
N3100 Y115.578
N3105 X0.427 Y115.603
N3110 X0.413 Y115.624
N3115 X0.393 Y115.638
N3120 X0.368 Y115.643
N3125 X0.305 Y115.644
N3130 X0.28 Z-19.045
N3135 X0.259 Z-19.031
N3140 X0.246 Z-19.011
N3145 X0.241 Z-18.986
N3150 Z7.35
N3155 X0.239 Y115.517
N3160 Z5.
N3165 Z-11.7 F733.33
N3170 Z-20.576
N3175 X0.244 Z-20.6 F2200.
N3180 X0.258 Y115.516 Z-20.621
N3185 X0.279 Z-20.635
N3190 X0.303 Z-20.64
N3195 X0.367 Y115.515
N3200 X0.392 Y115.52
N3205 X0.412 Y115.533
N3210 X0.427 Y115.554
N3215 X0.432 Y115.578
N3220 X0.443 Y116.576
N3225 Y116.589
N3230 X0.493 Y117.586
N3235 X0.494 Y117.599
N3240 X0.583 Y118.593
N3245 X0.584 Y118.605
N3250 X0.635 Y118.997
N3255 Z-20.44
N3260 X0.712 Y119.594
N3265 X0.714 Y119.606
N3270 X0.825 Y120.261
N3275 Z-20.64 F733.33
N3280 X0.881 Y120.59 F2200.
N3285 X0.883 Y120.603
N3290 X1.089 Y121.579
N3295 X1.092 Y121.591
N3300 X1.335 Y122.559
N3305 X1.339 Y122.571
N3310 X1.62 Y123.528
N3315 X1.624 Y123.54
N3320 X1.791 Y124.037
N3325 Z-20.44
N3330 X1.942 Y124.486
N3335 X1.947 Y124.498
N3340 X2.229 Y125.238
N3345 Z-20.64 F733.33
N3350 X2.302 Y125.43 F2200.
N3355 X2.307 Y125.441
N3360 X2.699 Y126.359
N3365 X2.704 Y126.371
N3370 X3.132 Y127.272
N3375 X3.138 Y127.283
N3380 X3.6 Y128.167
N3385 X3.606 Y128.178
N3390 X3.932 Y128.745
N3395 Z-20.44
N3400 X4.104 Y129.043
N3405 X4.11 Y129.054
N3410 X4.601 Y129.835
N3415 Z-20.64 F733.33
N3420 X4.641 Y129.899 F2200.
N3425 X4.648 Y129.909
N3430 X5.211 Y130.733
N3435 X5.219 Y130.744
N3440 X5.814 Y131.544
N3445 X5.822 Y131.554
N3450 X6.448 Y132.331
N3455 X6.456 Y132.34
N3460 X6.972 Y132.93
N3465 Z-20.44
N3470 X7.113 Y133.092
N3475 X7.121 Y133.102
N3480 X7.807 Y133.827
N3485 X7.816 Y133.836
N3490 X7.845 Y133.864
N3495 Z-20.64 F733.33
N3500 X8.529 Y134.533 F2200.
N3505 X8.538 Y134.541
N3510 X9.279 Y135.21
N3515 X9.288 Y135.218
N3520 X10.054 Y135.858
N3525 X10.064 Y135.866
N3530 X10.787 Y136.423
N3535 Z-20.44
N3540 X10.854 Y136.475
N3545 X10.865 Y136.483
N3550 X11.678 Y137.06
N3555 X11.689 Y137.067
N3560 X11.832 Y137.16
N3565 Z-20.64 F733.33
N3570 X12.525 Y137.612 F2200.
N3575 X12.535 Y137.618
N3580 X13.392 Y138.13
N3585 X13.403 Y138.137
N3590 X14.279 Y138.614
N3595 X14.29 Y138.619
N3600 X15.184 Y139.062
N3605 X15.195 Y139.068
N3610 X15.225 Y139.081
N3615 Z-20.44
N3620 X16.106 Y139.476
N3625 X16.118 Y139.481
N3630 X16.396 Y139.592
N3635 Z-20.64 F733.33
N3640 X17.044 Y139.852 F2200.
N3645 X17.056 Y139.856
N3650 X17.996 Y140.191
N3655 X18.008 Y140.195
N3660 X18.961 Y140.492
N3665 X18.972 Y140.495
N3670 X19.936 Y140.755
N3675 X19.948 Y140.758
N3680 X20.105 Y140.794
N3685 Z-20.44
N3690 X20.921 Y140.98
N3695 X20.933 Y140.983
N3700 X21.355 Y141.062
N3705 Z-20.64 F733.33
N3710 X21.914 Y141.166 F2200.
N3715 X21.926 Y141.168
N3720 X22.914 Y141.313
N3725 X22.926 Y141.315
N3730 X23.918 Y141.421
N3735 X23.931 Y141.422
N3740 X24.908 Y141.488
N3745 X24.914
N3750 X25.217 Y141.503
N3755 Z-20.44
N3760 X26.494 Y141.564
N3765 Z-20.64 F733.33
N3770 X30.329 Y141.749 F2200.
N3775 Z-20.44
N3780 X31.605 Y141.81
N3785 Z-20.64 F733.33
N3790 X35.44 Y141.995 F2200.
N3795 Z-20.44
N3800 X36.717 Y142.056
N3805 Z-20.64 F733.33
N3810 X40.551 Y142.241 F2200.
N3815 Z-20.44
N3820 X41.828 Y142.302
N3825 Z-20.64 F733.33
N3830 X45.663 Y142.487 F2200.
N3835 Z-20.44
N3840 X46.939 Y142.548
N3845 Z-20.64 F733.33
N3850 X50.774 Y142.733 F2200.
N3855 Z-20.44
N3860 X52.051 Y142.794
N3865 Z-20.64 F733.33
N3870 X55.885 Y142.979 F2200.
N3875 Z-20.44
N3880 X57.162 Y143.04
N3885 Z-20.64 F733.33
N3890 X60.997 Y143.225 F2200.
N3895 Z-20.44
N3900 X62.273 Y143.286
N3905 Z-20.64 F733.33
N3910 X66.108 Y143.47 F2200.
N3915 Z-20.44
N3920 X67.385 Y143.532
N3925 Z-20.64 F733.33
N3930 X71.22 Y143.716 F2200.
N3935 Z-20.44
N3940 X72.496 Y143.778
N3945 Z-20.64 F733.33
N3950 X76.331 Y143.962 F2200.
N3955 Z-20.44
N3960 X77.608 Y144.024
N3965 Z-20.64 F733.33
N3970 X81.442 Y144.208 F2200.
N3975 Z-20.44
N3980 X82.719 Y144.27
N3985 Z-20.64 F733.33
N3990 X86.554 Y144.454 F2200.
N3995 Z-20.44
N4000 X87.83 Y144.516
N4005 Z-20.64 F733.33
N4010 X91.665 Y144.7 F2200.
N4015 Z-20.44
N4020 X92.942 Y144.762
N4025 Z-20.64 F733.33
N4030 X96.776 Y144.946 F2200.
N4035 Z-20.44
N4040 X98.053 Y145.008
N4045 Z-20.64 F733.33
N4050 X101.887 Y145.192 F2200.
N4055 Z-20.44
N4060 X103.164 Y145.254
N4065 Z-20.64 F733.33
N4070 X106.999 Y145.438 F2200.
N4075 Z-20.44
N4080 X108.276 Y145.5
N4085 Z-20.64 F733.33
N4090 X112.11 Y145.684 F2200.
N4095 Z-20.44
N4100 X113.387 Y145.746
N4105 Z-20.64 F733.33
N4110 X117.221 Y145.93 F2200.
N4115 Z-20.44
N4120 X118.498 Y145.992
N4125 Z-20.64 F733.33
N4130 X122.333 Y146.176 F2200.
N4135 Z-20.44
N4140 X123.61 Y146.238
N4145 Z-20.64 F733.33
N4150 X127.444 Y146.422 F2200.
N4155 Z-20.44
N4160 X128.721 Y146.484
N4165 Z-20.64 F733.33
N4170 X132.556 Y146.668 F2200.
N4175 Z-20.44
N4180 X133.833 Y146.73
N4185 Z-20.64 F733.33
N4190 X137.667 Y146.914 F2200.
N4195 Z-20.44
N4200 X138.944 Y146.975
N4205 Z-20.64 F733.33
N4210 X142.778 Y147.16 F2200.
N4215 Z-20.44
N4220 X144.055 Y147.221
N4225 Z-20.64 F733.33
N4230 X147.89 Y147.406 F2200.
N4235 Z-20.44
N4240 X149.167 Y147.467
N4245 Z-20.64 F733.33
N4250 X153.001 Y147.652 F2200.
N4255 Z-20.44
N4260 X154.278 Y147.713
N4265 Z-20.64 F733.33
N4270 X158.112 Y147.898 F2200.
N4275 Z-20.44
N4280 X159.389 Y147.959
N4285 Z-20.64 F733.33
N4290 X163.224 Y148.144 F2200.
N4295 Z-20.44
N4300 X164.501 Y148.205
N4305 Z-20.64 F733.33
N4310 X168.335 Y148.39 F2200.
N4315 Z-20.44
N4320 X169.612 Y148.451
N4325 Z-20.64 F733.33
N4330 X173.446 Y148.636 F2200.
N4335 Z-20.44
N4340 X174.723 Y148.697
N4345 Z-20.64 F733.33
N4350 X178.558 Y148.882 F2200.
N4355 Z-20.44
N4360 X179.835 Y148.943
N4365 Z-20.64 F733.33
N4370 X183.669 Y149.128 F2200.
N4375 Z-20.44
N4380 X184.946 Y149.189
N4385 Z-20.64 F733.33
N4390 X188.781 Y149.374 F2200.
N4395 Z-20.44
N4400 X190.058 Y149.435
N4405 Z-20.64 F733.33
N4410 X193.892 Y149.62 F2200.
N4415 Z-20.44
N4420 X195.169 Y149.681
N4425 Z-20.64 F733.33
N4430 X199.003 Y149.866 F2200.
N4435 Z-20.44
N4440 X200.28 Y149.927
N4445 Z-20.64 F733.33
N4450 X204.115 Y150.112 F2200.
N4455 Z-20.44
N4460 X205.392 Y150.173
N4465 Z-20.64 F733.33
N4470 X209.226 Y150.358 F2200.
N4475 Z-20.44
N4480 X210.503 Y150.419
N4485 Z-20.64 F733.33
N4490 X214.337 Y150.604 F2200.
N4495 Z-20.44
N4500 X215.614 Y150.665
N4505 Z-20.64 F733.33
N4510 X219.449 Y150.85 F2200.
N4515 Z-20.44
N4520 X220.726 Y150.911
N4525 Z-20.64 F733.33
N4530 X224.56 Y151.096 F2200.
N4535 Z-20.44
N4540 X225.837 Y151.157
N4545 Z-20.64 F733.33
N4550 X229.671 Y151.341 F2200.
N4555 Z-20.44
N4560 X230.948 Y151.403
N4565 Z-20.64 F733.33
N4570 X234.783 Y151.587 F2200.
N4575 Z-20.44
N4580 X236.06 Y151.649
N4585 Z-20.64 F733.33
N4590 X239.894 Y151.833 F2200.
N4595 Z-20.44
N4600 X241.171 Y151.895
N4605 Z-20.64 F733.33
N4610 X245.006 Y152.079 F2200.
N4615 Z-20.44
N4620 X246.283 Y152.141
N4625 Z-20.64 F733.33
N4630 X250.117 Y152.325 F2200.
N4635 Z-20.44
N4640 X251.394 Y152.387
N4645 Z-20.64 F733.33
N4650 X255.228 Y152.571 F2200.
N4655 Z-20.44
N4660 X256.505 Y152.633
N4665 Z-20.64 F733.33
N4670 X260.34 Y152.817 F2200.
N4675 Z-20.44
N4680 X261.617 Y152.879
N4685 Z-20.64 F733.33
N4690 X265.451 Y153.063 F2200.
N4695 Z-20.44
N4700 X266.728 Y153.125
N4705 Z-20.64 F733.33
N4710 X270.562 Y153.309 F2200.
N4715 Z-20.44
N4720 X271.839 Y153.371
N4725 Z-20.64 F733.33
N4730 X275.674 Y153.555 F2200.
N4735 Z-20.44
N4740 X276.951 Y153.617
N4745 Z-20.64 F733.33
N4750 X280.785 Y153.801 F2200.
N4755 Z-20.44
N4760 X282.062 Y153.863
N4765 Z-20.64 F733.33
N4770 X285.896 Y154.047 F2200.
N4775 Z-20.44
N4780 X287.173 Y154.109
N4785 Z-20.64 F733.33
N4790 X291.008 Y154.293 F2200.
N4795 Z-20.44
N4800 X292.285 Y154.355
N4805 Z-20.64 F733.33
N4810 X296.119 Y154.539 F2200.
N4815 Z-20.44
N4820 X297.396 Y154.601
N4825 Z-20.64 F733.33
N4830 X301.231 Y154.785 F2200.
N4835 Z-20.44
N4840 X302.508 Y154.847
N4845 Z-20.64 F733.33
N4850 X306.342 Y155.031 F2200.
N4855 Z-20.44
N4860 X307.619 Y155.092
N4865 Z-20.64 F733.33
N4870 X311.453 Y155.277 F2200.
N4875 Z-20.44
N4880 X312.73 Y155.338
N4885 Z-20.64 F733.33
N4890 X316.565 Y155.523 F2200.
N4895 Z-20.44
N4900 X317.842 Y155.584
N4905 Z-20.64 F733.33
N4910 X321.676 Y155.769 F2200.
N4915 Z-20.44
N4920 X322.953 Y155.83
N4925 Z-20.64 F733.33
N4930 X326.787 Y156.015 F2200.
N4935 Z-20.44
N4940 X328.064 Y156.076
N4945 Z-20.64 F733.33
N4950 X331.899 Y156.261 F2200.
N4955 Z-20.44
N4960 X333.176 Y156.322
N4965 Z-20.64 F733.33
N4970 X337.01 Y156.507 F2200.
N4975 Z-20.44
N4980 X338.287 Y156.568
N4985 Z-20.64 F733.33
N4990 X342.121 Y156.753 F2200.
N4995 Z-20.44
N5000 X343.398 Y156.814
N5005 Z-20.64 F733.33
N5010 X347.233 Y156.999 F2200.
N5015 Z-20.44
N5020 X348.51 Y157.06
N5025 Z-20.64 F733.33
N5030 X352.344 Y157.245 F2200.
N5035 Z-20.44
N5040 X353.621 Y157.306
N5045 Z-20.64 F733.33
N5050 X357.456 Y157.491 F2200.
N5055 Z-20.44
N5060 X358.733 Y157.552
N5065 Z-20.64 F733.33
N5070 X362.567 Y157.737 F2200.
N5075 Z-20.44
N5080 X363.844 Y157.798
N5085 Z-20.64 F733.33
N5090 X367.678 Y157.983 F2200.
N5095 Z-20.44
N5100 X368.955 Y158.044
N5105 Z-20.64 F733.33
N5110 X372.79 Y158.229 F2200.
N5115 Z-20.44
N5120 X374.067 Y158.29
N5125 Z-20.64 F733.33
N5130 X377.901 Y158.475 F2200.
N5135 Z-20.44
N5140 X379.178 Y158.536
N5145 Z-20.64 F733.33
N5150 X383.012 Y158.721 F2200.
N5155 Z-20.44
N5160 X384.289 Y158.782
N5165 Z-20.64 F733.33
N5170 X388.124 Y158.967 F2200.
N5175 Z-20.44
N5180 X389.401 Y159.028
N5185 Z-20.64 F733.33
N5190 X393.235 Y159.213 F2200.
N5195 Z-20.44
N5200 X394.512 Y159.274
N5205 Z-20.64 F733.33
N5210 X398.346 Y159.458 F2200.
N5215 Z-20.44
N5220 X399.623 Y159.52
N5225 Z-20.64 F733.33
N5230 X403.458 Y159.704 F2200.
N5235 Z-20.44
N5240 X404.735 Y159.766
N5245 Z-20.64 F733.33
N5250 X408.569 Y159.95 F2200.
N5255 Z-20.44
N5260 X409.846 Y160.012
N5265 Z-20.64 F733.33
N5270 X413.681 Y160.196 F2200.
N5275 Z-20.44
N5280 X414.958 Y160.258
N5285 Z-20.64 F733.33
N5290 X418.792 Y160.442 F2200.
N5295 Z-20.44
N5300 X420.069 Y160.504
N5305 Z-20.64 F733.33
N5310 X423.903 Y160.688 F2200.
N5315 Z-20.44
N5320 X425.18 Y160.75
N5325 Z-20.64 F733.33
N5330 X429.015 Y160.934 F2200.
N5335 Z-20.44
N5340 X430.292 Y160.996
N5345 Z-20.64 F733.33
N5350 X434.126 Y161.18 F2200.
N5355 Z-20.44
N5360 X435.403 Y161.242
N5365 Z-20.64 F733.33
N5370 X439.237 Y161.426 F2200.
N5375 Z-20.44
N5380 X440.514 Y161.488
N5385 Z-20.64 F733.33
N5390 X444.349 Y161.672 F2200.
N5395 Z-20.44
N5400 X445.626 Y161.734
N5405 Z-20.64 F733.33
N5410 X449.46 Y161.918 F2200.
N5415 Z-20.44
N5420 X450.737 Y161.98
N5425 Z-20.64 F733.33
N5430 X454.571 Y162.164 F2200.
N5435 Z-20.44
N5440 X455.848 Y162.226
N5445 Z-20.64 F733.33
N5450 X459.683 Y162.41 F2200.
N5455 Z-20.44
N5460 X460.96 Y162.472
N5465 Z-20.64 F733.33
N5470 X464.794 Y162.656 F2200.
N5475 Z-20.44
N5480 X466.071 Y162.718
N5485 Z-20.64 F733.33
N5490 X469.906 Y162.902 F2200.
N5495 Z-20.44
N5500 X471.183 Y162.964
N5505 Z-20.64 F733.33
N5510 X475.017 Y163.148 F2200.
N5515 Z-20.44
N5520 X476.294 Y163.209
N5525 Z-20.64 F733.33
N5530 X480.128 Y163.394 F2200.
N5535 Z-20.44
N5540 X481.405 Y163.455
N5545 Z-20.64 F733.33
N5550 X485.24 Y163.64 F2200.
N5555 Z-20.44
N5560 X486.517 Y163.701
N5565 Z-20.64 F733.33
N5570 X490.351 Y163.886 F2200.
N5575 Z-20.44
N5580 X491.628 Y163.947
N5585 Z-20.64 F733.33
N5590 X495.462 Y164.132 F2200.
N5595 Z-20.44
N5600 X496.739 Y164.193
N5605 Z-20.64 F733.33
N5610 X500.574 Y164.378 F2200.
N5615 Z-20.44
N5620 X501.851 Y164.439
N5625 Z-20.64 F733.33
N5630 X505.685 Y164.624 F2200.
N5635 Z-20.44
N5640 X506.962 Y164.685
N5645 Z-20.64 F733.33
N5650 X510.796 Y164.87 F2200.
N5655 Z-20.44
N5660 X512.073 Y164.931
N5665 Z-20.64 F733.33
N5670 X515.908 Y165.116 F2200.
N5675 Z-20.44
N5680 X517.185 Y165.177
N5685 Z-20.64 F733.33
N5690 X521.019 Y165.362 F2200.
N5695 Z-20.44
N5700 X522.296 Y165.423
N5705 Z-20.64 F733.33
N5710 X526.131 Y165.608 F2200.
N5715 Z-20.44
N5720 X527.408 Y165.669
N5725 Z-20.64 F733.33
N5730 X531.242 Y165.854 F2200.
N5735 Z-20.44
N5740 X532.519 Y165.915
N5745 Z-20.64 F733.33
N5750 X536.353 Y166.1 F2200.
N5755 Z-20.44
N5760 X537.63 Y166.161
N5765 Z-20.64 F733.33
N5770 X541.465 Y166.346 F2200.
N5775 Z-20.44
N5780 X542.742 Y166.407
N5785 Z-20.64 F733.33
N5790 X546.576 Y166.592 F2200.
N5795 Z-20.44
N5800 X547.853 Y166.653
N5805 Z-20.64 F733.33
N5810 X551.325 Y166.82 F2200.
N5815 G2 X551.659 Y166.516 I0.015 J-0.319
N5820 G1 X551.677 Y166.154
N5825 Z-20.44
N5830 X551.738 Y164.877
N5835 Z-20.64 F733.33
N5840 X551.922 Y161.042 F2200.
N5845 Z-20.44
N5850 X551.984 Y159.765
N5855 Z-20.64 F733.33
N5860 X552.168 Y155.931 F2200.
N5865 Z-20.44
N5870 X552.23 Y154.654
N5875 Z-20.64 F733.33
N5880 X552.414 Y150.82 F2200.
N5885 Z-20.44
N5890 X552.476 Y149.543
N5895 Z-20.64 F733.33
N5900 X552.66 Y145.708 F2200.
N5905 Z-20.44
N5910 X552.721 Y144.431
N5915 Z-20.64 F733.33
N5920 X552.906 Y140.597 F2200.
N5925 Z-20.44
N5930 X552.967 Y139.32
N5935 Z-20.64 F733.33
N5940 X553.152 Y135.485 F2200.
N5945 Z-20.44
N5950 X553.213 Y134.208
N5955 Z-20.64 F733.33
N5960 X553.398 Y130.374 F2200.
N5965 Z-20.44
N5970 X553.459 Y129.097
N5975 Z-20.64 F733.33
N5980 X553.644 Y125.263 F2200.
N5985 Z-20.44
N5990 X553.705 Y123.986
N5995 Z-20.64 F733.33
N6000 X553.889 Y120.151 F2200.
N6005 Z-20.44
N6010 X553.951 Y118.874
N6015 Z-20.64 F733.33
N6020 X554.135 Y115.04 F2200.
N6025 Z-20.44
N6030 X554.197 Y113.763
N6035 Z-20.64 F733.33
N6040 X554.381 Y109.929 F2200.
N6045 Z-20.44
N6050 X554.443 Y108.652
N6055 Z-20.64 F733.33
N6060 X554.627 Y104.817 F2200.
N6065 Z-20.44
N6070 X554.688 Y103.54
N6075 Z-20.64 F733.33
N6080 X554.873 Y99.705 F2200.
N6085 Z-20.44
N6090 X554.934 Y98.429
N6095 Z-20.64 F733.33
N6100 X555.015 Y96.749 F2200.
N6105 G2 X554.651 Y96.418 I-0.319 J-0.015
N6110 G1 X552.515 Y96.72
N6115 Z-20.44
N6120 X551.25 Y96.9
N6125 Z-20.64 F733.33
N6130 X547.449 Y97.438 F2200.
N6135 Z-20.44
N6140 X546.183 Y97.618
N6145 Z-20.64 F733.33
N6150 X542.382 Y98.156 F2200.
N6155 Z-20.44
N6160 X541.117 Y98.336
N6165 Z-20.64 F733.33
N6170 X537.315 Y98.874 F2200.
N6175 Z-20.44
N6180 X536.049 Y99.054
N6185 Z-20.64 F733.33
N6190 X532.249 Y99.592 F2200.
N6195 Z-20.44
N6200 X530.984 Y99.771
N6205 Z-20.64 F733.33
N6210 X527.182 Y100.31 F2200.
N6215 Z-20.44
N6220 X525.917 Y100.489
N6225 Z-20.64 F733.33
N6230 X522.115 Y101.028 F2200.
N6235 Z-20.44
N6240 X520.85 Y101.208
N6245 Z-20.64 F733.33
N6250 X517.049 Y101.746 F2200.
N6255 Z-20.44
N6260 X515.784 Y101.925
N6265 Z-20.64 F733.33
N6270 X511.982 Y102.464 F2200.
N6275 Z-20.44
N6280 X510.717 Y102.643
N6285 Z-20.64 F733.33
N6290 X506.915 Y103.182 F2200.
N6295 Z-20.44
N6300 X505.65 Y103.361
N6305 Z-20.64 F733.33
N6310 X501.849 Y103.9 F2200.
N6315 Z-20.44
N6320 X500.583 Y104.079
N6325 Z-20.64 F733.33
N6330 X496.782 Y104.618 F2200.
N6335 Z-20.44
N6340 X495.517 Y104.797
N6345 Z-20.64 F733.33
N6350 X491.715 Y105.336 F2200.
N6355 Z-20.44
N6360 X490.45 Y105.515
N6365 Z-20.64 F733.33
N6370 X486.649 Y106.054 F2200.
N6375 Z-20.44
N6380 X485.383 Y106.233
N6385 Z-20.64 F733.33
N6390 X481.582 Y106.772 F2200.
N6395 Z-20.44
N6400 X480.316 Y106.951
N6405 Z-20.64 F733.33
N6410 X476.515 Y107.49 F2200.
N6415 Z-20.44
N6420 X475.25 Y107.669
N6425 Z-20.64 F733.33
N6430 X471.449 Y108.208 F2200.
N6435 Z-20.44
N6440 X470.184 Y108.387
N6445 Z-20.64 F733.33
N6450 X468.474 Y108.629 F2200.
N6455 X466.386 Y108.908
N6460 Z-20.44
N6465 X466.055 Y108.952
N6470 X465.117 Y109.062
N6475 Z-20.64 F733.33
N6480 X463.633 Y109.236 F2200.
N6485 X461.31 Y109.47
N6490 Z-20.44
N6495 X461.206 Y109.481
N6500 X460.037 Y109.58
N6505 Z-20.64 F733.33
N6510 X458.776 Y109.687 F2200.
N6515 X456.343 Y109.854
N6520 X456.219 Y109.861
N6525 Z-20.44
N6530 X454.943 Y109.928
N6535 Z-20.64 F733.33
N6540 X453.907 Y109.983 F2200.
N6545 X451.469 Y110.072
N6550 X451.117 Y110.079
N6555 Z-20.44
N6560 X449.839 Y110.105
N6565 Z-20.64 F733.33
N6570 X449.03 Y110.122 F2200.
N6575 X446.591 Y110.132
N6580 X446.011 Y110.126
N6585 Z-20.44
N6590 X444.733 Y110.111
N6595 Z-20.64 F733.33
N6600 X444.152 Y110.105 F2200.
N6605 X441.713 Y110.037
N6610 X440.906 Y110.003
N6615 Z-20.44
N6620 X439.824 Y109.958
N6625 X439.629 Y109.948
N6630 Z-20.64 F733.33
N6635 X435.796 Y109.764 F2200.
N6640 Z-20.44
N6645 X434.519 Y109.702
N6650 Z-20.64 F733.33
N6655 X430.685 Y109.518 F2200.
N6660 Z-20.44
N6665 X429.408 Y109.457
N6670 Z-20.64 F733.33
N6675 X425.573 Y109.272 F2200.
N6680 Z-20.44
N6685 X424.296 Y109.211
N6690 Z-20.64 F733.33
N6695 X420.462 Y109.026 F2200.
N6700 Z-20.44
N6705 X419.185 Y108.965
N6710 Z-20.64 F733.33
N6715 X415.351 Y108.78 F2200.
N6720 Z-20.44
N6725 X414.074 Y108.719
N6730 Z-20.64 F733.33
N6735 X410.239 Y108.534 F2200.
N6740 Z-20.44
N6745 X408.962 Y108.473
N6750 Z-20.64 F733.33
N6755 X405.128 Y108.288 F2200.
N6760 Z-20.44
N6765 X403.851 Y108.227
N6770 Z-20.64 F733.33
N6775 X400.016 Y108.042 F2200.
N6780 Z-20.44
N6785 X398.739 Y107.981
N6790 Z-20.64 F733.33
N6795 X394.905 Y107.796 F2200.
N6800 Z-20.44
N6805 X393.628 Y107.735
N6810 Z-20.64 F733.33
N6815 X389.794 Y107.55 F2200.
N6820 Z-20.44
N6825 X388.517 Y107.489
N6830 Z-20.64 F733.33
N6835 X384.682 Y107.304 F2200.
N6840 Z-20.44
N6845 X383.405 Y107.243
N6850 Z-20.64 F733.33
N6855 X379.571 Y107.058 F2200.
N6860 Z-20.44
N6865 X378.294 Y106.997
N6870 Z-20.64 F733.33
N6875 X374.46 Y106.812 F2200.
N6880 Z-20.44
N6885 X373.183 Y106.751
N6890 Z-20.64 F733.33
N6895 X369.348 Y106.566 F2200.
N6900 Z-20.44
N6905 X368.071 Y106.505
N6910 Z-20.64 F733.33
N6915 X364.237 Y106.32 F2200.
N6920 Z-20.44
N6925 X362.96 Y106.259
N6930 Z-20.64 F733.33
N6935 X359.126 Y106.074 F2200.
N6940 Z-20.44
N6945 X357.849 Y106.013
N6950 Z-20.64 F733.33
N6955 X354.014 Y105.828 F2200.
N6960 Z-20.44
N6965 X352.737 Y105.767
N6970 Z-20.64 F733.33
N6975 X348.903 Y105.582 F2200.
N6980 Z-20.44
N6985 X347.626 Y105.521
N6990 Z-20.64 F733.33
N6995 X343.791 Y105.336 F2200.
N7000 Z-20.44
N7005 X342.514 Y105.275
N7010 Z-20.64 F733.33
N7015 X338.68 Y105.09 F2200.
N7020 Z-20.44
N7025 X337.403 Y105.029
N7030 Z-20.64 F733.33
N7035 X333.569 Y104.844 F2200.
N7040 Z-20.44
N7045 X332.292 Y104.783
N7050 Z-20.64 F733.33
N7055 X328.457 Y104.598 F2200.
N7060 Z-20.44
N7065 X327.18 Y104.537
N7070 Z-20.64 F733.33
N7075 X323.346 Y104.352 F2200.
N7080 Z-20.44
N7085 X322.069 Y104.291
N7090 Z-20.64 F733.33
N7095 X318.235 Y104.106 F2200.
N7100 Z-20.44
N7105 X316.958 Y104.045
N7110 Z-20.64 F733.33
N7115 X313.123 Y103.86 F2200.
N7120 Z-20.44
N7125 X311.846 Y103.799
N7130 Z-20.64 F733.33
N7135 X308.012 Y103.614 F2200.
N7140 Z-20.44
N7145 X306.735 Y103.553
N7150 Z-20.64 F733.33
N7155 X302.901 Y103.368 F2200.
N7160 Z-20.44
N7165 X301.624 Y103.307
N7170 Z-20.64 F733.33
N7175 X297.789 Y103.122 F2200.
N7180 Z-20.44
N7185 X296.512 Y103.061
N7190 Z-20.64 F733.33
N7195 X292.678 Y102.876 F2200.
N7200 Z-20.44
N7205 X291.401 Y102.815
N7210 Z-20.64 F733.33
N7215 X287.567 Y102.63 F2200.
N7220 Z-20.44
N7225 X286.29 Y102.569
N7230 Z-20.64 F733.33
N7235 X282.455 Y102.384 F2200.
N7240 Z-20.44
N7245 X281.178 Y102.323
N7250 Z-20.64 F733.33
N7255 X277.344 Y102.138 F2200.
N7260 Z-20.44
N7265 X276.067 Y102.077
N7270 Z-20.64 F733.33
N7275 X275.266 Y102.038 F2200.
N7280 X275.382 Y99.643
N7285 Z-20.44
N7290 X275.443 Y98.366
N7295 Z-20.64 F733.33
N7300 X275.627 Y94.531 F2200.
N7305 Z-20.44
N7310 X275.689 Y93.255
N7315 Z-20.64 F733.33
N7320 X275.873 Y89.42 F2200.
N7325 Z-20.44
N7330 X275.935 Y88.143
N7335 Z-20.64 F733.33
N7340 X276.119 Y84.309 F2200.
N7345 Z-20.44
N7350 X276.166 Y83.33
N7355 G2 X275.975 Y83.022 I-0.319 J-0.015
N7360 G1 Z-20.64 F733.33
N7365 X275.92 Y83.004 F2200.
N7370 X275.862 Y82.996
N7375 X271.73 Y82.797
N7380 Z-20.44
N7385 X270.453 Y82.736
N7390 Z-20.64 F733.33
N7395 X266.618 Y82.551 F2200.
N7400 Z-20.44
N7405 X265.341 Y82.49
N7410 Z-20.64 F733.33
N7415 X261.507 Y82.305 F2200.
N7420 Z-20.44
N7425 X260.23 Y82.244
N7430 Z-20.64 F733.33
N7435 X256.396 Y82.059 F2200.
N7440 Z-20.44
N7445 X255.119 Y81.998
N7450 Z-20.64 F733.33
N7455 X251.284 Y81.813 F2200.
N7460 Z-20.44
N7465 X250.007 Y81.752
N7470 Z-20.64 F733.33
N7475 X246.173 Y81.567 F2200.
N7480 Z-20.44
N7485 X244.896 Y81.506
N7490 Z-20.64 F733.33
N7495 X241.062 Y81.321 F2200.
N7500 Z-20.44
N7505 X239.785 Y81.26
N7510 Z-20.64 F733.33
N7515 X235.95 Y81.075 F2200.
N7520 Z-20.44
N7525 X234.673 Y81.014
N7530 Z-20.64 F733.33
N7535 X230.839 Y80.829 F2200.
N7540 Z-20.44
N7545 X229.562 Y80.768
N7550 Z-20.64 F733.33
N7555 X225.727 Y80.583 F2200.
N7560 Z-20.44
N7565 X224.45 Y80.522
N7570 Z-20.64 F733.33
N7575 X220.616 Y80.337 F2200.
N7580 Z-20.44
N7585 X219.339 Y80.276
N7590 Z-20.64 F733.33
N7595 X215.505 Y80.091 F2200.
N7600 Z-20.44
N7605 X214.228 Y80.03
N7610 Z-20.64 F733.33
N7615 X210.393 Y79.845 F2200.
N7620 Z-20.44
N7625 X209.116 Y79.784
N7630 Z-20.64 F733.33
N7635 X205.282 Y79.599 F2200.
N7640 Z-20.44
N7645 X204.005 Y79.538
N7650 Z-20.64 F733.33
N7655 X200.171 Y79.353 F2200.
N7660 Z-20.44
N7665 X198.894 Y79.292
N7670 Z-20.64 F733.33
N7675 X195.059 Y79.107 F2200.
N7680 Z-20.44
N7685 X193.782 Y79.046
N7690 Z-20.64 F733.33
N7695 X189.948 Y78.861 F2200.
N7700 Z-20.44
N7705 X188.671 Y78.8
N7710 Z-20.64 F733.33
N7715 X184.837 Y78.615 F2200.
N7720 Z-20.44
N7725 X183.56 Y78.554
N7730 Z-20.64 F733.33
N7735 X179.725 Y78.369 F2200.
N7740 Z-20.44
N7745 X178.448 Y78.308
N7750 Z-20.64 F733.33
N7755 X174.614 Y78.123 F2200.
N7760 Z-20.44
N7765 X173.337 Y78.062
N7770 Z-20.64 F733.33
N7775 X169.502 Y77.877 F2200.
N7780 Z-20.44
N7785 X168.225 Y77.816
N7790 Z-20.64 F733.33
N7795 X164.391 Y77.632 F2200.
N7800 Z-20.44
N7805 X163.114 Y77.57
N7810 Z-20.64 F733.33
N7815 X159.28 Y77.386 F2200.
N7820 Z-20.44
N7825 X158.003 Y77.324
N7830 Z-20.64 F733.33
N7835 X154.168 Y77.14 F2200.
N7840 Z-20.44
N7845 X152.891 Y77.078
N7850 Z-20.64 F733.33
N7855 X149.057 Y76.894 F2200.
N7860 Z-20.44
N7865 X147.78 Y76.832
N7870 Z-20.64 F733.33
N7875 X143.946 Y76.648 F2200.
N7880 Z-20.44
N7885 X142.669 Y76.586
N7890 Z-20.64 F733.33
N7895 X138.834 Y76.402 F2200.
N7900 Z-20.44
N7905 X137.557 Y76.34
N7910 Z-20.64 F733.33
N7915 X133.723 Y76.156 F2200.
N7920 Z-20.44
N7925 X132.446 Y76.094
N7930 Z-20.64 F733.33
N7935 X128.612 Y75.91 F2200.
N7940 Z-20.44
N7945 X127.335 Y75.848
N7950 Z-20.64 F733.33
N7955 X123.5 Y75.664 F2200.
N7960 Z-20.44
N7965 X122.223 Y75.602
N7970 Z-20.64 F733.33
N7975 X118.389 Y75.418 F2200.
N7980 Z-20.44
N7985 X117.112 Y75.356
N7990 Z-20.64 F733.33
N7995 X113.277 Y75.172 F2200.
N8000 Z-20.44
N8005 X112. Y75.11
N8010 Z-20.64 F733.33
N8015 X108.166 Y74.926 F2200.
N8020 Z-20.44
N8025 X106.889 Y74.864
N8030 Z-20.64 F733.33
N8035 X103.055 Y74.68 F2200.
N8040 Z-20.44
N8045 X101.778 Y74.618
N8050 Z-20.64 F733.33
N8055 X97.943 Y74.434 F2200.
N8060 Z-20.44
N8065 X96.666 Y74.372
N8070 Z-20.64 F733.33
N8075 X92.832 Y74.188 F2200.
N8080 Z-20.44
N8085 X91.555 Y74.126
N8090 Z-20.64 F733.33
N8095 X87.72 Y73.942 F2200.
N8100 Z-20.44
N8105 X86.444 Y73.88
N8110 Z-20.64 F733.33
N8115 X82.609 Y73.696 F2200.
N8120 Z-20.44
N8125 X81.332 Y73.634
N8130 Z-20.64 F733.33
N8135 X77.498 Y73.45 F2200.
N8140 Z-20.44
N8145 X76.221 Y73.389
N8150 Z-20.64 F733.33
N8155 X72.386 Y73.204 F2200.
N8160 Z-20.44
N8165 X71.11 Y73.143
N8170 Z-20.64 F733.33
N8175 X67.275 Y72.958 F2200.
N8180 Z-20.44
N8185 X65.998 Y72.897
N8190 Z-20.64 F733.33
N8195 X62.163 Y72.712 F2200.
N8200 Z-20.44
N8205 X60.887 Y72.651
N8210 Z-20.64 F733.33
N8215 X57.052 Y72.466 F2200.
N8220 Z-20.44
N8225 X55.775 Y72.405
N8230 Z-20.64 F733.33
N8235 X51.941 Y72.22 F2200.
N8240 Z-20.44
N8245 X50.664 Y72.159
N8250 Z-20.64 F733.33
N8255 X46.829 Y71.974 F2200.
N8260 Z-20.44
N8265 X45.553 Y71.913
N8270 Z-20.64 F733.33
N8275 X41.718 Y71.728 F2200.
N8280 Z-20.44
N8285 X40.441 Y71.667
N8290 Z-20.64 F733.33
N8295 X36.607 Y71.482 F2200.
N8300 Z-20.44
N8305 X35.33 Y71.421
N8310 Z-20.64 F733.33
N8315 X31.495 Y71.236 F2200.
N8320 Z-20.44
N8325 X30.219 Y71.175
N8330 Z-20.64 F733.33
N8335 X28.301 Y71.082 F2200.
N8340 X28.295
N8345 X27.298 Y71.054
N8350 X27.285
N8355 X26.35 Y71.064
N8360 Z-20.44
N8365 X26.287 Y71.065
N8370 X26.275
N8375 X25.278 Y71.115
N8380 X25.266 Y71.116
N8385 X25.074 Y71.133
N8390 Z-20.64 F733.33
N8395 X24.272 Y71.205 F2200.
N8400 X24.259 Y71.206
N8405 X23.27 Y71.334
N8410 X23.257 Y71.336
N8415 X22.273 Y71.503
N8420 X22.261 Y71.505
N8425 X21.285 Y71.711
N8430 X21.272 Y71.714
N8435 X21.22 Y71.727
N8440 Z-20.44
N8445 X20.305 Y71.957
N8450 X20.293 Y71.96
N8455 X19.984 Y72.051
N8460 Z-20.64 F733.33
N8465 X19.335 Y72.242 F2200.
N8470 X19.323 Y72.246
N8475 X18.378 Y72.564
N8480 X18.366 Y72.569
N8485 X17.434 Y72.924
N8490 X17.422 Y72.929
N8495 X16.504 Y73.321
N8500 X16.493 Y73.326
N8505 X16.327 Y73.405
N8510 Z-20.44
N8515 X15.591 Y73.754
N8520 X15.58 Y73.759
N8525 X15.181 Y73.969
N8530 Z-20.64 F733.33
N8535 X14.696 Y74.222 F2200.
N8540 X14.685 Y74.228
N8545 X13.82 Y74.725
N8550 X13.809 Y74.732
N8555 X12.964 Y75.263
N8560 X12.954 Y75.27
N8565 X12.13 Y75.833
N8570 X12.12 Y75.84
N8575 X11.869 Y76.027
N8580 Z-20.44
N8585 X11.319 Y76.436
N8590 X11.31 Y76.444
N8595 X10.858 Y76.808
N8600 Z-20.64 F733.33
N8605 X10.533 Y77.07 F2200.
N8610 X10.523 Y77.078
N8615 X9.772 Y77.735
N8620 X9.762 Y77.743
N8625 X9.037 Y78.428
N8630 X9.028 Y78.437
N8635 X8.331 Y79.151
N8640 X8.322 Y79.16
N8645 X8.026 Y79.488
N8650 Z-20.44
N8655 X7.653 Y79.9
N8660 X7.645 Y79.91
N8665 X7.19 Y80.454
N8670 Z-20.64 F733.33
N8675 X7.005 Y80.676 F2200.
N8680 X6.998 Y80.685
N8685 X6.389 Y81.476
N8690 X6.381 Y81.486
N8695 X5.804 Y82.3
N8700 X5.797 Y82.31
N8705 X5.252 Y83.146
N8710 X5.245 Y83.157
N8715 X4.952 Y83.647
N8720 Z-20.44
N8725 X4.734 Y84.013
N8730 X4.727 Y84.024
N8735 X4.326 Y84.761
N8740 Z-20.64 F733.33
N8745 X4.25 Y84.9 F2200.
N8750 X4.244 Y84.911
N8755 X3.801 Y85.805
N8760 X3.796 Y85.817
N8765 X3.388 Y86.728
N8770 X3.383 Y86.739
N8775 X3.012 Y87.665
N8780 X3.008 Y87.677
N8785 X2.772 Y88.338
N8790 Z-20.44
N8795 X2.673 Y88.617
N8800 X2.669 Y88.629
N8805 X2.38 Y89.554
N8810 Z-20.64 F733.33
N8815 X2.371 Y89.581 F2200.
N8820 X2.368 Y89.594
N8825 X2.108 Y90.557
N8830 X2.105 Y90.569
N8835 X1.883 Y91.542
N8840 X1.881 Y91.554
N8845 X1.697 Y92.535
N8850 X1.695 Y92.547
N8855 X1.575 Y93.369
N8860 Z-20.44
N8865 X1.551 Y93.535
N8870 X1.549 Y93.547
N8875 X1.443 Y94.539
N8880 X1.442 Y94.552
N8885 X1.436 Y94.64
N8890 Z-20.64 F733.33
N8895 X1.376 Y95.529 F2200.
N8900 Y95.535
N8905 X1.233 Y98.492
N8910 Z-20.44
N8915 X1.172 Y99.769
N8920 Z-20.64 F733.33
N8925 X0.988 Y103.603 F2200.
N8930 Z-20.44
N8935 X0.926 Y104.88
N8940 Z-20.64 F733.33
N8945 X0.742 Y108.715 F2200.
N8950 Z-20.44
N8955 X0.68 Y109.992
N8960 Z-20.64 F733.33
N8965 X0.496 Y113.826 F2200.
N8970 Z-20.44
N8975 X0.46 Y114.563
N8980 Y114.569
N8985 X0.445 Y115.103
N8990 Z-20.64 F733.33
N8995 X0.432 Y115.566 F2200.
N9000 Y115.578
N9005 X0.427 Y115.603
N9010 X0.413 Y115.624
N9015 X0.393 Y115.638
N9020 X0.368 Y115.643
N9025 X0.305 Y115.644
N9030 X0.28 Z-20.635
N9035 X0.259 Z-20.621
N9040 X0.246 Z-20.6
N9045 X0.241 Z-20.576
N9050 Z15.
N9055 X6.451 Y33.161
N9060 Z7.35
N9065 Z-6.286 F733.33
N9070 X6.456 Z-6.311 F2200.
N9075 X6.47 Y33.16 Z-6.331
N9080 X6.49 Y33.159 Z-6.345
N9085 X6.515 Y33.158 Z-6.35
N9090 X6.579 Y33.155
N9095 X6.603 Y33.159
N9100 X6.624 Y33.172
N9105 X6.639 Y33.192
N9110 X6.645 Y33.216
N9115 X6.693 Y34.285
N9120 X6.694 Y34.297
N9125 X6.781 Y35.363
N9130 X6.782 Y35.375
N9135 X6.908 Y36.437
N9140 X6.91 Y36.449
N9145 X7.075 Y37.506
N9150 X7.077 Y37.518
N9155 X7.28 Y38.568
N9160 X7.283 Y38.58
N9165 X7.525 Y39.622
N9170 X7.528 Y39.633
N9175 X7.808 Y40.666
N9180 X7.811 Y40.677
N9185 X8.128 Y41.699
N9190 X8.132 Y41.71
N9195 X8.487 Y42.72
N9200 X8.491 Y42.731
N9205 X8.883 Y43.726
N9210 X8.887 Y43.737
N9215 X9.315 Y44.718
N9220 X9.32 Y44.729
N9225 X9.783 Y45.693
N9230 X9.788 Y45.704
N9235 X10.287 Y46.651
N9240 X10.292 Y46.661
N9245 X10.825 Y47.589
N9250 X10.831 Y47.599
N9255 X11.398 Y48.507
N9260 X11.404 Y48.517
N9265 X12.003 Y49.403
N9270 X12.01 Y49.413
N9275 X12.641 Y50.277
N9280 X12.648 Y50.286
N9285 X13.311 Y51.126
N9290 X13.318 Y51.135
N9295 X14.011 Y51.951
N9300 X14.019 Y51.959
N9305 X14.741 Y52.749
N9310 X14.749 Y52.757
N9315 X15.5 Y53.52
N9320 X15.508 Y53.528
N9325 X16.286 Y54.263
N9330 X16.295 Y54.27
N9335 X17.1 Y54.976
N9340 X17.109 Y54.983
N9345 X17.938 Y55.659
N9350 X17.948 Y55.666
N9355 X18.802 Y56.311
N9360 X18.811 Y56.318
N9365 X19.688 Y56.931
N9370 X19.698 Y56.937
N9375 X20.597 Y57.518
N9380 X20.607 Y57.524
N9385 X21.526 Y58.071
N9390 X21.537 Y58.077
N9395 X22.476 Y58.59
N9400 X22.486 Y58.596
N9405 X23.443 Y59.074
N9410 X23.454 Y59.079
N9415 X24.428 Y59.522
N9420 X24.439 Y59.527
N9425 X25.428 Y59.934
N9430 X25.439 Y59.938
N9435 X26.443 Y60.308
N9440 X26.454 Y60.312
N9445 X27.471 Y60.646
N9450 X27.482 Y60.649
N9455 X28.51 Y60.945
N9460 X28.522 Y60.948
N9465 X29.56 Y61.206
N9470 X29.572 Y61.209
N9475 X30.619 Y61.429
N9480 X30.63 Y61.431
N9485 X31.685 Y61.613
N9490 X31.696 Y61.614
N9495 X32.757 Y61.757
N9500 X32.769 Y61.758
N9505 X33.834 Y61.862
N9510 X33.845 Y61.863
N9515 X34.78 Y61.922
N9520 X34.785
N9525 X576.483 Y87.246
N9530 G2 X576.807 Y87.008 I0.015 J-0.319
N9535 G1 X599.332 Y1.013
N9540 G2 X599.022 Y0.612 I-0.309 J-0.081
N9545 G1 X36.061 Y2.73
N9550 X36.055
N9555 X34.985 Y2.754
N9560 X34.974
N9565 X33.905 Y2.817
N9570 X33.894 Y2.818
N9575 X32.828 Y2.92
N9580 X32.817 Y2.921
N9585 X31.756 Y3.062
N9590 X31.744 Y3.064
N9595 X30.69 Y3.243
N9600 X30.678 Y3.245
N9605 X29.63 Y3.463
N9610 X29.619 Y3.466
N9615 X28.58 Y3.722
N9620 X28.569 Y3.725
N9625 X27.54 Y4.02
N9630 X27.529 Y4.023
N9635 X26.511 Y4.355
N9640 X26.5 Y4.358
N9645 X25.496 Y4.727
N9650 X25.485 Y4.731
N9655 X24.494 Y5.137
N9660 X24.484 Y5.141
N9665 X23.509 Y5.583
N9670 X23.498 Y5.588
N9675 X22.54 Y6.064
N9680 X22.53 Y6.07
N9685 X21.59 Y6.581
N9690 X21.58 Y6.587
N9695 X20.659 Y7.133
N9700 X20.649 Y7.139
N9705 X19.749 Y7.718
N9710 X19.74 Y7.724
N9715 X18.861 Y8.336
N9720 X18.852 Y8.342
N9725 X17.997 Y8.986
N9730 X17.987 Y8.993
N9735 X17.156 Y9.667
N9740 X17.147 Y9.675
N9745 X16.342 Y10.379
N9750 X16.333 Y10.386
N9755 X15.554 Y11.12
N9760 X15.545 Y11.128
N9765 X14.793 Y11.889
N9770 X14.785 Y11.897
N9775 X14.061 Y12.686
N9780 X14.054 Y12.694
N9785 X13.359 Y13.509
N9790 X13.352 Y13.518
N9795 X12.688 Y14.357
N9800 X12.681 Y14.366
N9805 X12.048 Y15.229
N9810 X12.041 Y15.239
N9815 X11.44 Y16.124
N9820 X11.434 Y16.134
N9825 X10.866 Y17.041
N9830 X10.86 Y17.051
N9835 X10.325 Y17.978
N9840 X10.32 Y17.988
N9845 X9.82 Y18.934
N9850 X9.814 Y18.944
N9855 X9.349 Y19.908
N9860 X9.344 Y19.919
N9865 X8.915 Y20.899
N9870 X8.91 Y20.91
N9875 X8.517 Y21.905
N9880 X8.513 Y21.916
N9885 X8.156 Y22.925
N9890 X8.153 Y22.936
N9895 X7.833 Y23.957
N9900 X7.83 Y23.968
N9905 X7.548 Y25.
N9910 X7.545 Y25.012
N9915 X7.302 Y26.054
N9920 X7.299 Y26.065
N9925 X7.094 Y27.115
N9930 X7.092 Y27.127
N9935 X6.925 Y28.184
N9940 X6.923 Y28.195
N9945 X6.795 Y29.258
N9950 X6.794 Y29.269
N9955 X6.705 Y30.336
N9960 Y30.344
N9965 X6.675 Y30.876
N9970 Y30.879
N9975 X6.667 Y31.047
N9980 Y31.053
N9985 X6.636 Y32.123
N9990 Y32.134
N9995 X6.645 Y33.204
N10000 Y33.216
N10005 X6.641 Y33.241
N10010 X6.629 Y33.262
N10015 X6.608 Y33.277
N10020 X6.584 Y33.283
N10025 X6.52 Y33.286
N10030 X6.496 Y33.287 Z-6.345
N10035 X6.475 Y33.288 Z-6.331
N10040 X6.461 Z-6.311
N10045 X6.457 Z-6.286
N10050 Z7.35
N10055 X6.451 Y33.161
N10060 Z5.
N10065 Z1. F733.33
N10070 Z-12.636
N10075 X6.456 Z-12.661 F2200.
N10080 X6.47 Y33.16 Z-12.681
N10085 X6.49 Y33.159 Z-12.695
N10090 X6.515 Y33.158 Z-12.7
N10095 X6.579 Y33.155
N10100 X6.603 Y33.159
N10105 X6.624 Y33.172
N10110 X6.639 Y33.192
N10115 X6.645 Y33.216
N10120 X6.693 Y34.285
N10125 X6.694 Y34.297
N10130 X6.781 Y35.363
N10135 X6.782 Y35.375
N10140 X6.908 Y36.437
N10145 X6.91 Y36.449
N10150 X7.075 Y37.506
N10155 X7.077 Y37.518
N10160 X7.28 Y38.568
N10165 X7.283 Y38.58
N10170 X7.525 Y39.622
N10175 X7.528 Y39.633
N10180 X7.808 Y40.666
N10185 X7.811 Y40.677
N10190 X8.128 Y41.699
N10195 X8.132 Y41.71
N10200 X8.487 Y42.72
N10205 X8.491 Y42.731
N10210 X8.883 Y43.726
N10215 X8.887 Y43.737
N10220 X9.315 Y44.718
N10225 X9.32 Y44.729
N10230 X9.783 Y45.693
N10235 X9.788 Y45.704
N10240 X10.287 Y46.651
N10245 X10.292 Y46.661
N10250 X10.825 Y47.589
N10255 X10.831 Y47.599
N10260 X11.398 Y48.507
N10265 X11.404 Y48.517
N10270 X12.003 Y49.403
N10275 X12.01 Y49.413
N10280 X12.641 Y50.277
N10285 X12.648 Y50.286
N10290 X13.311 Y51.126
N10295 X13.318 Y51.135
N10300 X14.011 Y51.951
N10305 X14.019 Y51.959
N10310 X14.741 Y52.749
N10315 X14.749 Y52.757
N10320 X15.5 Y53.52
N10325 X15.508 Y53.528
N10330 X16.286 Y54.263
N10335 X16.295 Y54.27
N10340 X17.1 Y54.976
N10345 X17.109 Y54.983
N10350 X17.938 Y55.659
N10355 X17.948 Y55.666
N10360 X18.802 Y56.311
N10365 X18.811 Y56.318
N10370 X19.688 Y56.931
N10375 X19.698 Y56.937
N10380 X20.597 Y57.518
N10385 X20.607 Y57.524
N10390 X21.526 Y58.071
N10395 X21.537 Y58.077
N10400 X22.476 Y58.59
N10405 X22.486 Y58.596
N10410 X23.443 Y59.074
N10415 X23.454 Y59.079
N10420 X24.428 Y59.522
N10425 X24.439 Y59.527
N10430 X25.428 Y59.934
N10435 X25.439 Y59.938
N10440 X26.443 Y60.308
N10445 X26.454 Y60.312
N10450 X27.471 Y60.646
N10455 X27.482 Y60.649
N10460 X28.51 Y60.945
N10465 X28.522 Y60.948
N10470 X29.56 Y61.206
N10475 X29.572 Y61.209
N10480 X30.619 Y61.429
N10485 X30.63 Y61.431
N10490 X31.685 Y61.613
N10495 X31.696 Y61.614
N10500 X32.757 Y61.757
N10505 X32.769 Y61.758
N10510 X33.834 Y61.862
N10515 X33.845 Y61.863
N10520 X34.78 Y61.922
N10525 X34.785
N10530 X576.483 Y87.246
N10535 G2 X576.807 Y87.008 I0.015 J-0.319
N10540 G1 X599.332 Y1.013
N10545 G2 X599.022 Y0.612 I-0.309 J-0.081
N10550 G1 X36.061 Y2.73
N10555 X36.055
N10560 X34.985 Y2.754
N10565 X34.974
N10570 X33.905 Y2.817
N10575 X33.894 Y2.818
N10580 X32.828 Y2.92
N10585 X32.817 Y2.921
N10590 X31.756 Y3.062
N10595 X31.744 Y3.064
N10600 X30.69 Y3.243
N10605 X30.678 Y3.245
N10610 X29.63 Y3.463
N10615 X29.619 Y3.466
N10620 X28.58 Y3.722
N10625 X28.569 Y3.725
N10630 X27.54 Y4.02
N10635 X27.529 Y4.023
N10640 X26.511 Y4.355
N10645 X26.5 Y4.358
N10650 X25.496 Y4.727
N10655 X25.485 Y4.731
N10660 X24.494 Y5.137
N10665 X24.484 Y5.141
N10670 X23.509 Y5.583
N10675 X23.498 Y5.588
N10680 X22.54 Y6.064
N10685 X22.53 Y6.07
N10690 X21.59 Y6.581
N10695 X21.58 Y6.587
N10700 X20.659 Y7.133
N10705 X20.649 Y7.139
N10710 X19.749 Y7.718
N10715 X19.74 Y7.724
N10720 X18.861 Y8.336
N10725 X18.852 Y8.342
N10730 X17.997 Y8.986
N10735 X17.987 Y8.993
N10740 X17.156 Y9.667
N10745 X17.147 Y9.675
N10750 X16.342 Y10.379
N10755 X16.333 Y10.386
N10760 X15.554 Y11.12
N10765 X15.545 Y11.128
N10770 X14.793 Y11.889
N10775 X14.785 Y11.897
N10780 X14.061 Y12.686
N10785 X14.054 Y12.694
N10790 X13.359 Y13.509
N10795 X13.352 Y13.518
N10800 X12.688 Y14.357
N10805 X12.681 Y14.366
N10810 X12.048 Y15.229
N10815 X12.041 Y15.239
N10820 X11.44 Y16.124
N10825 X11.434 Y16.134
N10830 X10.866 Y17.041
N10835 X10.86 Y17.051
N10840 X10.325 Y17.978
N10845 X10.32 Y17.988
N10850 X9.82 Y18.934
N10855 X9.814 Y18.944
N10860 X9.349 Y19.908
N10865 X9.344 Y19.919
N10870 X8.915 Y20.899
N10875 X8.91 Y20.91
N10880 X8.517 Y21.905
N10885 X8.513 Y21.916
N10890 X8.156 Y22.925
N10895 X8.153 Y22.936
N10900 X7.833 Y23.957
N10905 X7.83 Y23.968
N10910 X7.548 Y25.
N10915 X7.545 Y25.012
N10920 X7.302 Y26.054
N10925 X7.299 Y26.065
N10930 X7.094 Y27.115
N10935 X7.092 Y27.127
N10940 X6.925 Y28.184
N10945 X6.923 Y28.195
N10950 X6.795 Y29.258
N10955 X6.794 Y29.269
N10960 X6.705 Y30.336
N10965 Y30.344
N10970 X6.675 Y30.876
N10975 Y30.879
N10980 X6.667 Y31.047
N10985 Y31.053
N10990 X6.636 Y32.123
N10995 Y32.134
N11000 X6.645 Y33.204
N11005 Y33.216
N11010 X6.641 Y33.241
N11015 X6.629 Y33.262
N11020 X6.608 Y33.277
N11025 X6.584 Y33.283
N11030 X6.52 Y33.286
N11035 X6.496 Y33.287 Z-12.695
N11040 X6.475 Y33.288 Z-12.681
N11045 X6.461 Z-12.661
N11050 X6.457 Z-12.636
N11055 Z7.35
N11060 X6.451 Y33.161
N11065 Z5.
N11070 Z-5.35 F733.33
N11075 Z-18.986
N11080 X6.456 Z-19.011 F2200.
N11085 X6.47 Y33.16 Z-19.031
N11090 X6.49 Y33.159 Z-19.045
N11095 X6.515 Y33.158 Z-19.05
N11100 X6.579 Y33.155
N11105 X6.603 Y33.159
N11110 X6.624 Y33.172
N11115 X6.639 Y33.192
N11120 X6.645 Y33.216
N11125 X6.693 Y34.285
N11130 X6.694 Y34.297
N11135 X6.781 Y35.363
N11140 X6.782 Y35.375
N11145 X6.908 Y36.437
N11150 X6.91 Y36.449
N11155 X7.075 Y37.506
N11160 X7.077 Y37.518
N11165 X7.28 Y38.568
N11170 X7.283 Y38.58
N11175 X7.525 Y39.622
N11180 X7.528 Y39.633
N11185 X7.808 Y40.666
N11190 X7.811 Y40.677
N11195 X8.128 Y41.699
N11200 X8.132 Y41.71
N11205 X8.487 Y42.72
N11210 X8.491 Y42.731
N11215 X8.883 Y43.726
N11220 X8.887 Y43.737
N11225 X9.315 Y44.718
N11230 X9.32 Y44.729
N11235 X9.783 Y45.693
N11240 X9.788 Y45.704
N11245 X10.287 Y46.651
N11250 X10.292 Y46.661
N11255 X10.825 Y47.589
N11260 X10.831 Y47.599
N11265 X11.398 Y48.507
N11270 X11.404 Y48.517
N11275 X12.003 Y49.403
N11280 X12.01 Y49.413
N11285 X12.641 Y50.277
N11290 X12.648 Y50.286
N11295 X13.311 Y51.126
N11300 X13.318 Y51.135
N11305 X14.011 Y51.951
N11310 X14.019 Y51.959
N11315 X14.741 Y52.749
N11320 X14.749 Y52.757
N11325 X15.5 Y53.52
N11330 X15.508 Y53.528
N11335 X16.286 Y54.263
N11340 X16.295 Y54.27
N11345 X17.1 Y54.976
N11350 X17.109 Y54.983
N11355 X17.938 Y55.659
N11360 X17.948 Y55.666
N11365 X18.802 Y56.311
N11370 X18.811 Y56.318
N11375 X19.688 Y56.931
N11380 X19.698 Y56.937
N11385 X20.597 Y57.518
N11390 X20.607 Y57.524
N11395 X21.526 Y58.071
N11400 X21.537 Y58.077
N11405 X22.476 Y58.59
N11410 X22.486 Y58.596
N11415 X23.443 Y59.074
N11420 X23.454 Y59.079
N11425 X24.428 Y59.522
N11430 X24.439 Y59.527
N11435 X25.428 Y59.934
N11440 X25.439 Y59.938
N11445 X26.443 Y60.308
N11450 X26.454 Y60.312
N11455 X27.471 Y60.646
N11460 X27.482 Y60.649
N11465 X28.51 Y60.945
N11470 X28.522 Y60.948
N11475 X29.56 Y61.206
N11480 X29.572 Y61.209
N11485 X30.619 Y61.429
N11490 X30.63 Y61.431
N11495 X31.685 Y61.613
N11500 X31.696 Y61.614
N11505 X32.757 Y61.757
N11510 X32.769 Y61.758
N11515 X33.834 Y61.862
N11520 X33.845 Y61.863
N11525 X34.78 Y61.922
N11530 X34.785
N11535 X576.483 Y87.246
N11540 G2 X576.807 Y87.008 I0.015 J-0.319
N11545 G1 X599.332 Y1.013
N11550 G2 X599.022 Y0.612 I-0.309 J-0.081
N11555 G1 X36.061 Y2.73
N11560 X36.055
N11565 X34.985 Y2.754
N11570 X34.974
N11575 X33.905 Y2.817
N11580 X33.894 Y2.818
N11585 X32.828 Y2.92
N11590 X32.817 Y2.921
N11595 X31.756 Y3.062
N11600 X31.744 Y3.064
N11605 X30.69 Y3.243
N11610 X30.678 Y3.245
N11615 X29.63 Y3.463
N11620 X29.619 Y3.466
N11625 X28.58 Y3.722
N11630 X28.569 Y3.725
N11635 X27.54 Y4.02
N11640 X27.529 Y4.023
N11645 X26.511 Y4.355
N11650 X26.5 Y4.358
N11655 X25.496 Y4.727
N11660 X25.485 Y4.731
N11665 X24.494 Y5.137
N11670 X24.484 Y5.141
N11675 X23.509 Y5.583
N11680 X23.498 Y5.588
N11685 X22.54 Y6.064
N11690 X22.53 Y6.07
N11695 X21.59 Y6.581
N11700 X21.58 Y6.587
N11705 X20.659 Y7.133
N11710 X20.649 Y7.139
N11715 X19.749 Y7.718
N11720 X19.74 Y7.724
N11725 X18.861 Y8.336
N11730 X18.852 Y8.342
N11735 X17.997 Y8.986
N11740 X17.987 Y8.993
N11745 X17.156 Y9.667
N11750 X17.147 Y9.675
N11755 X16.342 Y10.379
N11760 X16.333 Y10.386
N11765 X15.554 Y11.12
N11770 X15.545 Y11.128
N11775 X14.793 Y11.889
N11780 X14.785 Y11.897
N11785 X14.061 Y12.686
N11790 X14.054 Y12.694
N11795 X13.359 Y13.509
N11800 X13.352 Y13.518
N11805 X12.688 Y14.357
N11810 X12.681 Y14.366
N11815 X12.048 Y15.229
N11820 X12.041 Y15.239
N11825 X11.44 Y16.124
N11830 X11.434 Y16.134
N11835 X10.866 Y17.041
N11840 X10.86 Y17.051
N11845 X10.325 Y17.978
N11850 X10.32 Y17.988
N11855 X9.82 Y18.934
N11860 X9.814 Y18.944
N11865 X9.349 Y19.908
N11870 X9.344 Y19.919
N11875 X8.915 Y20.899
N11880 X8.91 Y20.91
N11885 X8.517 Y21.905
N11890 X8.513 Y21.916
N11895 X8.156 Y22.925
N11900 X8.153 Y22.936
N11905 X7.833 Y23.957
N11910 X7.83 Y23.968
N11915 X7.548 Y25.
N11920 X7.545 Y25.012
N11925 X7.302 Y26.054
N11930 X7.299 Y26.065
N11935 X7.094 Y27.115
N11940 X7.092 Y27.127
N11945 X6.925 Y28.184
N11950 X6.923 Y28.195
N11955 X6.795 Y29.258
N11960 X6.794 Y29.269
N11965 X6.705 Y30.336
N11970 Y30.344
N11975 X6.675 Y30.876
N11980 Y30.879
N11985 X6.667 Y31.047
N11990 Y31.053
N11995 X6.636 Y32.123
N12000 Y32.134
N12005 X6.645 Y33.204
N12010 Y33.216
N12015 X6.641 Y33.241
N12020 X6.629 Y33.262
N12025 X6.608 Y33.277
N12030 X6.584 Y33.283
N12035 X6.52 Y33.286
N12040 X6.496 Y33.287 Z-19.045
N12045 X6.475 Y33.288 Z-19.031
N12050 X6.461 Z-19.011
N12055 X6.457 Z-18.986
N12060 Z7.35
N12065 X6.451 Y33.161
N12070 Z5.
N12075 Z-11.7 F733.33
N12080 Z-21.238
N12085 X6.515 Y33.158 F2200.
N12090 X6.579 Y33.155
N12095 X6.603 Y33.159
N12100 X6.624 Y33.172
N12105 X6.639 Y33.192
N12110 X6.645 Y33.216
N12115 X6.693 Y34.271
N12120 Z-21.438 F733.33
N12125 Y34.285 F2200.
N12130 X6.694 Y34.297
N12135 X6.781 Y35.363
N12140 X6.782 Y35.375
N12145 X6.908 Y36.437
N12150 X6.91 Y36.449
N12155 X7.075 Y37.506
N12160 X7.077 Y37.518
N12165 X7.196 Y38.131
N12170 Z-21.238
N12175 X7.28 Y38.568
N12180 X7.283 Y38.58
N12185 X7.469 Y39.38
N12190 Z-21.438 F733.33
N12195 X7.525 Y39.622 F2200.
N12200 X7.528 Y39.633
N12205 X7.808 Y40.666
N12210 X7.811 Y40.677
N12215 X8.128 Y41.699
N12220 X8.132 Y41.71
N12225 X8.487 Y42.72
N12230 X8.491 Y42.731
N12235 X8.634 Y43.094
N12240 Z-21.238
N12245 X8.883 Y43.726
N12250 X8.887 Y43.737
N12255 X9.122 Y44.275
N12260 Z-21.438 F733.33
N12265 X9.315 Y44.718 F2200.
N12270 X9.32 Y44.729
N12275 X9.783 Y45.693
N12280 X9.788 Y45.704
N12285 X10.287 Y46.651
N12290 X10.292 Y46.661
N12295 X10.825 Y47.589
N12300 X10.831 Y47.599
N12305 X10.913 Y47.73
N12310 Z-21.238
N12315 X11.398 Y48.507
N12320 X11.404 Y48.517
N12325 X11.601 Y48.808
N12330 Z-21.438 F733.33
N12335 X12.003 Y49.403 F2200.
N12340 X12.01 Y49.413
N12345 X12.641 Y50.277
N12350 X12.648 Y50.286
N12355 X13.311 Y51.126
N12360 X13.318 Y51.135
N12365 X13.967 Y51.899
N12370 Z-21.238
N12375 X14.011 Y51.951
N12380 X14.019 Y51.959
N12385 X14.741 Y52.749
N12390 X14.749 Y52.757
N12395 X14.831 Y52.84
N12400 Z-21.438 F733.33
N12405 X15.5 Y53.52 F2200.
N12410 X15.508 Y53.528
N12415 X16.286 Y54.263
N12420 X16.295 Y54.27
N12425 X17.1 Y54.976
N12430 X17.109 Y54.983
N12435 X17.703 Y55.468
N12440 Z-21.238
N12445 X17.938 Y55.659
N12450 X17.948 Y55.666
N12455 X18.716 Y56.247
N12460 Z-21.438 F733.33
N12465 X18.802 Y56.311 F2200.
N12470 X18.811 Y56.318
N12475 X19.688 Y56.931
N12480 X19.698 Y56.937
N12485 X20.597 Y57.518
N12490 X20.607 Y57.524
N12495 X21.526 Y58.071
N12500 X21.537 Y58.077
N12505 X22.003 Y58.332
N12510 Z-21.238
N12515 X22.476 Y58.59
N12520 X22.486 Y58.596
N12525 X23.137 Y58.921
N12530 Z-21.438 F733.33
N12535 X23.443 Y59.074 F2200.
N12540 X23.454 Y59.079
N12545 X24.428 Y59.522
N12550 X24.439 Y59.527
N12555 X25.428 Y59.934
N12560 X25.439 Y59.938
N12565 X26.443 Y60.308
N12570 X26.454 Y60.312
N12575 X26.736 Y60.405
N12580 Z-21.238
N12585 X27.471 Y60.646
N12590 X27.482 Y60.649
N12595 X27.955 Y60.785
N12600 Z-21.438 F733.33
N12605 X28.51 Y60.945 F2200.
N12610 X28.522 Y60.948
N12615 X29.56 Y61.206
N12620 X29.572 Y61.209
N12625 X30.619 Y61.429
N12630 X30.63 Y61.431
N12635 X31.685 Y61.613
N12640 X31.696 Y61.614
N12645 X31.757 Y61.622
N12650 Z-21.238
N12655 X32.757 Y61.757
N12660 X32.769 Y61.758
N12665 X33.025 Y61.783
N12670 Z-21.438 F733.33
N12675 X33.834 Y61.862 F2200.
N12680 X33.845 Y61.863
N12685 X34.78 Y61.922
N12690 X34.785
N12695 X36.882 Y62.02
N12700 Z-21.238
N12705 X38.159 Y62.08
N12710 Z-21.438 F733.33
N12715 X41.995 Y62.259 F2200.
N12720 Z-21.238
N12725 X43.271 Y62.319
N12730 Z-21.438 F733.33
N12735 X47.107 Y62.498 F2200.
N12740 Z-21.238
N12745 X48.384 Y62.558
N12750 Z-21.438 F733.33
N12755 X52.22 Y62.737 F2200.
N12760 Z-21.238
N12765 X53.496 Y62.797
N12770 Z-21.438 F733.33
N12775 X57.332 Y62.976 F2200.
N12780 Z-21.238
N12785 X58.609 Y63.036
N12790 Z-21.438 F733.33
N12795 X62.444 Y63.215 F2200.
N12800 Z-21.238
N12805 X63.721 Y63.275
N12810 Z-21.438 F733.33
N12815 X67.557 Y63.454 F2200.
N12820 Z-21.238
N12825 X68.833 Y63.514
N12830 Z-21.438 F733.33
N12835 X72.669 Y63.693 F2200.
N12840 Z-21.238
N12845 X73.946 Y63.753
N12850 Z-21.438 F733.33
N12855 X77.781 Y63.932 F2200.
N12860 Z-21.238
N12865 X79.058 Y63.992
N12870 Z-21.438 F733.33
N12875 X82.894 Y64.171 F2200.
N12880 Z-21.238
N12885 X84.17 Y64.231
N12890 Z-21.438 F733.33
N12895 X88.006 Y64.41 F2200.
N12900 Z-21.238
N12905 X89.283 Y64.47
N12910 Z-21.438 F733.33
N12915 X93.119 Y64.649 F2200.
N12920 Z-21.238
N12925 X94.395 Y64.709
N12930 Z-21.438 F733.33
N12935 X98.231 Y64.888 F2200.
N12940 Z-21.238
N12945 X99.508 Y64.948
N12950 Z-21.438 F733.33
N12955 X103.344 Y65.127 F2200.
N12960 Z-21.238
N12965 X104.62 Y65.187
N12970 Z-21.438 F733.33
N12975 X108.456 Y65.366 F2200.
N12980 Z-21.238
N12985 X109.732 Y65.426
N12990 Z-21.438 F733.33
N12995 X113.568 Y65.605 F2200.
N13000 Z-21.238
N13005 X114.844 Y65.665
N13010 Z-21.438 F733.33
N13015 X118.681 Y65.844 F2200.
N13020 Z-21.238
N13025 X119.957 Y65.904
N13030 Z-21.438 F733.33
N13035 X123.793 Y66.083 F2200.
N13040 Z-21.238
N13045 X125.069 Y66.143
N13050 Z-21.438 F733.33
N13055 X128.905 Y66.322 F2200.
N13060 Z-21.238
N13065 X130.181 Y66.382
N13070 Z-21.438 F733.33
N13075 X134.018 Y66.561 F2200.
N13080 Z-21.238
N13085 X135.294 Y66.621
N13090 Z-21.438 F733.33
N13095 X139.13 Y66.8 F2200.
N13100 Z-21.238
N13105 X140.406 Y66.86
N13110 Z-21.438 F733.33
N13115 X144.243 Y67.039 F2200.
N13120 Z-21.238
N13125 X145.519 Y67.099
N13130 Z-21.438 F733.33
N13135 X149.355 Y67.278 F2200.
N13140 Z-21.238
N13145 X150.631 Y67.338
N13150 Z-21.438 F733.33
N13155 X154.467 Y67.517 F2200.
N13160 Z-21.238
N13165 X155.743 Y67.577
N13170 Z-21.438 F733.33
N13175 X159.58 Y67.756 F2200.
N13180 Z-21.238
N13185 X160.856 Y67.816
N13190 Z-21.438 F733.33
N13195 X164.692 Y67.995 F2200.
N13200 Z-21.238
N13205 X165.968 Y68.055
N13210 Z-21.438 F733.33
N13215 X169.804 Y68.234 F2200.
N13220 Z-21.238
N13225 X171.08 Y68.294
N13230 Z-21.438 F733.33
N13235 X174.917 Y68.473 F2200.
N13240 Z-21.238
N13245 X176.193 Y68.533
N13250 Z-21.438 F733.33
N13255 X180.029 Y68.712 F2200.
N13260 Z-21.238
N13265 X181.305 Y68.772
N13270 Z-21.438 F733.33
N13275 X185.142 Y68.951 F2200.
N13280 Z-21.238
N13285 X186.418 Y69.011
N13290 Z-21.438 F733.33
N13295 X190.254 Y69.19 F2200.
N13300 Z-21.238
N13305 X191.53 Y69.25
N13310 Z-21.438 F733.33
N13315 X195.366 Y69.429 F2200.
N13320 Z-21.238
N13325 X196.642 Y69.489
N13330 Z-21.438 F733.33
N13335 X200.479 Y69.668 F2200.
N13340 Z-21.238
N13345 X201.755 Y69.728
N13350 Z-21.438 F733.33
N13355 X205.591 Y69.907 F2200.
N13360 Z-21.238
N13365 X206.867 Y69.967
N13370 Z-21.438 F733.33
N13375 X210.704 Y70.146 F2200.
N13380 Z-21.238
N13385 X211.98 Y70.206
N13390 Z-21.438 F733.33
N13395 X215.816 Y70.385 F2200.
N13400 Z-21.238
N13405 X217.092 Y70.445
N13410 Z-21.438 F733.33
N13415 X220.928 Y70.624 F2200.
N13420 Z-21.238
N13425 X222.204 Y70.684
N13430 Z-21.438 F733.33
N13435 X226.041 Y70.863 F2200.
N13440 Z-21.238
N13445 X227.317 Y70.923
N13450 Z-21.438 F733.33
N13455 X231.153 Y71.102 F2200.
N13460 Z-21.238
N13465 X232.429 Y71.162
N13470 Z-21.438 F733.33
N13475 X236.265 Y71.341 F2200.
N13480 Z-21.238
N13485 X237.541 Y71.401
N13490 Z-21.438 F733.33
N13495 X241.378 Y71.58 F2200.
N13500 Z-21.238
N13505 X242.654 Y71.64
N13510 Z-21.438 F733.33
N13515 X246.49 Y71.819 F2200.
N13520 Z-21.238
N13525 X247.766 Y71.879
N13530 Z-21.438 F733.33
N13535 X251.603 Y72.058 F2200.
N13540 Z-21.238
N13545 X252.879 Y72.118
N13550 Z-21.438 F733.33
N13555 X256.715 Y72.297 F2200.
N13560 Z-21.238
N13565 X257.991 Y72.357
N13570 Z-21.438 F733.33
N13575 X261.827 Y72.536 F2200.
N13580 Z-21.238
N13585 X263.103 Y72.596
N13590 Z-21.438 F733.33
N13595 X266.94 Y72.775 F2200.
N13600 Z-21.238
N13605 X268.216 Y72.835
N13610 Z-21.438 F733.33
N13615 X272.052 Y73.014 F2200.
N13620 Z-21.238
N13625 X273.328 Y73.074
N13630 Z-21.438 F733.33
N13635 X277.164 Y73.253 F2200.
N13640 Z-21.238
N13645 X278.44 Y73.313
N13650 Z-21.438 F733.33
N13655 X282.277 Y73.492 F2200.
N13660 Z-21.238
N13665 X283.553 Y73.552
N13670 Z-21.438 F733.33
N13675 X287.389 Y73.731 F2200.
N13680 Z-21.238
N13685 X288.665 Y73.791
N13690 Z-21.438 F733.33
N13695 X292.502 Y73.97 F2200.
N13700 Z-21.238
N13705 X293.778 Y74.03
N13710 Z-21.438 F733.33
N13715 X297.614 Y74.209 F2200.
N13720 Z-21.238
N13725 X298.89 Y74.269
N13730 Z-21.438 F733.33
N13735 X302.726 Y74.448 F2200.
N13740 Z-21.238
N13745 X304.002 Y74.508
N13750 Z-21.438 F733.33
N13755 X307.839 Y74.687 F2200.
N13760 Z-21.238
N13765 X309.115 Y74.747
N13770 Z-21.438 F733.33
N13775 X312.951 Y74.926 F2200.
N13780 Z-21.238
N13785 X314.227 Y74.986
N13790 Z-21.438 F733.33
N13795 X318.063 Y75.165 F2200.
N13800 Z-21.238
N13805 X319.339 Y75.225
N13810 Z-21.438 F733.33
N13815 X323.176 Y75.404 F2200.
N13820 Z-21.238
N13825 X324.452 Y75.464
N13830 Z-21.438 F733.33
N13835 X328.288 Y75.643 F2200.
N13840 Z-21.238
N13845 X329.564 Y75.703
N13850 Z-21.438 F733.33
N13855 X333.401 Y75.882 F2200.
N13860 Z-21.238
N13865 X334.677 Y75.942
N13870 Z-21.438 F733.33
N13875 X338.513 Y76.121 F2200.
N13880 Z-21.238
N13885 X339.789 Y76.181
N13890 Z-21.438 F733.33
N13895 X343.625 Y76.36 F2200.
N13900 Z-21.238
N13905 X344.901 Y76.42
N13910 Z-21.438 F733.33
N13915 X348.738 Y76.599 F2200.
N13920 Z-21.238
N13925 X350.014 Y76.659
N13930 Z-21.438 F733.33
N13935 X353.85 Y76.838 F2200.
N13940 Z-21.238
N13945 X355.126 Y76.898
N13950 Z-21.438 F733.33
N13955 X358.962 Y77.077 F2200.
N13960 Z-21.238
N13965 X360.238 Y77.137
N13970 Z-21.438 F733.33
N13975 X364.075 Y77.316 F2200.
N13980 Z-21.238
N13985 X365.351 Y77.376
N13990 Z-21.438 F733.33
N13995 X369.187 Y77.555 F2200.
N14000 Z-21.238
N14005 X370.463 Y77.615
N14010 Z-21.438 F733.33
N14015 X374.3 Y77.794 F2200.
N14020 Z-21.238
N14025 X375.576 Y77.854
N14030 Z-21.438 F733.33
N14035 X379.412 Y78.033 F2200.
N14040 Z-21.238
N14045 X380.688 Y78.093
N14050 Z-21.438 F733.33
N14055 X384.524 Y78.272 F2200.
N14060 Z-21.238
N14065 X385.8 Y78.332
N14070 Z-21.438 F733.33
N14075 X389.637 Y78.511 F2200.
N14080 Z-21.238
N14085 X390.913 Y78.571
N14090 Z-21.438 F733.33
N14095 X394.749 Y78.75 F2200.
N14100 Z-21.238
N14105 X396.025 Y78.81
N14110 Z-21.438 F733.33
N14115 X399.861 Y78.989 F2200.
N14120 Z-21.238
N14125 X401.137 Y79.049
N14130 Z-21.438 F733.33
N14135 X404.974 Y79.228 F2200.
N14140 Z-21.238
N14145 X406.25 Y79.288
N14150 Z-21.438 F733.33
N14155 X410.086 Y79.467 F2200.
N14160 Z-21.238
N14165 X411.362 Y79.527
N14170 Z-21.438 F733.33
N14175 X415.199 Y79.706 F2200.
N14180 Z-21.238
N14185 X416.475 Y79.766
N14190 Z-21.438 F733.33
N14195 X420.311 Y79.945 F2200.
N14200 Z-21.238
N14205 X421.587 Y80.005
N14210 Z-21.438 F733.33
N14215 X425.423 Y80.184 F2200.
N14220 Z-21.238
N14225 X426.699 Y80.244
N14230 Z-21.438 F733.33
N14235 X430.536 Y80.423 F2200.
N14240 Z-21.238
N14245 X431.812 Y80.483
N14250 Z-21.438 F733.33
N14255 X435.648 Y80.662 F2200.
N14260 Z-21.238
N14265 X436.924 Y80.722
N14270 Z-21.438 F733.33
N14275 X440.76 Y80.901 F2200.
N14280 Z-21.238
N14285 X442.036 Y80.961
N14290 Z-21.438 F733.33
N14295 X445.873 Y81.14 F2200.
N14300 Z-21.238
N14305 X447.149 Y81.2
N14310 Z-21.438 F733.33
N14315 X450.985 Y81.379 F2200.
N14320 Z-21.238
N14325 X452.261 Y81.439
N14330 Z-21.438 F733.33
N14335 X456.098 Y81.618 F2200.
N14340 Z-21.238
N14345 X457.374 Y81.678
N14350 Z-21.438 F733.33
N14355 X461.21 Y81.857 F2200.
N14360 Z-21.238
N14365 X462.486 Y81.917
N14370 Z-21.438 F733.33
N14375 X466.322 Y82.096 F2200.
N14380 Z-21.238
N14385 X467.598 Y82.156
N14390 Z-21.438 F733.33
N14395 X471.435 Y82.335 F2200.
N14400 Z-21.238
N14405 X472.711 Y82.395
N14410 Z-21.438 F733.33
N14415 X476.547 Y82.574 F2200.
N14420 Z-21.238
N14425 X477.823 Y82.634
N14430 Z-21.438 F733.33
N14435 X481.66 Y82.813 F2200.
N14440 Z-21.238
N14445 X482.936 Y82.873
N14450 Z-21.438 F733.33
N14455 X486.772 Y83.052 F2200.
N14460 Z-21.238
N14465 X488.048 Y83.112
N14470 Z-21.438 F733.33
N14475 X491.884 Y83.291 F2200.
N14480 Z-21.238
N14485 X493.16 Y83.351
N14490 Z-21.438 F733.33
N14495 X496.997 Y83.53 F2200.
N14500 Z-21.238
N14505 X498.273 Y83.59
N14510 Z-21.438 F733.33
N14515 X502.109 Y83.769 F2200.
N14520 Z-21.238
N14525 X503.385 Y83.829
N14530 Z-21.438 F733.33
N14535 X507.221 Y84.008 F2200.
N14540 Z-21.238
N14545 X508.497 Y84.068
N14550 Z-21.438 F733.33
N14555 X512.334 Y84.247 F2200.
N14560 Z-21.238
N14565 X513.61 Y84.307
N14570 Z-21.438 F733.33
N14575 X517.446 Y84.486 F2200.
N14580 Z-21.238
N14585 X518.722 Y84.546
N14590 Z-21.438 F733.33
N14595 X522.559 Y84.725 F2200.
N14600 Z-21.238
N14605 X523.835 Y84.785
N14610 Z-21.438 F733.33
N14615 X527.671 Y84.964 F2200.
N14620 Z-21.238
N14625 X528.947 Y85.024
N14630 Z-21.438 F733.33
N14635 X532.783 Y85.203 F2200.
N14640 Z-21.238
N14645 X534.059 Y85.263
N14650 Z-21.438 F733.33
N14655 X537.896 Y85.442 F2200.
N14660 Z-21.238
N14665 X539.172 Y85.502
N14670 Z-21.438 F733.33
N14675 X543.008 Y85.681 F2200.
N14680 Z-21.238
N14685 X544.284 Y85.741
N14690 Z-21.438 F733.33
N14695 X548.12 Y85.92 F2200.
N14700 Z-21.238
N14705 X549.396 Y85.98
N14710 Z-21.438 F733.33
N14715 X553.233 Y86.159 F2200.
N14720 Z-21.238
N14725 X554.509 Y86.219
N14730 Z-21.438 F733.33
N14735 X558.345 Y86.398 F2200.
N14740 Z-21.238
N14745 X559.621 Y86.458
N14750 Z-21.438 F733.33
N14755 X563.458 Y86.637 F2200.
N14760 Z-21.238
N14765 X564.734 Y86.697
N14770 Z-21.438 F733.33
N14775 X568.57 Y86.876 F2200.
N14780 Z-21.238
N14785 X569.846 Y86.936
N14790 Z-21.438 F733.33
N14795 X573.682 Y87.115 F2200.
N14800 Z-21.238
N14805 X574.958 Y87.175
N14810 Z-21.438 F733.33
N14815 X576.483 Y87.246 F2200.
N14820 G2 X576.807 Y87.008 I0.015 J-0.319
N14825 G1 X577.393 Y84.77
N14830 Z-21.238
N14835 X577.717 Y83.533
N14840 Z-21.438 F733.33
N14845 X578.69 Y79.819 F2200.
N14850 Z-21.238
N14855 X579.014 Y78.582
N14860 Z-21.438 F733.33
N14865 X579.987 Y74.868 F2200.
N14870 Z-21.238
N14875 X580.311 Y73.631
N14880 Z-21.438 F733.33
N14885 X581.284 Y69.917 F2200.
N14890 Z-21.238
N14895 X581.608 Y68.68
N14900 Z-21.438 F733.33
N14905 X582.581 Y64.966 F2200.
N14910 Z-21.238
N14915 X582.904 Y63.73
N14920 Z-21.438 F733.33
N14925 X583.877 Y60.015 F2200.
N14930 Z-21.238
N14935 X584.201 Y58.779
N14940 Z-21.438 F733.33
N14945 X585.174 Y55.064 F2200.
N14950 Z-21.238
N14955 X585.498 Y53.828
N14960 Z-21.438 F733.33
N14965 X586.471 Y50.113 F2200.
N14970 Z-21.238
N14975 X586.795 Y48.877
N14980 Z-21.438 F733.33
N14985 X587.768 Y45.162 F2200.
N14990 Z-21.238
N14995 X588.092 Y43.926
N15000 Z-21.438 F733.33
N15005 X589.065 Y40.211 F2200.
N15010 Z-21.238
N15015 X589.388 Y38.975
N15020 Z-21.438 F733.33
N15025 X590.362 Y35.26 F2200.
N15030 Z-21.238
N15035 X590.685 Y34.024
N15040 Z-21.438 F733.33
N15045 X591.658 Y30.309 F2200.
N15050 Z-21.238
N15055 X591.982 Y29.073
N15060 Z-21.438 F733.33
N15065 X592.955 Y25.358 F2200.
N15070 Z-21.238
N15075 X593.279 Y24.122
N15080 Z-21.438 F733.33
N15085 X594.252 Y20.407 F2200.
N15090 Z-21.238
N15095 X594.576 Y19.171
N15100 Z-21.438 F733.33
N15105 X595.549 Y15.456 F2200.
N15110 Z-21.238
N15115 X595.873 Y14.22
N15120 Z-21.438 F733.33
N15125 X596.846 Y10.505 F2200.
N15130 Z-21.238
N15135 X597.169 Y9.269
N15140 Z-21.438 F733.33
N15145 X598.142 Y5.554 F2200.
N15150 Z-21.238
N15155 X598.466 Y4.318
N15160 Z-21.438 F733.33
N15165 X599.332 Y1.013 F2200.
N15170 G2 X599.022 Y0.612 I-0.309 J-0.081
N15175 G1 X598.599 Y0.614
N15180 Z-21.238
N15185 X597.321 Y0.619
N15190 Z-21.438 F733.33
N15195 X593.481 Y0.633 F2200.
N15200 Z-21.238
N15205 X592.203 Y0.638
N15210 Z-21.438 F733.33
N15215 X588.363 Y0.652 F2200.
N15220 Z-21.238
N15225 X587.085 Y0.657
N15230 Z-21.438 F733.33
N15235 X583.245 Y0.671 F2200.
N15240 Z-21.238
N15245 X581.967 Y0.676
N15250 Z-21.438 F733.33
N15255 X578.127 Y0.691 F2200.
N15260 Z-21.238
N15265 X576.849 Y0.696
N15270 Z-21.438 F733.33
N15275 X573.009 Y0.71 F2200.
N15280 Z-21.238
N15285 X571.731 Y0.715
N15290 Z-21.438 F733.33
N15295 X567.891 Y0.729 F2200.
N15300 Z-21.238
N15305 X566.613 Y0.734
N15310 Z-21.438 F733.33
N15315 X562.773 Y0.749 F2200.
N15320 Z-21.238
N15325 X561.495 Y0.753
N15330 Z-21.438 F733.33
N15335 X557.655 Y0.768 F2200.
N15340 Z-21.238
N15345 X556.377 Y0.773
N15350 Z-21.438 F733.33
N15355 X552.537 Y0.787 F2200.
N15360 Z-21.238
N15365 X551.259 Y0.792
N15370 Z-21.438 F733.33
N15375 X547.419 Y0.806 F2200.
N15380 Z-21.238
N15385 X546.141 Y0.811
N15390 Z-21.438 F733.33
N15395 X542.301 Y0.826 F2200.
N15400 Z-21.238
N15405 X541.023 Y0.83
N15410 Z-21.438 F733.33
N15415 X537.183 Y0.845 F2200.
N15420 Z-21.238
N15425 X535.905 Y0.85
N15430 Z-21.438 F733.33
N15435 X532.066 Y0.864 F2200.
N15440 Z-21.238
N15445 X530.788 Y0.869
N15450 Z-21.438 F733.33
N15455 X526.948 Y0.883 F2200.
N15460 Z-21.238
N15465 X525.67 Y0.888
N15470 Z-21.438 F733.33
N15475 X521.83 Y0.903 F2200.
N15480 Z-21.238
N15485 X520.552 Y0.907
N15490 Z-21.438 F733.33
N15495 X516.712 Y0.922 F2200.
N15500 Z-21.238
N15505 X515.434 Y0.927
N15510 Z-21.438 F733.33
N15515 X511.594 Y0.941 F2200.
N15520 Z-21.238
N15525 X510.316 Y0.946
N15530 Z-21.438 F733.33
N15535 X506.476 Y0.96 F2200.
N15540 Z-21.238
N15545 X505.198 Y0.965
N15550 Z-21.438 F733.33
N15555 X501.358 Y0.98 F2200.
N15560 Z-21.238
N15565 X500.08 Y0.984
N15570 Z-21.438 F733.33
N15575 X496.24 Y0.999 F2200.
N15580 Z-21.238
N15585 X494.962 Y1.004
N15590 Z-21.438 F733.33
N15595 X491.122 Y1.018 F2200.
N15600 Z-21.238
N15605 X489.844 Y1.023
N15610 Z-21.438 F733.33
N15615 X486.004 Y1.037 F2200.
N15620 Z-21.238
N15625 X484.726 Y1.042
N15630 Z-21.438 F733.33
N15635 X480.886 Y1.057 F2200.
N15640 Z-21.238
N15645 X479.608 Y1.061
N15650 Z-21.438 F733.33
N15655 X475.768 Y1.076 F2200.
N15660 Z-21.238
N15665 X474.49 Y1.081
N15670 Z-21.438 F733.33
N15675 X470.65 Y1.095 F2200.
N15680 Z-21.238
N15685 X469.372 Y1.1
N15690 Z-21.438 F733.33
N15695 X465.533 Y1.114 F2200.
N15700 Z-21.238
N15705 X464.255 Y1.119
N15710 Z-21.438 F733.33
N15715 X460.415 Y1.134 F2200.
N15720 Z-21.238
N15725 X459.137 Y1.138
N15730 Z-21.438 F733.33
N15735 X455.297 Y1.153 F2200.
N15740 Z-21.238
N15745 X454.019 Y1.158
N15750 Z-21.438 F733.33
N15755 X450.179 Y1.172 F2200.
N15760 Z-21.238
N15765 X448.901 Y1.177
N15770 Z-21.438 F733.33
N15775 X445.061 Y1.191 F2200.
N15780 Z-21.238
N15785 X443.783 Y1.196
N15790 Z-21.438 F733.33
N15795 X439.943 Y1.211 F2200.
N15800 Z-21.238
N15805 X438.665 Y1.215
N15810 Z-21.438 F733.33
N15815 X434.825 Y1.23 F2200.
N15820 Z-21.238
N15825 X433.547 Y1.235
N15830 Z-21.438 F733.33
N15835 X429.707 Y1.249 F2200.
N15840 Z-21.238
N15845 X428.429 Y1.254
N15850 Z-21.438 F733.33
N15855 X424.589 Y1.268 F2200.
N15860 Z-21.238
N15865 X423.311 Y1.273
N15870 Z-21.438 F733.33
N15875 X419.471 Y1.288 F2200.
N15880 Z-21.238
N15885 X418.193 Y1.292
N15890 Z-21.438 F733.33
N15895 X414.353 Y1.307 F2200.
N15900 Z-21.238
N15905 X413.075 Y1.312
N15910 Z-21.438 F733.33
N15915 X409.235 Y1.326 F2200.
N15920 Z-21.238
N15925 X407.957 Y1.331
N15930 Z-21.438 F733.33
N15935 X404.117 Y1.345 F2200.
N15940 Z-21.238
N15945 X402.839 Y1.35
N15950 Z-21.438 F733.33
N15955 X399. Y1.365 F2200.
N15960 Z-21.238
N15965 X397.722 Y1.369
N15970 Z-21.438 F733.33
N15975 X393.882 Y1.384 F2200.
N15980 Z-21.238
N15985 X392.604 Y1.389
N15990 Z-21.438 F733.33
N15995 X388.764 Y1.403 F2200.
N16000 Z-21.238
N16005 X387.486 Y1.408
N16010 Z-21.438 F733.33
N16015 X383.646 Y1.422 F2200.
N16020 Z-21.238
N16025 X382.368 Y1.427
N16030 Z-21.438 F733.33
N16035 X378.528 Y1.442 F2200.
N16040 Z-21.238
N16045 X377.25 Y1.446
N16050 Z-21.438 F733.33
N16055 X373.41 Y1.461 F2200.
N16060 Z-21.238
N16065 X372.132 Y1.466
N16070 Z-21.438 F733.33
N16075 X368.292 Y1.48 F2200.
N16080 Z-21.238
N16085 X367.014 Y1.485
N16090 Z-21.438 F733.33
N16095 X363.174 Y1.499 F2200.
N16100 Z-21.238
N16105 X361.896 Y1.504
N16110 Z-21.438 F733.33
N16115 X358.056 Y1.519 F2200.
N16120 Z-21.238
N16125 X356.778 Y1.523
N16130 Z-21.438 F733.33
N16135 X352.938 Y1.538 F2200.
N16140 Z-21.238
N16145 X351.66 Y1.543
N16150 Z-21.438 F733.33
N16155 X347.82 Y1.557 F2200.
N16160 Z-21.238
N16165 X346.542 Y1.562
N16170 Z-21.438 F733.33
N16175 X342.702 Y1.576 F2200.
N16180 Z-21.238
N16185 X341.424 Y1.581
N16190 Z-21.438 F733.33
N16195 X337.584 Y1.596 F2200.
N16200 Z-21.238
N16205 X336.306 Y1.6
N16210 Z-21.438 F733.33
N16215 X332.466 Y1.615 F2200.
N16220 Z-21.238
N16225 X331.188 Y1.62
N16230 Z-21.438 F733.33
N16235 X327.349 Y1.634 F2200.
N16240 Z-21.238
N16245 X326.071 Y1.639
N16250 Z-21.438 F733.33
N16255 X322.231 Y1.653 F2200.
N16260 Z-21.238
N16265 X320.953 Y1.658
N16270 Z-21.438 F733.33
N16275 X317.113 Y1.673 F2200.
N16280 Z-21.238
N16285 X315.835 Y1.677
N16290 Z-21.438 F733.33
N16295 X311.995 Y1.692 F2200.
N16300 Z-21.238
N16305 X310.717 Y1.697
N16310 Z-21.438 F733.33
N16315 X306.877 Y1.711 F2200.
N16320 Z-21.238
N16325 X305.599 Y1.716
N16330 Z-21.438 F733.33
N16335 X301.759 Y1.73 F2200.
N16340 Z-21.238
N16345 X300.481 Y1.735
N16350 Z-21.438 F733.33
N16355 X296.641 Y1.75 F2200.
N16360 Z-21.238
N16365 X295.363 Y1.754
N16370 Z-21.438 F733.33
N16375 X291.523 Y1.769 F2200.
N16380 Z-21.238
N16385 X290.245 Y1.774
N16390 Z-21.438 F733.33
N16395 X286.405 Y1.788 F2200.
N16400 Z-21.238
N16405 X285.127 Y1.793
N16410 Z-21.438 F733.33
N16415 X281.287 Y1.807 F2200.
N16420 Z-21.238
N16425 X280.009 Y1.812
N16430 Z-21.438 F733.33
N16435 X276.169 Y1.827 F2200.
N16440 Z-21.238
N16445 X274.891 Y1.831
N16450 Z-21.438 F733.33
N16455 X271.051 Y1.846 F2200.
N16460 Z-21.238
N16465 X269.773 Y1.851
N16470 Z-21.438 F733.33
N16475 X265.933 Y1.865 F2200.
N16480 Z-21.238
N16485 X264.655 Y1.87
N16490 Z-21.438 F733.33
N16495 X260.816 Y1.884 F2200.
N16500 Z-21.238
N16505 X259.538 Y1.889
N16510 Z-21.438 F733.33
N16515 X255.698 Y1.904 F2200.
N16520 Z-21.238
N16525 X254.42 Y1.908
N16530 Z-21.438 F733.33
N16535 X250.58 Y1.923 F2200.
N16540 Z-21.238
N16545 X249.302 Y1.928
N16550 Z-21.438 F733.33
N16555 X245.462 Y1.942 F2200.
N16560 Z-21.238
N16565 X244.184 Y1.947
N16570 Z-21.438 F733.33
N16575 X240.344 Y1.961 F2200.
N16580 Z-21.238
N16585 X239.066 Y1.966
N16590 Z-21.438 F733.33
N16595 X235.226 Y1.981 F2200.
N16600 Z-21.238
N16605 X233.948 Y1.985
N16610 Z-21.438 F733.33
N16615 X230.108 Y2. F2200.
N16620 Z-21.238
N16625 X228.83 Y2.005
N16630 Z-21.438 F733.33
N16635 X224.99 Y2.019 F2200.
N16640 Z-21.238
N16645 X223.712 Y2.024
N16650 Z-21.438 F733.33
N16655 X219.872 Y2.038 F2200.
N16660 Z-21.238
N16665 X218.594 Y2.043
N16670 Z-21.438 F733.33
N16675 X214.754 Y2.058 F2200.
N16680 Z-21.238
N16685 X213.476 Y2.062
N16690 Z-21.438 F733.33
N16695 X209.636 Y2.077 F2200.
N16700 Z-21.238
N16705 X208.358 Y2.082
N16710 Z-21.438 F733.33
N16715 X204.518 Y2.096 F2200.
N16720 Z-21.238
N16725 X203.24 Y2.101
N16730 Z-21.438 F733.33
N16735 X199.4 Y2.115 F2200.
N16740 Z-21.238
N16745 X198.122 Y2.12
N16750 Z-21.438 F733.33
N16755 X194.283 Y2.135 F2200.
N16760 Z-21.238
N16765 X193.005 Y2.139
N16770 Z-21.438 F733.33
N16775 X189.165 Y2.154 F2200.
N16780 Z-21.238
N16785 X187.887 Y2.159
N16790 Z-21.438 F733.33
N16795 X184.047 Y2.173 F2200.
N16800 Z-21.238
N16805 X182.769 Y2.178
N16810 Z-21.438 F733.33
N16815 X178.929 Y2.192 F2200.
N16820 Z-21.238
N16825 X177.651 Y2.197
N16830 Z-21.438 F733.33
N16835 X173.811 Y2.212 F2200.
N16840 Z-21.238
N16845 X172.533 Y2.216
N16850 Z-21.438 F733.33
N16855 X168.693 Y2.231 F2200.
N16860 Z-21.238
N16865 X167.415 Y2.236
N16870 Z-21.438 F733.33
N16875 X163.575 Y2.25 F2200.
N16880 Z-21.238
N16885 X162.297 Y2.255
N16890 Z-21.438 F733.33
N16895 X158.457 Y2.269 F2200.
N16900 Z-21.238
N16905 X157.179 Y2.274
N16910 Z-21.438 F733.33
N16915 X153.339 Y2.289 F2200.
N16920 Z-21.238
N16925 X152.061 Y2.293
N16930 Z-21.438 F733.33
N16935 X148.221 Y2.308 F2200.
N16940 Z-21.238
N16945 X146.943 Y2.313
N16950 Z-21.438 F733.33
N16955 X143.103 Y2.327 F2200.
N16960 Z-21.238
N16965 X141.825 Y2.332
N16970 Z-21.438 F733.33
N16975 X137.985 Y2.346 F2200.
N16980 Z-21.238
N16985 X136.707 Y2.351
N16990 Z-21.438 F733.33
N16995 X132.867 Y2.366 F2200.
N17000 Z-21.238
N17005 X131.589 Y2.371
N17010 Z-21.438 F733.33
N17015 X127.75 Y2.385 F2200.
N17020 Z-21.238
N17025 X126.472 Y2.39
N17030 Z-21.438 F733.33
N17035 X122.632 Y2.404 F2200.
N17040 Z-21.238
N17045 X121.354 Y2.409
N17050 Z-21.438 F733.33
N17055 X117.514 Y2.423 F2200.
N17060 Z-21.238
N17065 X116.236 Y2.428
N17070 Z-21.438 F733.33
N17075 X112.396 Y2.443 F2200.
N17080 Z-21.238
N17085 X111.118 Y2.448
N17090 Z-21.438 F733.33
N17095 X107.278 Y2.462 F2200.
N17100 Z-21.238
N17105 X106. Y2.467
N17110 Z-21.438 F733.33
N17115 X102.16 Y2.481 F2200.
N17120 Z-21.238
N17125 X100.882 Y2.486
N17130 Z-21.438 F733.33
N17135 X97.042 Y2.5 F2200.
N17140 Z-21.238
N17145 X95.764 Y2.505
N17150 Z-21.438 F733.33
N17155 X91.924 Y2.52 F2200.
N17160 Z-21.238
N17165 X90.646 Y2.525
N17170 Z-21.438 F733.33
N17175 X86.806 Y2.539 F2200.
N17180 Z-21.238
N17185 X85.528 Y2.544
N17190 Z-21.438 F733.33
N17195 X81.688 Y2.558 F2200.
N17200 Z-21.238
N17205 X80.41 Y2.563
N17210 Z-21.438 F733.33
N17215 X76.57 Y2.577 F2200.
N17220 Z-21.238
N17225 X75.292 Y2.582
N17230 Z-21.438 F733.33
N17235 X71.452 Y2.597 F2200.
N17240 Z-21.238
N17245 X70.174 Y2.602
N17250 Z-21.438 F733.33
N17255 X66.334 Y2.616 F2200.
N17260 Z-21.238
N17265 X65.056 Y2.621
N17270 Z-21.438 F733.33
N17275 X61.216 Y2.635 F2200.
N17280 Z-21.238
N17285 X59.938 Y2.64
N17290 Z-21.438 F733.33
N17295 X56.098 Y2.654 F2200.
N17300 Z-21.238
N17305 X54.82 Y2.659
N17310 Z-21.438 F733.33
N17315 X50.98 Y2.674 F2200.
N17320 Z-21.238
N17325 X49.702 Y2.679
N17330 Z-21.438 F733.33
N17335 X45.862 Y2.693 F2200.
N17340 Z-21.238
N17345 X44.585 Y2.698
N17350 Z-21.438 F733.33
N17355 X40.745 Y2.712 F2200.
N17360 Z-21.238
N17365 X39.467 Y2.717
N17370 Z-21.438 F733.33
N17375 X36.061 Y2.73 F2200.
N17380 X36.055
N17385 X35.615 Y2.74
N17390 Z-21.238
N17395 X34.985 Y2.754
N17400 X34.974
N17405 X34.338 Y2.791
N17410 Z-21.438 F733.33
N17415 X33.905 Y2.817 F2200.
N17420 X33.894 Y2.818
N17425 X32.828 Y2.92
N17430 X32.817 Y2.921
N17435 X31.756 Y3.062
N17440 X31.744 Y3.064
N17445 X30.69 Y3.243
N17450 X30.678 Y3.245
N17455 X30.477 Y3.287
N17460 Z-21.238
N17465 X29.63 Y3.463
N17470 X29.619 Y3.466
N17475 X29.229 Y3.562
N17480 Z-21.438 F733.33
N17485 X28.58 Y3.722 F2200.
N17490 X28.569 Y3.725
N17495 X27.54 Y4.02
N17500 X27.529 Y4.023
N17505 X26.511 Y4.355
N17510 X26.5 Y4.358
N17515 X25.513 Y4.721
N17520 Z-21.238
N17525 X25.496 Y4.727
N17530 X25.485 Y4.731
N17535 X24.494 Y5.137
N17540 X24.484 Y5.141
N17545 X24.333 Y5.21
N17550 Z-21.438 F733.33
N17555 X23.509 Y5.583 F2200.
N17560 X23.498 Y5.588
N17565 X22.54 Y6.064
N17570 X22.53 Y6.07
N17575 X21.59 Y6.581
N17580 X21.58 Y6.587
N17585 X20.878 Y7.003
N17590 Z-21.238
N17595 X20.659 Y7.133
N17600 X20.649 Y7.139
N17605 X19.798 Y7.686
N17610 Z-21.438 F733.33
N17615 X19.749 Y7.718 F2200.
N17620 X19.74 Y7.724
N17625 X18.861 Y8.336
N17630 X18.852 Y8.342
N17635 X17.997 Y8.986
N17640 X17.987 Y8.993
N17645 X17.156 Y9.667
N17650 X17.147 Y9.675
N17655 X16.71 Y10.057
N17660 Z-21.238
N17665 X16.342 Y10.379
N17670 X16.333 Y10.386
N17675 X15.767 Y10.919
N17680 Z-21.438 F733.33
N17685 X15.554 Y11.12 F2200.
N17690 X15.545 Y11.128
N17695 X14.793 Y11.889
N17700 X14.785 Y11.897
N17705 X14.061 Y12.686
N17710 X14.054 Y12.694
N17715 X13.359 Y13.509
N17720 X13.352 Y13.518
N17725 X13.137 Y13.789
N17730 Z-21.238
N17735 X12.688 Y14.357
N17740 X12.681 Y14.366
N17745 X12.36 Y14.803
N17750 Z-21.438 F733.33
N17755 X12.048 Y15.229 F2200.
N17760 X12.041 Y15.239
N17765 X11.44 Y16.124
N17770 X11.434 Y16.134
N17775 X10.866 Y17.041
N17780 X10.86 Y17.051
N17785 X10.325 Y17.978
N17790 X10.32 Y17.988
N17795 X10.268 Y18.086
N17800 Z-21.238
N17805 X9.82 Y18.934
N17810 X9.814 Y18.944
N17815 X9.681 Y19.221
N17820 Z-21.438 F733.33
N17825 X9.349 Y19.908 F2200.
N17830 X9.344 Y19.919
N17835 X8.915 Y20.899
N17840 X8.91 Y20.91
N17845 X8.517 Y21.905
N17850 X8.513 Y21.916
N17855 X8.194 Y22.818
N17860 Z-21.238
N17865 X8.156 Y22.925
N17870 X8.153 Y22.936
N17875 X7.833 Y23.957
N17880 X7.83 Y23.968
N17885 X7.811 Y24.037
N17890 Z-21.438 F733.33
N17895 X7.548 Y25. F2200.
N17900 X7.545 Y25.012
N17905 X7.302 Y26.054
N17910 X7.299 Y26.065
N17915 X7.094 Y27.115
N17920 X7.092 Y27.127
N17925 X6.979 Y27.84
N17930 Z-21.238
N17935 X6.925 Y28.184
N17940 X6.923 Y28.195
N17945 X6.813 Y29.107
N17950 Z-21.438 F733.33
N17955 X6.795 Y29.258 F2200.
N17960 X6.794 Y29.269
N17965 X6.705 Y30.336
N17970 Y30.344
N17975 X6.675 Y30.876
N17980 Y30.879
N17985 X6.667 Y31.047
N17990 Y31.053
N17995 X6.636 Y32.123
N18000 Y32.134
N18005 X6.643 Y32.994
N18010 Z-21.238
N18015 X6.645 Y33.204
N18020 Y33.216
N18025 X6.641 Y33.241
N18030 X6.629 Y33.262
N18035 X6.608 Y33.277
N18040 X6.584 Y33.283
N18045 X6.457 Y33.288
N18050 Z15.
N18055 M5
N18060 G53 G0 Z0.
N18065 M30
%
