%
(CHAIR_SIDE)
(T3 D=0.639 CR=0. - ZMIN=-25.802 - FLAT END MILL)
N10 G90 G94 G17 G91.1
N15 G21
(WHEN USING FUSION 360 FOR PERSONAL USE, THE FEEDRATE OF)
(RAPID MOVES IS REDUCED TO MATCH THE FEEDRATE OF CUTTING)
(MOVES, WHICH CAN INCREASE MACHINING TIME. UNRESTRICTED RAPID)
(MOVES ARE AVAILABLE WITH A FUSION 360 SUBSCRIPTION.)
N20 G53 G0 Z0.
(2D CONTOUR1)
N25 T3 M6
N30 S10000 M3
N35 G17 G90 G94
N40 G54
N45 G64 P0.01 Q0.01
N50 G0 X454.864 Y51.07
N55 G43 Z15. H3
N60 G1 Z7.35 F2200.
N65 Z-6.286 F733.33
N70 X454.863 Y51.075 Z-6.311 F2200.
N75 X454.86 Y51.088 Z-6.331
N80 X454.856 Y51.109 Z-6.345
N85 X454.852 Y51.133 Z-6.35
N90 X454.84 Y51.195
N95 X454.831 Y51.219
N100 X454.813 Y51.236
N105 X454.79 Y51.246
N110 X454.766
N115 X309.22 Y23.957
N120 G2 X252.99 Y18.73 I-56.23 J299.893
N125 G1 X52.718
N130 G2 X26.998 Y44.45 I0. J25.72
N135 G1 Y82.55
N140 G2 X52.718 Y108.27 I25.719 J0.
N145 G1 X390.088
N150 X390.097 Y108.269
N155 X390.827 Y108.249
N160 X390.843 Y108.248
N165 X391.57 Y108.19
N170 X391.588 Y108.189
N175 X392.311 Y108.091
N180 X392.328 Y108.088
N185 X393.044 Y107.952
N190 X393.061 Y107.948
N195 X393.768 Y107.773
N200 X393.784 Y107.769
N205 X394.479 Y107.557
N210 X394.495 Y107.551
N215 X395.177 Y107.303
N220 X395.194 Y107.297
N225 X395.86 Y107.012
N230 X395.875 Y107.005
N235 X396.523 Y106.686
N240 X396.539 Y106.677
N245 X397.168 Y106.323
N250 X397.183 Y106.314
N255 X397.789 Y105.928
N260 X397.803 Y105.919
N265 X398.386 Y105.501
N270 X398.4 Y105.49
N275 X398.958 Y105.042
N280 X398.971 Y105.031
N285 X399.503 Y104.555
N290 X399.516 Y104.543
N295 X400.018 Y104.04
N300 X400.03 Y104.027
N305 X400.503 Y103.498
N310 X400.515 Y103.484
N315 X400.957 Y102.931
N320 X400.967 Y102.917
N325 X401.376 Y102.342
N330 X401.386 Y102.327
N335 X401.761 Y101.732
N340 X401.77 Y101.717
N345 X402.111 Y101.104
N350 X402.12 Y101.088
N355 X402.425 Y100.457
N360 X402.432 Y100.441
N365 X402.701 Y99.796
N370 X402.707 Y99.78
N375 X402.939 Y99.122
N380 X402.945 Y99.105
N385 X403.14 Y98.436
N390 X403.144 Y98.418
N395 X403.3 Y97.741
N400 X403.304 Y97.723
N405 X403.421 Y97.038
N410 X403.423 Y97.021
N415 X403.502 Y96.331
N420 X403.504 Y96.313
N425 X403.543 Y95.62
N430 Y95.607
N435 X403.548 Y95.255
N440 Y95.25
N445 Y76.52
N450 X480.849
N455 G2 X481.168 Y76.2 I0. J-0.32
N460 G1 Y68.683
N465 X481.164 Y68.632
N470 X481.152 Y68.582
N475 X481.132 Y68.534
N480 G2 X458.678 Y51.98 I-28.363 J14.966
N485 G1 X454.766 Y51.246
N490 X454.742 Y51.237
N495 X454.725 Y51.22
N500 X454.715 Y51.197
N505 X454.714 Y51.172
N510 X454.726 Y51.109
N515 X454.731 Y51.085 Z-6.345
N520 X454.735 Y51.065 Z-6.331
N525 X454.737 Y51.051 Z-6.311
N530 X454.738 Y51.046 Z-6.286
N535 Z7.35
N540 X454.864 Y51.07
N545 Z5.
N550 Z1. F733.33
N555 Z-12.636
N560 X454.863 Y51.075 Z-12.661 F2200.
N565 X454.86 Y51.088 Z-12.681
N570 X454.856 Y51.109 Z-12.695
N575 X454.852 Y51.133 Z-12.7
N580 X454.84 Y51.195
N585 X454.831 Y51.219
N590 X454.813 Y51.236
N595 X454.79 Y51.246
N600 X454.766
N605 X309.22 Y23.957
N610 G2 X252.99 Y18.73 I-56.23 J299.893
N615 G1 X52.718
N620 G2 X26.998 Y44.45 I0. J25.72
N625 G1 Y82.55
N630 G2 X52.718 Y108.27 I25.719 J0.
N635 G1 X390.088
N640 X390.097 Y108.269
N645 X390.827 Y108.249
N650 X390.843 Y108.248
N655 X391.57 Y108.19
N660 X391.588 Y108.189
N665 X392.311 Y108.091
N670 X392.328 Y108.088
N675 X393.044 Y107.952
N680 X393.061 Y107.948
N685 X393.768 Y107.773
N690 X393.784 Y107.769
N695 X394.479 Y107.557
N700 X394.495 Y107.551
N705 X395.177 Y107.303
N710 X395.194 Y107.297
N715 X395.86 Y107.012
N720 X395.875 Y107.005
N725 X396.523 Y106.686
N730 X396.539 Y106.677
N735 X397.168 Y106.323
N740 X397.183 Y106.314
N745 X397.789 Y105.928
N750 X397.803 Y105.919
N755 X398.386 Y105.501
N760 X398.4 Y105.49
N765 X398.958 Y105.042
N770 X398.971 Y105.031
N775 X399.503 Y104.555
N780 X399.516 Y104.543
N785 X400.018 Y104.04
N790 X400.03 Y104.027
N795 X400.503 Y103.498
N800 X400.515 Y103.484
N805 X400.957 Y102.931
N810 X400.967 Y102.917
N815 X401.376 Y102.342
N820 X401.386 Y102.327
N825 X401.761 Y101.732
N830 X401.77 Y101.717
N835 X402.111 Y101.104
N840 X402.12 Y101.088
N845 X402.425 Y100.457
N850 X402.432 Y100.441
N855 X402.701 Y99.796
N860 X402.707 Y99.78
N865 X402.939 Y99.122
N870 X402.945 Y99.105
N875 X403.14 Y98.436
N880 X403.144 Y98.418
N885 X403.3 Y97.741
N890 X403.304 Y97.723
N895 X403.421 Y97.038
N900 X403.423 Y97.021
N905 X403.502 Y96.331
N910 X403.504 Y96.313
N915 X403.543 Y95.62
N920 Y95.607
N925 X403.548 Y95.255
N930 Y95.25
N935 Y76.52
N940 X480.849
N945 G2 X481.168 Y76.2 I0. J-0.32
N950 G1 Y68.683
N955 X481.164 Y68.632
N960 X481.152 Y68.582
N965 X481.132 Y68.534
N970 G2 X458.678 Y51.98 I-28.363 J14.966
N975 G1 X454.766 Y51.246
N980 X454.742 Y51.237
N985 X454.725 Y51.22
N990 X454.715 Y51.197
N995 X454.714 Y51.172
N1000 X454.726 Y51.109
N1005 X454.731 Y51.085 Z-12.695
N1010 X454.735 Y51.065 Z-12.681
N1015 X454.737 Y51.051 Z-12.661
N1020 X454.738 Y51.046 Z-12.636
N1025 Z7.35
N1030 X454.864 Y51.07
N1035 Z5.
N1040 Z-5.35 F733.33
N1045 Z-16.57
N1050 X454.863 Y51.075 Z-16.595 F2200.
N1055 X454.86 Y51.088 Z-16.616
N1060 X454.856 Y51.109 Z-16.629
N1065 X454.852 Y51.133 Z-16.634
N1070 X454.84 Y51.195
N1075 X454.831 Y51.219
N1080 X454.813 Y51.236
N1085 X454.79 Y51.246
N1090 X454.766
N1095 X309.22 Y23.957
N1100 G2 X252.99 Y18.73 I-56.23 J299.893
N1105 G1 X52.718
N1110 G2 X26.998 Y44.45 I0. J25.72
N1115 G1 Y82.55
N1120 G2 X52.718 Y108.27 I25.719 J0.
N1125 G1 X390.088
N1130 X390.097 Y108.269
N1135 X390.827 Y108.249
N1140 X390.843 Y108.248
N1145 X391.57 Y108.19
N1150 X391.588 Y108.189
N1155 X392.311 Y108.091
N1160 X392.328 Y108.088
N1165 X393.044 Y107.952
N1170 X393.061 Y107.948
N1175 X393.768 Y107.773
N1180 X393.784 Y107.769
N1185 X394.479 Y107.557
N1190 X394.495 Y107.551
N1195 X395.177 Y107.303
N1200 X395.194 Y107.297
N1205 X395.86 Y107.012
N1210 X395.875 Y107.005
N1215 X396.523 Y106.686
N1220 X396.539 Y106.677
N1225 X397.168 Y106.323
N1230 X397.183 Y106.314
N1235 X397.789 Y105.928
N1240 X397.803 Y105.919
N1245 X398.386 Y105.501
N1250 X398.4 Y105.49
N1255 X398.958 Y105.042
N1260 X398.971 Y105.031
N1265 X399.503 Y104.555
N1270 X399.516 Y104.543
N1275 X400.018 Y104.04
N1280 X400.03 Y104.027
N1285 X400.503 Y103.498
N1290 X400.515 Y103.484
N1295 X400.957 Y102.931
N1300 X400.967 Y102.917
N1305 X401.376 Y102.342
N1310 X401.386 Y102.327
N1315 X401.761 Y101.732
N1320 X401.77 Y101.717
N1325 X402.111 Y101.104
N1330 X402.12 Y101.088
N1335 X402.425 Y100.457
N1340 X402.432 Y100.441
N1345 X402.701 Y99.796
N1350 X402.707 Y99.78
N1355 X402.939 Y99.122
N1360 X402.945 Y99.105
N1365 X403.14 Y98.436
N1370 X403.144 Y98.418
N1375 X403.3 Y97.741
N1380 X403.304 Y97.723
N1385 X403.421 Y97.038
N1390 X403.423 Y97.021
N1395 X403.502 Y96.331
N1400 X403.504 Y96.313
N1405 X403.543 Y95.62
N1410 Y95.607
N1415 X403.548 Y95.255
N1420 Y95.25
N1425 Y76.52
N1430 X480.849
N1435 G2 X481.168 Y76.2 I0. J-0.32
N1440 G1 Y68.683
N1445 X481.164 Y68.632
N1450 X481.152 Y68.582
N1455 X481.132 Y68.534
N1460 G2 X458.678 Y51.98 I-28.363 J14.966
N1465 G1 X454.766 Y51.246
N1470 X454.742 Y51.237
N1475 X454.725 Y51.22
N1480 X454.715 Y51.197
N1485 X454.714 Y51.172
N1490 X454.726 Y51.109
N1495 X454.731 Y51.085 Z-16.629
N1500 X454.735 Y51.065 Z-16.616
N1505 X454.737 Y51.051 Z-16.595
N1510 X454.738 Y51.046 Z-16.57
N1515 Z7.35
N1520 X454.864 Y51.07
N1525 Z5.
N1530 Z-9.284 F733.33
N1535 Z-20.505
N1540 X454.863 Y51.075 Z-20.529 F2200.
N1545 X454.86 Y51.088 Z-20.55
N1550 X454.856 Y51.109 Z-20.564
N1555 X454.852 Y51.133 Z-20.569
N1560 X454.84 Y51.195
N1565 X454.831 Y51.219
N1570 X454.813 Y51.236
N1575 X454.79 Y51.246
N1580 X454.766
N1585 X453.748 Y51.056
N1590 Z-20.369
N1595 X452.492 Y50.82
N1600 Z-20.569 F733.33
N1605 X448.699 Y50.109 F2200.
N1610 Z-20.369
N1615 X447.443 Y49.873
N1620 Z-20.569 F733.33
N1625 X443.65 Y49.162 F2200.
N1630 Z-20.369
N1635 X442.394 Y48.927
N1640 Z-20.569 F733.33
N1645 X438.601 Y48.216 F2200.
N1650 Z-20.369
N1655 X437.345 Y47.98
N1660 Z-20.569 F733.33
N1665 X433.552 Y47.269 F2200.
N1670 Z-20.369
N1675 X432.296 Y47.033
N1680 Z-20.569 F733.33
N1685 X428.503 Y46.322 F2200.
N1690 Z-20.369
N1695 X427.247 Y46.087
N1700 Z-20.569 F733.33
N1705 X423.453 Y45.375 F2200.
N1710 Z-20.369
N1715 X422.197 Y45.14
N1720 Z-20.569 F733.33
N1725 X418.404 Y44.429 F2200.
N1730 Z-20.369
N1735 X417.148 Y44.193
N1740 Z-20.569 F733.33
N1745 X413.355 Y43.482 F2200.
N1750 Z-20.369
N1755 X412.099 Y43.246
N1760 Z-20.569 F733.33
N1765 X408.306 Y42.535 F2200.
N1770 Z-20.369
N1775 X407.05 Y42.3
N1780 Z-20.569 F733.33
N1785 X403.257 Y41.589 F2200.
N1790 Z-20.369
N1795 X402.001 Y41.353
N1800 Z-20.569 F733.33
N1805 X398.208 Y40.642 F2200.
N1810 Z-20.369
N1815 X396.952 Y40.406
N1820 Z-20.569 F733.33
N1825 X393.159 Y39.695 F2200.
N1830 Z-20.369
N1835 X391.903 Y39.46
N1840 Z-20.569 F733.33
N1845 X388.109 Y38.748 F2200.
N1850 Z-20.369
N1855 X386.853 Y38.513
N1860 Z-20.569 F733.33
N1865 X383.06 Y37.802 F2200.
N1870 Z-20.369
N1875 X381.804 Y37.566
N1880 Z-20.569 F733.33
N1885 X378.011 Y36.855 F2200.
N1890 Z-20.369
N1895 X376.755 Y36.619
N1900 Z-20.569 F733.33
N1905 X372.962 Y35.908 F2200.
N1910 Z-20.369
N1915 X371.706 Y35.673
N1920 Z-20.569 F733.33
N1925 X367.913 Y34.962 F2200.
N1930 Z-20.369
N1935 X366.657 Y34.726
N1940 Z-20.569 F733.33
N1945 X362.864 Y34.015 F2200.
N1950 Z-20.369
N1955 X361.608 Y33.779
N1960 Z-20.569 F733.33
N1965 X357.815 Y33.068 F2200.
N1970 Z-20.369
N1975 X356.559 Y32.833
N1980 Z-20.569 F733.33
N1985 X352.765 Y32.121 F2200.
N1990 Z-20.369
N1995 X351.509 Y31.886
N2000 Z-20.569 F733.33
N2005 X347.716 Y31.175 F2200.
N2010 Z-20.369
N2015 X346.46 Y30.939
N2020 Z-20.569 F733.33
N2025 X342.667 Y30.228 F2200.
N2030 Z-20.369
N2035 X341.411 Y29.992
N2040 Z-20.569 F733.33
N2045 X337.618 Y29.281 F2200.
N2050 Z-20.369
N2055 X336.362 Y29.046
N2060 Z-20.569 F733.33
N2065 X332.569 Y28.335 F2200.
N2070 Z-20.369
N2075 X331.313 Y28.099
N2080 Z-20.569 F733.33
N2085 X327.52 Y27.388 F2200.
N2090 Z-20.369
N2095 X326.264 Y27.152
N2100 Z-20.569 F733.33
N2105 X322.471 Y26.441 F2200.
N2110 Z-20.369
N2115 X321.215 Y26.206
N2120 Z-20.569 F733.33
N2125 X317.422 Y25.494 F2200.
N2130 Z-20.369
N2135 X316.166 Y25.259
N2140 Z-20.569 F733.33
N2145 X312.372 Y24.548 F2200.
N2150 Z-20.369
N2155 X311.116 Y24.312
N2160 Z-20.569 F733.33
N2165 X309.22 Y23.957 F2200.
N2170 G2 X307.319 Y23.606 I-56.23 J299.893
N2175 G1 Z-20.369
N2180 G2 X306.061 Y23.381 I-54.329 J300.244
N2185 G1 Z-20.569 F733.33
N2190 G2 X302.252 Y22.733 I-53.071 J300.468 F2200.
N2195 G1 Z-20.369
N2200 G2 X300.99 Y22.53 I-49.262 J301.117
N2205 G1 Z-20.569 F733.33
N2210 G2 X297.17 Y21.946 I-48. J301.32 F2200.
N2215 G1 Z-20.369
N2220 G2 X295.905 Y21.764 I-44.18 J301.904
N2225 G1 Z-20.569 F733.33
N2230 G2 X292.075 Y21.244 I-42.915 J302.086 F2200.
N2235 G1 Z-20.369
N2240 G2 X290.807 Y21.083 I-39.085 J302.606
N2245 G1 Z-20.569 F733.33
N2250 G2 X286.97 Y20.629 I-37.818 J302.767 F2200.
N2255 G1 Z-20.369
N2260 G2 X285.7 Y20.489 I-33.98 J303.221
N2265 G1 Z-20.569 F733.33
N2270 G2 X281.855 Y20.099 I-32.71 J303.361 F2200.
N2275 G1 Z-20.369
N2280 G2 X280.582 Y19.981 I-28.865 J303.751
N2285 G1 Z-20.569 F733.33
N2290 G2 X276.731 Y19.656 I-27.593 J303.869 F2200.
N2295 G1 Z-20.369
N2300 G2 X275.457 Y19.559 I-23.742 J304.194
N2305 G1 Z-20.569 F733.33
N2310 G2 X271.602 Y19.299 I-22.467 J304.291 F2200.
N2315 G1 Z-20.369
N2320 G2 X270.326 Y19.223 I-18.612 J304.551
N2325 G1 Z-20.569 F733.33
N2330 G2 X266.466 Y19.028 I-17.336 J304.627 F2200.
N2335 G1 Z-20.369
N2340 G2 X265.189 Y18.974 I-13.476 J304.822
N2345 G1 Z-20.569 F733.33
N2350 G2 X261.327 Y18.844 I-12.199 J304.875 F2200.
N2355 G1 Z-20.369
N2360 G2 X260.049 Y18.812 I-8.337 J305.006
N2365 G1 Z-20.569 F733.33
N2370 G2 X256.186 Y18.747 I-7.06 J305.038 F2200.
N2375 G1 Z-20.369
N2380 G2 X254.908 Y18.737 I-3.196 J305.103
N2385 G1 Z-20.569 F733.33
N2390 G2 X252.99 Y18.73 I-1.918 J305.113 F2200.
N2395 G1 X251.046
N2400 Z-20.369
N2405 X249.768
N2410 Z-20.569 F733.33
N2415 X245.909 F2200.
N2420 Z-20.369
N2425 X244.631
N2430 Z-20.569 F733.33
N2435 X240.772 F2200.
N2440 Z-20.369
N2445 X239.494
N2450 Z-20.569 F733.33
N2455 X235.634 F2200.
N2460 Z-20.369
N2465 X234.356
N2470 Z-20.569 F733.33
N2475 X230.497 F2200.
N2480 Z-20.369
N2485 X229.219
N2490 Z-20.569 F733.33
N2495 X225.36 F2200.
N2500 Z-20.369
N2505 X224.082
N2510 Z-20.569 F733.33
N2515 X220.223 F2200.
N2520 Z-20.369
N2525 X218.945
N2530 Z-20.569 F733.33
N2535 X215.086 F2200.
N2540 Z-20.369
N2545 X213.808
N2550 Z-20.569 F733.33
N2555 X209.949 F2200.
N2560 Z-20.369
N2565 X208.671
N2570 Z-20.569 F733.33
N2575 X204.812 F2200.
N2580 Z-20.369
N2585 X203.534
N2590 Z-20.569 F733.33
N2595 X199.675 F2200.
N2600 Z-20.369
N2605 X198.397
N2610 Z-20.569 F733.33
N2615 X194.537 F2200.
N2620 Z-20.369
N2625 X193.259
N2630 Z-20.569 F733.33
N2635 X189.4 F2200.
N2640 Z-20.369
N2645 X188.122
N2650 Z-20.569 F733.33
N2655 X184.263 F2200.
N2660 Z-20.369
N2665 X182.985
N2670 Z-20.569 F733.33
N2675 X179.126 F2200.
N2680 Z-20.369
N2685 X177.848
N2690 Z-20.569 F733.33
N2695 X173.989 F2200.
N2700 Z-20.369
N2705 X172.711
N2710 Z-20.569 F733.33
N2715 X168.852 F2200.
N2720 Z-20.369
N2725 X167.574
N2730 Z-20.569 F733.33
N2735 X163.715 F2200.
N2740 Z-20.369
N2745 X162.437
N2750 Z-20.569 F733.33
N2755 X158.578 F2200.
N2760 Z-20.369
N2765 X157.3
N2770 Z-20.569 F733.33
N2775 X153.44 F2200.
N2780 Z-20.369
N2785 X152.162
N2790 Z-20.569 F733.33
N2795 X148.303 F2200.
N2800 Z-20.369
N2805 X147.025
N2810 Z-20.569 F733.33
N2815 X143.166 F2200.
N2820 Z-20.369
N2825 X141.888
N2830 Z-20.569 F733.33
N2835 X138.029 F2200.
N2840 Z-20.369
N2845 X136.751
N2850 Z-20.569 F733.33
N2855 X132.892 F2200.
N2860 Z-20.369
N2865 X131.614
N2870 Z-20.569 F733.33
N2875 X127.755 F2200.
N2880 Z-20.369
N2885 X126.477
N2890 Z-20.569 F733.33
N2895 X122.618 F2200.
N2900 Z-20.369
N2905 X121.34
N2910 Z-20.569 F733.33
N2915 X117.481 F2200.
N2920 Z-20.369
N2925 X116.203
N2930 Z-20.569 F733.33
N2935 X112.343 F2200.
N2940 Z-20.369
N2945 X111.065
N2950 Z-20.569 F733.33
N2955 X107.206 F2200.
N2960 Z-20.369
N2965 X105.928
N2970 Z-20.569 F733.33
N2975 X102.069 F2200.
N2980 Z-20.369
N2985 X100.791
N2990 Z-20.569 F733.33
N2995 X96.932 F2200.
N3000 Z-20.369
N3005 X95.654
N3010 Z-20.569 F733.33
N3015 X91.795 F2200.
N3020 Z-20.369
N3025 X90.517
N3030 Z-20.569 F733.33
N3035 X86.658 F2200.
N3040 Z-20.369
N3045 X85.38
N3050 Z-20.569 F733.33
N3055 X81.521 F2200.
N3060 Z-20.369
N3065 X80.243
N3070 Z-20.569 F733.33
N3075 X76.383 F2200.
N3080 Z-20.369
N3085 X75.105
N3090 Z-20.569 F733.33
N3095 X71.246 F2200.
N3100 Z-20.369
N3105 X69.968
N3110 Z-20.569 F733.33
N3115 X66.109 F2200.
N3120 Z-20.369
N3125 X64.831
N3130 Z-20.569 F733.33
N3135 X60.972 F2200.
N3140 Z-20.369
N3145 X59.694
N3150 Z-20.569 F733.33
N3155 X55.835 F2200.
N3160 Z-20.369
N3165 X54.557
N3170 Z-20.569 F733.33
N3175 X52.718 F2200.
N3180 G2 X50.667 Y18.812 I0. J25.72
N3185 G1 Z-20.369
N3190 G2 X49.396 Y18.946 I2.051 J25.638
N3195 G1 Z-20.569 F733.33
N3200 G2 X45.559 Y19.747 I3.322 J25.504 F2200.
N3205 G1 Z-20.369
N3210 G2 X44.34 Y20.133 I7.159 J24.703
N3215 G1 Z-20.569 F733.33
N3220 G2 X40.742 Y21.689 I8.378 J24.317 F2200.
N3225 G1 Z-20.369
N3230 G2 X39.626 Y22.312 I11.976 J22.761
N3235 G1 Z-20.569 F733.33
N3240 G2 X36.414 Y24.558 I13.091 J22.138 F2200.
N3245 G1 Z-20.369
N3250 G2 X35.446 Y25.393 I16.304 J19.892
N3255 G1 Z-20.569 F733.33
N3260 G2 X32.751 Y28.239 I17.272 J19.057 F2200.
N3265 G1 Z-20.369
N3270 G2 X31.97 Y29.25 I19.967 J16.211
N3275 G1 Z-20.569 F733.33
N3280 G2 X29.901 Y32.58 I20.748 J15.2 F2200.
N3285 G1 Z-20.369
N3290 G2 X29.34 Y33.728 I22.816 J11.87
N3295 G1 Z-20.569 F733.33
N3300 G2 X27.982 Y37.405 I23.378 J10.722 F2200.
N3305 G1 Z-20.369
N3310 G2 X27.663 Y38.642 I24.736 J7.045
N3315 G1 Z-20.569 F733.33
N3320 G2 X27.071 Y42.517 I25.055 J5.808 F2200.
N3325 G1 Z-20.369
N3330 G2 X27.007 Y43.794 I25.647 J1.933
N3335 G1 Z-20.569 F733.33
N3340 G2 X26.998 Y44.45 I25.711 J0.656 F2200.
N3345 G1 Y47.669
N3350 Z-20.369
N3355 Y48.947
N3360 Z-20.569 F733.33
N3365 Y52.806 F2200.
N3370 Z-20.369
N3375 Y54.084
N3380 Z-20.569 F733.33
N3385 Y57.943 F2200.
N3390 Z-20.369
N3395 Y59.221
N3400 Z-20.569 F733.33
N3405 Y63.08 F2200.
N3410 Z-20.369
N3415 Y64.358
N3420 Z-20.569 F733.33
N3425 Y68.217 F2200.
N3430 Z-20.369
N3435 Y69.495
N3440 Z-20.569 F733.33
N3445 Y73.354 F2200.
N3450 Z-20.369
N3455 Y74.632
N3460 Z-20.569 F733.33
N3465 Y78.492 F2200.
N3470 Z-20.369
N3475 Y79.77
N3480 Z-20.569 F733.33
N3485 Y82.55 F2200.
N3490 G2 X27.022 Y83.65 I25.719 J0.
N3495 G1 Z-20.369
N3500 G2 X27.108 Y84.925 I25.696 J-1.1
N3505 G1 Z-20.569 F733.33
N3510 G2 X27.767 Y88.789 I25.61 J-2.375 F2200.
N3515 G1 Z-20.369
N3520 G2 X28.107 Y90.021 I24.951 J-6.239
N3525 G1 Z-20.569 F733.33
N3530 G2 X29.528 Y93.674 I24.611 J-7.471 F2200.
N3535 G1 Z-20.369
N3540 G2 X30.11 Y94.812 I23.189 J-11.124
N3545 G1 Z-20.569 F733.33
N3550 G2 X32.236 Y98.105 I22.608 J-12.262 F2200.
N3555 G1 Z-20.369
N3560 G2 X33.034 Y99.104 I20.482 J-15.555
N3565 G1 Z-20.569 F733.33
N3570 G2 X35.778 Y101.903 I19.684 J-16.554 F2200.
N3575 G1 Z-20.369
N3580 G2 X36.76 Y102.72 I16.94 J-19.353
N3585 G1 Z-20.569 F733.33
N3590 G2 X40.01 Y104.911 I15.958 J-20.17 F2200.
N3595 G1 Z-20.369
N3600 G2 X41.137 Y105.515 I12.708 J-22.361
N3605 G1 Z-20.569 F733.33
N3610 G2 X44.761 Y107.008 I11.581 J-22.965 F2200.
N3615 G1 Z-20.369
N3620 G2 X45.986 Y107.373 I7.957 J-24.458
N3625 G1 Z-20.569 F733.33
N3630 G2 X49.836 Y108.108 I6.732 J-24.823 F2200.
N3635 G1 Z-20.369
N3640 G2 X51.109 Y108.219 I2.882 J-25.558
N3645 G1 Z-20.569 F733.33
N3650 G2 X52.718 Y108.27 I1.609 J-25.669 F2200.
N3655 G1 X54.995
N3660 Z-20.369
N3665 X56.273
N3670 Z-20.569 F733.33
N3675 X60.132 F2200.
N3680 Z-20.369
N3685 X61.41
N3690 Z-20.569 F733.33
N3695 X65.27 F2200.
N3700 Z-20.369
N3705 X66.548
N3710 Z-20.569 F733.33
N3715 X70.407 F2200.
N3720 Z-20.369
N3725 X71.685
N3730 Z-20.569 F733.33
N3735 X75.544 F2200.
N3740 Z-20.369
N3745 X76.822
N3750 Z-20.569 F733.33
N3755 X80.681 F2200.
N3760 Z-20.369
N3765 X81.959
N3770 Z-20.569 F733.33
N3775 X85.818 F2200.
N3780 Z-20.369
N3785 X87.096
N3790 Z-20.569 F733.33
N3795 X90.955 F2200.
N3800 Z-20.369
N3805 X92.233
N3810 Z-20.569 F733.33
N3815 X96.092 F2200.
N3820 Z-20.369
N3825 X97.37
N3830 Z-20.569 F733.33
N3835 X101.229 F2200.
N3840 Z-20.369
N3845 X102.507
N3850 Z-20.569 F733.33
N3855 X106.366 F2200.
N3860 Z-20.369
N3865 X107.644
N3870 Z-20.569 F733.33
N3875 X111.504 F2200.
N3880 Z-20.369
N3885 X112.782
N3890 Z-20.569 F733.33
N3895 X116.641 F2200.
N3900 Z-20.369
N3905 X117.919
N3910 Z-20.569 F733.33
N3915 X121.778 F2200.
N3920 Z-20.369
N3925 X123.056
N3930 Z-20.569 F733.33
N3935 X126.915 F2200.
N3940 Z-20.369
N3945 X128.193
N3950 Z-20.569 F733.33
N3955 X132.052 F2200.
N3960 Z-20.369
N3965 X133.33
N3970 Z-20.569 F733.33
N3975 X137.189 F2200.
N3980 Z-20.369
N3985 X138.467
N3990 Z-20.569 F733.33
N3995 X142.326 F2200.
N4000 Z-20.369
N4005 X143.604
N4010 Z-20.569 F733.33
N4015 X147.463 F2200.
N4020 Z-20.369
N4025 X148.741
N4030 Z-20.569 F733.33
N4035 X152.601 F2200.
N4040 Z-20.369
N4045 X153.879
N4050 Z-20.569 F733.33
N4055 X157.738 F2200.
N4060 Z-20.369
N4065 X159.016
N4070 Z-20.569 F733.33
N4075 X162.875 F2200.
N4080 Z-20.369
N4085 X164.153
N4090 Z-20.569 F733.33
N4095 X168.012 F2200.
N4100 Z-20.369
N4105 X169.29
N4110 Z-20.569 F733.33
N4115 X173.149 F2200.
N4120 Z-20.369
N4125 X174.427
N4130 Z-20.569 F733.33
N4135 X178.286 F2200.
N4140 Z-20.369
N4145 X179.564
N4150 Z-20.569 F733.33
N4155 X183.423 F2200.
N4160 Z-20.369
N4165 X184.701
N4170 Z-20.569 F733.33
N4175 X188.56 F2200.
N4180 Z-20.369
N4185 X189.838
N4190 Z-20.569 F733.33
N4195 X193.698 F2200.
N4200 Z-20.369
N4205 X194.976
N4210 Z-20.569 F733.33
N4215 X198.835 F2200.
N4220 Z-20.369
N4225 X200.113
N4230 Z-20.569 F733.33
N4235 X203.972 F2200.
N4240 Z-20.369
N4245 X205.25
N4250 Z-20.569 F733.33
N4255 X209.109 F2200.
N4260 Z-20.369
N4265 X210.387
N4270 Z-20.569 F733.33
N4275 X214.246 F2200.
N4280 Z-20.369
N4285 X215.524
N4290 Z-20.569 F733.33
N4295 X219.383 F2200.
N4300 Z-20.369
N4305 X220.661
N4310 Z-20.569 F733.33
N4315 X224.52 F2200.
N4320 Z-20.369
N4325 X225.798
N4330 Z-20.569 F733.33
N4335 X229.657 F2200.
N4340 Z-20.369
N4345 X230.935
N4350 Z-20.569 F733.33
N4355 X234.795 F2200.
N4360 Z-20.369
N4365 X236.073
N4370 Z-20.569 F733.33
N4375 X239.932 F2200.
N4380 Z-20.369
N4385 X241.21
N4390 Z-20.569 F733.33
N4395 X245.069 F2200.
N4400 Z-20.369
N4405 X246.347
N4410 Z-20.569 F733.33
N4415 X250.206 F2200.
N4420 Z-20.369
N4425 X251.484
N4430 Z-20.569 F733.33
N4435 X255.343 F2200.
N4440 Z-20.369
N4445 X256.621
N4450 Z-20.569 F733.33
N4455 X260.48 F2200.
N4460 Z-20.369
N4465 X261.758
N4470 Z-20.569 F733.33
N4475 X265.617 F2200.
N4480 Z-20.369
N4485 X266.895
N4490 Z-20.569 F733.33
N4495 X270.754 F2200.
N4500 Z-20.369
N4505 X272.032
N4510 Z-20.569 F733.33
N4515 X275.892 F2200.
N4520 Z-20.369
N4525 X277.17
N4530 Z-20.569 F733.33
N4535 X281.029 F2200.
N4540 Z-20.369
N4545 X282.307
N4550 Z-20.569 F733.33
N4555 X286.166 F2200.
N4560 Z-20.369
N4565 X287.444
N4570 Z-20.569 F733.33
N4575 X291.303 F2200.
N4580 Z-20.369
N4585 X292.581
N4590 Z-20.569 F733.33
N4595 X296.44 F2200.
N4600 Z-20.369
N4605 X297.718
N4610 Z-20.569 F733.33
N4615 X301.577 F2200.
N4620 Z-20.369
N4625 X302.855
N4630 Z-20.569 F733.33
N4635 X306.714 F2200.
N4640 Z-20.369
N4645 X307.992
N4650 Z-20.569 F733.33
N4655 X311.851 F2200.
N4660 Z-20.369
N4665 X313.129
N4670 Z-20.569 F733.33
N4675 X316.989 F2200.
N4680 Z-20.369
N4685 X318.267
N4690 Z-20.569 F733.33
N4695 X322.126 F2200.
N4700 Z-20.369
N4705 X323.404
N4710 Z-20.569 F733.33
N4715 X327.263 F2200.
N4720 Z-20.369
N4725 X328.541
N4730 Z-20.569 F733.33
N4735 X332.4 F2200.
N4740 Z-20.369
N4745 X333.678
N4750 Z-20.569 F733.33
N4755 X337.537 F2200.
N4760 Z-20.369
N4765 X338.815
N4770 Z-20.569 F733.33
N4775 X342.674 F2200.
N4780 Z-20.369
N4785 X343.952
N4790 Z-20.569 F733.33
N4795 X347.811 F2200.
N4800 Z-20.369
N4805 X349.089
N4810 Z-20.569 F733.33
N4815 X352.948 F2200.
N4820 Z-20.369
N4825 X354.226
N4830 Z-20.569 F733.33
N4835 X358.086 F2200.
N4840 Z-20.369
N4845 X359.364
N4850 Z-20.569 F733.33
N4855 X363.223 F2200.
N4860 Z-20.369
N4865 X364.501
N4870 Z-20.569 F733.33
N4875 X368.36 F2200.
N4880 Z-20.369
N4885 X369.638
N4890 Z-20.569 F733.33
N4895 X373.497 F2200.
N4900 Z-20.369
N4905 X374.775
N4910 Z-20.569 F733.33
N4915 X378.634 F2200.
N4920 Z-20.369
N4925 X379.912
N4930 Z-20.569 F733.33
N4935 X383.771 F2200.
N4940 Z-20.369
N4945 X385.049
N4950 Z-20.569 F733.33
N4955 X388.908 F2200.
N4960 Z-20.369
N4965 X390.088
N4970 X390.097 Y108.269
N4975 X390.186 Y108.267
N4980 Z-20.569 F733.33
N4985 X390.827 Y108.249 F2200.
N4990 X390.843 Y108.248
N4995 X391.57 Y108.19
N5000 X391.588 Y108.189
N5005 X392.311 Y108.091
N5010 X392.328 Y108.088
N5015 X393.044 Y107.952
N5020 X393.061 Y107.948
N5025 X393.768 Y107.773
N5030 X393.784 Y107.769
N5035 X394.094 Y107.674
N5040 Z-20.369
N5045 X394.479 Y107.557
N5050 X394.495 Y107.551
N5055 X395.177 Y107.303
N5060 X395.194 Y107.297
N5065 X395.3 Y107.251
N5070 Z-20.569 F733.33
N5075 X395.86 Y107.012 F2200.
N5080 X395.875 Y107.005
N5085 X396.523 Y106.686
N5090 X396.539 Y106.677
N5095 X397.168 Y106.323
N5100 X397.183 Y106.314
N5105 X397.789 Y105.928
N5110 X397.803 Y105.919
N5115 X398.386 Y105.501
N5120 X398.4 Y105.49
N5125 X398.717 Y105.236
N5130 Z-20.369
N5135 X398.958 Y105.042
N5140 X398.971 Y105.031
N5145 X399.503 Y104.555
N5150 X399.516 Y104.543
N5155 X399.672 Y104.386
N5160 Z-20.569 F733.33
N5165 X400.018 Y104.04 F2200.
N5170 X400.03 Y104.027
N5175 X400.503 Y103.498
N5180 X400.515 Y103.484
N5185 X400.957 Y102.931
N5190 X400.967 Y102.917
N5195 X401.376 Y102.342
N5200 X401.386 Y102.327
N5205 X401.761 Y101.732
N5210 X401.77 Y101.717
N5215 X402.053 Y101.209
N5220 Z-20.369
N5225 X402.111 Y101.104
N5230 X402.12 Y101.088
N5235 X402.425 Y100.457
N5240 X402.432 Y100.441
N5245 X402.594 Y100.052
N5250 Z-20.569 F733.33
N5255 X402.701 Y99.796 F2200.
N5260 X402.707 Y99.78
N5265 X402.939 Y99.122
N5270 X402.945 Y99.105
N5275 X403.14 Y98.436
N5280 X403.144 Y98.418
N5285 X403.3 Y97.741
N5290 X403.304 Y97.723
N5295 X403.421 Y97.038
N5300 X403.423 Y97.021
N5305 X403.502 Y96.331
N5310 X403.504 Y96.313
N5315 X403.511 Y96.185
N5320 Z-20.369
N5325 X403.543 Y95.62
N5330 Y95.607
N5335 X403.548 Y95.255
N5340 Y95.25
N5345 Y94.908
N5350 Z-20.569 F733.33
N5355 Y91.041 F2200.
N5360 Z-20.369
N5365 Y89.763
N5370 Z-20.569 F733.33
N5375 Y85.904 F2200.
N5380 Z-20.369
N5385 Y84.626
N5390 Z-20.569 F733.33
N5395 Y80.767 F2200.
N5400 Z-20.369
N5405 Y79.489
N5410 Z-20.569 F733.33
N5415 Y76.52 F2200.
N5420 X403.8
N5425 Z-20.369
N5430 X405.078
N5435 Z-20.569 F733.33
N5440 X408.937 F2200.
N5445 Z-20.369
N5450 X410.215
N5455 Z-20.569 F733.33
N5460 X414.074 F2200.
N5465 Z-20.369
N5470 X415.352
N5475 Z-20.569 F733.33
N5480 X419.211 F2200.
N5485 Z-20.369
N5490 X420.489
N5495 Z-20.569 F733.33
N5500 X424.348 F2200.
N5505 Z-20.369
N5510 X425.626
N5515 Z-20.569 F733.33
N5520 X429.485 F2200.
N5525 Z-20.369
N5530 X430.763
N5535 Z-20.569 F733.33
N5540 X434.622 F2200.
N5545 Z-20.369
N5550 X435.9
N5555 Z-20.569 F733.33
N5560 X439.759 F2200.
N5565 Z-20.369
N5570 X441.037
N5575 Z-20.569 F733.33
N5580 X444.897 F2200.
N5585 Z-20.369
N5590 X446.175
N5595 Z-20.569 F733.33
N5600 X450.034 F2200.
N5605 Z-20.369
N5610 X451.312
N5615 Z-20.569 F733.33
N5620 X455.171 F2200.
N5625 Z-20.369
N5630 X456.449
N5635 Z-20.569 F733.33
N5640 X460.308 F2200.
N5645 Z-20.369
N5650 X461.586
N5655 Z-20.569 F733.33
N5660 X465.445 F2200.
N5665 Z-20.369
N5670 X466.723
N5675 Z-20.569 F733.33
N5680 X470.582 F2200.
N5685 Z-20.369
N5690 X471.86
N5695 Z-20.569 F733.33
N5700 X475.719 F2200.
N5705 Z-20.369
N5710 X476.997
N5715 Z-20.569 F733.33
N5720 X480.849 F2200.
N5725 G2 X481.168 Y76.2 I0. J-0.32
N5730 G1 Y76.192
N5735 Z-20.369
N5740 Y74.914
N5745 Z-20.569 F733.33
N5750 Y71.055 F2200.
N5755 Z-20.369
N5760 Y69.777
N5765 Z-20.569 F733.33
N5770 Y68.683 F2200.
N5775 X481.164 Y68.632
N5780 X481.152 Y68.582
N5785 X481.132 Y68.534
N5790 G2 X479.719 Y66.118 I-28.363 J14.966
N5795 G1 Z-20.369
N5800 G2 X479.005 Y65.058 I-26.95 J17.382
N5805 G1 Z-20.569 F733.33
N5810 G2 X476.566 Y62.003 I-26.236 J18.442 F2200.
N5815 G1 Z-20.369
N5820 G2 X475.691 Y61.072 I-23.798 J21.497
N5825 G1 Z-20.569 F733.33
N5830 G2 X472.793 Y58.451 I-22.922 J22.428 F2200.
N5835 G1 Z-20.369
N5840 G2 X471.779 Y57.673 I-20.024 J25.05
N5845 G1 Z-20.569 F733.33
N5850 G2 X468.495 Y55.552 I-19.01 J25.828 F2200.
N5855 G1 Z-20.369
N5860 G2 X467.369 Y54.947 I-15.727 J27.949
N5865 G1 Z-20.569 F733.33
N5870 G2 X463.788 Y53.384 I-14.601 J28.553 F2200.
N5875 G1 Z-20.369
N5880 G2 X462.579 Y52.968 I-11.02 J30.117
N5885 G1 Z-20.569 F733.33
N5890 G2 X458.797 Y52.003 I-9.811 J30.532 F2200.
N5895 G1 Z-20.369
N5900 X458.678 Y51.98
N5905 X457.541 Y51.767
N5910 Z-20.569 F733.33
N5915 X454.766 Y51.246 F2200.
N5920 X454.742 Y51.237
N5925 X454.725 Y51.22
N5930 X454.715 Y51.197
N5935 X454.714 Y51.172
N5940 X454.726 Y51.109
N5945 X454.731 Y51.085 Z-20.564
N5950 X454.735 Y51.065 Z-20.55
N5955 X454.737 Y51.051 Z-20.529
N5960 X454.738 Y51.046 Z-20.505
N5965 Z15.
N5970 X817.403 Y58.769
N5975 Z7.35
N5980 Z-6.286 F733.33
N5985 X817.398 Y58.768 Z-6.311 F2200.
N5990 X817.384 Y58.767 Z-6.331
N5995 X817.363 Y58.764 Z-6.345
N6000 X817.339 Y58.762 Z-6.35
N6005 X817.276 Y58.754
N6010 X817.252 Y58.747
N6015 X817.233 Y58.731
N6020 X817.221 Y58.708
N6025 X817.219 Y58.684
N6030 X817.276 Y58.188
N6035 X817.278 Y58.162
N6040 X817.295 Y57.664
N6045 Y57.639
N6050 X817.273 Y57.141
N6055 X817.271 Y57.116
N6060 X817.21 Y56.621
N6065 X817.206 Y56.596
N6070 X817.106 Y56.107
N6075 X817.1 Y56.083
N6080 X816.962 Y55.603
N6085 X816.954 Y55.58
N6090 X816.779 Y55.112
N6095 X816.769 Y55.089
N6100 X816.558 Y54.637
N6105 X816.547 Y54.615
N6110 X816.301 Y54.181
N6115 X816.288 Y54.16
N6120 X816.009 Y53.747
N6125 X815.994 Y53.726
N6130 X815.683 Y53.336
N6135 X815.667 Y53.317
N6140 X815.327 Y52.953
N6145 X815.309 Y52.935
N6150 X814.941 Y52.598
N6155 X814.921 Y52.582
N6160 X814.527 Y52.275
N6165 X814.507 Y52.261
N6170 X814.091 Y51.986
N6175 X814.07 Y51.973
N6180 X813.634 Y51.731
N6185 X813.611 Y51.72
N6190 X813.156 Y51.514
N6195 X813.133 Y51.504
N6200 X812.664 Y51.334
N6205 X812.649 Y51.329
N6210 X812.508 Y51.286
N6215 X812.504 Y51.285
N6220 X787.776 Y44.031
N6225 X787.772 Y44.029
N6230 X786.413 Y43.651
N6235 X786.404 Y43.649
N6240 X785.034 Y43.308
N6245 X785.026 Y43.306
N6250 X783.647 Y43.004
N6255 X783.639 Y43.002
N6260 X782.252 Y42.738
N6265 X782.243 Y42.737
N6270 X780.85 Y42.511
N6275 X780.841 Y42.51
N6280 X779.442 Y42.323
N6285 X779.433 Y42.322
N6290 X778.03 Y42.175
N6295 X778.022 Y42.174
N6300 X776.614 Y42.065
N6305 X776.605
N6310 X775.196 Y41.995
N6315 X775.187
N6320 X773.776 Y41.965
N6325 X773.767
N6330 X772.355 Y41.974
N6335 X772.346
N6340 X770.936 Y42.022
N6345 X770.927
N6350 X769.518 Y42.11
N6355 X769.509
N6360 X768.104 Y42.237
N6365 X768.096
N6370 X766.694 Y42.403
N6375 X766.685 Y42.404
N6380 X765.289 Y42.608
N6385 X765.28 Y42.61
N6390 X763.889 Y42.853
N6395 X763.88 Y42.854
N6400 X762.497 Y43.136
N6405 X762.489 Y43.138
N6410 X761.115 Y43.457
N6415 X761.106 Y43.459
N6420 X759.741 Y43.817
N6425 X759.732 Y43.82
N6430 X758.378 Y44.215
N6435 X758.372 Y44.217
N6440 X757.942 Y44.351
N6445 X757.94
N6450 X563.048 Y106.105
N6455 X559.75 Y107.13
N6460 X556.44 Y108.117
N6465 X553.12 Y109.066
N6470 X549.789 Y109.978
N6475 X546.448 Y110.851
N6480 X543.097 Y111.688
N6485 X539.737 Y112.486
N6490 X536.368 Y113.245
N6495 X532.991 Y113.967
N6500 X529.606 Y114.649
N6505 X526.213 Y115.295
N6510 X522.814 Y115.901
N6515 X519.407 Y116.469
N6520 X515.994 Y116.997
N6525 X512.575 Y117.487
N6530 X509.152 Y117.939
N6535 X505.724 Y118.352
N6540 X502.29 Y118.725
N6545 X498.853 Y119.06
N6550 X495.411 Y119.356
N6555 X491.968 Y119.612
N6560 X488.522 Y119.829
N6565 X485.072 Y120.008
N6570 X481.622 Y120.148
N6575 X478.17 Y120.248
N6580 X474.717 Y120.309
N6585 X471.263 Y120.33
N6590 X55.027
N6595 X55.021 Y120.331
N6600 X53.955 Y120.351
N6605 X53.944
N6610 X52.88 Y120.409
N6615 X52.868 Y120.41
N6620 X51.807 Y120.508
N6625 X51.795 Y120.509
N6630 X50.739 Y120.646
N6635 X50.727 Y120.648
N6640 X49.676 Y120.824
N6645 X49.665 Y120.826
N6650 X48.621 Y121.04
N6655 X48.61 Y121.043
N6660 X47.574 Y121.295
N6665 X47.563 Y121.298
N6670 X46.537 Y121.589
N6675 X46.527 Y121.592
N6680 X45.513 Y121.919
N6685 X45.501 Y121.923
N6690 X44.5 Y122.288
N6695 X44.489 Y122.292
N6700 X43.502 Y122.694
N6705 X43.492 Y122.699
N6710 X42.52 Y123.136
N6715 X42.51 Y123.141
N6720 X41.555 Y123.614
N6725 X41.544 Y123.619
N6730 X40.608 Y124.127
N6735 X40.597 Y124.133
N6740 X39.68 Y124.675
N6745 X39.67 Y124.681
N6750 X38.773 Y125.256
N6755 X38.763 Y125.263
N6760 X37.888 Y125.871
N6765 X37.879 Y125.877
N6770 X37.027 Y126.516
N6775 X37.018 Y126.524
N6780 X36.19 Y127.195
N6785 X36.181 Y127.202
N6790 X35.378 Y127.902
N6795 X35.369 Y127.91
N6800 X34.593 Y128.64
N6805 X34.585 Y128.648
N6810 X33.835 Y129.405
N6815 X33.827 Y129.414
N6820 X33.107 Y130.199
N6825 X33.099 Y130.208
N6830 X32.408 Y131.019
N6835 X32.4 Y131.028
N6840 X31.739 Y131.863
N6845 X31.732 Y131.872
N6850 X31.102 Y132.731
N6855 X31.095 Y132.741
N6860 X30.498 Y133.623
N6865 X30.491 Y133.633
N6870 X29.926 Y134.536
N6875 X29.92 Y134.546
N6880 X29.389 Y135.47
N6885 X29.383 Y135.48
N6890 X28.887 Y136.422
N6895 X28.881 Y136.432
N6900 X28.419 Y137.392
N6905 X28.414 Y137.403
N6910 X27.988 Y138.379
N6915 X27.984 Y138.39
N6920 X27.594 Y139.381
N6925 X27.589 Y139.392
N6930 X27.236 Y140.397
N6935 X27.232 Y140.408
N6940 X26.916 Y141.425
N6945 X26.913 Y141.437
N6950 X26.634 Y142.466
N6955 X26.632 Y142.477
N6960 X26.391 Y143.514
N6965 X26.389 Y143.525
N6970 X26.187 Y144.571
N6975 X26.184 Y144.583
N6980 X26.021 Y145.636
N6985 X26.019 Y145.648
N6990 X25.895 Y146.706
N6995 X25.894 Y146.717
N7000 X25.808 Y147.778
N7005 X25.807 Y147.785
N7010 X25.805 Y147.822
N7015 X25.748 Y148.768
N7020 X25.747 Y148.773
N7025 X25.702 Y149.837
N7030 Y149.849
N7035 X25.696 Y150.914
N7040 Y150.926
N7045 X25.729 Y151.991
N7050 X25.73 Y152.003
N7055 X25.802 Y153.065
N7060 X25.803 Y153.076
N7065 X25.915 Y154.136
N7070 X25.916 Y154.148
N7075 X26.066 Y155.202
N7080 X26.068 Y155.214
N7085 X26.257 Y156.263
N7090 X26.26 Y156.274
N7095 X26.487 Y157.314
N7100 X26.49 Y157.326
N7105 X26.755 Y158.358
N7110 X26.759 Y158.369
N7115 X27.062 Y159.39
N7120 X27.065 Y159.401
N7125 X27.406 Y160.41
N7130 X27.41 Y160.421
N7135 X27.788 Y161.417
N7140 X27.792 Y161.428
N7145 X28.206 Y162.41
N7150 X28.211 Y162.421
N7155 X28.661 Y163.386
N7160 X28.666 Y163.396
N7165 X29.151 Y164.345
N7170 X29.157 Y164.356
N7175 X29.676 Y165.286
N7180 X29.682 Y165.296
N7185 X30.236 Y166.206
N7190 X30.242 Y166.216
N7195 X30.829 Y167.105
N7200 X30.835 Y167.115
N7205 X31.454 Y167.982
N7210 X31.461 Y167.991
N7215 X32.112 Y168.835
N7220 X32.119 Y168.844
N7225 X32.8 Y169.663
N7230 X32.808 Y169.672
N7235 X33.519 Y170.466
N7240 X33.527 Y170.475
N7245 X34.266 Y171.242
N7250 X34.275 Y171.25
N7255 X35.042 Y171.989
N7260 X35.051 Y171.997
N7265 X35.844 Y172.707
N7270 X35.853 Y172.715
N7275 X36.673 Y173.396
N7280 X36.682 Y173.403
N7285 X37.526 Y174.053
N7290 X37.535 Y174.06
N7295 X38.403 Y174.679
N7300 X38.413 Y174.686
N7305 X39.302 Y175.272
N7310 X39.312 Y175.278
N7315 X40.222 Y175.831
N7320 X40.232 Y175.837
N7325 X41.163 Y176.357
N7330 X41.173 Y176.362
N7335 X42.122 Y176.847
N7340 X42.133 Y176.853
N7345 X43.099 Y177.302
N7350 X43.109 Y177.306
N7355 X44.091 Y177.72
N7360 X44.102 Y177.725
N7365 X45.098 Y178.102
N7370 X45.109 Y178.106
N7375 X46.119 Y178.447
N7380 X46.13 Y178.45
N7385 X47.152 Y178.753
N7390 X47.163 Y178.756
N7395 X48.195 Y179.021
N7400 X48.206 Y179.024
N7405 X49.247 Y179.252
N7410 X49.259 Y179.254
N7415 X50.308 Y179.442
N7420 X50.319 Y179.444
N7425 X51.374 Y179.594
N7430 X51.386 Y179.596
N7435 X52.445 Y179.707
N7440 X52.455 Y179.708
N7445 X53.186 Y179.762
N7450 X53.19
N7455 X531.349 Y208.872
N7460 X531.406 Y208.87
N7465 X531.461 Y208.859
N7470 X531.514 Y208.837
N7475 X813.678 Y63.612
N7480 X813.689 Y63.606
N7485 X814.124 Y63.361
N7490 X814.146 Y63.347
N7495 X814.559 Y63.068
N7500 X814.579 Y63.054
N7505 X814.97 Y62.743
N7510 X814.989 Y62.726
N7515 X815.353 Y62.386
N7520 X815.37 Y62.369
N7525 X815.708 Y62.001
N7530 X815.725 Y61.982
N7535 X816.032 Y61.589
N7540 X816.047 Y61.568
N7545 X816.322 Y61.152
N7550 X816.334 Y61.131
N7555 X816.576 Y60.695
N7560 X816.588 Y60.672
N7565 X816.795 Y60.219
N7570 X816.804 Y60.195
N7575 X816.974 Y59.726
N7580 X816.982 Y59.702
N7585 X817.115 Y59.222
N7590 X817.121 Y59.197
N7595 X817.216 Y58.708
N7600 X817.219 Y58.684
N7605 X817.227 Y58.66
N7610 X817.243 Y58.641
N7615 X817.265 Y58.629
N7620 X817.29 Y58.627
N7625 X817.354 Y58.635
N7630 X817.378 Y58.637 Z-6.345
N7635 X817.399 Y58.64 Z-6.331
N7640 X817.412 Y58.641 Z-6.311
N7645 X817.417 Y58.642 Z-6.286
N7650 Z7.35
N7655 X817.403 Y58.769
N7660 Z5.
N7665 Z1. F733.33
N7670 Z-12.636
N7675 X817.398 Y58.768 Z-12.661 F2200.
N7680 X817.384 Y58.767 Z-12.681
N7685 X817.363 Y58.764 Z-12.695
N7690 X817.339 Y58.762 Z-12.7
N7695 X817.276 Y58.754
N7700 X817.252 Y58.747
N7705 X817.233 Y58.731
N7710 X817.221 Y58.708
N7715 X817.219 Y58.684
N7720 X817.276 Y58.188
N7725 X817.278 Y58.162
N7730 X817.295 Y57.664
N7735 Y57.639
N7740 X817.273 Y57.141
N7745 X817.271 Y57.116
N7750 X817.21 Y56.621
N7755 X817.206 Y56.596
N7760 X817.106 Y56.107
N7765 X817.1 Y56.083
N7770 X816.962 Y55.603
N7775 X816.954 Y55.58
N7780 X816.779 Y55.112
N7785 X816.769 Y55.089
N7790 X816.558 Y54.637
N7795 X816.547 Y54.615
N7800 X816.301 Y54.181
N7805 X816.288 Y54.16
N7810 X816.009 Y53.747
N7815 X815.994 Y53.726
N7820 X815.683 Y53.336
N7825 X815.667 Y53.317
N7830 X815.327 Y52.953
N7835 X815.309 Y52.935
N7840 X814.941 Y52.598
N7845 X814.921 Y52.582
N7850 X814.527 Y52.275
N7855 X814.507 Y52.261
N7860 X814.091 Y51.986
N7865 X814.07 Y51.973
N7870 X813.634 Y51.731
N7875 X813.611 Y51.72
N7880 X813.156 Y51.514
N7885 X813.133 Y51.504
N7890 X812.664 Y51.334
N7895 X812.649 Y51.329
N7900 X812.508 Y51.286
N7905 X812.504 Y51.285
N7910 X787.776 Y44.031
N7915 X787.772 Y44.029
N7920 X786.413 Y43.651
N7925 X786.404 Y43.649
N7930 X785.034 Y43.308
N7935 X785.026 Y43.306
N7940 X783.647 Y43.004
N7945 X783.639 Y43.002
N7950 X782.252 Y42.738
N7955 X782.243 Y42.737
N7960 X780.85 Y42.511
N7965 X780.841 Y42.51
N7970 X779.442 Y42.323
N7975 X779.433 Y42.322
N7980 X778.03 Y42.175
N7985 X778.022 Y42.174
N7990 X776.614 Y42.065
N7995 X776.605
N8000 X775.196 Y41.995
N8005 X775.187
N8010 X773.776 Y41.965
N8015 X773.767
N8020 X772.355 Y41.974
N8025 X772.346
N8030 X770.936 Y42.022
N8035 X770.927
N8040 X769.518 Y42.11
N8045 X769.509
N8050 X768.104 Y42.237
N8055 X768.096
N8060 X766.694 Y42.403
N8065 X766.685 Y42.404
N8070 X765.289 Y42.608
N8075 X765.28 Y42.61
N8080 X763.889 Y42.853
N8085 X763.88 Y42.854
N8090 X762.497 Y43.136
N8095 X762.489 Y43.138
N8100 X761.115 Y43.457
N8105 X761.106 Y43.459
N8110 X759.741 Y43.817
N8115 X759.732 Y43.82
N8120 X758.378 Y44.215
N8125 X758.372 Y44.217
N8130 X757.942 Y44.351
N8135 X757.94
N8140 X563.048 Y106.105
N8145 X559.75 Y107.13
N8150 X556.44 Y108.117
N8155 X553.12 Y109.066
N8160 X549.789 Y109.978
N8165 X546.448 Y110.851
N8170 X543.097 Y111.688
N8175 X539.737 Y112.486
N8180 X536.368 Y113.245
N8185 X532.991 Y113.967
N8190 X529.606 Y114.649
N8195 X526.213 Y115.295
N8200 X522.814 Y115.901
N8205 X519.407 Y116.469
N8210 X515.994 Y116.997
N8215 X512.575 Y117.487
N8220 X509.152 Y117.939
N8225 X505.724 Y118.352
N8230 X502.29 Y118.725
N8235 X498.853 Y119.06
N8240 X495.411 Y119.356
N8245 X491.968 Y119.612
N8250 X488.522 Y119.829
N8255 X485.072 Y120.008
N8260 X481.622 Y120.148
N8265 X478.17 Y120.248
N8270 X474.717 Y120.309
N8275 X471.263 Y120.33
N8280 X55.027
N8285 X55.021 Y120.331
N8290 X53.955 Y120.351
N8295 X53.944
N8300 X52.88 Y120.409
N8305 X52.868 Y120.41
N8310 X51.807 Y120.508
N8315 X51.795 Y120.509
N8320 X50.739 Y120.646
N8325 X50.727 Y120.648
N8330 X49.676 Y120.824
N8335 X49.665 Y120.826
N8340 X48.621 Y121.04
N8345 X48.61 Y121.043
N8350 X47.574 Y121.295
N8355 X47.563 Y121.298
N8360 X46.537 Y121.589
N8365 X46.527 Y121.592
N8370 X45.513 Y121.919
N8375 X45.501 Y121.923
N8380 X44.5 Y122.288
N8385 X44.489 Y122.292
N8390 X43.502 Y122.694
N8395 X43.492 Y122.699
N8400 X42.52 Y123.136
N8405 X42.51 Y123.141
N8410 X41.555 Y123.614
N8415 X41.544 Y123.619
N8420 X40.608 Y124.127
N8425 X40.597 Y124.133
N8430 X39.68 Y124.675
N8435 X39.67 Y124.681
N8440 X38.773 Y125.256
N8445 X38.763 Y125.263
N8450 X37.888 Y125.871
N8455 X37.879 Y125.877
N8460 X37.027 Y126.516
N8465 X37.018 Y126.524
N8470 X36.19 Y127.195
N8475 X36.181 Y127.202
N8480 X35.378 Y127.902
N8485 X35.369 Y127.91
N8490 X34.593 Y128.64
N8495 X34.585 Y128.648
N8500 X33.835 Y129.405
N8505 X33.827 Y129.414
N8510 X33.107 Y130.199
N8515 X33.099 Y130.208
N8520 X32.408 Y131.019
N8525 X32.4 Y131.028
N8530 X31.739 Y131.863
N8535 X31.732 Y131.872
N8540 X31.102 Y132.731
N8545 X31.095 Y132.741
N8550 X30.498 Y133.623
N8555 X30.491 Y133.633
N8560 X29.926 Y134.536
N8565 X29.92 Y134.546
N8570 X29.389 Y135.47
N8575 X29.383 Y135.48
N8580 X28.887 Y136.422
N8585 X28.881 Y136.432
N8590 X28.419 Y137.392
N8595 X28.414 Y137.403
N8600 X27.988 Y138.379
N8605 X27.984 Y138.39
N8610 X27.594 Y139.381
N8615 X27.589 Y139.392
N8620 X27.236 Y140.397
N8625 X27.232 Y140.408
N8630 X26.916 Y141.425
N8635 X26.913 Y141.437
N8640 X26.634 Y142.466
N8645 X26.632 Y142.477
N8650 X26.391 Y143.514
N8655 X26.389 Y143.525
N8660 X26.187 Y144.571
N8665 X26.184 Y144.583
N8670 X26.021 Y145.636
N8675 X26.019 Y145.648
N8680 X25.895 Y146.706
N8685 X25.894 Y146.717
N8690 X25.808 Y147.778
N8695 X25.807 Y147.785
N8700 X25.805 Y147.822
N8705 X25.748 Y148.768
N8710 X25.747 Y148.773
N8715 X25.702 Y149.837
N8720 Y149.849
N8725 X25.696 Y150.914
N8730 Y150.926
N8735 X25.729 Y151.991
N8740 X25.73 Y152.003
N8745 X25.802 Y153.065
N8750 X25.803 Y153.076
N8755 X25.915 Y154.136
N8760 X25.916 Y154.148
N8765 X26.066 Y155.202
N8770 X26.068 Y155.214
N8775 X26.257 Y156.263
N8780 X26.26 Y156.274
N8785 X26.487 Y157.314
N8790 X26.49 Y157.326
N8795 X26.755 Y158.358
N8800 X26.759 Y158.369
N8805 X27.062 Y159.39
N8810 X27.065 Y159.401
N8815 X27.406 Y160.41
N8820 X27.41 Y160.421
N8825 X27.788 Y161.417
N8830 X27.792 Y161.428
N8835 X28.206 Y162.41
N8840 X28.211 Y162.421
N8845 X28.661 Y163.386
N8850 X28.666 Y163.396
N8855 X29.151 Y164.345
N8860 X29.157 Y164.356
N8865 X29.676 Y165.286
N8870 X29.682 Y165.296
N8875 X30.236 Y166.206
N8880 X30.242 Y166.216
N8885 X30.829 Y167.105
N8890 X30.835 Y167.115
N8895 X31.454 Y167.982
N8900 X31.461 Y167.991
N8905 X32.112 Y168.835
N8910 X32.119 Y168.844
N8915 X32.8 Y169.663
N8920 X32.808 Y169.672
N8925 X33.519 Y170.466
N8930 X33.527 Y170.475
N8935 X34.266 Y171.242
N8940 X34.275 Y171.25
N8945 X35.042 Y171.989
N8950 X35.051 Y171.997
N8955 X35.844 Y172.707
N8960 X35.853 Y172.715
N8965 X36.673 Y173.396
N8970 X36.682 Y173.403
N8975 X37.526 Y174.053
N8980 X37.535 Y174.06
N8985 X38.403 Y174.679
N8990 X38.413 Y174.686
N8995 X39.302 Y175.272
N9000 X39.312 Y175.278
N9005 X40.222 Y175.831
N9010 X40.232 Y175.837
N9015 X41.163 Y176.357
N9020 X41.173 Y176.362
N9025 X42.122 Y176.847
N9030 X42.133 Y176.853
N9035 X43.099 Y177.302
N9040 X43.109 Y177.306
N9045 X44.091 Y177.72
N9050 X44.102 Y177.725
N9055 X45.098 Y178.102
N9060 X45.109 Y178.106
N9065 X46.119 Y178.447
N9070 X46.13 Y178.45
N9075 X47.152 Y178.753
N9080 X47.163 Y178.756
N9085 X48.195 Y179.021
N9090 X48.206 Y179.024
N9095 X49.247 Y179.252
N9100 X49.259 Y179.254
N9105 X50.308 Y179.442
N9110 X50.319 Y179.444
N9115 X51.374 Y179.594
N9120 X51.386 Y179.596
N9125 X52.445 Y179.707
N9130 X52.455 Y179.708
N9135 X53.186 Y179.762
N9140 X53.19
N9145 X531.349 Y208.872
N9150 X531.406 Y208.87
N9155 X531.461 Y208.859
N9160 X531.514 Y208.837
N9165 X813.678 Y63.612
N9170 X813.689 Y63.606
N9175 X814.124 Y63.361
N9180 X814.146 Y63.347
N9185 X814.559 Y63.068
N9190 X814.579 Y63.054
N9195 X814.97 Y62.743
N9200 X814.989 Y62.726
N9205 X815.353 Y62.386
N9210 X815.37 Y62.369
N9215 X815.708 Y62.001
N9220 X815.725 Y61.982
N9225 X816.032 Y61.589
N9230 X816.047 Y61.568
N9235 X816.322 Y61.152
N9240 X816.334 Y61.131
N9245 X816.576 Y60.695
N9250 X816.588 Y60.672
N9255 X816.795 Y60.219
N9260 X816.804 Y60.195
N9265 X816.974 Y59.726
N9270 X816.982 Y59.702
N9275 X817.115 Y59.222
N9280 X817.121 Y59.197
N9285 X817.216 Y58.708
N9290 X817.219 Y58.684
N9295 X817.227 Y58.66
N9300 X817.243 Y58.641
N9305 X817.265 Y58.629
N9310 X817.29 Y58.627
N9315 X817.354 Y58.635
N9320 X817.378 Y58.637 Z-12.695
N9325 X817.399 Y58.64 Z-12.681
N9330 X817.412 Y58.641 Z-12.661
N9335 X817.417 Y58.642 Z-12.636
N9340 Z7.35
N9345 X817.403 Y58.769
N9350 Z5.
N9355 Z-5.35 F733.33
N9360 Z-18.986
N9365 X817.398 Y58.768 Z-19.011 F2200.
N9370 X817.384 Y58.767 Z-19.031
N9375 X817.363 Y58.764 Z-19.045
N9380 X817.339 Y58.762 Z-19.05
N9385 X817.276 Y58.754
N9390 X817.252 Y58.747
N9395 X817.233 Y58.731
N9400 X817.221 Y58.708
N9405 X817.219 Y58.684
N9410 X817.276 Y58.188
N9415 X817.278 Y58.162
N9420 X817.295 Y57.664
N9425 Y57.639
N9430 X817.273 Y57.141
N9435 X817.271 Y57.116
N9440 X817.21 Y56.621
N9445 X817.206 Y56.596
N9450 X817.106 Y56.107
N9455 X817.1 Y56.083
N9460 X816.962 Y55.603
N9465 X816.954 Y55.58
N9470 X816.779 Y55.112
N9475 X816.769 Y55.089
N9480 X816.558 Y54.637
N9485 X816.547 Y54.615
N9490 X816.301 Y54.181
N9495 X816.288 Y54.16
N9500 X816.009 Y53.747
N9505 X815.994 Y53.726
N9510 X815.683 Y53.336
N9515 X815.667 Y53.317
N9520 X815.327 Y52.953
N9525 X815.309 Y52.935
N9530 X814.941 Y52.598
N9535 X814.921 Y52.582
N9540 X814.527 Y52.275
N9545 X814.507 Y52.261
N9550 X814.091 Y51.986
N9555 X814.07 Y51.973
N9560 X813.634 Y51.731
N9565 X813.611 Y51.72
N9570 X813.156 Y51.514
N9575 X813.133 Y51.504
N9580 X812.664 Y51.334
N9585 X812.649 Y51.329
N9590 X812.508 Y51.286
N9595 X812.504 Y51.285
N9600 X787.776 Y44.031
N9605 X787.772 Y44.029
N9610 X786.413 Y43.651
N9615 X786.404 Y43.649
N9620 X785.034 Y43.308
N9625 X785.026 Y43.306
N9630 X783.647 Y43.004
N9635 X783.639 Y43.002
N9640 X782.252 Y42.738
N9645 X782.243 Y42.737
N9650 X780.85 Y42.511
N9655 X780.841 Y42.51
N9660 X779.442 Y42.323
N9665 X779.433 Y42.322
N9670 X778.03 Y42.175
N9675 X778.022 Y42.174
N9680 X776.614 Y42.065
N9685 X776.605
N9690 X775.196 Y41.995
N9695 X775.187
N9700 X773.776 Y41.965
N9705 X773.767
N9710 X772.355 Y41.974
N9715 X772.346
N9720 X770.936 Y42.022
N9725 X770.927
N9730 X769.518 Y42.11
N9735 X769.509
N9740 X768.104 Y42.237
N9745 X768.096
N9750 X766.694 Y42.403
N9755 X766.685 Y42.404
N9760 X765.289 Y42.608
N9765 X765.28 Y42.61
N9770 X763.889 Y42.853
N9775 X763.88 Y42.854
N9780 X762.497 Y43.136
N9785 X762.489 Y43.138
N9790 X761.115 Y43.457
N9795 X761.106 Y43.459
N9800 X759.741 Y43.817
N9805 X759.732 Y43.82
N9810 X758.378 Y44.215
N9815 X758.372 Y44.217
N9820 X757.942 Y44.351
N9825 X757.94
N9830 X563.048 Y106.105
N9835 X559.75 Y107.13
N9840 X556.44 Y108.117
N9845 X553.12 Y109.066
N9850 X549.789 Y109.978
N9855 X546.448 Y110.851
N9860 X543.097 Y111.688
N9865 X539.737 Y112.486
N9870 X536.368 Y113.245
N9875 X532.991 Y113.967
N9880 X529.606 Y114.649
N9885 X526.213 Y115.295
N9890 X522.814 Y115.901
N9895 X519.407 Y116.469
N9900 X515.994 Y116.997
N9905 X512.575 Y117.487
N9910 X509.152 Y117.939
N9915 X505.724 Y118.352
N9920 X502.29 Y118.725
N9925 X498.853 Y119.06
N9930 X495.411 Y119.356
N9935 X491.968 Y119.612
N9940 X488.522 Y119.829
N9945 X485.072 Y120.008
N9950 X481.622 Y120.148
N9955 X478.17 Y120.248
N9960 X474.717 Y120.309
N9965 X471.263 Y120.33
N9970 X55.027
N9975 X55.021 Y120.331
N9980 X53.955 Y120.351
N9985 X53.944
N9990 X52.88 Y120.409
N9995 X52.868 Y120.41
N10000 X51.807 Y120.508
N10005 X51.795 Y120.509
N10010 X50.739 Y120.646
N10015 X50.727 Y120.648
N10020 X49.676 Y120.824
N10025 X49.665 Y120.826
N10030 X48.621 Y121.04
N10035 X48.61 Y121.043
N10040 X47.574 Y121.295
N10045 X47.563 Y121.298
N10050 X46.537 Y121.589
N10055 X46.527 Y121.592
N10060 X45.513 Y121.919
N10065 X45.501 Y121.923
N10070 X44.5 Y122.288
N10075 X44.489 Y122.292
N10080 X43.502 Y122.694
N10085 X43.492 Y122.699
N10090 X42.52 Y123.136
N10095 X42.51 Y123.141
N10100 X41.555 Y123.614
N10105 X41.544 Y123.619
N10110 X40.608 Y124.127
N10115 X40.597 Y124.133
N10120 X39.68 Y124.675
N10125 X39.67 Y124.681
N10130 X38.773 Y125.256
N10135 X38.763 Y125.263
N10140 X37.888 Y125.871
N10145 X37.879 Y125.877
N10150 X37.027 Y126.516
N10155 X37.018 Y126.524
N10160 X36.19 Y127.195
N10165 X36.181 Y127.202
N10170 X35.378 Y127.902
N10175 X35.369 Y127.91
N10180 X34.593 Y128.64
N10185 X34.585 Y128.648
N10190 X33.835 Y129.405
N10195 X33.827 Y129.414
N10200 X33.107 Y130.199
N10205 X33.099 Y130.208
N10210 X32.408 Y131.019
N10215 X32.4 Y131.028
N10220 X31.739 Y131.863
N10225 X31.732 Y131.872
N10230 X31.102 Y132.731
N10235 X31.095 Y132.741
N10240 X30.498 Y133.623
N10245 X30.491 Y133.633
N10250 X29.926 Y134.536
N10255 X29.92 Y134.546
N10260 X29.389 Y135.47
N10265 X29.383 Y135.48
N10270 X28.887 Y136.422
N10275 X28.881 Y136.432
N10280 X28.419 Y137.392
N10285 X28.414 Y137.403
N10290 X27.988 Y138.379
N10295 X27.984 Y138.39
N10300 X27.594 Y139.381
N10305 X27.589 Y139.392
N10310 X27.236 Y140.397
N10315 X27.232 Y140.408
N10320 X26.916 Y141.425
N10325 X26.913 Y141.437
N10330 X26.634 Y142.466
N10335 X26.632 Y142.477
N10340 X26.391 Y143.514
N10345 X26.389 Y143.525
N10350 X26.187 Y144.571
N10355 X26.184 Y144.583
N10360 X26.021 Y145.636
N10365 X26.019 Y145.648
N10370 X25.895 Y146.706
N10375 X25.894 Y146.717
N10380 X25.808 Y147.778
N10385 X25.807 Y147.785
N10390 X25.805 Y147.822
N10395 X25.748 Y148.768
N10400 X25.747 Y148.773
N10405 X25.702 Y149.837
N10410 Y149.849
N10415 X25.696 Y150.914
N10420 Y150.926
N10425 X25.729 Y151.991
N10430 X25.73 Y152.003
N10435 X25.802 Y153.065
N10440 X25.803 Y153.076
N10445 X25.915 Y154.136
N10450 X25.916 Y154.148
N10455 X26.066 Y155.202
N10460 X26.068 Y155.214
N10465 X26.257 Y156.263
N10470 X26.26 Y156.274
N10475 X26.487 Y157.314
N10480 X26.49 Y157.326
N10485 X26.755 Y158.358
N10490 X26.759 Y158.369
N10495 X27.062 Y159.39
N10500 X27.065 Y159.401
N10505 X27.406 Y160.41
N10510 X27.41 Y160.421
N10515 X27.788 Y161.417
N10520 X27.792 Y161.428
N10525 X28.206 Y162.41
N10530 X28.211 Y162.421
N10535 X28.661 Y163.386
N10540 X28.666 Y163.396
N10545 X29.151 Y164.345
N10550 X29.157 Y164.356
N10555 X29.676 Y165.286
N10560 X29.682 Y165.296
N10565 X30.236 Y166.206
N10570 X30.242 Y166.216
N10575 X30.829 Y167.105
N10580 X30.835 Y167.115
N10585 X31.454 Y167.982
N10590 X31.461 Y167.991
N10595 X32.112 Y168.835
N10600 X32.119 Y168.844
N10605 X32.8 Y169.663
N10610 X32.808 Y169.672
N10615 X33.519 Y170.466
N10620 X33.527 Y170.475
N10625 X34.266 Y171.242
N10630 X34.275 Y171.25
N10635 X35.042 Y171.989
N10640 X35.051 Y171.997
N10645 X35.844 Y172.707
N10650 X35.853 Y172.715
N10655 X36.673 Y173.396
N10660 X36.682 Y173.403
N10665 X37.526 Y174.053
N10670 X37.535 Y174.06
N10675 X38.403 Y174.679
N10680 X38.413 Y174.686
N10685 X39.302 Y175.272
N10690 X39.312 Y175.278
N10695 X40.222 Y175.831
N10700 X40.232 Y175.837
N10705 X41.163 Y176.357
N10710 X41.173 Y176.362
N10715 X42.122 Y176.847
N10720 X42.133 Y176.853
N10725 X43.099 Y177.302
N10730 X43.109 Y177.306
N10735 X44.091 Y177.72
N10740 X44.102 Y177.725
N10745 X45.098 Y178.102
N10750 X45.109 Y178.106
N10755 X46.119 Y178.447
N10760 X46.13 Y178.45
N10765 X47.152 Y178.753
N10770 X47.163 Y178.756
N10775 X48.195 Y179.021
N10780 X48.206 Y179.024
N10785 X49.247 Y179.252
N10790 X49.259 Y179.254
N10795 X50.308 Y179.442
N10800 X50.319 Y179.444
N10805 X51.374 Y179.594
N10810 X51.386 Y179.596
N10815 X52.445 Y179.707
N10820 X52.455 Y179.708
N10825 X53.186 Y179.762
N10830 X53.19
N10835 X531.349 Y208.872
N10840 X531.406 Y208.87
N10845 X531.461 Y208.859
N10850 X531.514 Y208.837
N10855 X813.678 Y63.612
N10860 X813.689 Y63.606
N10865 X814.124 Y63.361
N10870 X814.146 Y63.347
N10875 X814.559 Y63.068
N10880 X814.579 Y63.054
N10885 X814.97 Y62.743
N10890 X814.989 Y62.726
N10895 X815.353 Y62.386
N10900 X815.37 Y62.369
N10905 X815.708 Y62.001
N10910 X815.725 Y61.982
N10915 X816.032 Y61.589
N10920 X816.047 Y61.568
N10925 X816.322 Y61.152
N10930 X816.334 Y61.131
N10935 X816.576 Y60.695
N10940 X816.588 Y60.672
N10945 X816.795 Y60.219
N10950 X816.804 Y60.195
N10955 X816.974 Y59.726
N10960 X816.982 Y59.702
N10965 X817.115 Y59.222
N10970 X817.121 Y59.197
N10975 X817.216 Y58.708
N10980 X817.219 Y58.684
N10985 X817.227 Y58.66
N10990 X817.243 Y58.641
N10995 X817.265 Y58.629
N11000 X817.29 Y58.627
N11005 X817.354 Y58.635
N11010 X817.378 Y58.637 Z-19.045
N11015 X817.399 Y58.64 Z-19.031
N11020 X817.412 Y58.641 Z-19.011
N11025 X817.417 Y58.642 Z-18.986
N11030 Z7.35
N11035 X817.403 Y58.769
N11040 Z5.
N11045 Z-11.7 F733.33
N11050 Z-22.076
N11055 X817.339 Y58.762 F2200.
N11060 X817.276 Y58.754
N11065 X817.252 Y58.747
N11070 X817.233 Y58.731
N11075 X817.221 Y58.708
N11080 X817.219 Y58.684
N11085 X817.265 Y58.288
N11090 Z-22.276 F733.33
N11095 X817.276 Y58.188 F2200.
N11100 X817.278 Y58.162
N11105 X817.295 Y57.664
N11110 Y57.639
N11115 X817.273 Y57.141
N11120 X817.271 Y57.116
N11125 X817.21 Y56.621
N11130 X817.206 Y56.596
N11135 X817.106 Y56.107
N11140 X817.1 Y56.083
N11145 X816.962 Y55.603
N11150 X816.954 Y55.58
N11155 X816.779 Y55.112
N11160 X816.769 Y55.089
N11165 X816.558 Y54.637
N11170 X816.547 Y54.615
N11175 X816.394 Y54.345
N11180 Z-22.076
N11185 X816.301 Y54.181
N11190 X816.288 Y54.16
N11195 X816.009 Y53.747
N11200 X815.994 Y53.726
N11205 X815.683 Y53.336
N11210 X815.667 Y53.317
N11215 X815.653 Y53.303
N11220 Z-22.276 F733.33
N11225 X815.327 Y52.953 F2200.
N11230 X815.309 Y52.935
N11235 X814.941 Y52.598
N11240 X814.921 Y52.582
N11245 X814.527 Y52.275
N11250 X814.507 Y52.261
N11255 X814.091 Y51.986
N11260 X814.07 Y51.973
N11265 X813.634 Y51.731
N11270 X813.611 Y51.72
N11275 X813.156 Y51.514
N11280 X813.133 Y51.504
N11285 X812.664 Y51.334
N11290 X812.649 Y51.329
N11295 X812.508 Y51.286
N11300 X812.504 Y51.285
N11305 X812.246 Y51.209
N11310 Z-22.076
N11315 X811.02 Y50.849
N11320 Z-22.276 F733.33
N11325 X807.326 Y49.766 F2200.
N11330 Z-22.076
N11335 X806.1 Y49.406
N11340 Z-22.276 F733.33
N11345 X802.406 Y48.322 F2200.
N11350 Z-22.076
N11355 X801.18 Y47.963
N11360 Z-22.276 F733.33
N11365 X797.486 Y46.879 F2200.
N11370 Z-22.076
N11375 X796.26 Y46.519
N11380 Z-22.276 F733.33
N11385 X792.566 Y45.436 F2200.
N11390 Z-22.076
N11395 X791.34 Y45.076
N11400 Z-22.276 F733.33
N11405 X787.776 Y44.031 F2200.
N11410 X787.772 Y44.029
N11415 X787.641 Y43.993
N11420 Z-22.076
N11425 X786.413 Y43.651
N11430 X786.409 Y43.65
N11435 Z-22.276 F733.33
N11440 X786.404 Y43.649 F2200.
N11445 X785.034 Y43.308
N11450 X785.026 Y43.306
N11455 X783.647 Y43.004
N11460 X783.639 Y43.002
N11465 X782.621 Y42.808
N11470 Z-22.076
N11475 X782.252 Y42.738
N11480 X782.243 Y42.737
N11485 X781.362 Y42.594
N11490 Z-22.276 F733.33
N11495 X780.85 Y42.511 F2200.
N11500 X780.841 Y42.51
N11505 X779.442 Y42.323
N11510 X779.433 Y42.322
N11515 X778.03 Y42.175
N11520 X778.022 Y42.174
N11525 X777.509 Y42.134
N11530 Z-22.076
N11535 X776.614 Y42.065
N11540 X776.605
N11545 X776.234 Y42.046
N11550 Z-22.276 F733.33
N11555 X775.196 Y41.995 F2200.
N11560 X775.187
N11565 X773.776 Y41.965
N11570 X773.767
N11575 X772.355 Y41.974
N11580 X772.354
N11585 Z-22.076
N11590 X772.346
N11595 X771.077 Y42.017
N11600 Z-22.276 F733.33
N11605 X770.936 Y42.022 F2200.
N11610 X770.927
N11615 X769.518 Y42.11
N11620 X769.509
N11625 X768.104 Y42.237
N11630 X768.096
N11635 X767.21 Y42.342
N11640 Z-22.076
N11645 X766.694 Y42.403
N11650 X766.685 Y42.404
N11655 X765.943 Y42.513
N11660 Z-22.276 F733.33
N11665 X765.289 Y42.608 F2200.
N11670 X765.28 Y42.61
N11675 X763.889 Y42.853
N11680 X763.88 Y42.854
N11685 X762.497 Y43.136
N11690 X762.489 Y43.138
N11695 X762.129 Y43.221
N11700 Z-22.076
N11705 X761.115 Y43.457
N11710 X761.106 Y43.459
N11715 X760.886 Y43.517
N11720 Z-22.276 F733.33
N11725 X759.741 Y43.817 F2200.
N11730 X759.732 Y43.82
N11735 X758.378 Y44.215
N11740 X758.372 Y44.217
N11745 X757.942 Y44.351
N11750 X757.94
N11755 X757.168 Y44.596
N11760 Z-22.076
N11765 X755.949 Y44.982
N11770 Z-22.276 F733.33
N11775 X752.28 Y46.145 F2200.
N11780 Z-22.076
N11785 X751.061 Y46.531
N11790 Z-22.276 F733.33
N11795 X747.392 Y47.694 F2200.
N11800 Z-22.076
N11805 X746.173 Y48.08
N11810 Z-22.276 F733.33
N11815 X742.504 Y49.243 F2200.
N11820 Z-22.076
N11825 X741.285 Y49.629
N11830 Z-22.276 F733.33
N11835 X737.616 Y50.792 F2200.
N11840 Z-22.076
N11845 X736.397 Y51.178
N11850 Z-22.276 F733.33
N11855 X732.728 Y52.34 F2200.
N11860 Z-22.076
N11865 X731.509 Y52.726
N11870 Z-22.276 F733.33
N11875 X727.84 Y53.889 F2200.
N11880 Z-22.076
N11885 X726.621 Y54.275
N11890 Z-22.276 F733.33
N11895 X722.952 Y55.438 F2200.
N11900 Z-22.076
N11905 X721.733 Y55.824
N11910 Z-22.276 F733.33
N11915 X718.065 Y56.987 F2200.
N11920 Z-22.076
N11925 X716.846 Y57.373
N11930 Z-22.276 F733.33
N11935 X713.177 Y58.535 F2200.
N11940 Z-22.076
N11945 X711.958 Y58.921
N11950 Z-22.276 F733.33
N11955 X708.289 Y60.084 F2200.
N11960 Z-22.076
N11965 X707.07 Y60.47
N11970 Z-22.276 F733.33
N11975 X703.401 Y61.633 F2200.
N11980 Z-22.076
N11985 X702.182 Y62.019
N11990 Z-22.276 F733.33
N11995 X698.513 Y63.182 F2200.
N12000 Z-22.076
N12005 X697.294 Y63.568
N12010 Z-22.276 F733.33
N12015 X693.625 Y64.731 F2200.
N12020 Z-22.076
N12025 X692.406 Y65.117
N12030 Z-22.276 F733.33
N12035 X688.737 Y66.279 F2200.
N12040 Z-22.076
N12045 X687.518 Y66.665
N12050 Z-22.276 F733.33
N12055 X683.849 Y67.828 F2200.
N12060 Z-22.076
N12065 X682.63 Y68.214
N12070 Z-22.276 F733.33
N12075 X678.961 Y69.377 F2200.
N12080 Z-22.076
N12085 X677.742 Y69.763
N12090 Z-22.276 F733.33
N12095 X674.074 Y70.926 F2200.
N12100 Z-22.076
N12105 X672.855 Y71.312
N12110 Z-22.276 F733.33
N12115 X669.186 Y72.474 F2200.
N12120 Z-22.076
N12125 X667.967 Y72.86
N12130 Z-22.276 F733.33
N12135 X664.298 Y74.023 F2200.
N12140 Z-22.076
N12145 X663.079 Y74.409
N12150 Z-22.276 F733.33
N12155 X659.41 Y75.572 F2200.
N12160 Z-22.076
N12165 X658.191 Y75.958
N12170 Z-22.276 F733.33
N12175 X654.522 Y77.121 F2200.
N12180 Z-22.076
N12185 X653.303 Y77.507
N12190 Z-22.276 F733.33
N12195 X649.634 Y78.67 F2200.
N12200 Z-22.076
N12205 X648.415 Y79.056
N12210 Z-22.276 F733.33
N12215 X644.746 Y80.218 F2200.
N12220 Z-22.076
N12225 X643.527 Y80.604
N12230 Z-22.276 F733.33
N12235 X639.858 Y81.767 F2200.
N12240 Z-22.076
N12245 X638.639 Y82.153
N12250 Z-22.276 F733.33
N12255 X634.97 Y83.316 F2200.
N12260 Z-22.076
N12265 X633.751 Y83.702
N12270 Z-22.276 F733.33
N12275 X630.083 Y84.865 F2200.
N12280 Z-22.076
N12285 X628.864 Y85.251
N12290 Z-22.276 F733.33
N12295 X625.195 Y86.413 F2200.
N12300 Z-22.076
N12305 X623.976 Y86.799
N12310 Z-22.276 F733.33
N12315 X620.307 Y87.962 F2200.
N12320 Z-22.076
N12325 X619.088 Y88.348
N12330 Z-22.276 F733.33
N12335 X615.419 Y89.511 F2200.
N12340 Z-22.076
N12345 X614.2 Y89.897
N12350 Z-22.276 F733.33
N12355 X610.531 Y91.06 F2200.
N12360 Z-22.076
N12365 X609.312 Y91.446
N12370 Z-22.276 F733.33
N12375 X605.643 Y92.609 F2200.
N12380 Z-22.076
N12385 X604.424 Y92.995
N12390 Z-22.276 F733.33
N12395 X600.755 Y94.157 F2200.
N12400 Z-22.076
N12405 X599.536 Y94.544
N12410 Z-22.276 F733.33
N12415 X595.867 Y95.706 F2200.
N12420 Z-22.076
N12425 X594.648 Y96.092
N12430 Z-22.276 F733.33
N12435 X590.98 Y97.255 F2200.
N12440 Z-22.076
N12445 X589.761 Y97.641
N12450 Z-22.276 F733.33
N12455 X586.092 Y98.804 F2200.
N12460 Z-22.076
N12465 X584.873 Y99.19
N12470 Z-22.276 F733.33
N12475 X581.204 Y100.352 F2200.
N12480 Z-22.076
N12485 X579.985 Y100.738
N12490 Z-22.276 F733.33
N12495 X576.316 Y101.901 F2200.
N12500 Z-22.076
N12505 X575.097 Y102.287
N12510 Z-22.276 F733.33
N12515 X571.428 Y103.45 F2200.
N12520 Z-22.076
N12525 X570.209 Y103.836
N12530 Z-22.276 F733.33
N12535 X566.539 Y104.999 F2200.
N12540 Z-22.076
N12545 X565.321 Y105.385
N12550 Z-22.276 F733.33
N12555 X563.048 Y106.105 F2200.
N12560 X561.652 Y106.539
N12565 Z-22.076
N12570 X560.431 Y106.919
N12575 Z-22.276 F733.33
N12580 X559.75 Y107.13 F2200.
N12585 X556.75 Y108.025
N12590 Z-22.076
N12595 X556.44 Y108.117
N12600 X555.522 Y108.38
N12605 Z-22.276 F733.33
N12610 X553.12 Y109.066 F2200.
N12615 X551.822 Y109.422
N12620 Z-22.076
N12625 X550.589 Y109.759
N12630 Z-22.276 F733.33
N12635 X549.789 Y109.978 F2200.
N12640 X546.872 Y110.74
N12645 Z-22.076
N12650 X546.448 Y110.851
N12655 X545.634 Y111.055
N12660 Z-22.276 F733.33
N12665 X543.097 Y111.688 F2200.
N12670 X541.901 Y111.972
N12675 Z-22.076
N12680 X540.658 Y112.267
N12685 Z-22.276 F733.33
N12690 X539.737 Y112.486 F2200.
N12695 X536.91 Y113.123
N12700 Z-22.076
N12705 X536.368 Y113.245
N12710 X535.662 Y113.396
N12715 Z-22.276 F733.33
N12720 X532.991 Y113.967 F2200.
N12725 X531.9 Y114.187
N12730 Z-22.076
N12735 X530.648 Y114.439
N12740 Z-22.276 F733.33
N12745 X529.606 Y114.649 F2200.
N12750 X526.873 Y115.169
N12755 Z-22.076
N12760 X526.213 Y115.295
N12765 X525.616 Y115.401
N12770 Z-22.276 F733.33
N12775 X522.814 Y115.901 F2200.
N12780 X521.83 Y116.065
N12785 Z-22.076
N12790 X520.569 Y116.275
N12795 Z-22.276 F733.33
N12800 X519.407 Y116.469 F2200.
N12805 X516.773 Y116.876
N12810 Z-22.076
N12815 X515.994 Y116.997
N12820 X515.509 Y117.067
N12825 Z-22.276 F733.33
N12830 X512.575 Y117.487 F2200.
N12835 X511.703 Y117.603
N12840 Z-22.076
N12845 X510.436 Y117.77
N12850 Z-22.276 F733.33
N12855 X509.152 Y117.939 F2200.
N12860 X506.622 Y118.243
N12865 Z-22.076
N12870 X505.724 Y118.352
N12875 X505.352 Y118.392
N12880 Z-22.276 F733.33
N12885 X502.29 Y118.725 F2200.
N12890 X501.529 Y118.799
N12895 Z-22.076
N12900 X500.257 Y118.923
N12905 Z-22.276 F733.33
N12910 X498.853 Y119.06 F2200.
N12915 X496.43 Y119.268
N12920 Z-22.076
N12925 X495.411 Y119.356
N12930 X495.156 Y119.375
N12935 Z-22.276 F733.33
N12940 X491.968 Y119.612 F2200.
N12945 X491.322 Y119.653
N12950 Z-22.076
N12955 X490.046 Y119.733
N12960 Z-22.276 F733.33
N12965 X488.522 Y119.829 F2200.
N12970 X486.209 Y119.949
N12975 Z-22.076
N12980 X485.072 Y120.008
N12985 X484.932 Y120.014
N12990 Z-22.276 F733.33
N12995 X481.622 Y120.148 F2200.
N13000 X481.091 Y120.163
N13005 Z-22.076
N13010 X479.813 Y120.2
N13015 Z-22.276 F733.33
N13020 X478.17 Y120.248 F2200.
N13025 X475.97 Y120.286
N13030 Z-22.076
N13035 X474.717 Y120.309
N13040 X474.693
N13045 Z-22.276 F733.33
N13050 X471.263 Y120.33 F2200.
N13055 X470.848
N13060 Z-22.076
N13065 X469.57
N13070 Z-22.276 F733.33
N13075 X465.721 F2200.
N13080 Z-22.076
N13085 X464.443
N13090 Z-22.276 F733.33
N13095 X460.593 F2200.
N13100 Z-22.076
N13105 X459.315
N13110 Z-22.276 F733.33
N13115 X455.466 F2200.
N13120 Z-22.076
N13125 X454.188
N13130 Z-22.276 F733.33
N13135 X450.339 F2200.
N13140 Z-22.076
N13145 X449.061
N13150 Z-22.276 F733.33
N13155 X445.211 F2200.
N13160 Z-22.076
N13165 X443.933
N13170 Z-22.276 F733.33
N13175 X440.084 F2200.
N13180 Z-22.076
N13185 X438.806
N13190 Z-22.276 F733.33
N13195 X434.956 F2200.
N13200 Z-22.076
N13205 X433.678
N13210 Z-22.276 F733.33
N13215 X429.829 F2200.
N13220 Z-22.076
N13225 X428.551
N13230 Z-22.276 F733.33
N13235 X424.702 F2200.
N13240 Z-22.076
N13245 X423.424
N13250 Z-22.276 F733.33
N13255 X419.574 F2200.
N13260 Z-22.076
N13265 X418.296
N13270 Z-22.276 F733.33
N13275 X414.447 F2200.
N13280 Z-22.076
N13285 X413.169
N13290 Z-22.276 F733.33
N13295 X409.319 F2200.
N13300 Z-22.076
N13305 X408.041
N13310 Z-22.276 F733.33
N13315 X404.192 F2200.
N13320 Z-22.076
N13325 X402.914
N13330 Z-22.276 F733.33
N13335 X399.065 F2200.
N13340 Z-22.076
N13345 X397.787
N13350 Z-22.276 F733.33
N13355 X393.937 F2200.
N13360 Z-22.076
N13365 X392.659
N13370 Z-22.276 F733.33
N13375 X388.81 F2200.
N13380 Z-22.076
N13385 X387.532
N13390 Z-22.276 F733.33
N13395 X383.682 F2200.
N13400 Z-22.076
N13405 X382.404
N13410 Z-22.276 F733.33
N13415 X378.555 F2200.
N13420 Z-22.076
N13425 X377.277
N13430 Z-22.276 F733.33
N13435 X373.428 F2200.
N13440 Z-22.076
N13445 X372.15
N13450 Z-22.276 F733.33
N13455 X368.3 F2200.
N13460 Z-22.076
N13465 X367.022
N13470 Z-22.276 F733.33
N13475 X363.173 F2200.
N13480 Z-22.076
N13485 X361.895
N13490 Z-22.276 F733.33
N13495 X358.045 F2200.
N13500 Z-22.076
N13505 X356.767
N13510 Z-22.276 F733.33
N13515 X352.918 F2200.
N13520 Z-22.076
N13525 X351.64
N13530 Z-22.276 F733.33
N13535 X347.791 F2200.
N13540 Z-22.076
N13545 X346.513
N13550 Z-22.276 F733.33
N13555 X342.663 F2200.
N13560 Z-22.076
N13565 X341.385
N13570 Z-22.276 F733.33
N13575 X337.536 F2200.
N13580 Z-22.076
N13585 X336.258
N13590 Z-22.276 F733.33
N13595 X332.409 F2200.
N13600 Z-22.076
N13605 X331.131
N13610 Z-22.276 F733.33
N13615 X327.281 F2200.
N13620 Z-22.076
N13625 X326.003
N13630 Z-22.276 F733.33
N13635 X322.154 F2200.
N13640 Z-22.076
N13645 X320.876
N13650 Z-22.276 F733.33
N13655 X317.026 F2200.
N13660 Z-22.076
N13665 X315.748
N13670 Z-22.276 F733.33
N13675 X311.899 F2200.
N13680 Z-22.076
N13685 X310.621
N13690 Z-22.276 F733.33
N13695 X306.772 F2200.
N13700 Z-22.076
N13705 X305.494
N13710 Z-22.276 F733.33
N13715 X301.644 F2200.
N13720 Z-22.076
N13725 X300.366
N13730 Z-22.276 F733.33
N13735 X296.517 F2200.
N13740 Z-22.076
N13745 X295.239
N13750 Z-22.276 F733.33
N13755 X291.389 F2200.
N13760 Z-22.076
N13765 X290.111
N13770 Z-22.276 F733.33
N13775 X286.262 F2200.
N13780 Z-22.076
N13785 X284.984
N13790 Z-22.276 F733.33
N13795 X281.135 F2200.
N13800 Z-22.076
N13805 X279.857
N13810 Z-22.276 F733.33
N13815 X276.007 F2200.
N13820 Z-22.076
N13825 X274.729
N13830 Z-22.276 F733.33
N13835 X270.88 F2200.
N13840 Z-22.076
N13845 X269.602
N13850 Z-22.276 F733.33
N13855 X265.752 F2200.
N13860 Z-22.076
N13865 X264.474
N13870 Z-22.276 F733.33
N13875 X260.625 F2200.
N13880 Z-22.076
N13885 X259.347
N13890 Z-22.276 F733.33
N13895 X255.498 F2200.
N13900 Z-22.076
N13905 X254.22
N13910 Z-22.276 F733.33
N13915 X250.37 F2200.
N13920 Z-22.076
N13925 X249.092
N13930 Z-22.276 F733.33
N13935 X245.243 F2200.
N13940 Z-22.076
N13945 X243.965
N13950 Z-22.276 F733.33
N13955 X240.116 F2200.
N13960 Z-22.076
N13965 X238.838
N13970 Z-22.276 F733.33
N13975 X234.988 F2200.
N13980 Z-22.076
N13985 X233.71
N13990 Z-22.276 F733.33
N13995 X229.861 F2200.
N14000 Z-22.076
N14005 X228.583
N14010 Z-22.276 F733.33
N14015 X224.733 F2200.
N14020 Z-22.076
N14025 X223.455
N14030 Z-22.276 F733.33
N14035 X219.606 F2200.
N14040 Z-22.076
N14045 X218.328
N14050 Z-22.276 F733.33
N14055 X214.479 F2200.
N14060 Z-22.076
N14065 X213.201
N14070 Z-22.276 F733.33
N14075 X209.351 F2200.
N14080 Z-22.076
N14085 X208.073
N14090 Z-22.276 F733.33
N14095 X204.224 F2200.
N14100 Z-22.076
N14105 X202.946
N14110 Z-22.276 F733.33
N14115 X199.096 F2200.
N14120 Z-22.076
N14125 X197.818
N14130 Z-22.276 F733.33
N14135 X193.969 F2200.
N14140 Z-22.076
N14145 X192.691
N14150 Z-22.276 F733.33
N14155 X188.842 F2200.
N14160 Z-22.076
N14165 X187.564
N14170 Z-22.276 F733.33
N14175 X183.714 F2200.
N14180 Z-22.076
N14185 X182.436
N14190 Z-22.276 F733.33
N14195 X178.587 F2200.
N14200 Z-22.076
N14205 X177.309
N14210 Z-22.276 F733.33
N14215 X173.459 F2200.
N14220 Z-22.076
N14225 X172.181
N14230 Z-22.276 F733.33
N14235 X168.332 F2200.
N14240 Z-22.076
N14245 X167.054
N14250 Z-22.276 F733.33
N14255 X163.205 F2200.
N14260 Z-22.076
N14265 X161.927
N14270 Z-22.276 F733.33
N14275 X158.077 F2200.
N14280 Z-22.076
N14285 X156.799
N14290 Z-22.276 F733.33
N14295 X152.95 F2200.
N14300 Z-22.076
N14305 X151.672
N14310 Z-22.276 F733.33
N14315 X147.822 F2200.
N14320 Z-22.076
N14325 X146.544
N14330 Z-22.276 F733.33
N14335 X142.695 F2200.
N14340 Z-22.076
N14345 X141.417
N14350 Z-22.276 F733.33
N14355 X137.568 F2200.
N14360 Z-22.076
N14365 X136.29
N14370 Z-22.276 F733.33
N14375 X132.44 F2200.
N14380 Z-22.076
N14385 X131.162
N14390 Z-22.276 F733.33
N14395 X127.313 F2200.
N14400 Z-22.076
N14405 X126.035
N14410 Z-22.276 F733.33
N14415 X122.186 F2200.
N14420 Z-22.076
N14425 X120.908
N14430 Z-22.276 F733.33
N14435 X117.058 F2200.
N14440 Z-22.076
N14445 X115.78
N14450 Z-22.276 F733.33
N14455 X111.931 F2200.
N14460 Z-22.076
N14465 X110.653
N14470 Z-22.276 F733.33
N14475 X106.803 F2200.
N14480 Z-22.076
N14485 X105.525
N14490 Z-22.276 F733.33
N14495 X101.676 F2200.
N14500 Z-22.076
N14505 X100.398
N14510 Z-22.276 F733.33
N14515 X96.549 F2200.
N14520 Z-22.076
N14525 X95.271
N14530 Z-22.276 F733.33
N14535 X91.421 F2200.
N14540 Z-22.076
N14545 X90.143
N14550 Z-22.276 F733.33
N14555 X86.294 F2200.
N14560 Z-22.076
N14565 X85.016
N14570 Z-22.276 F733.33
N14575 X81.166 F2200.
N14580 Z-22.076
N14585 X79.888
N14590 Z-22.276 F733.33
N14595 X76.039 F2200.
N14600 Z-22.076
N14605 X74.761
N14610 Z-22.276 F733.33
N14615 X70.912 F2200.
N14620 Z-22.076
N14625 X69.634
N14630 Z-22.276 F733.33
N14635 X65.784 F2200.
N14640 Z-22.076
N14645 X64.506
N14650 Z-22.276 F733.33
N14655 X60.657 F2200.
N14660 Z-22.076
N14665 X59.379
N14670 Z-22.276 F733.33
N14675 X55.528 F2200.
N14680 Z-22.076
N14685 X55.027
N14690 X55.021 Y120.331
N14695 X54.25 Y120.345
N14700 Z-22.276 F733.33
N14705 X53.955 Y120.351 F2200.
N14710 X53.944
N14715 X52.88 Y120.409
N14720 X52.868 Y120.41
N14725 X51.807 Y120.508
N14730 X51.795 Y120.509
N14735 X50.739 Y120.646
N14740 X50.727 Y120.648
N14745 X50.365 Y120.709
N14750 Z-22.076
N14755 X49.676 Y120.824
N14760 X49.665 Y120.826
N14765 X49.108 Y120.94
N14770 Z-22.276 F733.33
N14775 X48.621 Y121.04 F2200.
N14780 X48.61 Y121.043
N14785 X47.574 Y121.295
N14790 X47.563 Y121.298
N14795 X46.537 Y121.589
N14800 X46.527 Y121.592
N14805 X45.513 Y121.919
N14810 X45.501 Y121.923
N14815 X45.347 Y121.979
N14820 Z-22.076
N14825 X44.5 Y122.288
N14830 X44.489 Y122.292
N14835 X44.151 Y122.43
N14840 Z-22.276 F733.33
N14845 X43.502 Y122.694 F2200.
N14850 X43.492 Y122.699
N14855 X42.52 Y123.136
N14860 X42.51 Y123.141
N14865 X41.555 Y123.614
N14870 X41.544 Y123.619
N14875 X40.631 Y124.115
N14880 Z-22.076
N14885 X40.608 Y124.127
N14890 X40.597 Y124.133
N14895 X39.68 Y124.675
N14900 X39.67 Y124.681
N14905 X39.533 Y124.769
N14910 Z-22.276 F733.33
N14915 X38.773 Y125.256 F2200.
N14920 X38.763 Y125.263
N14925 X37.888 Y125.871
N14930 X37.879 Y125.877
N14935 X37.027 Y126.516
N14940 X37.018 Y126.524
N14945 X36.367 Y127.051
N14950 Z-22.076
N14955 X36.19 Y127.195
N14960 X36.181 Y127.202
N14965 X35.398 Y127.885
N14970 Z-22.276 F733.33
N14975 X35.378 Y127.902 F2200.
N14980 X35.369 Y127.91
N14985 X34.593 Y128.64
N14990 X34.585 Y128.648
N14995 X33.835 Y129.405
N15000 X33.827 Y129.414
N15005 X33.107 Y130.199
N15010 X33.099 Y130.208
N15015 X32.687 Y130.691
N15020 Z-22.076
N15025 X32.408 Y131.019
N15030 X32.4 Y131.028
N15035 X31.881 Y131.683
N15040 Z-22.276 F733.33
N15045 X31.739 Y131.863 F2200.
N15050 X31.732 Y131.872
N15055 X31.102 Y132.731
N15060 X31.095 Y132.741
N15065 X30.498 Y133.623
N15070 X30.491 Y133.633
N15075 X29.926 Y134.536
N15080 X29.92 Y134.546
N15085 X29.704 Y134.922
N15090 Z-22.076
N15095 X29.389 Y135.47
N15100 X29.383 Y135.48
N15105 X29.087 Y136.041
N15110 Z-22.276 F733.33
N15115 X28.887 Y136.422 F2200.
N15120 X28.881 Y136.432
N15125 X28.419 Y137.392
N15130 X28.414 Y137.403
N15135 X27.988 Y138.379
N15140 X27.984 Y138.39
N15145 X27.594 Y139.381
N15150 X27.589 Y139.392
N15155 X27.512 Y139.612
N15160 Z-22.076
N15165 X27.236 Y140.397
N15170 X27.232 Y140.408
N15175 X27.104 Y140.823
N15180 Z-22.276 F733.33
N15185 X26.916 Y141.425 F2200.
N15190 X26.913 Y141.437
N15195 X26.634 Y142.466
N15200 X26.632 Y142.477
N15205 X26.391 Y143.514
N15210 X26.389 Y143.525
N15215 X26.187 Y144.571
N15220 X26.184 Y144.583
N15225 X26.18 Y144.614
N15230 Z-22.076
N15235 X26.021 Y145.636
N15240 X26.019 Y145.648
N15245 X25.992 Y145.878
N15250 Z-22.276 F733.33
N15255 X25.895 Y146.706 F2200.
N15260 X25.894 Y146.717
N15265 X25.808 Y147.778
N15270 X25.807 Y147.785
N15275 X25.805 Y147.822
N15280 X25.748 Y148.768
N15285 X25.747 Y148.773
N15290 X25.705 Y149.761
N15295 Z-22.076
N15300 X25.702 Y149.837
N15305 Y149.849
N15310 X25.696 Y150.914
N15315 Y150.926
N15320 X25.7 Y151.039
N15325 Z-22.276 F733.33
N15330 X25.729 Y151.991 F2200.
N15335 X25.73 Y152.003
N15340 X25.802 Y153.065
N15345 X25.803 Y153.076
N15350 X25.915 Y154.136
N15355 X25.916 Y154.148
N15360 X26.027 Y154.928
N15365 Z-22.076
N15370 X26.066 Y155.202
N15375 X26.068 Y155.214
N15380 X26.244 Y156.188
N15385 Z-22.276 F733.33
N15390 X26.257 Y156.263 F2200.
N15395 X26.26 Y156.274
N15400 X26.487 Y157.314
N15405 X26.49 Y157.326
N15410 X26.755 Y158.358
N15415 X26.759 Y158.369
N15420 X27.062 Y159.39
N15425 X27.065 Y159.401
N15430 X27.253 Y159.957
N15435 Z-22.076
N15440 X27.406 Y160.41
N15445 X27.41 Y160.421
N15450 X27.69 Y161.158
N15455 Z-22.276 F733.33
N15460 X27.788 Y161.417 F2200.
N15465 X27.792 Y161.428
N15470 X28.206 Y162.41
N15475 X28.211 Y162.421
N15480 X28.661 Y163.386
N15485 X28.666 Y163.396
N15490 X29.151 Y164.345
N15495 X29.157 Y164.356
N15500 X29.345 Y164.692
N15505 Z-22.076
N15510 X29.676 Y165.286
N15515 X29.682 Y165.296
N15520 X29.987 Y165.797
N15525 Z-22.276 F733.33
N15530 X30.236 Y166.206 F2200.
N15535 X30.242 Y166.216
N15540 X30.829 Y167.105
N15545 X30.835 Y167.115
N15550 X31.454 Y167.982
N15555 X31.461 Y167.991
N15560 X32.112 Y168.835
N15565 X32.119 Y168.844
N15570 X32.237 Y168.985
N15575 Z-22.076
N15580 X32.8 Y169.663
N15585 X32.808 Y169.672
N15590 X33.065 Y169.959
N15595 Z-22.276 F733.33
N15600 X33.519 Y170.466 F2200.
N15605 X33.527 Y170.475
N15610 X34.266 Y171.242
N15615 X34.275 Y171.25
N15620 X35.042 Y171.989
N15625 X35.051 Y171.997
N15630 X35.84 Y172.703
N15635 Z-22.076
N15640 X35.844 Y172.707
N15645 X35.853 Y172.715
N15650 X36.673 Y173.396
N15655 X36.682 Y173.403
N15660 X36.827 Y173.515
N15665 Z-22.276 F733.33
N15670 X37.526 Y174.053 F2200.
N15675 X37.535 Y174.06
N15680 X38.403 Y174.679
N15685 X38.413 Y174.686
N15690 X39.302 Y175.272
N15695 X39.312 Y175.278
N15700 X40.044 Y175.723
N15705 Z-22.076
N15710 X40.222 Y175.831
N15715 X40.232 Y175.837
N15720 X41.156 Y176.353
N15725 Z-22.276 F733.33
N15730 X41.163 Y176.357 F2200.
N15735 X41.173 Y176.362
N15740 X42.122 Y176.847
N15745 X42.133 Y176.853
N15750 X43.099 Y177.302
N15755 X43.109 Y177.306
N15760 X44.091 Y177.72
N15765 X44.102 Y177.725
N15770 X44.714 Y177.956
N15775 Z-22.076
N15780 X45.098 Y178.102
N15785 X45.109 Y178.106
N15790 X45.92 Y178.38
N15795 Z-22.276 F733.33
N15800 X46.119 Y178.447 F2200.
N15805 X46.13 Y178.45
N15810 X47.152 Y178.753
N15815 X47.163 Y178.756
N15820 X48.195 Y179.021
N15825 X48.206 Y179.024
N15830 X49.247 Y179.252
N15835 X49.259 Y179.254
N15840 X49.704 Y179.334
N15845 Z-22.076
N15850 X50.308 Y179.442
N15855 X50.319 Y179.444
N15860 X50.966 Y179.536
N15865 Z-22.276 F733.33
N15870 X51.374 Y179.594 F2200.
N15875 X51.386 Y179.596
N15880 X52.445 Y179.707
N15885 X52.455 Y179.708
N15890 X53.186 Y179.762
N15895 X53.19
N15900 X54.831 Y179.862
N15905 Z-22.076
N15910 X56.107 Y179.939
N15915 Z-22.276 F733.33
N15920 X59.949 Y180.173 F2200.
N15925 Z-22.076
N15930 X61.225 Y180.251
N15935 Z-22.276 F733.33
N15940 X65.067 Y180.485 F2200.
N15945 Z-22.076
N15950 X66.343 Y180.563
N15955 Z-22.276 F733.33
N15960 X70.185 Y180.797 F2200.
N15965 Z-22.076
N15970 X71.461 Y180.874
N15975 Z-22.276 F733.33
N15980 X75.303 Y181.108 F2200.
N15985 Z-22.076
N15990 X76.578 Y181.186
N15995 Z-22.276 F733.33
N16000 X80.421 Y181.42 F2200.
N16005 Z-22.076
N16010 X81.696 Y181.497
N16015 Z-22.276 F733.33
N16020 X85.539 Y181.731 F2200.
N16025 Z-22.076
N16030 X86.814 Y181.809
N16035 Z-22.276 F733.33
N16040 X90.657 Y182.043 F2200.
N16045 Z-22.076
N16050 X91.932 Y182.121
N16055 Z-22.276 F733.33
N16060 X95.775 Y182.354 F2200.
N16065 Z-22.076
N16070 X97.05 Y182.432
N16075 Z-22.276 F733.33
N16080 X100.893 Y182.666 F2200.
N16085 Z-22.076
N16090 X102.168 Y182.744
N16095 Z-22.276 F733.33
N16100 X106.011 Y182.978 F2200.
N16105 Z-22.076
N16110 X107.286 Y183.055
N16115 Z-22.276 F733.33
N16120 X111.128 Y183.289 F2200.
N16125 Z-22.076
N16130 X112.403 Y183.367
N16135 Z-22.276 F733.33
N16140 X116.246 Y183.601 F2200.
N16145 Z-22.076
N16150 X117.521 Y183.678
N16155 Z-22.276 F733.33
N16160 X121.364 Y183.912 F2200.
N16165 Z-22.076
N16170 X122.639 Y183.99
N16175 Z-22.276 F733.33
N16180 X126.482 Y184.224 F2200.
N16185 Z-22.076
N16190 X127.757 Y184.302
N16195 Z-22.276 F733.33
N16200 X131.6 Y184.535 F2200.
N16205 Z-22.076
N16210 X132.875 Y184.613
N16215 Z-22.276 F733.33
N16220 X136.718 Y184.847 F2200.
N16225 Z-22.076
N16230 X137.993 Y184.925
N16235 Z-22.276 F733.33
N16240 X141.836 Y185.159 F2200.
N16245 Z-22.076
N16250 X143.111 Y185.236
N16255 Z-22.276 F733.33
N16260 X146.954 Y185.47 F2200.
N16265 Z-22.076
N16270 X148.229 Y185.548
N16275 Z-22.276 F733.33
N16280 X152.072 Y185.782 F2200.
N16285 Z-22.076
N16290 X153.347 Y185.859
N16295 Z-22.276 F733.33
N16300 X157.19 Y186.093 F2200.
N16305 Z-22.076
N16310 X158.465 Y186.171
N16315 Z-22.276 F733.33
N16320 X162.308 Y186.405 F2200.
N16325 Z-22.076
N16330 X163.583 Y186.483
N16335 Z-22.276 F733.33
N16340 X167.426 Y186.717 F2200.
N16345 Z-22.076
N16350 X168.701 Y186.794
N16355 Z-22.276 F733.33
N16360 X172.543 Y187.028 F2200.
N16365 Z-22.076
N16370 X173.818 Y187.106
N16375 Z-22.276 F733.33
N16380 X177.661 Y187.34 F2200.
N16385 Z-22.076
N16390 X178.936 Y187.417
N16395 Z-22.276 F733.33
N16400 X182.779 Y187.651 F2200.
N16405 Z-22.076
N16410 X184.054 Y187.729
N16415 Z-22.276 F733.33
N16420 X187.897 Y187.963 F2200.
N16425 Z-22.076
N16430 X189.172 Y188.04
N16435 Z-22.276 F733.33
N16440 X193.015 Y188.274 F2200.
N16445 Z-22.076
N16450 X194.29 Y188.352
N16455 Z-22.276 F733.33
N16460 X198.133 Y188.586 F2200.
N16465 Z-22.076
N16470 X199.408 Y188.664
N16475 Z-22.276 F733.33
N16480 X203.251 Y188.898 F2200.
N16485 Z-22.076
N16490 X204.526 Y188.975
N16495 Z-22.276 F733.33
N16500 X208.369 Y189.209 F2200.
N16505 Z-22.076
N16510 X209.644 Y189.287
N16515 Z-22.276 F733.33
N16520 X213.487 Y189.521 F2200.
N16525 Z-22.076
N16530 X214.762 Y189.598
N16535 Z-22.276 F733.33
N16540 X218.605 Y189.832 F2200.
N16545 Z-22.076
N16550 X219.88 Y189.91
N16555 Z-22.276 F733.33
N16560 X223.723 Y190.144 F2200.
N16565 Z-22.076
N16570 X224.998 Y190.222
N16575 Z-22.276 F733.33
N16580 X228.841 Y190.455 F2200.
N16585 Z-22.076
N16590 X230.116 Y190.533
N16595 Z-22.276 F733.33
N16600 X233.958 Y190.767 F2200.
N16605 Z-22.076
N16610 X235.233 Y190.845
N16615 Z-22.276 F733.33
N16620 X239.076 Y191.079 F2200.
N16625 Z-22.076
N16630 X240.351 Y191.156
N16635 Z-22.276 F733.33
N16640 X244.194 Y191.39 F2200.
N16645 Z-22.076
N16650 X245.469 Y191.468
N16655 Z-22.276 F733.33
N16660 X249.312 Y191.702 F2200.
N16665 Z-22.076
N16670 X250.587 Y191.779
N16675 Z-22.276 F733.33
N16680 X254.43 Y192.013 F2200.
N16685 Z-22.076
N16690 X255.705 Y192.091
N16695 Z-22.276 F733.33
N16700 X259.548 Y192.325 F2200.
N16705 Z-22.076
N16710 X260.823 Y192.403
N16715 Z-22.276 F733.33
N16720 X264.666 Y192.636 F2200.
N16725 Z-22.076
N16730 X265.941 Y192.714
N16735 Z-22.276 F733.33
N16740 X269.784 Y192.948 F2200.
N16745 Z-22.076
N16750 X271.059 Y193.026
N16755 Z-22.276 F733.33
N16760 X274.902 Y193.26 F2200.
N16765 Z-22.076
N16770 X276.177 Y193.337
N16775 Z-22.276 F733.33
N16780 X280.02 Y193.571 F2200.
N16785 Z-22.076
N16790 X281.295 Y193.649
N16795 Z-22.276 F733.33
N16800 X285.138 Y193.883 F2200.
N16805 Z-22.076
N16810 X286.413 Y193.96
N16815 Z-22.276 F733.33
N16820 X290.256 Y194.194 F2200.
N16825 Z-22.076
N16830 X291.531 Y194.272
N16835 Z-22.276 F733.33
N16840 X295.373 Y194.506 F2200.
N16845 Z-22.076
N16850 X296.648 Y194.584
N16855 Z-22.276 F733.33
N16860 X300.491 Y194.817 F2200.
N16865 Z-22.076
N16870 X301.766 Y194.895
N16875 Z-22.276 F733.33
N16880 X305.609 Y195.129 F2200.
N16885 Z-22.076
N16890 X306.884 Y195.207
N16895 Z-22.276 F733.33
N16900 X310.727 Y195.441 F2200.
N16905 Z-22.076
N16910 X312.002 Y195.518
N16915 Z-22.276 F733.33
N16920 X315.845 Y195.752 F2200.
N16925 Z-22.076
N16930 X317.12 Y195.83
N16935 Z-22.276 F733.33
N16940 X320.963 Y196.064 F2200.
N16945 Z-22.076
N16950 X322.238 Y196.141
N16955 Z-22.276 F733.33
N16960 X326.081 Y196.375 F2200.
N16965 Z-22.076
N16970 X327.356 Y196.453
N16975 Z-22.276 F733.33
N16980 X331.199 Y196.687 F2200.
N16985 Z-22.076
N16990 X332.474 Y196.765
N16995 Z-22.276 F733.33
N17000 X336.317 Y196.999 F2200.
N17005 Z-22.076
N17010 X337.592 Y197.076
N17015 Z-22.276 F733.33
N17020 X341.435 Y197.31 F2200.
N17025 Z-22.076
N17030 X342.71 Y197.388
N17035 Z-22.276 F733.33
N17040 X346.553 Y197.622 F2200.
N17045 Z-22.076
N17050 X347.828 Y197.699
N17055 Z-22.276 F733.33
N17060 X351.67 Y197.933 F2200.
N17065 Z-22.076
N17070 X352.945 Y198.011
N17075 Z-22.276 F733.33
N17080 X356.788 Y198.245 F2200.
N17085 Z-22.076
N17090 X358.063 Y198.322
N17095 Z-22.276 F733.33
N17100 X361.906 Y198.556 F2200.
N17105 Z-22.076
N17110 X363.181 Y198.634
N17115 Z-22.276 F733.33
N17120 X367.024 Y198.868 F2200.
N17125 Z-22.076
N17130 X368.299 Y198.946
N17135 Z-22.276 F733.33
N17140 X372.142 Y199.18 F2200.
N17145 Z-22.076
N17150 X373.417 Y199.257
N17155 Z-22.276 F733.33
N17160 X377.26 Y199.491 F2200.
N17165 Z-22.076
N17170 X378.535 Y199.569
N17175 Z-22.276 F733.33
N17180 X382.378 Y199.803 F2200.
N17185 Z-22.076
N17190 X383.653 Y199.88
N17195 Z-22.276 F733.33
N17200 X387.496 Y200.114 F2200.
N17205 Z-22.076
N17210 X388.771 Y200.192
N17215 Z-22.276 F733.33
N17220 X392.614 Y200.426 F2200.
N17225 Z-22.076
N17230 X393.889 Y200.503
N17235 Z-22.276 F733.33
N17240 X397.732 Y200.737 F2200.
N17245 Z-22.076
N17250 X399.007 Y200.815
N17255 Z-22.276 F733.33
N17260 X402.85 Y201.049 F2200.
N17265 Z-22.076
N17270 X404.125 Y201.127
N17275 Z-22.276 F733.33
N17280 X407.968 Y201.361 F2200.
N17285 Z-22.076
N17290 X409.243 Y201.438
N17295 Z-22.276 F733.33
N17300 X413.085 Y201.672 F2200.
N17305 Z-22.076
N17310 X414.36 Y201.75
N17315 Z-22.276 F733.33
N17320 X418.203 Y201.984 F2200.
N17325 Z-22.076
N17330 X419.478 Y202.061
N17335 Z-22.276 F733.33
N17340 X423.321 Y202.295 F2200.
N17345 Z-22.076
N17350 X424.596 Y202.373
N17355 Z-22.276 F733.33
N17360 X428.439 Y202.607 F2200.
N17365 Z-22.076
N17370 X429.714 Y202.684
N17375 Z-22.276 F733.33
N17380 X433.557 Y202.918 F2200.
N17385 Z-22.076
N17390 X434.832 Y202.996
N17395 Z-22.276 F733.33
N17400 X438.675 Y203.23 F2200.
N17405 Z-22.076
N17410 X439.95 Y203.308
N17415 Z-22.276 F733.33
N17420 X443.793 Y203.542 F2200.
N17425 Z-22.076
N17430 X445.068 Y203.619
N17435 Z-22.276 F733.33
N17440 X448.911 Y203.853 F2200.
N17445 Z-22.076
N17450 X450.186 Y203.931
N17455 Z-22.276 F733.33
N17460 X454.029 Y204.165 F2200.
N17465 Z-22.076
N17470 X455.304 Y204.242
N17475 Z-22.276 F733.33
N17480 X459.147 Y204.476 F2200.
N17485 Z-22.076
N17490 X460.422 Y204.554
N17495 Z-22.276 F733.33
N17500 X464.265 Y204.788 F2200.
N17505 Z-22.076
N17510 X465.54 Y204.866
N17515 Z-22.276 F733.33
N17520 X469.383 Y205.099 F2200.
N17525 Z-22.076
N17530 X470.658 Y205.177
N17535 Z-22.276 F733.33
N17540 X474.5 Y205.411 F2200.
N17545 Z-22.076
N17550 X475.775 Y205.489
N17555 Z-22.276 F733.33
N17560 X479.618 Y205.723 F2200.
N17565 Z-22.076
N17570 X480.893 Y205.8
N17575 Z-22.276 F733.33
N17580 X484.736 Y206.034 F2200.
N17585 Z-22.076
N17590 X486.011 Y206.112
N17595 Z-22.276 F733.33
N17600 X489.854 Y206.346 F2200.
N17605 Z-22.076
N17610 X491.129 Y206.423
N17615 Z-22.276 F733.33
N17620 X494.972 Y206.657 F2200.
N17625 Z-22.076
N17630 X496.247 Y206.735
N17635 Z-22.276 F733.33
N17640 X500.09 Y206.969 F2200.
N17645 Z-22.076
N17650 X501.365 Y207.047
N17655 Z-22.276 F733.33
N17660 X505.208 Y207.28 F2200.
N17665 Z-22.076
N17670 X506.483 Y207.358
N17675 Z-22.276 F733.33
N17680 X510.326 Y207.592 F2200.
N17685 Z-22.076
N17690 X511.601 Y207.67
N17695 Z-22.276 F733.33
N17700 X515.444 Y207.904 F2200.
N17705 Z-22.076
N17710 X516.719 Y207.981
N17715 Z-22.276 F733.33
N17720 X520.562 Y208.215 F2200.
N17725 Z-22.076
N17730 X521.837 Y208.293
N17735 Z-22.276 F733.33
N17740 X525.68 Y208.527 F2200.
N17745 Z-22.076
N17750 X526.955 Y208.604
N17755 Z-22.276 F733.33
N17760 X530.896 Y208.844 F2200.
N17765 Z-22.076
N17770 X531.349 Y208.872
N17775 X531.406 Y208.87
N17780 X531.461 Y208.859
N17785 X531.514 Y208.837
N17790 X532.159 Y208.505
N17795 Z-22.276 F733.33
N17800 X535.582 Y206.743 F2200.
N17805 Z-22.076
N17810 X536.718 Y206.159
N17815 Z-22.276 F733.33
N17820 X540.141 Y204.397 F2200.
N17825 Z-22.076
N17830 X541.277 Y203.812
N17835 Z-22.276 F733.33
N17840 X544.7 Y202.051 F2200.
N17845 Z-22.076
N17850 X545.836 Y201.466
N17855 Z-22.276 F733.33
N17860 X549.259 Y199.704 F2200.
N17865 Z-22.076
N17870 X550.395 Y199.119
N17875 Z-22.276 F733.33
N17880 X553.818 Y197.358 F2200.
N17885 Z-22.076
N17890 X554.954 Y196.773
N17895 Z-22.276 F733.33
N17900 X558.377 Y195.011 F2200.
N17905 Z-22.076
N17910 X559.513 Y194.426
N17915 Z-22.276 F733.33
N17920 X562.936 Y192.665 F2200.
N17925 Z-22.076
N17930 X564.073 Y192.08
N17935 Z-22.276 F733.33
N17940 X567.495 Y190.318 F2200.
N17945 Z-22.076
N17950 X568.631 Y189.734
N17955 Z-22.276 F733.33
N17960 X572.054 Y187.972 F2200.
N17965 Z-22.076
N17970 X573.19 Y187.387
N17975 Z-22.276 F733.33
N17980 X576.613 Y185.625 F2200.
N17985 Z-22.076
N17990 X577.749 Y185.041
N17995 Z-22.276 F733.33
N18000 X581.172 Y183.279 F2200.
N18005 Z-22.076
N18010 X582.308 Y182.694
N18015 Z-22.276 F733.33
N18020 X585.731 Y180.933 F2200.
N18025 Z-22.076
N18030 X586.867 Y180.348
N18035 Z-22.276 F733.33
N18040 X590.29 Y178.586 F2200.
N18045 Z-22.076
N18050 X591.426 Y178.001
N18055 Z-22.276 F733.33
N18060 X594.849 Y176.24 F2200.
N18065 Z-22.076
N18070 X595.985 Y175.655
N18075 Z-22.276 F733.33
N18080 X599.408 Y173.893 F2200.
N18085 Z-22.076
N18090 X600.544 Y173.308
N18095 Z-22.276 F733.33
N18100 X603.967 Y171.547 F2200.
N18105 Z-22.076
N18110 X605.103 Y170.962
N18115 Z-22.276 F733.33
N18120 X608.526 Y169.2 F2200.
N18125 Z-22.076
N18130 X609.662 Y168.616
N18135 Z-22.276 F733.33
N18140 X613.085 Y166.854 F2200.
N18145 Z-22.076
N18150 X614.221 Y166.269
N18155 Z-22.276 F733.33
N18160 X617.644 Y164.507 F2200.
N18165 Z-22.076
N18170 X618.78 Y163.923
N18175 Z-22.276 F733.33
N18180 X622.203 Y162.161 F2200.
N18185 Z-22.076
N18190 X623.339 Y161.576
N18195 Z-22.276 F733.33
N18200 X626.762 Y159.815 F2200.
N18205 Z-22.076
N18210 X627.898 Y159.23
N18215 Z-22.276 F733.33
N18220 X631.321 Y157.468 F2200.
N18225 Z-22.076
N18230 X632.457 Y156.883
N18235 Z-22.276 F733.33
N18240 X635.88 Y155.122 F2200.
N18245 Z-22.076
N18250 X637.016 Y154.537
N18255 Z-22.276 F733.33
N18260 X640.439 Y152.775 F2200.
N18265 Z-22.076
N18270 X641.575 Y152.19
N18275 Z-22.276 F733.33
N18280 X644.998 Y150.429 F2200.
N18285 Z-22.076
N18290 X646.134 Y149.844
N18295 Z-22.276 F733.33
N18300 X649.557 Y148.082 F2200.
N18305 Z-22.076
N18310 X650.693 Y147.498
N18315 Z-22.276 F733.33
N18320 X654.116 Y145.736 F2200.
N18325 Z-22.076
N18330 X655.252 Y145.151
N18335 Z-22.276 F733.33
N18340 X658.675 Y143.39 F2200.
N18345 Z-22.076
N18350 X659.811 Y142.805
N18355 Z-22.276 F733.33
N18360 X663.234 Y141.043 F2200.
N18365 Z-22.076
N18370 X664.37 Y140.458
N18375 Z-22.276 F733.33
N18380 X667.793 Y138.697 F2200.
N18385 Z-22.076
N18390 X668.929 Y138.112
N18395 Z-22.276 F733.33
N18400 X672.352 Y136.35 F2200.
N18405 Z-22.076
N18410 X673.488 Y135.765
N18415 Z-22.276 F733.33
N18420 X676.911 Y134.004 F2200.
N18425 Z-22.076
N18430 X678.047 Y133.419
N18435 Z-22.276 F733.33
N18440 X681.47 Y131.657 F2200.
N18445 Z-22.076
N18450 X682.606 Y131.073
N18455 Z-22.276 F733.33
N18460 X686.029 Y129.311 F2200.
N18465 Z-22.076
N18470 X687.165 Y128.726
N18475 Z-22.276 F733.33
N18480 X690.588 Y126.964 F2200.
N18485 Z-22.076
N18490 X691.724 Y126.38
N18495 Z-22.276 F733.33
N18500 X695.147 Y124.618 F2200.
N18505 Z-22.076
N18510 X696.283 Y124.033
N18515 Z-22.276 F733.33
N18520 X699.706 Y122.272 F2200.
N18525 Z-22.076
N18530 X700.842 Y121.687
N18535 Z-22.276 F733.33
N18540 X704.265 Y119.925 F2200.
N18545 Z-22.076
N18550 X705.401 Y119.34
N18555 Z-22.276 F733.33
N18560 X708.824 Y117.579 F2200.
N18565 Z-22.076
N18570 X709.96 Y116.994
N18575 Z-22.276 F733.33
N18580 X713.383 Y115.232 F2200.
N18585 Z-22.076
N18590 X714.519 Y114.647
N18595 Z-22.276 F733.33
N18600 X717.942 Y112.886 F2200.
N18605 Z-22.076
N18610 X719.078 Y112.301
N18615 Z-22.276 F733.33
N18620 X722.501 Y110.539 F2200.
N18625 Z-22.076
N18630 X723.637 Y109.955
N18635 Z-22.276 F733.33
N18640 X727.06 Y108.193 F2200.
N18645 Z-22.076
N18650 X728.196 Y107.608
N18655 Z-22.276 F733.33
N18660 X731.618 Y105.847 F2200.
N18665 Z-22.076
N18670 X732.755 Y105.262
N18675 Z-22.276 F733.33
N18680 X736.177 Y103.501 F2200.
N18685 Z-22.076
N18690 X737.313 Y102.916
N18695 Z-22.276 F733.33
N18700 X740.736 Y101.154 F2200.
N18705 Z-22.076
N18710 X741.873 Y100.569
N18715 Z-22.276 F733.33
N18720 X745.295 Y98.808 F2200.
N18725 Z-22.076
N18730 X746.431 Y98.223
N18735 Z-22.276 F733.33
N18740 X749.854 Y96.461 F2200.
N18745 Z-22.076
N18750 X750.99 Y95.876
N18755 Z-22.276 F733.33
N18760 X754.413 Y94.115 F2200.
N18765 Z-22.076
N18770 X755.549 Y93.53
N18775 Z-22.276 F733.33
N18780 X758.972 Y91.768 F2200.
N18785 Z-22.076
N18790 X760.108 Y91.183
N18795 Z-22.276 F733.33
N18800 X763.531 Y89.422 F2200.
N18805 Z-22.076
N18810 X764.667 Y88.837
N18815 Z-22.276 F733.33
N18820 X768.09 Y87.075 F2200.
N18825 Z-22.076
N18830 X769.226 Y86.491
N18835 Z-22.276 F733.33
N18840 X772.649 Y84.729 F2200.
N18845 Z-22.076
N18850 X773.785 Y84.144
N18855 Z-22.276 F733.33
N18860 X777.208 Y82.383 F2200.
N18865 Z-22.076
N18870 X778.344 Y81.798
N18875 Z-22.276 F733.33
N18880 X781.767 Y80.036 F2200.
N18885 Z-22.076
N18890 X782.903 Y79.451
N18895 Z-22.276 F733.33
N18900 X786.326 Y77.69 F2200.
N18905 Z-22.076
N18910 X787.462 Y77.105
N18915 Z-22.276 F733.33
N18920 X790.885 Y75.343 F2200.
N18925 Z-22.076
N18930 X792.021 Y74.758
N18935 Z-22.276 F733.33
N18940 X795.444 Y72.997 F2200.
N18945 Z-22.076
N18950 X796.58 Y72.412
N18955 Z-22.276 F733.33
N18960 X800.003 Y70.65 F2200.
N18965 Z-22.076
N18970 X801.139 Y70.065
N18975 Z-22.276 F733.33
N18980 X804.562 Y68.304 F2200.
N18985 Z-22.076
N18990 X805.698 Y67.719
N18995 Z-22.276 F733.33
N19000 X809.121 Y65.957 F2200.
N19005 Z-22.076
N19010 X810.257 Y65.373
N19015 Z-22.276 F733.33
N19020 X813.678 Y63.612 F2200.
N19025 X813.689 Y63.606
N19030 X813.708 Y63.596
N19035 Z-22.076
N19040 X814.124 Y63.361
N19045 X814.146 Y63.347
N19050 X814.559 Y63.068
N19055 X814.579 Y63.054
N19060 X814.777 Y62.896
N19065 Z-22.276 F733.33
N19070 X814.97 Y62.743 F2200.
N19075 X814.989 Y62.726
N19080 X815.353 Y62.386
N19085 X815.37 Y62.369
N19090 X815.708 Y62.001
N19095 X815.725 Y61.982
N19100 X816.032 Y61.589
N19105 X816.047 Y61.568
N19110 X816.322 Y61.152
N19115 X816.334 Y61.131
N19120 X816.576 Y60.695
N19125 X816.588 Y60.672
N19130 X816.795 Y60.219
N19135 X816.804 Y60.195
N19140 X816.974 Y59.726
N19145 X816.982 Y59.702
N19150 X817.026 Y59.543
N19155 Z-22.076
N19160 X817.115 Y59.222
N19165 X817.121 Y59.197
N19170 X817.216 Y58.708
N19175 X817.219 Y58.684
N19180 X817.227 Y58.66
N19185 X817.243 Y58.641
N19190 X817.265 Y58.629
N19195 X817.29 Y58.627
N19200 X817.417 Y58.642
N19205 Z15.
N19210 X21.431 Y224.038
N19215 Z7.35
N19220 Z-6.286 F733.33
N19225 X21.436 Y224.037 Z-6.311 F2200.
N19230 X21.45 Z-6.331
N19235 X21.47 Y224.035 Z-6.345
N19240 X21.495 Y224.034 Z-6.35
N19245 X21.558 Y224.031
N19250 X21.583 Y224.034
N19255 X21.605 Y224.047
N19260 X21.619 Y224.067
N19265 X21.626 Y224.091
N19270 X21.627 Y224.103
N19275 X21.723 Y225.168
N19280 X21.724 Y225.179
N19285 X21.86 Y226.24
N19290 X21.861 Y226.252
N19295 X22.035 Y227.308
N19300 X22.037 Y227.319
N19305 X22.25 Y228.368
N19310 X22.253 Y228.38
N19315 X22.504 Y229.42
N19320 X22.507 Y229.431
N19325 X22.796 Y230.461
N19330 X22.799 Y230.472
N19335 X23.125 Y231.491
N19340 X23.129 Y231.503
N19345 X23.493 Y232.509
N19350 X23.497 Y232.52
N19355 X23.897 Y233.512
N19360 X23.902 Y233.522
N19365 X24.338 Y234.499
N19370 X24.343 Y234.51
N19375 X24.815 Y235.47
N19380 X24.82 Y235.48
N19385 X25.327 Y236.423
N19390 X25.332 Y236.434
N19395 X25.873 Y237.357
N19400 X25.879 Y237.366
N19405 X26.453 Y238.269
N19410 X26.46 Y238.279
N19415 X27.067 Y239.16
N19420 X27.074 Y239.17
N19425 X27.713 Y240.028
N19430 X27.72 Y240.037
N19435 X28.39 Y240.872
N19440 X28.397 Y240.881
N19445 X29.097 Y241.69
N19450 X29.105 Y241.699
N19455 X29.834 Y242.482
N19460 X29.842 Y242.49
N19465 X30.6 Y243.246
N19470 X30.608 Y243.254
N19475 X31.393 Y243.982
N19480 X31.401 Y243.99
N19485 X32.212 Y244.688
N19490 X32.221 Y244.696
N19495 X33.057 Y245.364
N19500 X33.066 Y245.371
N19505 X33.926 Y246.008
N19510 X33.935 Y246.014
N19515 X34.818 Y246.62
N19520 X34.828 Y246.627
N19525 X35.732 Y247.199
N19530 X35.741 Y247.205
N19535 X36.666 Y247.744
N19540 X36.676 Y247.75
N19545 X37.62 Y248.255
N19550 X37.63 Y248.26
N19555 X38.591 Y248.73
N19560 X38.602 Y248.735
N19565 X39.58 Y249.17
N19570 X39.591 Y249.175
N19575 X40.584 Y249.573
N19580 X40.595 Y249.577
N19585 X41.602 Y249.939
N19590 X41.613 Y249.943
N19595 X42.633 Y250.266
N19600 X42.644 Y250.27
N19605 X43.675 Y250.557
N19610 X43.686 Y250.56
N19615 X44.727 Y250.809
N19620 X44.739 Y250.811
N19625 X45.788 Y251.022
N19630 X45.799 Y251.024
N19635 X46.856 Y251.196
N19640 X46.866 Y251.198
N19645 X47.794 Y251.317
N19650 X47.8 Y251.318
N19655 X586.734 Y311.537
N19660 G2 X587.073 Y311.32 I0.036 J-0.318
N19665 G1 X615.1 Y226.969
N19670 G2 X614.816 Y226.549 I-0.303 J-0.101
N19675 G1 X52.893 Y192.339
N19680 X52.887
N19685 X51.818 Y192.294
N19690 X51.806
N19695 X50.736 Y192.287
N19700 X50.724
N19705 X49.654 Y192.32
N19710 X49.643
N19715 X48.575 Y192.392
N19720 X48.563 Y192.393
N19725 X47.499 Y192.505
N19730 X47.487 Y192.507
N19735 X46.428 Y192.657
N19740 X46.416 Y192.658
N19745 X45.363 Y192.846
N19750 X45.351 Y192.849
N19755 X44.305 Y193.077
N19760 X44.294 Y193.079
N19765 X43.258 Y193.344
N19770 X43.246 Y193.348
N19775 X42.22 Y193.651
N19780 X42.209 Y193.654
N19785 X41.194 Y193.995
N19790 X41.183 Y193.999
N19795 X40.182 Y194.376
N19800 X40.171 Y194.38
N19805 X39.184 Y194.794
N19810 X39.173 Y194.799
N19815 X38.202 Y195.249
N19820 X38.192 Y195.254
N19825 X37.238 Y195.739
N19830 X37.228 Y195.745
N19835 X36.292 Y196.264
N19840 X36.282 Y196.27
N19845 X35.366 Y196.824
N19850 X35.356 Y196.83
N19855 X34.461 Y197.416
N19860 X34.451 Y197.423
N19865 X33.579 Y198.043
N19870 X33.57 Y198.049
N19875 X32.72 Y198.699
N19880 X32.711 Y198.707
N19885 X31.886 Y199.388
N19890 X31.877 Y199.395
N19895 X31.077 Y200.106
N19900 X31.068 Y200.114
N19905 X30.295 Y200.854
N19910 X30.287 Y200.862
N19915 X29.542 Y201.63
N19920 X29.534 Y201.639
N19925 X28.817 Y202.433
N19930 X28.809 Y202.442
N19935 X28.122 Y203.263
N19940 X28.115 Y203.272
N19945 X27.458 Y204.116
N19950 X27.451 Y204.125
N19955 X26.826 Y204.994
N19960 X26.819 Y205.004
N19965 X26.226 Y205.894
N19970 X26.22 Y205.904
N19975 X25.66 Y206.816
N19980 X25.654 Y206.826
N19985 X25.127 Y207.757
N19990 X25.122 Y207.767
N19995 X24.63 Y208.718
N20000 X24.625 Y208.729
N20005 X24.168 Y209.696
N20010 X24.163 Y209.706
N20015 X23.743 Y210.69
N20020 X23.738 Y210.701
N20025 X23.354 Y211.699
N20030 X23.35 Y211.71
N20035 X23.002 Y212.722
N20040 X22.998 Y212.733
N20045 X22.688 Y213.757
N20050 X22.685 Y213.769
N20055 X22.412 Y214.804
N20060 X22.409 Y214.815
N20065 X22.174 Y215.858
N20070 X22.172 Y215.869
N20075 X21.976 Y216.921
N20080 X21.974 Y216.933
N20085 X21.816 Y217.991
N20090 X21.815 Y218.
N20095 X21.752 Y218.527
N20100 X21.751 Y218.53
N20105 X21.732 Y218.698
N20110 Y218.703
N20115 X21.632 Y219.768
N20120 Y219.78
N20125 X21.571 Y220.848
N20130 Y220.86
N20135 X21.55 Y221.93
N20140 Y221.941
N20145 X21.568 Y223.01
N20150 Y223.022
N20155 X21.626 Y224.091
N20160 X21.622 Y224.116
N20165 X21.609 Y224.137
N20170 X21.589 Y224.152
N20175 X21.565 Y224.158
N20180 X21.501 Y224.162
N20185 X21.477 Y224.163 Z-6.345
N20190 X21.456 Y224.164 Z-6.331
N20195 X21.443 Y224.165 Z-6.311
N20200 X21.438 Z-6.286
N20205 Z7.35
N20210 X21.431 Y224.038
N20215 Z5.
N20220 Z1. F733.33
N20225 Z-12.636
N20230 X21.436 Y224.037 Z-12.661 F2200.
N20235 X21.45 Z-12.681
N20240 X21.47 Y224.035 Z-12.695
N20245 X21.495 Y224.034 Z-12.7
N20250 X21.558 Y224.031
N20255 X21.583 Y224.034
N20260 X21.605 Y224.047
N20265 X21.619 Y224.067
N20270 X21.626 Y224.091
N20275 X21.627 Y224.103
N20280 X21.723 Y225.168
N20285 X21.724 Y225.179
N20290 X21.86 Y226.24
N20295 X21.861 Y226.252
N20300 X22.035 Y227.308
N20305 X22.037 Y227.319
N20310 X22.25 Y228.368
N20315 X22.253 Y228.38
N20320 X22.504 Y229.42
N20325 X22.507 Y229.431
N20330 X22.796 Y230.461
N20335 X22.799 Y230.472
N20340 X23.125 Y231.491
N20345 X23.129 Y231.503
N20350 X23.493 Y232.509
N20355 X23.497 Y232.52
N20360 X23.897 Y233.512
N20365 X23.902 Y233.522
N20370 X24.338 Y234.499
N20375 X24.343 Y234.51
N20380 X24.815 Y235.47
N20385 X24.82 Y235.48
N20390 X25.327 Y236.423
N20395 X25.332 Y236.434
N20400 X25.873 Y237.357
N20405 X25.879 Y237.366
N20410 X26.453 Y238.269
N20415 X26.46 Y238.279
N20420 X27.067 Y239.16
N20425 X27.074 Y239.17
N20430 X27.713 Y240.028
N20435 X27.72 Y240.037
N20440 X28.39 Y240.872
N20445 X28.397 Y240.881
N20450 X29.097 Y241.69
N20455 X29.105 Y241.699
N20460 X29.834 Y242.482
N20465 X29.842 Y242.49
N20470 X30.6 Y243.246
N20475 X30.608 Y243.254
N20480 X31.393 Y243.982
N20485 X31.401 Y243.99
N20490 X32.212 Y244.688
N20495 X32.221 Y244.696
N20500 X33.057 Y245.364
N20505 X33.066 Y245.371
N20510 X33.926 Y246.008
N20515 X33.935 Y246.014
N20520 X34.818 Y246.62
N20525 X34.828 Y246.627
N20530 X35.732 Y247.199
N20535 X35.741 Y247.205
N20540 X36.666 Y247.744
N20545 X36.676 Y247.75
N20550 X37.62 Y248.255
N20555 X37.63 Y248.26
N20560 X38.591 Y248.73
N20565 X38.602 Y248.735
N20570 X39.58 Y249.17
N20575 X39.591 Y249.175
N20580 X40.584 Y249.573
N20585 X40.595 Y249.577
N20590 X41.602 Y249.939
N20595 X41.613 Y249.943
N20600 X42.633 Y250.266
N20605 X42.644 Y250.27
N20610 X43.675 Y250.557
N20615 X43.686 Y250.56
N20620 X44.727 Y250.809
N20625 X44.739 Y250.811
N20630 X45.788 Y251.022
N20635 X45.799 Y251.024
N20640 X46.856 Y251.196
N20645 X46.866 Y251.198
N20650 X47.794 Y251.317
N20655 X47.8 Y251.318
N20660 X586.734 Y311.537
N20665 G2 X587.073 Y311.32 I0.036 J-0.318
N20670 G1 X615.1 Y226.969
N20675 G2 X614.816 Y226.549 I-0.303 J-0.101
N20680 G1 X52.893 Y192.339
N20685 X52.887
N20690 X51.818 Y192.294
N20695 X51.806
N20700 X50.736 Y192.287
N20705 X50.724
N20710 X49.654 Y192.32
N20715 X49.643
N20720 X48.575 Y192.392
N20725 X48.563 Y192.393
N20730 X47.499 Y192.505
N20735 X47.487 Y192.507
N20740 X46.428 Y192.657
N20745 X46.416 Y192.658
N20750 X45.363 Y192.846
N20755 X45.351 Y192.849
N20760 X44.305 Y193.077
N20765 X44.294 Y193.079
N20770 X43.258 Y193.344
N20775 X43.246 Y193.348
N20780 X42.22 Y193.651
N20785 X42.209 Y193.654
N20790 X41.194 Y193.995
N20795 X41.183 Y193.999
N20800 X40.182 Y194.376
N20805 X40.171 Y194.38
N20810 X39.184 Y194.794
N20815 X39.173 Y194.799
N20820 X38.202 Y195.249
N20825 X38.192 Y195.254
N20830 X37.238 Y195.739
N20835 X37.228 Y195.745
N20840 X36.292 Y196.264
N20845 X36.282 Y196.27
N20850 X35.366 Y196.824
N20855 X35.356 Y196.83
N20860 X34.461 Y197.416
N20865 X34.451 Y197.423
N20870 X33.579 Y198.043
N20875 X33.57 Y198.049
N20880 X32.72 Y198.699
N20885 X32.711 Y198.707
N20890 X31.886 Y199.388
N20895 X31.877 Y199.395
N20900 X31.077 Y200.106
N20905 X31.068 Y200.114
N20910 X30.295 Y200.854
N20915 X30.287 Y200.862
N20920 X29.542 Y201.63
N20925 X29.534 Y201.639
N20930 X28.817 Y202.433
N20935 X28.809 Y202.442
N20940 X28.122 Y203.263
N20945 X28.115 Y203.272
