%
(CHARFINALFLOWER)
(T2  D=38.1 CR=0. TAPER=45DEG - ZMIN=-9.032 - CHAMFER MILL)
N10 G90 G94 G17 G91.1
N15 G21
(WHEN USING FUSION 360 FOR PERSONAL USE, THE FEEDRATE OF)
(RAPID MOVES IS REDUCED TO MATCH THE FEEDRATE OF CUTTING)
(MOVES, WHICH CAN INCREASE MACHINING TIME. UNRESTRICTED RAPID)
(MOVES ARE AVAILABLE WITH A FUSION 360 SUBSCRIPTION.)
N20 G53 G0 Z0.
(ABSTRACT)
N25 T2 M6
N30 S16000 M3
N35 G54
N40 G0 X61.013 Y20.97
N45 G43 Z15. H2
N50 G1 Z4. F889.
N55 Z-1.694
N60 X61.04 Y20.978 Z-1.721
N65 X61.084 Y20.993 Z-1.763
N70 X61.145 Y21.011 Z-1.817
N75 X61.303 Y21.038 Z-1.944
N80 X61.443 Y21.047 Z-2.051
N85 X61.582 Z-2.151
N90 X61.706 Y21.038 Z-2.234
N95 X61.728 Y21.036 Z-2.248
N100 X61.735 Y21.153 Z-2.151
N105 X61.764 Y21.339 Z-1.991
N110 X61.782 Y21.404 Z-1.932
N115 X61.807 Y21.476 Z-1.864
N120 X61.837 Y21.542 Z-1.796
N125 X61.85 Y21.567 Z-1.769
N130 X61.837 Y21.542 Z-1.796
N135 X61.807 Y21.476 Z-1.864
N140 X61.782 Y21.404 Z-1.932
N145 X61.764 Y21.339 Z-1.991
N150 X61.735 Y21.153 Z-2.151
N155 X61.728 Y21.036 Z-2.248
N160 X62.277 Y20.55 Z-2.304
N165 X62.607 Y20.262 Z-2.334
N170 X63.044 Y19.889 Z-2.38
N175 X63.561 Y19.455 Z-2.429
N180 X63.821 Y19.242 Z-2.457
N185 X64.54 Y18.663 Z-2.529
N190 X65.407 Y17.992 Z-2.622
N195 X65.543 Y17.889 Z-2.635
N200 X66.217 Y17.393 Z-2.71
N205 X66.571 Y17.136 Z-2.746
N210 X67.037 Y16.81 Z-2.802
N215 X67.624 Y16.405 Z-2.866
N220 X67.866 Y16.243 Z-2.896
N225 X68.174 Y16.04 Z-2.93
N230 X68.706 Y15.696 Z-2.995
N235 X69.269 Y15.346 Z-3.064
N240 X69.379 Y15.279 Z-3.078
N245 X69.564 Y15.368 Z-2.919
N250 X69.744 Y15.448 Z-2.771
N255 X69.919 Y15.519 Z-2.633
N260 X70.091 Y15.579 Z-2.506
N265 X70.282 Y15.639 Z-2.374
N270 X70.432 Y15.678 Z-2.278
N275 X70.579 Y15.709 Z-2.19
N280 X70.722 Y15.732 Z-2.112
N285 X70.861 Y15.746 Z-2.043
N290 X70.996 Y15.753 Z-1.984
N295 X71.106 Z-1.942
N300 X71.213 Y15.747 Z-1.907
N305 X71.318 Y15.735 Z-1.877
N310 X71.42 Y15.717 Z-1.854
N315 X71.52 Y15.693 Z-1.837
N320 X71.623 Y15.664 Z-1.827
N325 X71.707 Y15.634 Z-1.824
N330 X72.045 Y15.503 Z-1.822
N335 X72.43 Y15.345 Z-1.836
N340 X72.7 Y15.226 Z-1.854
N345 X73.156 Y15.025 Z-1.896
N350 X73.821 Y14.731 Z-1.97
N355 X74.127 Y14.605 Z-2.004
N360 X74.421 Y14.491 Z-2.03
N365 X75.013 Y14.264 Z-2.095
N370 X75.462 Y14.097 Z-2.151
N375 X75.612 Y14.044 Z-2.167
N380 X76.218 Y13.836 Z-2.241
N385 X76.458 Y13.757 Z-2.274
N390 X76.831 Y13.639 Z-2.32
N395 X77.452 Y13.452 Z-2.403
N400 X78.082 Y13.28 Z-2.488
N405 X78.474 Y13.179 Z-2.546
N410 X78.721 Y13.119 Z-2.578
N415 X79.368 Y12.971 Z-2.673
N420 X80.024 Y12.838 Z-2.771
N425 X80.511 Y12.753 Z-2.853
N430 X81.163 Y12.651 Z-2.956
N435 X81.529 Y12.592 Z-3.011
N440 X82.538 Y12.443 Z-3.147
N445 X83.27 Y12.348 Z-3.234
N450 X83.539 Y12.314 Z-3.267
N455 X84.363 Y12.227 Z-3.357
N460 X84.427 Y12.22 Z-3.364
N465 X85.49 Y12.138 Z-3.477
N470 X86.093 Y12.111 Z-3.537
N475 X86.523 Y12.098 Z-3.585
N480 X86.685 Y12.095 Z-3.601
N485 X87.001 Y12.094 Z-3.636
N490 X87.288 Y12.095 Z-3.665
N495 X87.37 Y12.096 Z-3.674
N500 X87.902 Y12.112 Z-3.733
N505 X88.461 Y12.143 Z-3.797
N510 X88.528 Y12.148 Z-3.804
N515 X88.943 Y12.183 Z-3.854
N520 X89.423 Y12.23 Z-3.91
N525 X89.618 Y12.252 Z-3.931
N530 X89.901 Y12.287 Z-3.964
N535 X90.144 Y12.321 Z-3.992
N540 X90.408 Y12.361 Z-4.025
N545 X90.571 Y12.384 Z-4.048
N550 X90.671 Y12.396 Z-4.064
N555 X91.201 Y12.471 Z-4.153
N560 X91.294 Y12.485 Z-4.17
N565 X91.73 Y12.565 Z-4.241
N570 X91.934 Y12.605 Z-4.277
N575 X92.254 Y12.677 Z-4.326
N580 X92.564 Y12.751 Z-4.378
N585 X92.777 Y12.808 Z-4.41
N590 X93.183 Y12.922 Z-4.475
N595 X93.294 Y12.957 Z-4.491
N600 X93.79 Y13.118 Z-4.566
N605 X94.315 Y13.311 Z-4.642
N610 X94.382 Y13.336 Z-4.652
N615 X94.816 Y13.516 Z-4.712
N620 X94.915 Y13.558 Z-4.727
N625 X95.31 Y13.738 Z-4.779
N630 X95.521 Y13.838 Z-4.809
N635 X95.796 Y13.978 Z-4.842
N640 X96.065 Y14.119 Z-4.878
N645 X96.274 Y14.236 Z-4.901
N650 X96.591 Y14.418 Z-4.941
N655 X96.742 Y14.51 Z-4.956
N660 X97.131 Y14.754 Z-5.001
N665 X97.225 Y14.816 Z-5.01
N670 X97.449 Y14.959 Z-5.041
N675 X97.663 Y15.093 Z-5.074
N680 X98.005 Y15.312 Z-5.132
N685 X98.124 Y15.392 Z-5.149
N690 X98.472 Y15.633 Z-5.206
N695 X98.575 Y15.707 Z-5.221
N700 X98.927 Y15.97 Z-5.277
N705 X99.014 Y16.038 Z-5.289
N710 X99.369 Y16.32 Z-5.343
N715 X99.445 Y16.384 Z-5.353
N720 X99.793 Y16.683 Z-5.405
N725 X99.863 Y16.746 Z-5.414
N730 X100.206 Y17.06 Z-5.463
N735 X100.269 Y17.121 Z-5.47
N740 X100.604 Y17.45 Z-5.516
N745 X100.665 Y17.513 Z-5.523
N750 X100.985 Y17.85 Z-5.565
N755 X101.046 Y17.917 Z-5.572
N760 X101.352 Y18.262 Z-5.61
N765 X101.414 Y18.335 Z-5.617
N770 X101.703 Y18.685 Z-5.651
N775 X101.768 Y18.766 Z-5.657
N780 X102.036 Y19.115 Z-5.687
N785 X102.108 Y19.212 Z-5.693
N790 X102.354 Y19.555 Z-5.719
N795 X102.431 Y19.668 Z-5.725
N800 X102.656 Y20.006 Z-5.747
N805 X102.74 Y20.137 Z-5.752
N810 X102.941 Y20.464 Z-5.77
N815 X103.032 Y20.619 Z-5.775
N820 X103.208 Y20.927 Z-5.789
N825 X103.385 Y21.259 Z-5.798
N830 X103.46 Y21.409 Z-5.806
N835 X103.561 Y21.631 Z-5.817
N840 X103.657 Y21.856 Z-5.835
N845 X103.747 Y22.084 Z-5.859
N850 X103.986 Y22.778 Z-5.935
N855 X104.072 Y23.057 Z-5.964
N860 X104.197 Y23.486 Z-6.014
N865 X104.242 Y23.653 Z-6.031
N870 X104.304 Y23.891 Z-6.057
N875 X104.381 Y24.204 Z-6.095
N880 X104.447 Y24.495 Z-6.125
N885 X104.493 Y24.706 Z-6.15
N890 X104.54 Y24.938 Z-6.178
N895 X104.612 Y25.317 Z-6.219
N900 X104.675 Y25.679 Z-6.263
N905 X104.743 Y26.116 Z-6.311
N910 X104.788 Y26.433 Z-6.349
N915 X104.844 Y26.889 Z-6.398
N920 X104.88 Y27.198 Z-6.435
N925 X104.922 Y27.632 Z-6.481
N930 X104.953 Y27.97 Z-6.519
N935 X104.981 Y28.345 Z-6.557
N940 X104.995 Y28.547 Z-6.579
N945 X105.005 Y28.75 Z-6.605
N950 X105.015 Y29.543 Z-6.714
N955 X105.016 Y30.342 Z-6.816
N960 X105.007 Y31.148 Z-6.91
N965 X104.991 Y31.957 Z-6.997
N970 X104.966 Y32.766 Z-7.076
N975 X104.936 Y33.52 Z-7.143
N980 X104.901 Y34.136 Z-7.186
N985 X104.861 Y34.984 Z-7.254
N990 X104.828 Y35.853 Z-7.332
N995 X104.805 Y36.735 Z-7.422
N1000 X104.794 Y37.631 Z-7.524
N1005 Y38.549 Z-7.641
N1010 X104.807 Y39.474 Z-7.771
N1015 X104.812 Y39.694 Z-7.804
N1020 X104.835 Y40.434 Z-7.92
N1025 X104.88 Y41.393 Z-8.083
N1030 X104.895 Y41.649 Z-8.129
N1035 X104.945 Y42.39 Z-8.269
N1040 X104.966 Y42.667 Z-8.324
N1045 X104.993 Y42.988 Z-8.391
N1050 X105.053 Y43.235 Z-8.405
N1055 X105.093 Y43.389 Z-8.412
N1060 X105.203 Y43.798 Z-8.436
N1065 X105.367 Y44.362 Z-8.464
N1070 X105.463 Y44.664 Z-8.479
N1075 X105.532 Y44.873 Z-8.491
N1080 X105.708 Y45.381 Z-8.513
N1085 X105.813 Y45.657 Z-8.523
N1090 X105.895 Y45.867 Z-8.534
N1095 X106.086 Y46.331 Z-8.548
N1100 X106.156 Y46.491 Z-8.55
N1105 X106.283 Y46.769 Z-8.559
N1110 X106.485 Y47.186 Z-8.565
N1115 X106.605 Y47.42 Z-8.563
N1120 X106.711 Y47.618 Z-8.564
N1125 X106.897 Y47.945 Z-8.561
N1130 X107.105 Y48.29 Z-8.548
N1135 X107.35 Y48.662 Z-8.531
N1140 X107.43 Y48.776 Z-8.524
N1145 X107.585 Y48.989 Z-8.506
N1150 X107.684 Y49.121 Z-8.493
N1155 X107.748 Y49.198 Z-8.482
N1160 X107.894 Y49.36 Z-8.456
N1165 X107.985 Y49.457 Z-8.438
N1170 X108.107 Y49.581 Z-8.412
N1175 X108.269 Y49.738 Z-8.372
N1180 X108.374 Y49.836 Z-8.345
N1185 X108.515 Y49.959 Z-8.308
N1190 X108.662 Y50.079 Z-8.269
N1195 X108.813 Y50.196 Z-8.227
N1200 X108.969 Y50.312 Z-8.18
N1205 X109.128 Y50.425 Z-8.129
N1210 X109.29 Y50.533 Z-8.076
N1215 X109.458 Y50.636 Z-8.022
N1220 X109.629 Y50.735 Z-7.964
N1225 X109.804 Y50.831 Z-7.902
N1230 X110.078 Y50.974 Z-7.8
N1235 X110.386 Y51.123 Z-7.692
N1240 X110.656 Y51.247 Z-7.596
N1245 X110.933 Y51.369 Z-7.495
N1250 X111.238 Y51.492 Z-7.387
N1255 X111.508 Y51.593 Z-7.291
N1260 X111.807 Y51.701 Z-7.183
N1265 X112.151 Y51.812 Z-7.06
N1270 X112.427 Y51.894 Z-6.963
N1275 X112.747 Y51.985 Z-6.847
N1280 X112.906 Y52.026 Z-6.79
N1285 X113.075 Y52.067 Z-6.731
N1290 X113.41 Y52.142 Z-6.614
N1295 X113.753 Y52.213 Z-6.491
N1300 X114.099 Y52.273 Z-6.371
N1305 X114.532 Y52.338 Z-6.219
N1310 X114.886 Y52.382 Z-6.097
N1315 X115.18 Y52.41 Z-5.997
N1320 X115.55 Y52.441 Z-5.868
N1325 X115.926 Y52.459 Z-5.743
N1330 X116.341 Y52.471 Z-5.603
N1335 X116.503 Y52.473 Z-5.548
N1340 X116.665 Y52.472 Z-5.496
N1345 X117.219 Y52.455 Z-5.312
N1350 X117.533 Y52.438 Z-5.212
N1355 X118.257 Y52.373 Z-4.983
N1360 X118.38 Y52.356 Z-4.945
N1365 X119.048 Y52.259 Z-4.74
N1370 X119.207 Y52.228 Z-4.692
N1375 X119.84 Y52.099 Z-4.507
N1380 X119.945 Y52.073 Z-4.475
N1385 X120.343 Y51.97 Z-4.361
N1390 X120.628 Y51.893 Z-4.283
N1395 X121.014 Y51.783 Z-4.165
N1400 X121.497 Y51.635 Z-4.024
N1405 X121.968 Y51.474 Z-3.885
N1410 X122.182 Y51.397 Z-3.824
N1415 X122.423 Y51.306 Z-3.753
N1420 X122.87 Y51.129 Z-3.627
N1425 X122.945 Y51.098 Z-3.607
N1430 X123.303 Y50.944 Z-3.505
N1435 X123.724 Y50.755 Z-3.391
N1440 X124.135 Y50.556 Z-3.279
N1445 X124.538 Y50.352 Z-3.173
N1450 X124.954 Y50.128 Z-3.065
N1455 X125.178 Y50.003 Z-3.01
N1460 X125.71 Y49.693 Z-2.873
N1465 X125.901 Y49.576 Z-2.828
N1470 X126.432 Y49.24 Z-2.696
N1475 X126.611 Y49.121 Z-2.655
N1480 X127.129 Y48.767 Z-2.53
N1485 X127.31 Y48.638 Z-2.49
N1490 X127.798 Y48.28 Z-2.376
N1495 X127.993 Y48.131 Z-2.334
N1500 X128.446 Y47.776 Z-2.229
N1505 X128.664 Y47.6 Z-2.184
N1510 X129.072 Y47.261 Z-2.092
N1515 X129.321 Y47.047 Z-2.04
N1520 X129.678 Y46.734 Z-1.961
N1525 X129.966 Y46.475 Z-1.903
N1530 X130.266 Y46.198 Z-1.837
N1535 X130.596 Y45.884 Z-1.77
N1540 X130.833 Y45.654 Z-1.719
N1545 X131.214 Y45.277 Z-1.642
N1550 X131.386 Y45.104 Z-1.605
N1555 X131.905 Y44.566 Z-1.499
N1560 X132.051 Y44.417 Z-1.465
N1565 X132.185 Y44.27 Z-1.439
N1570 X132.426 Y43.999 Z-1.397
N1575 X132.478 Y43.944 Z-1.388
N1580 X132.53 Y43.879 Z-1.37
N1585 X132.573 Y43.823 Z-1.349
N1590 X132.618 Y43.756 Z-1.318
N1595 X132.66 Y43.69 Z-1.278
N1600 X132.697 Y43.612 Z-1.225
N1605 X132.734 Y43.53 Z-1.157
N1610 X132.785 Y43.352 Z-1.001
N1615 Z5.
N1620 X130.863 Y18.72
N1625 Z4.
N1630 Z-4.43
N1635 X130.887 Y18.818 Z-4.365
N1640 X130.963 Y19.108 Z-4.178
N1645 X131.02 Y19.301 Z-4.057
N1650 X131.08 Y19.489 Z-3.942
N1655 X131.145 Y19.672 Z-3.834
N1660 X131.213 Y19.849 Z-3.732
N1665 X131.285 Y20.021 Z-3.637
N1670 X131.389 Y20.252 Z-3.514
N1675 X131.461 Y20.4 Z-3.438
N1680 X131.549 Y20.556 Z-3.357
N1685 X131.64 Y20.706 Z-3.282
N1690 X131.736 Y20.851 Z-3.214
N1695 X131.872 Y21.046 Z-3.127
N1700 X131.966 Y21.169 Z-3.077
N1705 X132.063 Y21.288 Z-3.031
N1710 X132.164 Y21.402 Z-2.992
N1715 X132.267 Y21.511 Z-2.958
N1720 X132.323 Y21.567 Z-2.942
N1725 X132.485 Y21.722 Z-2.902
N1730 X132.61 Y21.83 Z-2.88
N1735 X132.739 Y21.931 Z-2.866
N1740 X132.872 Y22.027 Z-2.859
N1745 X133.554 Y22.496 Z-2.84
N1750 X134.639 Y23.236 Z-2.804
N1755 X136.009 Y24.147 Z-2.763
N1760 X136.379 Y24.389 Z-2.75
N1765 X137.249 Y24.949 Z-2.726
N1770 X138.143 Y25.516 Z-2.696
N1775 X138.495 Y25.736 Z-2.687
N1780 X139.042 Y26.071 Z-2.668
N1785 X139.752 Y26.501 Z-2.649
N1790 X140.849 Y27.145 Z-2.615
N1795 X141.764 Y27.664 Z-2.587
N1800 X142.298 Y27.96 Z-2.574
N1805 X142.687 Y28.171 Z-2.56
N1810 X143.587 Y28.651 Z-2.535
N1815 X144.556 Y29.144 Z-2.505
N1820 X144.889 Y29.311 Z-2.498
N1825 X145.504 Y29.608 Z-2.477
N1830 X146.204 Y29.939 Z-2.459
N1835 X146.46 Y30.056 Z-2.45
N1840 X147.426 Y30.487 Z-2.422
N1845 X148.206 Y30.814 Z-2.405
N1850 X148.787 Y31.052 Z-2.387
N1855 X149.484 Y31.323 Z-2.369
N1860 X150.181 Y31.582 Z-2.351
N1865 X150.887 Y31.829 Z-2.336
N1870 X151.597 Y32.064 Z-2.322
N1875 X152.32 Y32.277 Z-2.302
N1880 X152.582 Y32.35 Z-2.299
N1885 X153.047 Y32.473 Z-2.286
N1890 X153.57 Y32.603 Z-2.28
N1895 X153.783 Y32.652 Z-2.274
N1900 X154.523 Y32.81 Z-2.265
N1905 X155.061 Y32.908 Z-2.261
N1910 X155.272 Y32.943 Z-2.257
N1915 X155.558 Y32.987
N1920 X156.028 Y33.052 Z-2.252
N1925 X156.553 Y33.108
N1930 X156.791 Y33.131 Z-2.249
N1935 X157.049 Y33.15 Z-2.251
N1940 X157.545 Y33.179 Z-2.249
N1945 X158.039 Y33.191 Z-2.251
N1950 X158.336 Y33.193 Z-2.249
N1955 X158.531 Y33.191 Z-2.251
N1960 X159.023 Y33.176 Z-2.252
N1965 X159.512 Y33.15 Z-2.249
N1970 X159.732 Y33.135 Z-2.244
N1975 X160.21 Y33.086 Z-2.239
N1980 X160.383 Y33.065 Z-2.235
N1985 X160.441 Y33.058 Z-2.234
N1990 X160.899 Y32.987 Z-2.228
N1995 X161.028 Y32.964 Z-2.224
N2000 X161.597 Y32.85 Z-2.217
N2005 X161.666 Y32.834 Z-2.214
N2010 X162.282 Y32.68 Z-2.206
N2015 X162.917 Y32.49 Z-2.196
N2020 X163.529 Y32.278 Z-2.187
N2025 X163.56 Y32.267
N2030 X164.131 Y32.041 Z-2.181
N2035 X164.295 Y31.973 Z-2.182
N2040 X164.723 Y31.781 Z-2.176
N2045 X164.949 Y31.675 Z-2.178
N2050 X165.303 Y31.499 Z-2.174
N2055 X165.593 Y31.348 Z-2.178
N2060 X165.873 Y31.195 Z-2.176
N2065 X166.227 Y30.993 Z-2.182
N2070 X166.431 Y30.871
N2075 X166.848 Y30.611 Z-2.191
N2080 X166.977 Y30.527 Z-2.192
N2085 X167.457 Y30.203 Z-2.206
N2090 X167.512 Y30.165 Z-2.207
N2095 X168.034 Y29.784 Z-2.227
N2100 X168.54 Y29.388 Z-2.251
N2105 X168.613 Y29.33 Z-2.255
N2110 X168.706 Y29.253 Z-2.26
N2115 X168.783 Y29.183 Z-2.27
N2120 X168.854 Y29.114 Z-2.281
N2125 X168.929 Y29.039 Z-2.295
N2130 X169.002 Y28.96 Z-2.313
N2135 X169.069 Y28.885 Z-2.333
N2140 X169.146 Y28.794 Z-2.358
N2145 X169.192 Y28.734 Z-2.376
N2150 X169.295 Y28.591 Z-2.423
N2155 X169.377 Y28.47 Z-2.467
N2160 X169.454 Y28.343 Z-2.517
N2165 X169.504 Y28.255 Z-2.554
N2170 X169.571 Y28.132 Z-2.608
N2175 X169.605 Y28.068 Z-2.638
N2180 X169.676 Y27.931 Z-2.711
N2185 X169.769 Y27.756 Z-2.82
N2190 X169.854 Y27.602 Z-2.925
N2195 X169.942 Y27.445 Z-3.043
N2200 X170.034 Y27.278 Z-3.177
N2205 X170.135 Y27.097 Z-3.331
N2210 X170.209 Y26.967 Z-3.447
N2215 X170.341 Y26.74 Z-3.656
N2220 X170.447 Y26.552 Z-3.835
N2225 X170.553 Y26.355 Z-4.021
N2230 X170.659 Y26.149 Z-4.217
N2235 X170.857 Y25.748 Z-4.604
N2240 X170.961 Y25.527 Z-4.819
N2245 X171.225 Y24.949 Z-5.384
N2250 X171.371 Y24.619 Z-5.711
N2255 X171.518 Y24.274 Z-6.052
N2260 X171.934 Y23.275 Z-7.043
N2265 X172.115 Y22.848 Z-7.468
N2270 X172.253 Y22.536 Z-7.782
N2275 X171.391 Y22.602 Z-7.097
N2280 X171.073 Y22.626 Z-6.838
N2285 X170.736 Y22.646 Z-6.561
N2290 X170.598 Y22.652 Z-6.445
N2295 X170.367 Y22.664 Z-6.25
N2300 X170.13 Y22.678 Z-6.044
N2305 X169.795 Y22.696 Z-5.744
N2310 X169.717 Y22.703 Z-5.672
N2315 X169.641 Y22.717 Z-5.597
N2320 X169.402 Y22.754 Z-5.364
N2325 X169.139 Y22.781 Z-5.104
N2330 X168.664 Y22.796 Z-4.632
N2335 X168.303 Y22.827 Z-4.27
N2340 X168.664 Y22.796 Z-4.632
N2345 X169.139 Y22.781 Z-5.104
N2350 X169.402 Y22.754 Z-5.364
N2355 X169.641 Y22.717 Z-5.597
N2360 X169.717 Y22.703 Z-5.672
N2365 X169.795 Y22.696 Z-5.744
N2370 X170.13 Y22.678 Z-6.044
N2375 X170.367 Y22.664 Z-6.25
N2380 X170.598 Y22.652 Z-6.445
N2385 X170.736 Y22.646 Z-6.561
N2390 X171.073 Y22.626 Z-6.838
N2395 X171.391 Y22.602 Z-7.097
N2400 X172.253 Y22.536 Z-7.782
N2405 X172.936 Y22.172 Z-8.152
N2410 X173.544 Y21.839 Z-8.49
N2415 X173.558 Y21.831 Z-8.498
N2420 X173.83 Y21.85 Z-8.476
N2425 X174.103 Y21.863 Z-8.46
N2430 X174.355 Y21.866 Z-8.444
N2435 X174.476 Y21.864 Z-8.435
N2440 X174.522 Y21.862 Z-8.43
N2445 X174.604 Y21.852 Z-8.416
N2450 X174.68 Y21.841 Z-8.4
N2455 X174.774 Y21.825 Z-8.379
N2460 X174.887 Y21.803 Z-8.351
N2465 X175.024 Y21.773 Z-8.314
N2470 X175.181 Y21.733 Z-8.269
N2475 X175.353 Y21.683 Z-8.219
N2480 X175.554 Y21.62 Z-8.156
N2485 X175.854 Y21.52 Z-8.057
N2490 X176.015 Y21.462 Z-8.002
N2495 X176.275 Y21.362 Z-7.913
N2500 X176.512 Y21.264 Z-7.83
N2505 X176.942 Y21.076 Z-7.671
N2510 X177.147 Y20.982 Z-7.599
N2515 X177.715 Y20.703 Z-7.389
N2520 X177.921 Y20.591 Z-7.309
N2525 X178.404 Y20.322 Z-7.124
N2530 X178.675 Y20.161 Z-7.018
N2535 X179.154 Y19.869 Z-6.836
N2540 X179.378 Y19.724 Z-6.749
N2545 X179.897 Y19.381 Z-6.552
N2550 X180.036 Y19.283 Z-6.498
N2555 X180.634 Y18.855 Z-6.271
N2560 X181.097 Y18.503 Z-6.095
N2565 X181.362 Y18.295 Z-5.997
N2570 X181.803 Y17.936 Z-5.83
N2575 X182.082 Y17.703 Z-5.727
N2580 X182.334 Y17.486 Z-5.631
N2585 X182.835 Y17.042 Z-5.446
N2590 X183.318 Y16.594 Z-5.267
N2595 X183.492 Y16.429 Z-5.204
N2600 X183.779 Y16.151 Z-5.097
N2605 X184.219 Y15.715 Z-4.936
N2610 X184.714 Y15.205 Z-4.755
N2615 X184.857 Y15.051 Z-4.705
N2620 X185.283 Y14.587 Z-4.553
N2625 X185.518 Y14.326 Z-4.471
N2630 X185.836 Y13.968 Z-4.356
N2635 X186.167 Y13.588 Z-4.24
N2640 X186.381 Y13.338 Z-4.162
N2645 X186.912 Y12.706 Z-3.974
N2650 X187.456 Y12.046 Z-3.787
N2655 X187.943 Y11.432 Z-3.617
N2660 X188.442 Y10.792 Z-3.448
N2665 X188.69 Y10.468 Z-3.367
N2670 X188.932 Y10.145 Z-3.284
N2675 X189.407 Y9.5 Z-3.127
N2680 X189.522 Y9.341 Z-3.091
N2685 X189.91 Y8.789 Z-2.958
N2690 X190.316 Y8.183 Z-2.811
N2695 X190.637 Y7.678 Z-2.688
N2700 X190.741 Y7.509 Z-2.644
N2705 X190.974 Y7.117 Z-2.546
N2710 X191.139 Y6.824 Z-2.466
N2715 X191.297 Y6.539 Z-2.392
N2720 X191.501 Y6.149 Z-2.282
N2725 X191.643 Y5.862 Z-2.202
N2730 X191.728 Y5.702 Z-2.161
N2735 X191.784 Y5.603 Z-2.139
N2740 X191.886 Y5.437 Z-2.107
N2745 X191.976 Y5.304 Z-2.092
N2750 X192.036 Y5.221 Z-2.084
N2755 X192.108 Y5.13 Z-2.082
N2760 X192.227 Y4.992 Z-2.085
N2765 X192.289 Y4.927 Z-2.091
N2770 X192.354 Y4.864 Z-2.101
N2775 X192.4 Y4.822 Z-2.111
N2780 X192.463 Y4.761 Z-2.129
N2785 X192.507 Y4.717 Z-2.144
N2790 X192.551 Y4.673 Z-2.163
N2795 X192.596 Y4.628 Z-2.185
N2800 X192.642 Y4.581 Z-2.211
N2805 X192.69 Y4.533 Z-2.241
N2810 X192.741 Y4.482 Z-2.276
N2815 X192.795 Y4.428 Z-2.316
N2820 X192.853 Y4.37 Z-2.362
N2825 X192.99 Y4.227 Z-2.484
N2830 X193.11 Y4.098 Z-2.605
N2835 X193.173 Y4.031 Z-2.671
N2840 X193.305 Y3.891 Z-2.818
N2845 X193.512 Y3.669 Z-3.064
N2850 X193.712 Y3.45 Z-3.317
N2855 X193.892 Y3.258 Z-3.547
N2860 X194.191 Y2.958 Z-3.924
N2865 X194.393 Y2.753 Z-4.185
N2870 X194.622 Y2.526 Z-4.481
N2875 X195.036 Y2.134 Z-5.01
N2880 X195.266 Y1.915 Z-5.309
N2885 X195.501 Y1.685 Z-5.619
N2890 X196.148 Y1.047 Z-6.478
N2895 X196.881 Y0.306 Z-7.461
N2900 X196.459 Y0.392 Z-7.046
N2905 X195.93 Y0.495 Z-6.531
N2910 X195.423 Y0.586 Z-6.04
N2915 X194.938 Y0.666 Z-5.574
N2920 X194.581 Y0.716 Z-5.233
N2925 X194.237 Y0.759 Z-4.906
N2930 X193.906 Y0.795 Z-4.595
N2935 X193.589 Y0.825 Z-4.298
N2940 X193.258 Y0.853 Z-3.993
N2945 X192.833 Y0.893 Z-3.608
N2950 X192.676 Y0.908 Z-3.468
N2955 X192.339 Y0.932 Z-3.174
N2960 X192.169 Y0.943 Z-3.031
N2965 X192.009 Y0.954 Z-2.9
N2970 X191.853 Y0.964 Z-2.777
N2975 X191.655 Y0.974 Z-2.627
N2980 X191.493 Y0.98 Z-2.509
N2985 X191.353 Y0.987 Z-2.413
N2990 X191.232 Y0.994 Z-2.336
N2995 X191.086 Y0.998 Z-2.25
N3000 X190.986 Y0.999 Z-2.195
N3005 X190.901 Y1.001 Z-2.152
N3010 X190.799 Y1.005 Z-2.107
N3015 X190.678 Y1.006 Z-2.059
N3020 X190.544 Z-2.016
N3025 X190.463 Y1.008 Z-1.996
N3030 X190.356 Z-1.976
N3035 X190.274 Y1.007 Z-1.964
N3040 X190.183 Y1.008 Z-1.958
N3045 X190.069 Y1.006 Z-1.957
N3050 X189.982 Y1.005 Z-1.961
N3055 X189.937 Z-1.966
N3060 X189.817 Y1.001 Z-1.984
N3065 X189.71 Y0.998 Z-2.006
N3070 X189.583 Y0.993 Z-2.04
N3075 X189.465 Y0.991 Z-2.074
N3080 X189.192 Y0.995 Z-2.16
N3085 X189.14 Y0.996 Z-2.177
N3090 X188.604 Y1.032 Z-2.357
N3095 X188.369 Y1.045 Z-2.428
N3100 X188.08 Y1.066 Z-2.52
N3105 X187.561 Y1.111 Z-2.679
N3110 X187.14 Y1.154 Z-2.803
N3115 X186.542 Y1.226 Z-2.978
N3120 X186.041 Y1.294 Z-3.118
N3125 X185.543 Y1.371 Z-3.255
N3130 X185.049 Y1.454 Z-3.387
N3135 X184.712 Y1.515 Z-3.474
N3140 X184.07 Y1.643 Z-3.641
N3145 X183.584 Y1.746 Z-3.762
N3150 X183.099 Y1.86 Z-3.883
N3155 X182.629 Y1.976 Z-3.997
N3160 X182.374 Y2.042 Z-4.056
N3165 X181.652 Y2.241 Z-4.232
N3170 X181.174 Y2.38 Z-4.342
N3175 X180.693 Y2.529 Z-4.46
N3180 X179.97 Y2.765 Z-4.628
N3185 X179.736 Y2.844 Z-4.685
N3190 X179.334 Y2.987 Z-4.779
N3195 X178.784 Y3.188 Z-4.914
N3200 X178.12 Y3.446 Z-5.075
N3205 X177.833 Y3.56 Z-5.148
N3210 X177.508 Y3.694 Z-5.228
N3215 X176.892 Y3.956 Z-5.386
N3220 X176.276 Y4.232 Z-5.547
N3225 X176.181 Y4.276 Z-5.573
N3230 X175.658 Y4.52 Z-5.715
N3235 X175.034 Y4.823 Z-5.892
N3240 X174.404 Y5.143 Z-6.076
N3245 X174.133 Y5.285 Z-6.159
N3250 X173.781 Y5.478 Z-6.261
N3255 X173.311 Y5.744 Z-6.405
N3260 X173.013 Y5.92 Z-6.494
N3265 X172.542 Y6.209 Z-6.639
N3270 X172.158 Y6.457 Z-6.759
N3275 X171.899 Y6.628 Z-6.838
N3280 X171.416 Y6.962 Z-6.991
N3285 X171.124 Y7.172 Z-7.083
N3290 X170.713 Y7.48 Z-7.214
N3295 X170.509 Y7.64 Z-7.279
N3300 X170.057 Y8.005 Z-7.425
N3305 X169.741 Y8.274 Z-7.528
N3310 X169.451 Y8.53 Z-7.622
N3315 X169.153 Y8.805 Z-7.72
N3320 X169.042 Y8.912 Z-7.755
N3325 X168.876 Y9.065 Z-7.804
N3330 X168.694 Y9.243 Z-7.859
N3335 X168.488 Y9.455 Z-7.925
N3340 X168.37 Y9.58 Z-7.965
N3345 X168.164 Y9.814 Z-8.037
N3350 X167.925 Y10.103 Z-8.126
N3355 X167.727 Y10.362 Z-8.204
N3360 X167.657 Y10.46 Z-8.233
N3365 X167.882 Y10.812 Z-7.897
N3370 X168.13 Y11.201 Z-7.536
N3375 X168.352 Y11.55 Z-7.223
N3380 X168.467 Y11.735 Z-7.062
N3385 X168.578 Y11.913 Z-6.91
N3390 X168.687 Y12.088 Z-6.764
N3395 X168.883 Y12.404 Z-6.511
N3400 X169.032 Y12.65 Z-6.322
N3405 X169.176 Y12.885 Z-6.151
N3410 X169.337 Y13.157 Z-5.962
N3415 X169.418 Y13.292 Z-5.874
N3420 X169.496 Y13.424 Z-5.79
N3425 X169.643 Y13.675 Z-5.641
N3430 X169.71 Y13.791 Z-5.575
N3435 X169.777 Y13.909 Z-5.513
N3440 X169.847 Y14.029 Z-5.451
N3445 X169.982 Y14.267 Z-5.341
N3450 X170.095 Y14.469 Z-5.256
N3455 X170.153 Y14.574 Z-5.217
N3460 X170.272 Y14.79 Z-5.144
N3465 X170.337 Y14.91 Z-5.109
N3470 X170.403 Y15.032 Z-5.077
N3475 X170.471 Y15.158 Z-5.049
N3480 X170.541 Y15.289 Z-5.025
N3485 X170.596 Y15.393 Z-5.009
N3490 X170.652 Y15.501 Z-4.995
N3495 X170.709 Y15.61 Z-4.985
N3500 X170.768 Y15.723 Z-4.978
N3505 X170.84 Y15.863 Z-4.975
N3510 X170.881 Y15.943 Z-4.976
N3515 X170.948 Y16.077 Z-4.98
N3520 X171.016 Y16.213 Z-4.991
N3525 X171.086 Y16.352 Z-5.007
N3530 X171.159 Y16.498 Z-5.031
N3535 X171.212 Y16.605 Z-5.052
N3540 X171.279 Y16.744 Z-5.082
N3545 X171.348 Y16.886 Z-5.119
N3550 X171.418 Y17.032 Z-5.163
N3555 X171.492 Y17.183 Z-5.215
N3560 X171.546 Y17.298 Z-5.256
N3565 X171.62 Y17.458 Z-5.319
N3570 X171.696 Y17.62 Z-5.39
N3575 X171.774 Y17.787 Z-5.468
N3580 X171.855 Y17.96 Z-5.556
N3585 X171.913 Y18.088 Z-5.624
N3590 X172.004 Y18.29 Z-5.736
N3595 X172.096 Y18.494 Z-5.857
N3600 X172.19 Y18.703 Z-5.988
N3605 X172.288 Y18.921 Z-6.132
N3610 X172.419 Y19.219 Z-6.337
N3615 X172.545 Y19.511 Z-6.547
N3620 X172.609 Y19.657 Z-6.657
N3625 X172.737 Y19.95 Z-6.883
N3630 X172.865 Y20.246 Z-7.12
N3635 X172.995 Y20.546 Z-7.367
N3640 X173.127 Y20.849 Z-7.625
N3645 X173.261 Y21.157 Z-7.893
N3650 X173.398 Y21.472 Z-8.172
N3655 X173.558 Y21.831 Z-8.498
N3660 X173.398 Y21.472 Z-8.172
N3665 X173.261 Y21.157 Z-7.893
N3670 X173.127 Y20.849 Z-7.625
N3675 X172.995 Y20.546 Z-7.367
N3680 X172.865 Y20.246 Z-7.12
N3685 X172.737 Y19.95 Z-6.883
N3690 X172.609 Y19.657 Z-6.657
N3695 X172.545 Y19.511 Z-6.547
N3700 X172.419 Y19.219 Z-6.337
N3705 X172.288 Y18.921 Z-6.132
N3710 X172.19 Y18.703 Z-5.988
N3715 X172.096 Y18.494 Z-5.857
N3720 X172.004 Y18.29 Z-5.736
N3725 X171.913 Y18.088 Z-5.624
N3730 X171.855 Y17.96 Z-5.556
N3735 X171.774 Y17.787 Z-5.468
N3740 X171.696 Y17.62 Z-5.39
N3745 X171.62 Y17.458 Z-5.319
N3750 X171.546 Y17.298 Z-5.256
N3755 X171.492 Y17.183 Z-5.215
N3760 X171.418 Y17.032 Z-5.163
N3765 X171.348 Y16.886 Z-5.119
N3770 X171.279 Y16.744 Z-5.082
N3775 X171.212 Y16.605 Z-5.052
N3780 X171.159 Y16.498 Z-5.031
N3785 X171.086 Y16.352 Z-5.007
N3790 X171.016 Y16.213 Z-4.991
N3795 X170.948 Y16.077 Z-4.98
N3800 X170.881 Y15.943 Z-4.976
N3805 X170.84 Y15.863 Z-4.975
N3810 X170.768 Y15.723 Z-4.978
N3815 X170.709 Y15.61 Z-4.985
N3820 X170.652 Y15.501 Z-4.995
N3825 X170.596 Y15.393 Z-5.009
N3830 X170.541 Y15.289 Z-5.025
N3835 X170.471 Y15.158 Z-5.049
N3840 X170.403 Y15.032 Z-5.077
N3845 X170.337 Y14.91 Z-5.109
N3850 X170.272 Y14.79 Z-5.144
N3855 X170.153 Y14.574 Z-5.217
N3860 X170.095 Y14.469 Z-5.256
N3865 X169.982 Y14.267 Z-5.341
N3870 X169.847 Y14.029 Z-5.451
N3875 X169.777 Y13.909 Z-5.513
N3880 X169.71 Y13.791 Z-5.575
N3885 X169.643 Y13.675 Z-5.641
N3890 X169.496 Y13.424 Z-5.79
N3895 X169.418 Y13.292 Z-5.874
N3900 X169.337 Y13.157 Z-5.962
N3905 X169.176 Y12.885 Z-6.151
N3910 X169.032 Y12.65 Z-6.322
N3915 X168.883 Y12.404 Z-6.511
N3920 X168.687 Y12.088 Z-6.764
N3925 X168.578 Y11.913 Z-6.91
N3930 X168.467 Y11.735 Z-7.062
N3935 X168.352 Y11.55 Z-7.223
N3940 X168.13 Y11.201 Z-7.536
N3945 X167.882 Y10.812 Z-7.897
N3950 X167.657 Y10.46 Z-8.233
N3955 X167.469 Y10.526 Z-8.161
N3960 X167.166 Y10.643 Z-8.043
N3965 X166.875 Y10.768 Z-7.93
N3970 X166.538 Y10.925 Z-7.791
N3975 X166.311 Y11.032 Z-7.691
N3980 X166.197 Y11.088 Z-7.638
N3985 X166.026 Y11.17 Z-7.557
N3990 X165.86 Y11.252 Z-7.475
N3995 X165.735 Y11.313 Z-7.411
N4000 X165.437 Y11.462 Z-7.251
N4005 X165.13 Y11.615 Z-7.075
N4010 X165.013 Y11.675 Z-7.003
N4015 X164.912 Y11.761 Z-6.907
N4020 X164.612 Y12.005 Z-6.621
N4025 X164.501 Y12.091 Z-6.514
N4030 X164.329 Y12.229 Z-6.345
N4035 X164.118 Y12.393 Z-6.13
N4040 X163.929 Y12.543 Z-5.934
N4045 X163.697 Y12.72 Z-5.684
N4050 X163.479 Y12.879 Z-5.444
N4055 X163.282 Y13.017 Z-5.224
N4060 X163.194 Y13.076 Z-5.124
N4065 X162.946 Y13.235 Z-4.842
N4070 X162.781 Y13.332 Z-4.655
N4075 X162.493 Y13.503 Z-4.325
N4080 X162.122 Y13.708 Z-3.905
N4085 X161.87 Y13.859 Z-3.613
N4090 X162.122 Y13.708 Z-3.905
N4095 X162.493 Y13.503 Z-4.325
N4100 X162.781 Y13.332 Z-4.655
N4105 X162.946 Y13.235 Z-4.842
N4110 X163.194 Y13.076 Z-5.124
N4115 X163.282 Y13.017 Z-5.224
N4120 X163.479 Y12.879 Z-5.444
N4125 X163.697 Y12.72 Z-5.684
N4130 X163.929 Y12.543 Z-5.934
N4135 X164.118 Y12.393 Z-6.13
N4140 X164.329 Y12.229 Z-6.345
N4145 X164.501 Y12.091 Z-6.514
N4150 X164.612 Y12.005 Z-6.621
N4155 X164.912 Y11.761 Z-6.907
N4160 X165.013 Y11.675 Z-7.003
N4165 X164.101 Y11.383 Z-6.067
N4170 X162.748 Y10.981 Z-4.682
N4175 X162.161 Y10.799 Z-4.078
N4180 X159.167 Y9.937 Z-1.001
N4185 Z5.
N4190 X166.44 Y-20.757
N4195 Z4.
N4200 Z-4.354
N4205 X166.823 Y-20.386 Z-4.886
N4210 X166.904 Y-20.303 Z-5.001
N4215 X167.007 Y-20.19 Z-5.153
N4220 X167.055 Y-20.132 Z-5.226
N4225 X167.126 Y-20.038 Z-5.341
N4230 X167.188 Y-19.947 Z-5.445
N4235 X167.341 Y-19.691 Z-5.72
N4240 X167.409 Y-19.568 Z-5.847
N4245 X167.527 Y-19.348 Z-6.068
N4250 X167.625 Y-19.157 Z-6.252
N4255 X167.674 Y-19.056 Z-6.345
N4260 X167.729 Y-18.951 Z-6.441
N4265 X167.82 Y-18.76 Z-6.608
N4270 X167.859 Y-18.673 Z-6.682
N4275 X167.907 Y-18.575 Z-6.764
N4280 X167.984 Y-18.401 Z-6.903
N4285 X168.053 Y-18.249 Z-7.019
N4290 X168.067 Y-18.214 Z-7.044
N4295 X168.104 Y-18.118 Z-7.11
N4300 X168.215 Y-17.863 Z-7.287
N4305 X168.322 Y-17.644 Z-7.439
N4310 X168.483 Y-17.341 Z-7.649
N4315 X168.63 Y-17.095 Z-7.822
N4320 X168.761 Y-16.895 Z-7.964
N4325 X168.962 Y-16.608 Z-8.169
N4330 X169.131 Y-16.388 Z-8.328
N4335 X169.307 Y-16.178 Z-8.484
N4340 X169.439 Y-16.031 Z-8.594
N4345 X169.479 Y-16.003 Z-8.612
N4350 X169.512 Y-15.982 Z-8.625
N4355 X169.854 Y-16.306 Z-8.237
N4360 X170.226 Y-16.66 Z-7.823
N4365 X170.449 Y-16.87 Z-7.582
N4370 X170.667 Y-17.077 Z-7.351
N4375 X170.883 Y-17.282 Z-7.128
N4380 X171.18 Y-17.567 Z-6.829
N4385 X171.343 Y-17.724 Z-6.671
N4390 X171.59 Y-17.962 Z-6.438
N4395 X171.829 Y-18.193 Z-6.222
N4400 X171.949 Y-18.311 Z-6.117
N4405 X172.067 Y-18.427 Z-6.017
N4410 X172.285 Y-18.641 Z-5.841
N4415 X172.397 Y-18.754 Z-5.754
N4420 X172.572 Y-18.927 Z-5.625
N4425 X172.737 Y-19.092 Z-5.511
N4430 X172.925 Y-19.282 Z-5.391
N4435 X173.017 Y-19.375 Z-5.336
N4440 X173.106 Y-19.466 Z-5.287
N4445 X173.278 Y-19.643 Z-5.198
N4450 X173.404 Y-19.775 Z-5.14
N4455 X173.55 Y-19.926 Z-5.08
N4460 X173.661 Y-20.041 Z-5.042
N4465 X173.74 Y-20.125 Z-5.017
N4470 X173.833 Y-20.223 Z-4.991
N4475 X173.921 Y-20.318 Z-4.97
N4480 X174.007 Y-20.41 Z-4.954
N4485 X174.092 Y-20.5 Z-4.942
N4490 X174.167 Y-20.581 Z-4.933
N4495 X174.26 Y-20.683 Z-4.926
N4500 X174.348 Y-20.78 Z-4.924
N4505 X174.422 Y-20.861 Z-4.926
N4510 X174.491 Y-20.937 Z-4.93
N4515 X174.629 Y-21.087 Z-4.944
N4520 X174.746 Y-21.218 Z-4.964
N4525 X174.858 Y-21.343 Z-4.989
N4530 X174.967 Y-21.465 Z-5.02
N4535 X175.074 Y-21.585 Z-5.058
N4540 X175.147 Y-21.667 Z-5.086
N4545 X175.271 Y-21.809 Z-5.139
N4550 X175.39 Y-21.945 Z-5.197
N4555 X175.506 Y-22.078 Z-5.261
N4560 X175.62 Y-22.209 Z-5.33
N4565 X175.685 Y-22.283 Z-5.371
N4570 X175.851 Y-22.474 Z-5.483
N4575 X175.937 Y-22.574 Z-5.545
N4580 X176.104 Y-22.769 Z-5.676
N4585 X176.268 Y-22.959 Z-5.813
N4590 X176.43 Y-23.148 Z-5.957
N4595 X176.664 Y-23.424 Z-6.179
N4600 X176.804 Y-23.59 Z-6.319
N4605 X176.997 Y-23.818 Z-6.519
N4610 X177.143 Y-23.989 Z-6.675
N4615 X177.292 Y-24.164 Z-6.839
N4620 X177.557 Y-24.476 Z-7.141
N4625 X177.815 Y-24.785 Z-7.448
N4630 X178.083 Y-25.106 Z-7.778
N4635 X178.389 Y-25.47 Z-8.163
N4640 X178.369 Y-25.504 Z-8.152
N4645 X178.191 Y-25.783 Z-8.061
N4650 X177.948 Y-26.147 Z-7.952
N4655 X177.832 Y-26.317 Z-7.902
N4660 X177.74 Y-26.4 Z-7.845
N4665 X177.55 Y-26.569 Z-7.72
N4670 X177.336 Y-26.766 Z-7.573
N4675 X177.184 Y-26.905 Z-7.463
N4680 X177.002 Y-27.078 Z-7.327
N4685 X176.834 Y-27.242 Z-7.195
N4690 X176.666 Y-27.41 Z-7.058
N4695 X176.507 Y-27.575 Z-6.922
N4700 X176.361 Y-27.731 Z-6.789
N4705 X176.341 Y-27.752 Z-6.771
N4710 X176.298 Y-27.795 Z-6.73
N4715 X176.19 Y-27.891 Z-6.627
N4720 X176.143 Y-27.933 Z-6.579
N4725 X175.989 Y-28.058 Z-6.426
N4730 X175.911 Y-28.121 Z-6.345
N4735 X175.773 Y-28.224 Z-6.203
N4740 X175.632 Y-28.327 Z-6.053
N4745 X175.516 Y-28.405 Z-5.93
N4750 X175.387 Y-28.497 Z-5.789
N4755 X175.241 Y-28.587 Z-5.631
N4760 X175.083 Y-28.68 Z-5.459
N4765 X174.918 Y-28.768 Z-5.28
N4770 X174.834 Y-28.809 Z-5.19
N4775 X174.744 Y-28.851 Z-5.092
N4780 X174.413 Y-28.992 Z-4.738
N4785 X174.088 Y-29.121 Z-4.392
N4790 X173.35 Y-29.39 Z-3.609
N4795 X174.088 Y-29.121 Z-4.392
N4800 X174.413 Y-28.992 Z-4.738
N4805 X174.744 Y-28.851 Z-5.092
N4810 X174.834 Y-28.809 Z-5.19
N4815 X174.918 Y-28.768 Z-5.28
N4820 X175.083 Y-28.68 Z-5.459
N4825 X175.241 Y-28.587 Z-5.631
N4830 X175.387 Y-28.497 Z-5.789
N4835 X175.516 Y-28.405 Z-5.93
N4840 X175.632 Y-28.327 Z-6.053
N4845 X175.773 Y-28.224 Z-6.203
N4850 X175.911 Y-28.121 Z-6.345
N4855 X175.989 Y-28.058 Z-6.426
N4860 X176.143 Y-27.933 Z-6.579
N4865 X176.19 Y-27.891 Z-6.627
N4870 X176.298 Y-27.795 Z-6.73
N4875 X176.341 Y-27.752 Z-6.771
N4880 X176.361 Y-27.731 Z-6.789
N4885 X176.507 Y-27.575 Z-6.922
N4890 X176.666 Y-27.41 Z-7.058
N4895 X176.834 Y-27.242 Z-7.195
N4900 X177.002 Y-27.078 Z-7.327
N4905 X177.184 Y-26.905 Z-7.463
N4910 X177.336 Y-26.766 Z-7.573
N4915 X177.55 Y-26.569 Z-7.72
N4920 X177.74 Y-26.4 Z-7.845
N4925 X177.832 Y-26.317 Z-7.902
N4930 X178.117 Y-26.822 Z-7.338
N4935 X178.348 Y-27.204 Z-6.902
N4940 X178.554 Y-27.523 Z-6.53
N4945 X178.734 Y-27.785 Z-6.217
N4950 X178.897 Y-28.009 Z-5.943
N4955 X179.032 Y-28.182 Z-5.725
N4960 X179.115 Y-28.281 Z-5.596
N4965 X179.032 Y-28.182 Z-5.725
N4970 X178.897 Y-28.009 Z-5.943
N4975 X178.734 Y-27.785 Z-6.217
N4980 X178.554 Y-27.523 Z-6.53
N4985 X178.348 Y-27.204 Z-6.902
N4990 X178.117 Y-26.822 Z-7.338
N4995 X177.832 Y-26.317 Z-7.902
N5000 X177.948 Y-26.147 Z-7.952
N5005 X178.191 Y-25.783 Z-8.061
N5010 X178.369 Y-25.504 Z-8.152
N5015 X178.389 Y-25.47 Z-8.163
N5020 X178.604 Y-25.373 Z-8.089
N5025 X178.933 Y-25.216 Z-7.982
N5030 X179.154 Y-25.107 Z-7.912
N5035 X179.413 Y-24.971 Z-7.833
N5040 X179.669 Y-24.83 Z-7.76
N5045 X179.966 Y-24.657 Z-7.681
N5050 X180.66 Y-24.233 Z-7.5
N5055 X181.27 Y-23.852 Z-7.336
N5060 X181.39 Y-23.774 Z-7.305
N5065 X182.237 Y-23.215 Z-7.077
N5070 X182.408 Y-23.098 Z-7.031
N5075 X182.814 Y-22.816 Z-6.924
N5080 X183.523 Y-22.31 Z-6.73
N5085 X184.188 Y-21.81 Z-6.548
N5090 X184.569 Y-21.516 Z-6.439
N5095 X184.857 Y-21.288 Z-6.36
N5100 X185.093 Y-21.096 Z-6.292
N5105 X185.62 Y-20.66 Z-6.141
N5110 X186.154 Y-20.2 Z-5.987
N5115 X186.632 Y-19.769 Z-5.844
N5120 X186.78 Y-19.634 Z-5.801
N5125 X187.126 Y-19.309 Z-5.694
N5130 X187.395 Y-19.051 Z-5.613
N5135 X187.608 Y-18.841 Z-5.544
N5140 X188.078 Y-18.366 Z-5.396
N5145 X188.587 Y-17.83 Z-5.231
N5150 X189.043 Y-17.327 Z-5.079
N5155 X189.481 Y-16.817 Z-4.925
N5160 X189.907 Y-16.293 Z-4.766
N5165 X190.322 Y-15.755 Z-4.603
N5170 X190.645 Y-15.312 Z-4.468
N5175 X190.724 Y-15.201 Z-4.435
N5180 X191.022 Y-14.768 Z-4.303
N5185 X191.113 Y-14.632 Z-4.263
N5190 X191.379 Y-14.22 Z-4.137
N5195 X191.486 Y-14.051 Z-4.087
N5200 X191.722 Y-13.661 Z-3.967
N5205 X191.845 Y-13.454 Z-3.906
N5210 X192.047 Y-13.096 Z-3.794
N5215 X192.188 Y-12.841 Z-3.719
N5220 X192.358 Y-12.517 Z-3.617
N5225 X192.514 Y-12.214 Z-3.527
N5230 X192.647 Y-11.939 Z-3.441
N5235 X192.821 Y-11.571 Z-3.329
N5240 X192.92 Y-11.35 Z-3.259
N5245 X193.11 Y-10.911 Z-3.125
N5250 X193.172 Y-10.758 Z-3.077
N5255 X193.407 Y-10.16 Z-2.891
N5260 X193.629 Y-9.538 Z-2.697
N5265 X193.83 Y-8.905 Z-2.498
N5270 X193.853 Y-8.825 Z-2.476
N5275 X193.88 Y-8.726 Z-2.445
N5280 X193.932 Y-8.547 Z-2.386
N5285 X194.064 Y-8.101 Z-2.233
N5290 X194.085 Y-8.017 Z-2.204
N5295 X194.104 Y-7.943 Z-2.18
N5300 X194.154 Y-7.77 Z-2.13
N5305 X194.19 Y-7.649 Z-2.104
N5310 X194.212 Y-7.578 Z-2.091
N5315 X194.236 Y-7.508 Z-2.08
N5320 X194.257 Y-7.451 Z-2.073
N5325 X194.284 Y-7.379 Z-2.07
N5330 X194.326 Y-7.265 Z-2.069
N5335 X194.359 Y-7.182 Z-2.07
N5340 X194.39 Y-7.111 Z-2.077
N5345 X194.426 Y-7.026 Z-2.091
N5350 X194.488 Y-6.889 Z-2.124
N5355 X194.518 Y-6.826 Z-2.14
N5360 X194.554 Y-6.754 Z-2.163
N5365 X194.59 Y-6.68 Z-2.192
N5370 X194.631 Y-6.599 Z-2.229
N5375 X194.676 Y-6.508 Z-2.276
N5380 X194.72 Y-6.416 Z-2.329
N5385 X194.768 Y-6.309 Z-2.395
N5390 X194.819 Y-6.198 Z-2.471
N5395 X194.873 Y-6.078 Z-2.558
N5400 X194.933 Y-5.946 Z-2.662
N5405 X194.989 Y-5.818 Z-2.766
N5410 X195.051 Y-5.671 Z-2.889
N5415 X195.115 Y-5.52 Z-3.021
N5420 X195.183 Y-5.359 Z-3.166
N5425 X195.257 Y-5.185 Z-3.328
N5430 X195.336 Y-4.993 Z-3.51
N5435 X195.418 Y-4.787 Z-3.706
N5440 X195.589 Y-4.356 Z-4.128
N5445 X195.683 Y-4.122 Z-4.362
N5450 X195.895 Y-3.57 Z-4.917
N5455 X196.056 Y-3.262 Z-5.234
N5460 X196.229 Y-2.944 Z-5.566
N5465 X196.413 Y-2.617 Z-5.913
N5470 X196.593 Y-2.304 Z-6.248
N5475 X196.938 Y-1.692 Z-6.902
N5480 X197.171 Y-1.284 Z-7.344
N5485 X197.417 Y-0.865 Z-7.804
N5490 X197.468 Y-0.567 Z-8.038
N5495 X196.98 Y-0.756 Z-7.551
N5500 X196.512 Y-0.945 Z-7.085
N5505 X196.267 Y-1.046 Z-6.84
N5510 X195.767 Y-1.266 Z-6.334
N5515 X195.45 Y-1.411 Z-6.012
N5520 X195.144 Y-1.555 Z-5.703
N5525 X194.579 Y-1.829 Z-5.13
N5530 X194.26 Y-1.998 Z-4.8
N5535 X193.958 Y-2.167 Z-4.486
N5540 X193.629 Y-2.354 Z-4.146
N5545 X193.412 Y-2.48 Z-3.92
N5550 X193.205 Y-2.606 Z-3.705
N5555 X193.008 Y-2.731 Z-3.5
N5560 X192.751 Y-2.901 Z-3.23
N5565 X192.499 Y-3.068 Z-2.969
N5570 X192.296 Y-3.203 Z-2.768
N5575 X192.184 Y-3.276 Z-2.661
N5580 X192.073 Y-3.344 Z-2.56
N5585 X191.927 Y-3.431 Z-2.432
N5590 X191.8 Y-3.507 Z-2.33
N5595 X191.704 Y-3.562 Z-2.258
N5600 X191.609 Y-3.612 Z-2.19
N5605 X191.51 Y-3.662 Z-2.125
N5610 X191.419 Y-3.709 Z-2.072
N5615 X191.333 Y-3.753 Z-2.029
N5620 X191.252 Y-3.794 Z-1.995
N5625 X191.175 Y-3.833 Z-1.97
N5630 X191.101 Y-3.871 Z-1.952
N5635 X191.028 Y-3.908 Z-1.942
N5640 X190.956 Y-3.944 Z-1.938
N5645 X190.846 Y-3.996 Z-1.942
N5650 X190.733 Y-4.04 Z-1.954
N5655 X190.616 Y-4.078 Z-1.973
N5660 X190.496 Y-4.109 Z-2.001
N5665 X190.372 Y-4.132 Z-2.036
N5670 X189.892 Y-4.209 Z-2.186
N5675 X189.434 Y-4.289 Z-2.322
N5680 X188.98 Y-4.379 Z-2.457
N5685 X188.531 Y-4.475 Z-2.585
N5690 X188.086 Y-4.576 Z-2.706
N5695 X187.863 Y-4.629 Z-2.765
N5700 X187.651 Y-4.682 Z-2.822
N5705 X186.76 Y-4.921 Z-3.054
N5710 X186.31 Y-5.051 Z-3.162
N5715 X185.885 Y-5.178 Z-3.269
N5720 X185.524 Y-5.292 Z-3.354
N5725 X185.014 Y-5.458 Z-3.478
N5730 X184.754 Y-5.546 Z-3.538
N5735 X184.144 Y-5.759 Z-3.683
N5740 X183.312 Y-6.065 Z-3.876
N5745 X182.459 Y-6.409 Z-4.064
N5750 X181.698 Y-6.724 Z-4.239
N5755 X180.935 Y-7.055 Z-4.416
N5760 X180.17 Y-7.395 Z-4.6
N5765 X179.407 Y-7.749 Z-4.787
N5770 X178.644 Y-8.117 Z-4.977
N5775 X178.453 Y-8.213 Z-5.027
N5780 X177.624 Y-8.649 Z-5.253
N5785 X177.118 Y-8.928 Z-5.394
N5790 X177.029 Y-8.977 Z-5.419
N5795 X176.614 Y-9.215 Z-5.539
N5800 X176.102 Y-9.518 Z-5.692
N5805 X175.566 Y-9.854 Z-5.859
N5810 X175.431 Y-9.94 Z-5.903
N5815 X175.03 Y-10.207 Z-6.034
N5820 X174.859 Y-10.322 Z-6.091
N5825 X174.665 Y-10.457 Z-6.159
N5830 X174.465 Y-10.599 Z-6.228
N5835 X174.273 Y-10.738 Z-6.297
N5840 X173.987 Y-10.951 Z-6.403
N5845 X173.68 Y-11.188 Z-6.518
N5850 X173.334 Y-11.463 Z-6.656
N5855 X173.179 Y-11.592 Z-6.717
N5860 X172.71 Y-11.995 Z-6.917
N5865 X172.553 Y-12.136 Z-6.984
N5870 X172.116 Y-12.545 Z-7.186
N5875 X171.919 Y-12.737 Z-7.278
N5880 X171.589 Y-13.073 Z-7.445
N5885 X171.31 Y-13.374 Z-7.584
N5890 X171.116 Y-13.596 Z-7.686
N5895 X171.009 Y-13.723 Z-7.745
N5900 X170.729 Y-14.064 Z-7.897
N5905 X170.605 Y-14.224 Z-7.966
N5910 X170.483 Y-14.386 Z-8.038
N5915 X170.254 Y-14.706 Z-8.174
N5920 X170.057 Y-14.997 Z-8.291
N5925 X169.894 Y-15.26 Z-8.393
N5930 X169.764 Y-15.49 Z-8.478
N5935 X169.755 Y-15.506 Z-8.484
N5940 X169.656 Y-15.684 Z-8.54
N5945 X169.577 Y-15.84 Z-8.587
N5950 X169.512 Y-15.982 Z-8.625
N5955 X169.577 Y-15.84 Z-8.587
N5960 X169.656 Y-15.684 Z-8.54
N5965 X169.755 Y-15.506 Z-8.484
N5970 X169.764 Y-15.49 Z-8.478
N5975 X169.894 Y-15.26 Z-8.393
N5980 X170.057 Y-14.997 Z-8.291
N5985 X170.254 Y-14.706 Z-8.174
N5990 X170.483 Y-14.386 Z-8.038
N5995 X170.605 Y-14.224 Z-7.966
N6000 X170.729 Y-14.064 Z-7.897
N6005 X171.009 Y-13.723 Z-7.745
N6010 X171.116 Y-13.596 Z-7.686
N6015 X171.31 Y-13.374 Z-7.584
N6020 X171.589 Y-13.073 Z-7.445
N6025 X171.919 Y-12.737 Z-7.278
N6030 X172.116 Y-12.545 Z-7.186
N6035 X172.553 Y-12.136 Z-6.984
N6040 X172.71 Y-11.995 Z-6.917
N6045 X173.179 Y-11.592 Z-6.717
N6050 X173.334 Y-11.463 Z-6.656
N6055 X173.68 Y-11.188 Z-6.518
N6060 X173.987 Y-10.951 Z-6.403
N6065 X174.273 Y-10.738 Z-6.297
N6070 X174.465 Y-10.599 Z-6.228
N6075 X174.665 Y-10.457 Z-6.159
N6080 X174.859 Y-10.322 Z-6.091
N6085 X175.03 Y-10.207 Z-6.034
N6090 X175.431 Y-9.94 Z-5.903
N6095 X175.566 Y-9.854 Z-5.859
N6100 X176.102 Y-9.518 Z-5.692
N6105 X176.614 Y-9.215 Z-5.539
N6110 X177.029 Y-8.977 Z-5.419
N6115 X177.118 Y-8.928 Z-5.394
N6120 X177.624 Y-8.649 Z-5.253
N6125 X178.453 Y-8.213 Z-5.027
N6130 X178.644 Y-8.117 Z-4.977
N6135 X179.407 Y-7.749 Z-4.787
N6140 X180.17 Y-7.395 Z-4.6
N6145 X180.935 Y-7.055 Z-4.416
N6150 X181.698 Y-6.724 Z-4.239
N6155 X182.459 Y-6.409 Z-4.064
N6160 X183.312 Y-6.065 Z-3.876
N6165 X184.144 Y-5.759 Z-3.683
N6170 X184.754 Y-5.546 Z-3.538
N6175 X185.014 Y-5.458 Z-3.478
N6180 X185.524 Y-5.292 Z-3.354
N6185 X185.885 Y-5.178 Z-3.269
N6190 X186.31 Y-5.051 Z-3.162
N6195 X186.76 Y-4.921 Z-3.054
N6200 X187.651 Y-4.682 Z-2.822
N6205 X187.863 Y-4.629 Z-2.765
N6210 X188.086 Y-4.576 Z-2.706
N6215 X188.531 Y-4.475 Z-2.585
N6220 X188.98 Y-4.379 Z-2.457
N6225 X189.434 Y-4.289 Z-2.322
N6230 X189.892 Y-4.209 Z-2.186
N6235 X190.372 Y-4.132 Z-2.036
N6240 X190.496 Y-4.109 Z-2.001
N6245 X190.616 Y-4.078 Z-1.973
N6250 X190.733 Y-4.04 Z-1.954
N6255 X190.846 Y-3.996 Z-1.942
N6260 X190.956 Y-3.944 Z-1.938
N6265 X191.028 Y-3.908 Z-1.942
N6270 X191.101 Y-3.871 Z-1.952
N6275 X191.175 Y-3.833 Z-1.97
N6280 X191.252 Y-3.794 Z-1.995
N6285 X191.333 Y-3.753 Z-2.029
N6290 X191.419 Y-3.709 Z-2.072
N6295 X191.51 Y-3.662 Z-2.125
N6300 X191.609 Y-3.612 Z-2.19
N6305 X191.704 Y-3.562 Z-2.258
N6310 X191.8 Y-3.507 Z-2.33
N6315 X191.927 Y-3.431 Z-2.432
N6320 X192.073 Y-3.344 Z-2.56
N6325 X192.184 Y-3.276 Z-2.661
N6330 X192.296 Y-3.203 Z-2.768
N6335 X192.499 Y-3.068 Z-2.969
N6340 X192.751 Y-2.901 Z-3.23
N6345 X193.008 Y-2.731 Z-3.5
N6350 X193.205 Y-2.606 Z-3.705
N6355 X193.412 Y-2.48 Z-3.92
N6360 X193.629 Y-2.354 Z-4.146
N6365 X193.958 Y-2.167 Z-4.486
N6370 X194.26 Y-1.998 Z-4.8
N6375 X194.579 Y-1.829 Z-5.13
N6380 X195.144 Y-1.555 Z-5.703
N6385 X195.45 Y-1.411 Z-6.012
N6390 X195.767 Y-1.266 Z-6.334
N6395 X196.267 Y-1.046 Z-6.84
N6400 X196.512 Y-0.945 Z-7.085
N6405 X196.98 Y-0.756 Z-7.551
N6410 X197.468 Y-0.567 Z-8.038
N6415 X197.56 Y-0.413 Z-8.129
N6420 X197.575 Y-0.387 Z-8.143
N6425 X197.823 Y-0.498 Z-7.927
N6430 X198.115 Y-0.63 Z-7.675
N6435 X198.231 Y-0.734 Z-7.531
N6440 X198.564 Y-1.096 Z-7.06
N6445 X199.282 Y-1.854 Z-6.065
N6450 X199.778 Y-2.377 Z-5.382
N6455 X199.996 Y-2.602 Z-5.088
N6460 X200.21 Y-2.815 Z-4.805
N6465 X200.554 Y-3.151 Z-4.355
N6470 X200.968 Y-3.568 Z-3.813
N6475 X201.21 Y-3.812 Z-3.504
N6480 X201.393 Y-3.999 Z-3.274
N6485 X201.619 Y-4.232 Z-2.995
N6490 X201.772 Y-4.395 Z-2.809
N6495 X201.873 Y-4.504 Z-2.689
N6500 X202.013 Y-4.654 Z-2.529
N6505 X202.136 Y-4.784 Z-2.399
N6510 X202.268 Y-4.919 Z-2.272
N6515 X202.329 Y-4.981 Z-2.219
N6520 X202.386 Y-5.038 Z-2.173
N6525 X202.44 Y-5.092 Z-2.133
N6530 X202.493 Y-5.145 Z-2.097
N6535 X202.547 Y-5.195 Z-2.063
N6540 X202.604 Y-5.245 Z-2.032
N6545 X202.653 Y-5.29 Z-2.008
N6550 X202.698 Y-5.33 Z-1.99
N6555 X202.742 Y-5.369 Z-1.976
N6560 X202.794 Y-5.414 Z-1.962
N6565 X202.847 Y-5.457 Z-1.951
N6570 X202.908 Y-5.504 Z-1.942
N6575 X202.958 Y-5.543 Z-1.94
N6580 X203.031 Y-5.599 Z-1.943
N6585 X203.09 Y-5.639 Z-1.949
N6590 X203.145 Y-5.675 Z-1.958
N6595 X203.253 Y-5.745 Z-1.986
N6600 X203.317 Y-5.783 Z-2.006
N6605 X203.393 Y-5.826 Z-2.035
N6610 X203.537 Y-5.908 Z-2.097
N6615 X203.863 Y-6.106 Z-2.247
N6620 X204.282 Y-6.378 Z-2.435
N6625 X204.674 Y-6.647 Z-2.602
N6630 X205.066 Y-6.94 Z-2.771
N6635 X205.435 Y-7.231 Z-2.922
N6640 X205.603 Y-7.371 Z-2.988
N6645 X205.792 Y-7.531 Z-3.067
N6650 X206.137 Y-7.84 Z-3.205
N6655 X206.475 Y-8.155 Z-3.334
N6660 X206.802 Y-8.481 Z-3.462
N6665 X207.123 Y-8.814 Z-3.582
N6670 X207.299 Y-9.003 Z-3.646
N6675 X207.364 Y-9.074 Z-3.67
N6680 X207.743 Y-9.506 Z-3.814
N6685 X208.043 Y-9.86 Z-3.922
N6690 X208.336 Y-10.226 Z-4.03
N6695 X208.623 Y-10.595 Z-4.135
N6700 X208.798 Y-10.826 Z-4.196
N6705 X208.865 Y-10.917 Z-4.221
N6710 X209.397 Y-11.664 Z-4.419
N6715 X209.489 Y-11.796 Z-4.451
N6720 X209.876 Y-12.373 Z-4.602
N6725 X210.146 Y-12.787 Z-4.704
N6730 X210.338 Y-13.09 Z-4.783
N6735 X210.778 Y-13.809 Z-4.961
N6740 X211.215 Y-14.563 Z-5.148
N6745 X211.38 Y-14.854 Z-5.217
N6750 X211.631 Y-15.313 Z-5.332
N6755 X211.953 Y-15.918 Z-5.477
N6760 X212.424 Y-16.848 Z-5.704
N6765 X212.503 Y-17.007 Z-5.742
N6770 X212.799 Y-17.63 Z-5.896
N6775 X213.026 Y-18.118 Z-6.013
N6780 X213.086 Y-18.25 Z-6.045
N6785 X213.519 Y-19.229 Z-6.287
N6790 X213.854 Y-20.032 Z-6.488
N6795 X213.998 Y-20.385 Z-6.574
N6800 X214.452 Y-21.547 Z-6.871
N6805 X214.513 Y-21.707 Z-6.913
N6810 X214.566 Y-21.856 Z-6.953
N6815 X214.711 Y-22.271 Z-7.067
N6820 X214.847 Y-22.695 Z-7.192
N6825 X214.903 Y-22.875 Z-7.247
N6830 X215.04 Y-23.346 Z-7.397
N6835 X215.101 Y-23.571 Z-7.47
N6840 X215.213 Y-24.024 Z-7.621
N6845 X215.295 Y-24.373 Z-7.745
N6850 X215.345 Y-24.592 Z-7.825
N6855 X215.371 Y-24.883 Z-7.896
N6860 X215.407 Y-25.393 Z-8.031
N6865 X215.416 Y-25.588 Z-8.082
N6870 X215.423 Y-25.763 Z-8.13
N6875 X215.435 Y-26.222 Z-8.26
N6880 X215.466 Y-26.262 Z-8.243
N6885 X215.67 Y-26.54 Z-8.126
N6890 X215.769 Y-26.684 Z-8.067
N6895 X215.867 Y-26.828 Z-8.011
N6900 X216.022 Y-27.074 Z-7.918
N6905 X216.038 Y-27.099 Z-7.908
N6910 X216.197 Y-27.352 Z-7.805
N6915 X216.277 Y-27.48 Z-7.748
N6920 X216.34 Y-27.579 Z-7.703
N6925 X216.409 Y-27.69 Z-7.65
N6930 X216.471 Y-27.787 Z-7.601
N6935 X216.594 Y-27.983 Z-7.496
N6940 X216.705 Y-28.162 Z-7.393
N6945 X216.802 Y-28.32 Z-7.295
N6950 X216.891 Y-28.466 Z-7.198
N6955 X216.974 Y-28.605 Z-7.098
N6960 X217.043 Y-28.723 Z-7.009
N6965 X217.108 Y-28.825 Z-6.926
N6970 X217.19 Y-28.942 Z-6.824
N6975 X217.2 Y-28.955 Z-6.812
N6980 X217.362 Y-29.111 Z-6.622
N6985 X217.384 Y-29.141 Z-6.588
N6990 X217.425 Y-29.207 Z-6.514
N6995 X217.471 Y-29.292 Z-6.42
N7000 X217.528 Y-29.419 Z-6.283
N7005 X217.546 Y-29.468 Z-6.231
N7010 X217.575 Y-29.554 Z-6.141
N7015 X217.546 Y-29.468 Z-6.231
N7020 X217.528 Y-29.419 Z-6.283
N7025 X217.471 Y-29.292 Z-6.42
N7030 X217.425 Y-29.207 Z-6.514
N7035 X217.384 Y-29.141 Z-6.588
N7040 X217.362 Y-29.111 Z-6.622
N7045 X217.2 Y-28.955 Z-6.812
N7050 X217.19 Y-28.942 Z-6.824
N7055 X217.108 Y-28.825 Z-6.926
N7060 X217.043 Y-28.723 Z-7.009
N7065 X216.974 Y-28.605 Z-7.098
N7070 X216.891 Y-28.466 Z-7.198
N7075 X216.802 Y-28.32 Z-7.295
N7080 X216.705 Y-28.162 Z-7.393
N7085 X216.594 Y-27.983 Z-7.496
N7090 X216.471 Y-27.787 Z-7.601
N7095 X216.409 Y-27.69 Z-7.65
N7100 X216.34 Y-27.579 Z-7.703
N7105 X216.277 Y-27.48 Z-7.748
N7110 X216.197 Y-27.352 Z-7.805
N7115 X216.038 Y-27.099 Z-7.908
N7120 X216.022 Y-27.074 Z-7.918
N7125 X215.867 Y-26.828 Z-8.011
N7130 X215.769 Y-26.684 Z-8.067
N7135 X215.67 Y-26.54 Z-8.126
N7140 X215.466 Y-26.262 Z-8.243
N7145 X215.435 Y-26.222 Z-8.26
N7150 X214.865 Y-26.442 Z-7.779
N7155 X214.656 Y-26.526 Z-7.605
N7160 X214.418 Y-26.624 Z-7.41
N7165 X213.996 Y-26.797 Z-7.074
N7170 X213.806 Y-26.879 Z-6.925
N7175 X213.605 Y-26.966 Z-6.77
N7180 X213.267 Y-27.115 Z-6.518
N7185 X213.06 Y-27.208 Z-6.366
N7190 X212.78 Y-27.337 Z-6.166
N7195 X212.511 Y-27.461 Z-5.985
N7200 X212.247 Y-27.582 Z-5.818
N7205 X212.117 Y-27.641 Z-5.74
N7210 X211.878 Y-27.752 Z-5.605
N7215 X211.649 Y-27.861 Z-5.483
N7220 X211.431 Y-27.964 Z-5.377
N7225 X211.337 Y-28.008 Z-5.335
N7230 X211.087 Y-28.13 Z-5.23
N7235 X210.905 Y-28.216 Z-5.162
N7240 X210.715 Y-28.309 Z-5.099
N7245 X210.604 Y-28.363 Z-5.067
N7250 X210.49 Y-28.419 Z-5.037
N7255 X210.3 Y-28.513 Z-4.995
N7260 X210.179 Y-28.573 Z-4.974
N7265 X210.057 Y-28.635 Z-4.956
N7270 X209.931 Y-28.698 Z-4.943
N7275 X209.733 Y-28.797 Z-4.932
N7280 X209.6 Y-28.864 Z-4.929
N7285 X209.423 Y-28.953 Z-4.934
N7290 X209.331 Y-28.999 Z-4.94
N7295 X209.172 Y-29.079 Z-4.958
N7300 X209.027 Y-29.154 Z-4.979
N7305 X208.88 Y-29.229 Z-5.008
N7310 X208.729 Y-29.307 Z-5.044
N7315 X208.506 Y-29.421 Z-5.109
N7320 X208.369 Y-29.49 Z-5.155
N7325 X208.239 Y-29.557 Z-5.202
N7330 X208.113 Y-29.623 Z-5.252
N7335 X207.986 Y-29.689 Z-5.306
N7340 X207.858 Y-29.756 Z-5.364
N7345 X207.729 Y-29.824 Z-5.427
N7350 X207.598 Y-29.892 Z-5.494
N7355 X207.465 Y-29.962 Z-5.567
N7360 X207.329 Y-30.033 Z-5.645
N7365 X207.09 Y-30.158 Z-5.791
N7370 X206.94 Y-30.237 Z-5.886
N7375 X206.784 Y-30.319 Z-5.988
N7380 X206.628 Y-30.402 Z-6.094
N7385 X206.472 Y-30.486 Z-6.205
N7390 X206.313 Y-30.57 Z-6.321
N7395 X206.153 Y-30.656 Z-6.441
N7400 X205.826 Y-30.83 Z-6.698
N7405 X205.466 Y-31.023 Z-6.993
N7410 X205.184 Y-31.178 Z-7.233
N7415 X204.787 Y-31.395 Z-7.581
N7420 X204.46 Y-31.572 Z-7.876
N7425 X204.121 Y-31.756 Z-8.188
N7430 X203.764 Y-31.953 Z-8.526
N7435 X203.796 Y-32.023 Z-8.488
N7440 X203.846 Y-32.125 Z-8.431
N7445 X203.902 Y-32.232 Z-8.37
N7450 X203.963 Y-32.341 Z-8.305
N7455 X204.03 Y-32.455 Z-8.236
N7460 X204.104 Y-32.572 Z-8.161
N7465 X204.186 Y-32.694 Z-8.081
N7470 X204.273 Y-32.817 Z-7.997
N7475 X204.365 Y-32.939 Z-7.911
N7480 X204.464 Y-33.063 Z-7.82
N7485 X204.57 Y-33.189 Z-7.724
N7490 X204.683 Y-33.315 Z-7.626
N7495 X204.802 Y-33.44 Z-7.523
N7500 X204.927 Y-33.564 Z-7.417
N7505 X205.114 Y-33.736 Z-7.262
N7510 X205.198 Y-33.81 Z-7.194
N7515 X205.342 Y-33.93 Z-7.076
N7520 X205.992 Y-33.957 Z-6.45
N7525 X206.86 Y-33.971 Z-5.611
N7530 X207.819 Y-33.974 Z-4.68
N7535 X208.254 Y-33.985 Z-4.256
N7540 X208.642 Y-34.009 Z-3.875
N7545 X208.965 Y-34.042 Z-3.555
N7550 X209.219 Y-34.079 Z-3.3
N7555 X208.965 Y-34.042 Z-3.555
N7560 X208.642 Y-34.009 Z-3.875
N7565 X208.254 Y-33.985 Z-4.256
N7570 X207.819 Y-33.974 Z-4.68
N7575 X206.86 Y-33.971 Z-5.611
N7580 X205.992 Y-33.957 Z-6.45
N7585 X205.342 Y-33.93 Z-7.076
N7590 X205.348 Y-33.937 Z-7.069
N7595 X205.528 Y-34.187 Z-6.815
N7600 X205.696 Y-34.419 Z-6.573
N7605 X205.866 Y-34.657 Z-6.319
N7610 X206.021 Y-34.874 Z-6.081
N7615 X206.09 Y-34.977 Z-5.97
N7620 X206.172 Y-35.094 Z-5.84
N7625 X206.307 Y-35.297 Z-5.616
N7630 X206.417 Y-35.471 Z-5.423
N7635 X206.525 Y-35.652 Z-5.223
N7640 X206.62 Y-35.825 Z-5.033
N7645 X206.694 Y-35.973 Z-4.872
N7650 X206.776 Y-36.155 Z-4.675
N7655 X206.964 Y-36.612 Z-4.185
N7660 X206.776 Y-36.155 Z-4.675
N7665 X206.694 Y-35.973 Z-4.872
N7670 X206.62 Y-35.825 Z-5.033
N7675 X206.525 Y-35.652 Z-5.223
N7680 X206.417 Y-35.471 Z-5.423
N7685 X206.307 Y-35.297 Z-5.616
N7690 X206.172 Y-35.094 Z-5.84
N7695 X206.09 Y-34.977 Z-5.97
N7700 X206.021 Y-34.874 Z-6.081
N7705 X205.866 Y-34.657 Z-6.319
N7710 X205.696 Y-34.419 Z-6.573
N7715 X205.528 Y-34.187 Z-6.815
N7720 X205.348 Y-33.937 Z-7.069
N7725 X205.342 Y-33.93 Z-7.076
N7730 X205.198 Y-33.81 Z-7.194
N7735 X205.114 Y-33.736 Z-7.262
N7740 X204.927 Y-33.564 Z-7.417
N7745 X204.802 Y-33.44 Z-7.523
N7750 X204.683 Y-33.315 Z-7.626
N7755 X204.57 Y-33.189 Z-7.724
N7760 X204.464 Y-33.063 Z-7.82
N7765 X204.365 Y-32.939 Z-7.911
N7770 X204.273 Y-32.817 Z-7.997
N7775 X204.186 Y-32.694 Z-8.081
N7780 X204.104 Y-32.572 Z-8.161
N7785 X204.03 Y-32.455 Z-8.236
N7790 X203.963 Y-32.341 Z-8.305
N7795 X203.902 Y-32.232 Z-8.37
N7800 X203.846 Y-32.125 Z-8.431
N7805 X203.796 Y-32.023 Z-8.488
N7810 X203.764 Y-31.953 Z-8.526
N7815 X203.67 Y-31.893 Z-8.516
N7820 X203.527 Y-31.791 Z-8.495
N7825 X203.409 Y-31.698 Z-8.473
N7830 X203.298 Y-31.6 Z-8.447
N7835 X203.099 Y-31.406 Z-8.391
N7840 X203.027 Y-31.333 Z-8.368
N7845 X202.911 Y-31.205 Z-8.327
N7850 X202.703 Y-30.955 Z-8.246
N7855 X202.534 Y-30.734 Z-8.171
N7860 X202.349 Y-30.469 Z-8.082
N7865 X202.141 Y-30.144 Z-7.97
N7870 X201.972 Y-29.861 Z-7.872
N7875 X201.946 Y-29.822 Z-7.855
N7880 X201.83 Y-29.638 Z-7.778
N7885 X201.718 Y-29.452 Z-7.703
N7890 X201.603 Y-29.246 Z-7.622
N7895 X201.492 Y-29.04 Z-7.544
N7900 X201.38 Y-28.811 Z-7.46
N7905 X201.272 Y-28.582 Z-7.381
N7910 X201.167 Y-28.337 Z-7.299
N7915 X201.068 Y-28.091 Z-7.223
N7920 X200.985 Y-27.867 Z-7.155
N7925 X200.885 Y-27.576 Z-7.074
N7930 X200.71 Y-27.032 Z-6.921
N7935 X200.531 Y-26.458 Z-6.756
N7940 X200.357 Y-25.87 Z-6.585
N7945 X200.176 Y-25.238 Z-6.398
N7950 X200.151 Y-25.15 Z-6.373
N7955 X199.849 Y-24.096 Z-6.078
N7960 X199.555 Y-23.012 Z-5.779
N7965 X199.282 Y-21.929 Z-5.484
N7970 X199.256 Y-21.819 Z-5.454
N7975 X199.07 Y-21.011 Z-5.239
N7980 X198.984 Y-20.618 Z-5.131
N7985 X198.853 Y-19.983 Z-4.965
N7990 X198.741 Y-19.404 Z-4.81
N7995 X198.66 Y-18.954 Z-4.695
N8000 X198.533 Y-18.184 Z-4.49
N8005 X198.495 Y-17.927 Z-4.426
N8010 X198.358 Y-16.896 Z-4.158
N8015 X198.304 Y-16.383 Z-4.024
N8020 X198.247 Y-15.775 Z-3.869
N8025 X198.205 Y-15.168 Z-3.713
N8030 X198.184 Y-14.822 Z-3.628
N8035 X198.172 Y-14.555 Z-3.558
N8040 X198.164 Y-14.317 Z-3.499
N8045 X198.155 Y-13.945 Z-3.403
N8050 X198.153 Y-13.798 Z-3.367
N8055 X198.151 Y-13.281 Z-3.236
N8060 X198.161 Y-12.734 Z-3.096
N8065 X198.187 Y-12.135 Z-2.944
N8070 X198.222 Y-11.584 Z-2.804
N8075 X198.226 Y-11.531 Z-2.791
N8080 X198.255 Y-11.2 Z-2.708
N8085 X198.281 Y-10.938 Z-2.64
N8090 X198.311 Y-10.675 Z-2.575
N8095 X198.352 Y-10.344 Z-2.489
N8100 X198.378 Y-10.15 Z-2.442
N8105 X198.437 Y-9.756 Z-2.34
N8110 X198.459 Y-9.625 Z-2.308
N8115 X198.553 Y-9.097 Z-2.173
N8120 X198.641 Y-8.667 Z-2.063
N8125 X198.668 Y-8.509 Z-2.018
N8130 X198.686 Y-8.391 Z-1.993
N8135 X198.692 Y-8.338 Z-1.985
N8140 X198.7 Y-8.274 Z-1.979
N8145 X198.709 Y-8.18 Z-1.975
N8150 X198.718 Y-8.053 Z-1.974
N8155 X198.722 Y-7.984 Z-1.977
N8160 X198.726 Y-7.9 Z-1.987
N8165 X198.731 Y-7.771 Z-2.01
N8170 X198.732 Y-7.685 Z-2.027
N8175 X198.731 Y-7.608 Z-2.047
N8180 X198.73 Y-7.516 Z-2.078
N8185 X198.725 Y-7.368 Z-2.136
N8190 X198.72 Y-7.292 Z-2.168
N8195 X198.714 Y-7.197 Z-2.211
N8200 X198.706 Y-7.086 Z-2.27
N8205 X198.689 Y-6.921 Z-2.365
N8210 X198.664 Y-6.719 Z-2.49
N8215 X198.648 Y-6.586 Z-2.58
N8220 X198.628 Y-6.442 Z-2.683
N8225 X198.578 Y-6.158 Z-2.896
N8230 X198.546 Y-5.968 Z-3.046
N8235 X198.515 Y-5.795 Z-3.188
N8240 X198.448 Y-5.477 Z-3.456
N8245 X198.387 Y-5.183 Z-3.712
N8250 X198.342 Y-4.969 Z-3.902
N8255 X198.291 Y-4.749 Z-4.101
N8260 X198.225 Y-4.475 Z-4.353
N8265 X198.055 Y-3.766 Z-5.02
N8270 X197.933 Y-3.267 Z-5.495
N8275 X197.757 Y-2.564 Z-6.177
N8280 X197.592 Y-1.944 Z-6.785
N8285 X197.577 Y-1.872 Z-6.855
N8290 X197.487 Y-1.325 Z-7.369
N8295 X197.417 Y-0.865 Z-7.804
N8300 Z5.
N8305 X196.881 Y0.306
N8310 Z4.
N8315 Z-7.461
N8320 X197.142 Y0.151 Z-7.713
N8325 X197.426 Y-0.022 Z-7.991
N8330 X197.233 Y1.616 Z-6.429
N8335 X197.13 Y2.541 Z-5.55
N8340 X197.082 Y2.958 Z-5.153
N8345 X197.044 Y3.237 Z-4.885
N8350 X196.978 Y3.603 Z-4.53
N8355 X196.885 Y4.094 Z-4.057
N8360 X196.841 Y4.327 Z-3.837
N8365 X196.757 Y4.772 Z-3.424
N8370 X196.717 Y4.985 Z-3.231
N8375 X196.677 Y5.193 Z-3.049
N8380 X196.639 Y5.395 Z-2.877
N8385 X196.602 Y5.594 Z-2.715
N8390 X196.583 Y5.691 Z-2.639
N8395 X196.547 Y5.884 Z-2.496
N8400 X196.529 Y5.979 Z-2.431
N8405 X196.511 Y6.074 Z-2.369
N8410 X196.493 Y6.168 Z-2.312
N8415 X196.475 Y6.262 Z-2.26
N8420 X196.458 Y6.355 Z-2.213
N8425 X196.44 Y6.447 Z-2.173
N8430 X196.423 Y6.539 Z-2.138
N8435 X196.406 Y6.631 Z-2.111
N8440 X196.388 Y6.723 Z-2.091
N8445 X196.371 Y6.815 Z-2.079
N8450 X196.362 Y6.861 Z-2.076
N8455 X196.341 Y6.973 Z-2.077
N8460 X196.312 Y7.141 Z-2.091
N8465 X196.26 Y7.396 Z-2.121
N8470 X196.202 Y7.638 Z-2.159
N8475 X196.141 Y7.873 Z-2.206
N8480 X196.017 Y8.291 Z-2.306
N8485 X195.881 Y8.718 Z-2.429
N8490 X195.804 Y8.952 Z-2.499
N8495 X195.66 Y9.405 Z-2.641
N8500 X195.596 Y9.625 Z-2.705
N8505 X195.524 Y9.927 Z-2.784
N8510 X195.429 Y10.304 Z-2.888
N8515 X195.365 Y10.569 Z-2.964
N8520 X195.27 Y10.993 Z-3.079
N8525 X195.132 Y11.684 Z-3.269
N8530 X195.038 Y12.238 Z-3.418
N8535 X195.013 Y12.403 Z-3.46
N8540 X194.957 Y12.79 Z-3.564
N8545 X194.907 Y13.182 Z-3.665
N8550 X194.837 Y13.833 Z-3.833
N8555 X194.789 Y14.437 Z-3.987
N8560 X194.78 Y14.565 Z-4.018
N8565 X194.757 Y14.986 Z-4.126
N8570 X194.741 Y15.379 Z-4.222
N8575 X194.727 Y16.033 Z-4.384
N8580 X194.728 Y16.62 Z-4.53
N8585 X194.731 Y16.771 Z-4.565
N8590 X194.741 Y17.162 Z-4.662
N8595 X194.755 Y17.521 Z-4.748
N8600 X194.796 Y18.254 Z-4.927
N8605 X194.84 Y18.796 Z-5.059
N8610 X194.871 Y19.127 Z-5.138
N8615 X194.943 Y19.776 Z-5.296
N8620 X195.028 Y20.424 Z-5.455
N8625 X195.044 Y20.536 Z-5.481
N8630 X195.108 Y20.947 Z-5.583
N8635 X195.166 Y21.291 Z-5.665
N8640 X195.303 Y22.05 Z-5.855
N8645 X195.462 Y22.818 Z-6.046
N8650 X195.53 Y23.128 Z-6.127
N8655 X195.638 Y23.582 Z-6.24
N8660 X195.792 Y24.199 Z-6.402
N8665 X195.832 Y24.35 Z-6.439
N8670 X196.045 Y25.12 Z-6.642
N8675 X196.084 Y25.258 Z-6.68
N8680 X196.275 Y25.885 Z-6.848
N8685 X196.415 Y26.329 Z-6.972
N8690 X196.528 Y26.669 Z-7.064
N8695 X196.708 Y27.195 Z-7.213
N8700 X196.799 Y27.427 Z-7.271
N8705 X197.109 Y28.194 Z-7.471
N8710 X197.36 Y28.779 Z-7.627
N8715 X197.437 Y28.952 Z-7.672
N8720 X197.605 Y29.322 Z-7.773
N8725 X197.788 Y29.71 Z-7.877
N8730 X197.848 Y29.834 Z-7.91
N8735 X198.09 Y30.316 Z-8.04
N8740 X198.244 Y30.61 Z-8.117
N8745 X198.329 Y30.766 Z-8.16
N8750 X198.448 Y30.971 Z-8.218
N8755 X198.571 Y31.174 Z-8.28
N8760 X198.618 Y31.246 Z-8.301
N8765 X198.6 Y31.614 Z-8.169
N8770 X198.596 Y31.83 Z-8.09
N8775 Y32.045 Z-8.014
N8780 X198.603 Y32.25 Z-7.941
N8785 X198.613 Y32.453 Z-7.87
N8790 X198.647 Y32.838 Z-7.733
N8795 X198.674 Y33.044 Z-7.658
N8800 X198.704 Y33.248 Z-7.585
N8805 X198.722 Y33.349 Z-7.548
N8810 X198.709 Y33.433 Z-7.493
N8815 X198.681 Y33.609 Z-7.373
N8820 X198.642 Y33.829 Z-7.217
N8825 X198.596 Y34.087 Z-7.026
N8830 X198.564 Y34.255 Z-6.897
N8835 X198.551 Y34.405 Z-6.775
N8840 X198.539 Y34.557 Z-6.647
N8845 X198.526 Y34.827 Z-6.416
N8850 X198.518 Y35.025 Z-6.242
N8855 X198.515 Y35.274 Z-6.019
N8860 X198.524 Y35.579 Z-5.741
N8865 X198.538 Y35.791 Z-5.545
N8870 X198.564 Y36.022 Z-5.329
N8875 X198.622 Y36.368 Z-4.998
N8880 X198.655 Y36.502 Z-4.865
N8885 X198.69 Y36.621 Z-4.744
N8890 X198.725 Y36.715 Z-4.645
N8895 X198.738 Y36.749 Z-4.608
N8900 X198.725 Y36.715 Z-4.645
N8905 X198.69 Y36.621 Z-4.744
N8910 X198.655 Y36.502 Z-4.865
N8915 X198.622 Y36.368 Z-4.998
N8920 X198.564 Y36.022 Z-5.329
N8925 X198.538 Y35.791 Z-5.545
N8930 X198.524 Y35.579 Z-5.741
N8935 X198.515 Y35.274 Z-6.019
N8940 X198.518 Y35.025 Z-6.242
N8945 X198.526 Y34.827 Z-6.416
N8950 X198.539 Y34.557 Z-6.647
N8955 X198.551 Y34.405 Z-6.775
N8960 X198.564 Y34.255 Z-6.897
N8965 X198.596 Y34.087 Z-7.026
N8970 X198.642 Y33.829 Z-7.217
N8975 X198.681 Y33.609 Z-7.373
N8980 X198.709 Y33.433 Z-7.493
N8985 X198.722 Y33.349 Z-7.548
N8990 X198.827 Y33.41 Z-7.434
N8995 X199.075 Y33.542 Z-7.166
N9000 X199.301 Y33.653 Z-6.924
N9005 X199.514 Y33.748 Z-6.698
N9010 X199.722 Y33.832 Z-6.48
N9015 X199.871 Y33.884 Z-6.325
N9020 X200.004 Y33.926 Z-6.187
N9025 X200.103 Y33.952 Z-6.085
N9030 X200.784 Y34.098 Z-5.391
N9035 X201.416 Y34.23 Z-4.747
N9040 X201.835 Y34.302 Z-4.323
N9045 X202.509 Y34.397 Z-3.643
N9050 X203.107 Y34.478 Z-3.04
N9055 X202.509 Y34.397 Z-3.643
N9060 X201.835 Y34.302 Z-4.323
N9065 X201.416 Y34.23 Z-4.747
N9070 X200.784 Y34.098 Z-5.391
N9075 X200.103 Y33.952 Z-6.085
N9080 X200.004 Y33.926 Z-6.187
N9085 X199.871 Y33.884 Z-6.325
N9090 X199.722 Y33.832 Z-6.48
N9095 X199.514 Y33.748 Z-6.698
N9100 X199.301 Y33.653 Z-6.924
N9105 X199.075 Y33.542 Z-7.166
N9110 X198.827 Y33.41 Z-7.434
N9115 X198.722 Y33.349 Z-7.548
N9120 X198.704 Y33.248 Z-7.585
N9125 X198.674 Y33.044 Z-7.658
N9130 X198.647 Y32.838 Z-7.733
N9135 X198.613 Y32.453 Z-7.87
N9140 X198.603 Y32.25 Z-7.941
N9145 X198.596 Y32.045 Z-8.014
N9150 Y31.83 Z-8.09
N9155 X198.6 Y31.614 Z-8.169
N9160 X198.618 Y31.246 Z-8.301
N9165 X199.113 Y31.146 Z-7.9
N9170 X199.355 Y31.097 Z-7.71
N9175 X199.594 Y31.049 Z-7.525
N9180 X199.831 Y31.001 Z-7.346
N9185 X200.065 Y30.954 Z-7.173
N9190 X200.299 Y30.906 Z-7.005
N9195 X200.668 Y30.831 Z-6.75
N9200 X200.904 Y30.781 Z-6.592
N9205 X201.142 Y30.731 Z-6.439
N9210 X201.385 Y30.68 Z-6.29
N9215 X201.765 Y30.6 Z-6.071
N9220 X202.023 Y30.548 Z-5.933
N9225 X202.155 Y30.522 Z-5.866
N9230 X202.405 Y30.473 Z-5.748
N9235 X202.54 Y30.447 Z-5.687
N9240 X202.728 Y30.411 Z-5.607
N9245 X203.025 Y30.354 Z-5.495
N9250 X203.154 Y30.33 Z-5.45
N9255 X203.284 Y30.306 Z-5.409
N9260 X203.418 Y30.282 Z-5.37
N9265 X203.647 Y30.24 Z-5.312
N9270 X203.875 Y30.201 Z-5.265
N9275 X204.014 Y30.176 Z-5.241
N9280 X204.245 Y30.136 Z-5.212
N9285 X204.352 Y30.118 Z-5.202
N9290 X204.46 Y30.1 Z-5.194
N9295 X204.572 Y30.081 Z-5.189
N9300 X204.775 Y30.047
N9305 X204.855 Y30.034 Z-5.191
N9310 X204.986 Y30.014 Z-5.197
N9315 X205.119 Y29.993 Z-5.208
N9320 X205.255 Y29.971 Z-5.223
N9325 X205.439 Y29.942 Z-5.25
N9330 X205.643 Y29.909 Z-5.289
N9335 X205.804 Y29.885 Z-5.325
N9340 X205.934 Y29.866 Z-5.357
N9345 X206.064 Y29.848 Z-5.393
N9350 X206.195 Y29.829 Z-5.432
N9355 X206.327 Y29.81 Z-5.476
N9360 X206.461 Y29.791 Z-5.524
N9365 X206.598 Y29.771 Z-5.576
N9370 X206.737 Y29.751 Z-5.633
N9375 X206.879 Y29.731 Z-5.694
N9380 X207.139 Y29.697 Z-5.813
N9385 X207.389 Y29.664 Z-5.937
N9390 X207.643 Y29.63 Z-6.071
N9395 X207.903 Y29.596 Z-6.218
N9400 X208.173 Y29.561 Z-6.38
N9405 X208.385 Y29.535 Z-6.512
N9410 X208.618 Y29.508 Z-6.661
N9415 X208.942 Y29.471 Z-6.878
N9420 X209.283 Y29.43 Z-7.115
N9425 X209.638 Y29.387 Z-7.373
N9430 X209.899 Y29.357 Z-7.567
N9435 X210.16 Y29.33 Z-7.764
N9440 X210.422 Y29.302 Z-7.967
N9445 X210.69 Y29.273 Z-8.177
N9450 X211.102 Y29.229 Z-8.509
N9455 X211.127 Y29.338 Z-8.454
N9460 X211.173 Y29.582 Z-8.329
N9465 X211.21 Y29.83 Z-8.201
N9470 X211.243 Y30.102 Z-8.056
N9475 X211.275 Y30.399 Z-7.892
N9480 X211.307 Y30.714 Z-7.708
N9485 X211.331 Y30.962 Z-7.555
N9490 X211.341 Y31.045 Z-7.502
N9495 X211.357 Y31.205 Z-7.397
N9500 X211.339 Y31.294 Z-7.319
N9505 X211.325 Y31.351 Z-7.268
N9510 X211.301 Y31.459 Z-7.169
N9515 X211.268 Y31.569 Z-7.06
N9520 X211.213 Y31.725 Z-6.901
N9525 X211.188 Y31.79 Z-6.832
N9530 X211.213 Y31.725 Z-6.901
N9535 X211.268 Y31.569 Z-7.06
N9540 X211.301 Y31.459 Z-7.169
N9545 X211.325 Y31.351 Z-7.268
N9550 X211.339 Y31.294 Z-7.319
N9555 X211.357 Y31.205 Z-7.397
N9560 X211.47 Y31.345 Z-7.225
N9565 X211.357 Y31.205 Z-7.397
N9570 X211.341 Y31.045 Z-7.502
N9575 X211.331 Y30.962 Z-7.555
N9580 X211.307 Y30.714 Z-7.708
N9585 X211.275 Y30.399 Z-7.892
N9590 X211.243 Y30.102 Z-8.056
N9595 X211.21 Y29.83 Z-8.201
N9600 X211.173 Y29.582 Z-8.329
N9605 X211.127 Y29.338 Z-8.454
N9610 X211.102 Y29.229 Z-8.509
N9615 X211.115 Y29.198 Z-8.506
N9620 X211.187 Y29.024 Z-8.482
N9625 X211.265 Y28.812 Z-8.449
N9630 X211.315 Y28.654 Z-8.422
N9635 X211.355 Y28.511 Z-8.395
N9640 X211.38 Y28.405 Z-8.373
N9645 X211.41 Y28.263 Z-8.342
N9650 X211.415 Y28.199 Z-8.319
N9655 X211.429 Y27.921 Z-8.221
N9660 X211.438 Y27.626 Z-8.122
N9665 X211.439 Y27.413 Z-8.05
N9670 X211.438 Y27.082 Z-7.941
N9675 X211.43 Y26.877 Z-7.874
N9680 X211.411 Y26.453 Z-7.738
N9685 X211.398 Y26.253 Z-7.673
N9690 X211.373 Y25.954 Z-7.58
N9695 X211.339 Y25.633 Z-7.479
N9700 X211.305 Y25.347 Z-7.392
N9705 X211.248 Y24.935 Z-7.265
N9710 X211.227 Y24.797 Z-7.224
N9715 X211.175 Y24.504 Z-7.136
N9720 X211.116 Y24.214 Z-7.056
N9725 X211.062 Y23.986 Z-6.994
N9730 X210.975 Y23.633 Z-6.902
N9735 X210.82 Y23.045 Z-6.742
N9740 X210.642 Y22.424 Z-6.571
N9745 X210.435 Y21.765 Z-6.387
N9750 X210.262 Y21.252 Z-6.246
N9755 X210.048 Y20.644 Z-6.072
N9760 X209.816 Y20.035 Z-5.901
N9765 X209.581 Y19.443 Z-5.729
N9770 X209.572 Y19.421 Z-5.723
N9775 X209.309 Y18.802 Z-5.546
N9780 X209.105 Y18.339 Z-5.41
N9785 X209.036 Y18.186 Z-5.368
N9790 X208.663 Y17.393 Z-5.135
N9795 X208.599 Y17.261 Z-5.097
N9800 X208.443 Y16.948 Z-5.008
N9805 X208.072 Y16.22 Z-4.794
N9810 X207.804 Y15.721 Z-4.65
N9815 X207.521 Y15.208 Z-4.497
N9820 X207.105 Y14.475 Z-4.287
N9825 X206.953 Y14.217 Z-4.209
N9830 X206.366 Y13.251 Z-3.93
N9835 X205.767 Y12.317 Z-3.659
N9840 X205.586 Y12.041 Z-3.583
N9845 X205.154 Y11.4 Z-3.396
N9850 X204.772 Y10.847 Z-3.241
N9855 X204.53 Y10.503 Z-3.141
N9860 X203.897 Y9.627 Z-2.896
N9865 X203.626 Y9.258 Z-2.797
N9870 X203.347 Y8.889 Z-2.691
N9875 X203.254 Y8.77 Z-2.654
N9880 X203.065 Y8.535 Z-2.583
N9885 X202.78 Y8.194 Z-2.469
N9890 X202.487 Y7.865 Z-2.346
N9895 X202.183 Y7.547 Z-2.213
N9900 X201.894 Y7.265 Z-2.078
N9905 X201.856 Y7.221 Z-2.054
N9910 X201.785 Y7.146 Z-2.01
N9915 X201.677 Y7.039 Z-1.948
N9920 X201.606 Y6.972 Z-1.909
N9925 X201.469 Y6.851 Z-1.842
N9930 X201.429 Y6.816 Z-1.826
N9935 X201.383 Y6.774 Z-1.811
N9940 X201.31 Y6.7 Z-1.791
N9945 X201.275 Y6.662 Z-1.785
N9950 X201.235 Y6.62 Z-1.782
N9955 X201.17 Y6.543
N9960 X201.139 Y6.505 Z-1.786
N9965 X201.103 Y6.461 Z-1.793
N9970 X201.045 Y6.381 Z-1.812
N9975 X200.99 Y6.303 Z-1.838
N9980 X200.933 Y6.22 Z-1.871
N9985 X200.888 Y6.156 Z-1.899
N9990 X200.798 Y6.017 Z-1.973
N9995 X200.743 Y5.932 Z-2.025
N10000 X200.653 Y5.788 Z-2.12
N10005 X200.569 Y5.648 Z-2.224
N10010 X200.514 Y5.551 Z-2.298
N10015 X200.471 Y5.478 Z-2.357
N10020 X200.421 Y5.393 Z-2.428
N10025 X200.343 Y5.255 Z-2.547
N10030 X200.203 Y4.986 Z-2.784
N10035 X200.129 Y4.845 Z-2.914
N10040 X199.986 Y4.571 Z-3.174
N10045 X199.835 Y4.263 Z-3.472
N10050 X199.702 Y3.99 Z-3.74
N10055 X199.479 Y3.527 Z-4.208
N10060 X199.286 Y3.112 Z-4.629
N10065 X199.108 Y2.721 Z-5.029
N10070 X198.919 Y2.306 Z-5.461
N10075 X198.733 Y1.889 Z-5.896
N10080 X198.468 Y1.287 Z-6.525
N10085 X198.379 Y1.144 Z-6.678
N10090 X197.961 Y0.49 Z-7.39
N10095 X197.793 Y0.221 Z-7.683
N10100 X197.549 Y-0.172 Z-8.113
N10105 X197.426 Y-0.022 Z-7.991
N10110 X197.549 Y-0.172 Z-8.113
N10115 X197.556 Y-0.192 Z-8.12
N10120 X197.575 Y-0.387 Z-8.143
N10125 X197.556 Y-0.192 Z-8.12
N10130 X198.231 Y0.119 Z-7.397
N10135 X198.88 Y0.418 Z-6.707
N10140 X199.155 Y0.546 Z-6.416
N10145 X200.071 Y0.983 Z-5.447
N10150 X200.439 Y1.158 Z-5.063
N10155 X200.731 Y1.3 Z-4.76
N10160 X201.009 Y1.44 Z-4.471
N10165 X201.408 Y1.646 Z-4.061
N10170 X201.775 Y1.834 Z-3.691
N10175 X201.97 Y1.939 Z-3.494
N10180 X202.116 Y2.02 Z-3.348
N10185 X202.381 Y2.166 Z-3.092
N10190 X202.615 Y2.294 Z-2.877
N10195 X202.774 Y2.378 Z-2.739
N10200 X202.914 Y2.452 Z-2.623
N10205 X203.042 Y2.522 Z-2.522
N10210 X203.12 Y2.567 Z-2.462
N10215 X203.272 Y2.652 Z-2.354
N10220 X203.386 Y2.714 Z-2.281
N10225 X203.484 Y2.766 Z-2.227
N10230 X203.578 Y2.819 Z-2.179
N10235 X203.705 Y2.891 Z-2.123
N10240 X203.775 Y2.929 Z-2.098
N10245 X203.833 Y2.961 Z-2.081
N10250 X203.919 Y3.009 Z-2.061
N10255 X204.031 Y3.074 Z-2.042
N10260 X204.089 Y3.105 Z-2.037
N10265 X204.174 Y3.153 Z-2.035
N10270 X204.251 Y3.2 Z-2.039
N10275 X204.316 Y3.238 Z-2.048
N10280 X204.405 Y3.295 Z-2.067
N10285 X204.492 Y3.356 Z-2.092
N10290 X204.688 Y3.503 Z-2.161
N10295 X205.099 Y3.794 Z-2.318
N10300 X205.652 Y4.169 Z-2.517
N10305 X206.21 Y4.523 Z-2.712
N10310 X206.654 Y4.793 Z-2.858
N10315 X206.712 Y4.828 Z-2.878
N10320 X207.325 Y5.175 Z-3.077
N10325 X207.68 Y5.369 Z-3.185
N10330 X207.884 Y5.477 Z-3.25
N10335 X208.231 Y5.652 Z-3.353
N10340 X208.447 Y5.759 Z-3.419
N10345 X208.772 Y5.914 Z-3.513
N10350 X209.013 Y6.026 Z-3.585
N10355 X209.326 Y6.165 Z-3.673
N10360 X209.585 Y6.277 Z-3.748
N10365 X209.891 Y6.405 Z-3.833
N10370 X210.161 Y6.514 Z-3.91
N10375 X210.466 Y6.632 Z-3.993
N10380 X210.742 Y6.736 Z-4.071
N10385 X211.053 Y6.848 Z-4.155
N10390 X211.325 Y6.942 Z-4.23
N10395 X211.654 Y7.051 Z-4.318
N10400 X211.915 Y7.134 Z-4.39
N10405 X212.266 Y7.241 Z-4.483
N10410 X212.36 Y7.269 Z-4.509
N10415 X212.891 Y7.418 Z-4.652
N10420 X212.993 Y7.446 Z-4.68
N10425 X213.488 Y7.571 Z-4.814
N10430 X213.715 Y7.631 Z-4.872
N10435 X214.319 Y7.783 Z-5.021
N10440 X214.923 Y7.928 Z-5.164
N10445 X215.53 Y8.069 Z-5.301
N10450 X216.141 Y8.202 Z-5.436
N10455 X216.754 Y8.329 Z-5.567
N10460 X216.996 Y8.377 Z-5.617
N10465 X217.355 Y8.444 Z-5.695
N10470 X218.283 Y8.606 Z-5.886
N10475 X218.618 Y8.66 Z-5.959
N10480 X219. Y8.716 Z-6.037
N10485 X219.699 Y8.812 Z-6.188
N10490 X219.83 Y8.829 Z-6.216
N10495 X220.42 Y8.896 Z-6.344
N10500 X221.148 Y8.968 Z-6.51
N10505 X221.933 Y9.026 Z-6.691
N10510 X222.434 Y9.055 Z-6.814
N10515 X222.73 Y9.069 Z-6.885
N10520 X222.953 Y9.077 Z-6.941
N10525 X223.556 Y9.094 Z-7.096
N10530 X223.76 Y9.098 Z-7.151
N10535 X224.067 Y9.1 Z-7.235
N10540 X224.295 Y9.098 Z-7.295
N10545 X224.533 Y9.092 Z-7.354
N10550 X224.739 Y9.081 Z-7.405
N10555 X225.232 Y9.036 Z-7.53
N10560 X225.389 Y9.018 Z-7.569
N10565 X225.855 Y8.958 Z-7.686
N10570 X226.034 Y8.928 Z-7.73
N10575 X226.446 Y8.857 Z-7.835
N10580 X226.665 Y8.812 Z-7.892
N10585 X227.075 Y8.721 Z-8.005
N10590 X227.365 Y8.65 Z-8.085
N10595 X227.539 Y8.605 Z-8.135
N10600 X227.771 Y8.687 Z-8.06
N10605 X227.957 Y8.729 Z-7.985
N10610 X228.239 Y8.783 Z-7.872
N10615 X228.519 Y8.831 Z-7.766
N10620 X228.825 Y8.876 Z-7.656
N10625 X229.136 Y8.915 Z-7.543
N10630 X229.514 Y8.957 Z-7.401
N10635 X229.813 Y8.992 Z-7.28
N10640 X230.124 Y9.024 Z-7.15
N10645 X230.416 Y9.055 Z-7.016
N10650 X230.53 Y9.066 Z-6.962
N10655 X230.746 Y9.09 Z-6.853
N10660 X230.954 Y9.113 Z-6.742
N10665 X231.094 Y9.128 Z-6.662
N10670 X231.245 Y9.147 Z-6.572
N10675 X231.457 Y9.176 Z-6.437
N10680 X231.473 Y9.178 Z-6.426
N10685 X231.626 Y9.205 Z-6.317
N10690 X231.709 Y9.225 Z-6.253
N10695 X231.906 Y9.272 Z-6.095
N10700 X231.945 Y9.289 Z-6.058
N10705 X232.024 Y9.328 Z-5.979
N10710 X232.143 Y9.392 Z-5.852
N10715 X232.215 Y9.437 Z-5.77
N10720 X232.286 Y9.485 Z-5.687
N10725 X232.355 Y9.535 Z-5.604
N10730 X232.416 Y9.584 Z-5.527
N10735 X232.468 Y9.629 Z-5.459
N10740 X232.575 Y9.73 Z-5.312
N10745 X232.468 Y9.629 Z-5.459
N10750 X232.416 Y9.584 Z-5.527
N10755 X232.355 Y9.535 Z-5.604
N10760 X232.286 Y9.485 Z-5.687
N10765 X232.215 Y9.437 Z-5.77
N10770 X232.143 Y9.392 Z-5.852
N10775 X232.024 Y9.328 Z-5.979
N10780 X231.945 Y9.289 Z-6.058
N10785 X231.906 Y9.272 Z-6.095
N10790 X231.709 Y9.225 Z-6.253
N10795 X231.626 Y9.205 Z-6.317
N10800 X231.473 Y9.178 Z-6.426
N10805 X231.457 Y9.176 Z-6.437
N10810 X231.245 Y9.147 Z-6.572
N10815 X231.094 Y9.128 Z-6.662
N10820 X230.954 Y9.113 Z-6.742
N10825 X230.746 Y9.09 Z-6.853
N10830 X230.53 Y9.066 Z-6.962
N10835 X230.416 Y9.055 Z-7.016
N10840 X230.124 Y9.024 Z-7.15
N10845 X229.813 Y8.992 Z-7.28
N10850 X229.514 Y8.957 Z-7.401
N10855 X229.136 Y8.915 Z-7.543
N10860 X228.825 Y8.876 Z-7.656
N10865 X228.519 Y8.831 Z-7.766
N10870 X228.239 Y8.783 Z-7.872
N10875 X227.957 Y8.729 Z-7.985
N10880 X227.771 Y8.687 Z-8.06
N10885 X227.539 Y8.605 Z-8.135
N10890 X227.562 Y8.221 Z-7.823
N10895 X227.584 Y7.85 Z-7.53
N10900 X227.599 Y7.616 Z-7.348
N10905 X227.636 Y7.155 Z-6.995
N10910 X227.654 Y6.932 Z-6.829
N10915 X227.672 Y6.713 Z-6.67
N10920 X227.69 Y6.497 Z-6.517
N10925 X227.723 Y6.138 Z-6.271
N10930 X227.752 Y5.838 Z-6.074
N10935 X227.785 Y5.509 Z-5.87
N10940 X227.815 Y5.238 Z-5.71
N10945 X227.844 Y4.98 Z-5.568
N10950 X227.882 Y4.676 Z-5.41
N10955 X227.914 Y4.419 Z-5.289
N10960 X227.93 Y4.294 Z-5.234
N10965 X227.97 Y4.009 Z-5.118
N10970 X227.988 Y3.888 Z-5.073
N10975 X228.005 Y3.771 Z-5.032
N10980 X228.021 Y3.655 Z-4.995
N10985 X228.045 Y3.501 Z-4.95
N10990 X228.065 Y3.383 Z-4.917
N10995 X228.1 Y3.167 Z-4.866
N11000 X228.117 Y3.053 Z-4.843
N11005 X228.142 Y2.899 Z-4.815
N11010 X228.167 Y2.752 Z-4.793
N11015 X228.191 Y2.613 Z-4.778
N11020 X228.214 Y2.477 Z-4.767
N11025 X228.251 Y2.258 Z-4.761
N11030 X228.256 Y2.226
N11035 X228.281 Y2.067 Z-4.764
N11040 X228.308 Y1.898 Z-4.776
N11045 X228.356 Y1.629 Z-4.805
N11050 X228.374 Y1.528 Z-4.821
N11055 X228.393 Y1.425 Z-4.839
N11060 X228.426 Y1.239 Z-4.879
N11065 X228.443 Y1.146 Z-4.901
N11070 X228.47 Y0.995 Z-4.941
N11075 X228.498 Y0.847 Z-4.984
N11080 X228.527 Y0.697 Z-5.033
N11085 X228.557 Y0.543 Z-5.089
N11090 X228.588 Y0.381 Z-5.152
N11095 X228.64 Y0.124 Z-5.262
N11100 X228.683 Y-0.085 Z-5.359
N11105 X228.709 Y-0.215 Z-5.424
N11110 X228.736 Y-0.35 Z-5.493
N11115 X228.764 Y-0.489 Z-5.569
N11120 X228.798 Y-0.653 Z-5.66
N11125 X228.832 Y-0.811 Z-5.751
N11130 X228.867 Y-0.97 Z-5.847
N11135 X228.902 Y-1.134 Z-5.95
N11140 X228.973 Y-1.465 Z-6.166
N11145 X229.013 Y-1.647 Z-6.289
N11150 X229.063 Y-1.872 Z-6.445
N11155 X229.114 Y-2.1 Z-6.608
N11160 X229.165 Y-2.333 Z-6.779
N11165 X229.267 Y-2.783 Z-7.123
N11170 X229.3 Y-2.924 Z-7.234
N11175 X229.403 Y-3.376 Z-7.594
N11180 X229.51 Y-3.844 Z-7.98
N11185 X229.619 Y-4.305 Z-8.37
N11190 X229.684 Y-4.304 Z-8.347
N11195 X229.917 Y-4.294 Z-8.262
N11200 X230.147 Y-4.278 Z-8.178
N11205 X230.363 Y-4.256 Z-8.096
N11210 X230.583 Y-4.229 Z-8.011
N11215 X230.795 Y-4.195 Z-7.929
N11220 X231.003 Y-4.155 Z-7.846
N11225 X231.211 Y-4.106 Z-7.761
N11230 X231.248 Y-4.095 Z-7.743
N11235 X231.319 Y-4.067 Z-7.704
N11240 X231.426 Y-4.017 Z-7.64
N11245 X231.51 Y-3.973 Z-7.585
N11250 X231.57 Y-3.943 Z-7.542
N11255 X231.649 Y-3.901 Z-7.483
N11260 X231.75 Y-3.843 Z-7.403
N11265 X231.861 Y-3.775 Z-7.311
N11270 X231.984 Y-3.699 Z-7.203
N11275 X232.131 Y-3.609 Z-7.067
N11280 X232.195 Y-3.571 Z-7.006
N11285 X232.298 Y-3.506 Z-6.904
N11290 X232.476 Y-3.393 Z-6.721
N11295 X232.678 Y-3.275 Z-6.514
N11300 X232.87 Y-3.165 Z-6.312
N11305 X233.181 Y-3.007 Z-5.991
N11310 X233.343 Y-2.938 Z-5.825
N11315 X233.484 Y-2.886 Z-5.681
N11320 X233.579 Y-2.855 Z-5.586
N11325 X233.664 Y-2.832 Z-5.499
N11330 X233.579 Y-2.855 Z-5.586
N11335 X233.484 Y-2.886 Z-5.681
N11340 X233.343 Y-2.938 Z-5.825
N11345 X233.181 Y-3.007 Z-5.991
N11350 X232.87 Y-3.165 Z-6.312
N11355 X232.678 Y-3.275 Z-6.514
N11360 X232.476 Y-3.393 Z-6.721
N11365 X232.298 Y-3.506 Z-6.904
N11370 X232.195 Y-3.571 Z-7.006
N11375 X232.131 Y-3.609 Z-7.067
N11380 X231.984 Y-3.699 Z-7.203
N11385 X231.861 Y-3.775 Z-7.311
N11390 X231.75 Y-3.843 Z-7.403
N11395 X231.649 Y-3.901 Z-7.483
N11400 X231.57 Y-3.943 Z-7.542
N11405 X231.51 Y-3.973 Z-7.585
N11410 X231.426 Y-4.017 Z-7.64
N11415 X231.319 Y-4.067 Z-7.704
N11420 X231.248 Y-4.095 Z-7.743
N11425 X231.211 Y-4.106 Z-7.761
N11430 X231.003 Y-4.155 Z-7.846
N11435 X230.795 Y-4.195 Z-7.929
N11440 X230.583 Y-4.229 Z-8.011
N11445 X230.363 Y-4.256 Z-8.096
N11450 X230.147 Y-4.278 Z-8.178
N11455 X229.917 Y-4.294 Z-8.262
N11460 X229.684 Y-4.304 Z-8.347
N11465 X229.619 Y-4.305 Z-8.37
N11470 X229.482 Y-4.399 Z-8.334
N11475 X229.286 Y-4.524 Z-8.284
N11480 X229.018 Y-4.682 Z-8.215
N11485 X228.86 Y-4.771 Z-8.175
N11490 X228.546 Y-4.932 Z-8.097
N11495 X228.402 Y-5.003 Z-8.061
N11500 X228.101 Y-5.139 Z-7.986
N11505 X228.018 Y-5.165 Z-7.959
N11510 X227.804 Y-5.225 Z-7.888
N11515 X227.404 Y-5.335 Z-7.758
N11520 X227.146 Y-5.398 Z-7.675
N11525 X226.778 Y-5.479 Z-7.565
N11530 X226.391 Y-5.555 Z-7.449
N11535 X226.143 Y-5.598 Z-7.379
N11540 X225.697 Y-5.666 Z-7.252
N11545 X225.404 Y-5.706 Z-7.171
N11550 X225.123 Y-5.738 Z-7.094
N11555 X224.759 Y-5.77 Z-7.002
N11560 X224.067 Y-5.811 Z-6.83
N11565 X223.873 Y-5.819 Z-6.782
N11570 X223.513 Y-5.831 Z-6.695
N11575 X223.007 Y-5.84 Z-6.567
N11580 X222.835 Z-6.526
N11585 X222.149 Y-5.834 Z-6.354
N11590 X221.337 Y-5.806 Z-6.151
N11595 X220.647 Y-5.766 Z-5.978
N11600 X220.53 Y-5.757 Z-5.948
N11605 X220.044 Y-5.719 Z-5.827
N11610 X219.741 Y-5.691 Z-5.748
N11615 X219.326 Y-5.65 Z-5.645
N11620 X218.969 Y-5.61 Z-5.552
N11625 X218.603 Y-5.566 Z-5.46
N11630 X218.182 Y-5.511 Z-5.35
N11635 X217.875 Y-5.468 Z-5.272
N11640 X217.139 Y-5.357 Z-5.079
N11645 X216.721 Y-5.29 Z-4.966
N11650 X216.396 Y-5.234 Z-4.881
N11655 X215.65 Y-5.1 Z-4.678
N11660 X215.303 Y-5.034 Z-4.581
N11665 X214.896 Y-4.954 Z-4.469
N11670 X214.136 Y-4.799 Z-4.254
N11675 X213.372 Y-4.636 Z-4.031
N11680 X212.455 Y-4.431 Z-3.755
N11685 X212.345 Y-4.402 Z-3.724
N11690 X211.606 Y-4.2 Z-3.521
N11695 X210.842 Y-3.993 Z-3.298
N11700 X210.061 Y-3.773 Z-3.066
N11705 X210. Y-3.756 Z-3.049
N11710 X209.525 Y-3.612 Z-2.912
N11715 X209.16 Y-3.498 Z-2.804
N11720 X208.723 Y-3.353 Z-2.682
N11725 X208.288 Y-3.196 Z-2.564
N11730 X207.853 Y-3.029 Z-2.454
N11735 X207.422 Y-2.851 Z-2.354
N11740 X207.271 Y-2.785 Z-2.323
N11745 X206.996 Y-2.658 Z-2.264
N11750 X206.576 Y-2.45 Z-2.185
N11755 X206.163 Y-2.228 Z-2.121
N11760 X205.917 Y-2.086 Z-2.092
N11765 X205.826 Y-2.026 Z-2.075
N11770 X205.775 Y-1.994 Z-2.068
N11775 X205.681 Y-1.937 Z-2.061
N11780 X205.533 Y-1.853 Z-2.056
N11785 X205.497 Y-1.833 Z-2.057
N11790 X205.393 Y-1.777 Z-2.064
N11795 X205.214 Y-1.686 Z-2.086
N11800 X205.144 Y-1.651 Z-2.1
N11805 X204.998 Y-1.587 Z-2.135
N11810 X204.917 Y-1.55 Z-2.157
N11815 X204.805 Y-1.501 Z-2.193
N11820 X204.654 Y-1.445 Z-2.251
N11825 X204.522 Y-1.396 Z-2.309
N11830 X204.436 Y-1.365 Z-2.348
N11835 X204.347 Y-1.336 Z-2.391
N11840 X204.234 Y-1.301 Z-2.451
N11845 X204.092 Y-1.259 Z-2.532
N11850 X203.966 Y-1.225 Z-2.606
N11855 X203.821 Y-1.189 Z-2.697
N11860 X203.602 Y-1.139 Z-2.843
N11865 X203.428 Y-1.103 Z-2.964
N11870 X203.324 Y-1.083 Z-3.04
N11875 X203.156 Y-1.052 Z-3.165
N11880 X202.865 Y-1.006 Z-3.389
N11885 X202.733 Y-0.985 Z-3.494
N11890 X202.541 Y-0.957 Z-3.65
N11895 X202.342 Y-0.933 Z-3.813
N11900 X202.165 Y-0.912 Z-3.961
N11905 X201.838 Y-0.876 Z-4.242
N11910 X201.515 Y-0.844 Z-4.523
N11915 X201.257 Y-0.821 Z-4.75
N11920 X200.983 Y-0.797 Z-4.996
N11925 X200.712 Y-0.775 Z-5.242
N11930 X200.433 Y-0.757 Z-5.497
N11935 X199.971 Y-0.728 Z-5.922
N11940 X199.266 Y-0.686 Z-6.584
N11945 X198.795 Y-0.662 Z-7.028
N11950 X198.115 Y-0.63 Z-7.675
N11955 Z5.
N11960 X69.379 Y15.279
N11965 Z4.
N11970 Z-3.078
N11975 X69.423 Y15.165 Z-3.015
N11980 X69.469 Y15.055 Z-2.956
N11985 X69.537 Y14.907 Z-2.879
N11990 X69.609 Y14.766 Z-2.809
N11995 X69.685 Y14.629 Z-2.746
N12000 X69.766 Y14.499 Z-2.689
N12005 X69.85 Y14.373 Z-2.64
N12010 X69.939 Y14.254 Z-2.597
N12015 X70.032 Y14.139 Z-2.561
N12020 X70.048 Y14.12 Z-2.555
N12025 X70.19 Y13.963 Z-2.511
N12030 X70.276 Y13.876 Z-2.491
N12035 X70.428 Y13.732 Z-2.463
N12040 X70.521 Y13.653 Z-2.453
N12045 X70.655 Y13.543 Z-2.442
N12050 X70.766 Y13.457 Z-2.437
N12055 X70.883 Y13.371 Z-2.434
N12060 X70.994 Y13.286 Z-2.428
N12065 X71.094 Y13.213 Z-2.425
N12070 X71.59 Y12.869 Z-2.426
N12075 X72.309 Y12.387 Z-2.425
N12080 X72.935 Y11.982
N12085 X73.269 Y11.771 Z-2.428
N12090 X73.567 Y11.586
N12095 X74.123 Y11.248 Z-2.432
N12100 X74.852 Y10.822 Z-2.436
N12105 X75.504 Y10.458 Z-2.439
N12110 X76.163 Y10.104 Z-2.442
N12115 X76.185 Y10.092
N12120 X76.829 Y9.762 Z-2.445
N12125 X77.09 Y9.631 Z-2.447
N12130 X77.5 Y9.431 Z-2.448
N12135 X77.852 Y9.264 Z-2.451
N12140 X78.178 Y9.112
N12145 X78.62 Y8.912 Z-2.454
N12150 X78.861 Y8.805
N12155 X79.395 Y8.575 Z-2.458
N12160 X80.176 Y8.254 Z-2.461
N12165 X80.942 Y7.957 Z-2.465
N12170 X81.646 Y7.7 Z-2.469
N12175 X82.355 Y7.455 Z-2.473
N12180 X82.381 Y7.446
N12185 X83.068 Y7.223 Z-2.478
N12190 X83.361 Y7.132 Z-2.482
N12195 X83.786 Y7.005 Z-2.483
N12200 X84.17 Y6.893 Z-2.488
N12205 X84.507 Y6.799 Z-2.489
N12210 X84.984 Y6.671 Z-2.495
N12215 X85.233 Y6.607 Z-2.496
N12220 X85.802 Y6.466 Z-2.503
N12225 X86.624 Y6.279 Z-2.512
N12230 X87.433 Y6.113 Z-2.521
N12235 X88.174 Y5.976 Z-2.531
N12240 X88.917 Y5.855 Z-2.541
N12245 X88.949 Y5.85 Z-2.542
N12250 X89.664 Y5.747 Z-2.553
N12255 X89.941 Y5.711 Z-2.56
N12260 X90.414 Y5.654 Z-2.566
N12265 X90.776 Y5.615 Z-2.575
N12270 X91.167 Y5.576 Z-2.58
N12275 X91.612 Y5.537 Z-2.591
N12280 X91.922 Y5.513 Z-2.595
N12285 X92.45 Y5.478 Z-2.608
N12290 X92.68 Y5.465 Z-2.612
N12295 X93.287 Y5.438 Z-2.627
N12300 X94.125 Y5.414 Z-2.644
N12305 X94.914 Y5.408 Z-2.66
N12310 X95.656 Y5.419 Z-2.676
N12315 X96.397 Y5.443 Z-2.692
N12320 X96.637 Y5.454 Z-2.7
N12325 X97.137 Y5.483 Z-2.709
N12330 X97.472 Y5.505 Z-2.719
N12335 X97.874 Y5.536 Z-2.727
N12340 X98.305 Y5.574 Z-2.739
N12345 X98.609 Y5.604 Z-2.744
N12350 X99.137 Y5.661 Z-2.758
N12355 X99.343 Y5.685 Z-2.762
N12360 X99.975 Y5.766 Z-2.777
N12365 X100.804 Y5.885 Z-2.8
N12370 X101.531 Y6.004 Z-2.819
N12375 X101.778 Y6.047 Z-2.827
N12380 X102.256 Y6.135 Z-2.838
N12385 X102.671 Y6.216 Z-2.851
N12390 X102.978 Y6.279 Z-2.857
N12395 X103.558 Y6.403 Z-2.874
N12400 X104.413 Y6.603 Z-2.894
N12405 X105.126 Y6.784 Z-2.91
N12410 X105.155 Y6.791 Z-2.911
N12415 X105.836 Y6.976 Z-2.925
N12420 X106.194 Y7.077 Z-2.935
N12425 X106.542 Y7.179 Z-2.94
N12430 X107.063 Y7.338 Z-2.953
N12435 X107.928 Y7.612 Z-2.967
N12440 X108.785 Y7.906 Z-2.982
N12445 X109.318 Y8.096 Z-2.986
N12450 X109.639 Y8.214 Z-2.992
N12455 X110.486 Y8.538 Z-3.
N12460 X110.687 Y8.617
N12465 X111.329 Y8.878 Z-3.007
N12470 X112.039 Y9.175
N12475 X112.994 Y9.599 Z-3.01
N12480 X113.371 Y9.771 Z-3.006
N12485 X113.716 Y9.932 Z-3.007
N12490 X114.656 Y10.453 Z-2.938
N12495 X115.919 Y11.161 Z-2.863
N12500 X116.915 Y11.723 Z-2.821
N12505 X117.419 Y12.012 Z-2.804
N12510 X117.906 Y12.285 Z-2.793
N12515 X118.701 Y12.739 Z-2.782
N12520 X119.882 Y13.405 Z-2.786
N12525 X120.873 Y13.96 Z-2.81
N12530 X121.29 Y14.196 Z-2.825
N12535 X121.864 Y14.513 Z-2.851
N12540 X122.613 Y14.926 Z-2.896
N12545 X123.277 Y15.288 Z-2.946
N12550 X123.86 Y15.6 Z-2.996
N12555 X124.459 Y15.922 Z-3.054
N12560 X124.865 Y16.133 Z-3.1
N12565 X125.016 Y16.213 Z-3.118
N12570 X125.58 Y16.5 Z-3.193
N12575 X126.157 Y16.784 Z-3.281
N12580 X126.745 Y17.064 Z-3.382
N12585 X127.346 Y17.339 Z-3.498
N12590 X127.962 Y17.609 Z-3.63
N12595 X128.595 Y17.877 Z-3.781
N12600 X129.245 Y18.137 Z-3.949
N12605 X129.918 Y18.389 Z-4.137
N12610 X130.06 Y18.44 Z-4.178
N12615 X130.616 Y18.636 Z-4.35
N12620 X130.778 Y18.692 Z-4.402
N12625 X130.863 Y18.72 Z-4.43
N12630 X131.022 Y18.623 Z-4.334
N12635 X131.181 Y18.531 Z-4.243
N12640 X131.341 Y18.444 Z-4.157
N12645 X131.496 Y18.363 Z-4.08
N12650 X131.691 Y18.264 Z-3.991
N12655 X131.959 Y18.141 Z-3.883
N12660 X132.048 Y18.102 Z-3.849
N12665 X132.193 Y18.04 Z-3.799
N12670 X132.375 Y17.967 Z-3.745
N12675 X132.558 Y17.9 Z-3.699
N12680 X132.741 Y17.84 Z-3.659
N12685 X132.881 Y17.797 Z-3.635
N12690 X133.087 Y17.738 Z-3.609
N12695 X133.26 Y17.692 Z-3.593
N12700 X133.435 Y17.653 Z-3.582
N12705 X133.577 Y17.624 Z-3.58
N12710 X133.75 Y17.591 Z-3.586
N12715 X133.924 Y17.564 Z-3.597
N12720 X134.1 Y17.544 Z-3.615
N12725 X134.585 Y17.475 Z-3.656
N12730 X135.125 Y17.39 Z-3.697
N12735 X135.661 Y17.294 Z-3.734
N12740 X135.961 Y17.235 Z-3.752
N12745 X136.19 Y17.188 Z-3.767
N12750 X136.797 Y17.052 Z-3.798
N12755 X136.867 Y17.035 Z-3.801
N12760 X137.233 Y16.944 Z-3.82
N12765 X137.776 Y16.797 Z-3.839
N12770 X138.246 Y16.656 Z-3.855
N12775 X138.741 Y16.496 Z-3.865
N12780 X139.228 Y16.324 Z-3.872
N12785 X139.586 Y16.188
N12790 X139.706 Y16.141 Z-3.874
N12795 X140.176 Y15.945 Z-3.872
N12800 X140.476 Y15.812 Z-3.865
N12805 X140.637 Y15.737 Z-3.864
N12810 X141.091 Y15.517 Z-3.852
N12815 X141.351 Y15.382 Z-3.841
N12820 X141.533 Y15.284 Z-3.836
N12825 X141.976 Y15.034 Z-3.813
N12830 X142.178 Y14.913 Z-3.799
N12835 X142.541 Y14.69 Z-3.779
N12840 X142.596 Y14.654 Z-3.775
N12845 X143.024 Y14.37 Z-3.746
N12850 X143.413 Y14.092 Z-3.714
N12855 X143.526 Y14.009 Z-3.707
N12860 X143.805 Y13.795 Z-3.68
N12865 X144.018 Y13.627 Z-3.663
N12870 X144.196 Y13.48 Z-3.644
N12875 X144.52 Y13.205 Z-3.614
N12880 X144.572 Y13.158 Z-3.608
N12885 X144.97 Y12.795 Z-3.567
N12890 X145.305 Y12.47 Z-3.529
N12895 X145.429 Y12.345 Z-3.518
N12900 X145.655 Y12.109 Z-3.49
N12905 X145.872 Y11.877 Z-3.467
N12910 X145.998 Y11.735 Z-3.451
N12915 X146.329 Y11.351 Z-3.413
N12920 X146.649 Y10.957 Z-3.376
N12925 X146.714 Y10.873 Z-3.37
N12930 X146.959 Y10.548 Z-3.34
N12935 X147.109 Y10.342 Z-3.325
N12940 X147.285 Y10.09 Z-3.303
N12945 X147.483 Y9.792 Z-3.287
N12950 X147.724 Y9.411 Z-3.26
N12955 X147.835 Y9.226 Z-3.252
N12960 X148.128 Y8.716 Z-3.224
N12965 X148.166 Y8.646 Z-3.222
N12970 X148.476 Y8.051 Z-3.196
N12975 X148.502 Y7.996 Z-3.194
N12980 X148.667 Y7.642 Z-3.185
N12985 X148.799 Y7.242 Z-3.128
N12990 X148.819 Y7.177 Z-3.12
N12995 X149.022 Y6.475 Z-3.033
N13000 X149.117 Y6.098 Z-2.99
N13005 X149.21 Y5.704 Z-2.95
N13010 X149.292 Y5.309 Z-2.912
N13015 X149.355 Y4.971 Z-2.882
N13020 X149.365 Y4.915 Z-2.877
N13025 X149.428 Y4.516 Z-2.844
N13030 X149.454 Y4.334 Z-2.832
N13035 X149.48 Y4.122 Z-2.814
N13040 X149.524 Y3.718 Z-2.786
N13045 X149.533 Y3.621 Z-2.781
N13050 X149.554 Y3.315 Z-2.759
N13055 X149.574 Y2.914 Z-2.737
N13060 X149.579 Y2.516 Z-2.712
N13065 X149.575 Y2.116 Z-2.692
N13070 X149.559 Y1.776 Z-2.674
N13075 X149.542 Y1.532 Z-2.663
N13080 X149.522 Y1.316 Z-2.651
N13085 X149.509 Y1.197 Z-2.646
N13090 X149.466 Y0.866 Z-2.629
N13095 X149.41 Y0.52 Z-2.611
N13100 X149.329 Y0.127 Z-2.589
N13105 X149.276 Y-0.099 Z-2.577
N13110 X149.23 Y-0.271 Z-2.566
N13115 X149.191 Y-0.411 Z-2.559
N13120 X149.096 Y-0.718 Z-2.54
N13125 X148.983 Y-1.042 Z-2.517
N13130 X148.855 Y-1.361 Z-2.493
N13135 X148.832 Y-1.414 Z-2.488
N13140 X148.744 Y-1.613 Z-2.474
N13145 X148.661 Y-1.786 Z-2.457
N13150 X148.602 Y-1.903 Z-2.448
N13155 X148.535 Y-2.032 Z-2.435
N13160 X148.43 Y-2.252 Z-2.399
N13165 X148.397 Y-2.317 Z-2.388
N13170 X148.303 Y-2.494 Z-2.36
N13175 X148.215 Y-2.65 Z-2.332
N13180 X148.131 Y-2.792 Z-2.31
N13185 X148.018 Y-2.973 Z-2.277
N13190 X147.815 Y-3.277 Z-2.23
N13195 X147.601 Y-3.568 Z-2.184
N13200 X147.515 Y-3.679 Z-2.169
N13205 X147.378 Y-3.848 Z-2.142
N13210 X147.149 Y-4.114 Z-2.106
N13215 X146.911 Y-4.369 Z-2.071
N13220 X146.794 Y-4.488 Z-2.058
N13225 X146.667 Y-4.611 Z-2.041
N13230 X146.395 Y-4.864 Z-2.013
N13235 X146.16 Y-5.065 Z-1.99
N13240 X145.899 Y-5.277 Z-1.971
N13245 X145.632 Y-5.48 Z-1.954
N13250 X145.53 Y-5.555 Z-1.95
N13255 X145.361 Y-5.673 Z-1.94
N13260 X145.068 Y-5.871 Z-1.929
N13265 X144.803 Y-6.037 Z-1.92
N13270 X144.518 Y-6.207 Z-1.916
N13275 X144.216 Y-6.376 Z-1.913
N13280 X144.093 Y-6.441 Z-1.915
N13285 X143.628 Y-6.679 Z-1.917
N13290 X143.586 Y-6.698 Z-1.919
N13295 X143.027 Y-6.954 Z-1.931
N13300 X142.416 Y-7.204 Z-1.955
N13305 X142.004 Y-7.356 Z-1.979
N13310 X141.796 Y-7.429 Z-1.989
N13315 X141.171 Y-7.632 Z-2.035
N13320 X140.992 Y-7.686 Z-2.052
N13325 X140.536 Y-7.773 Z-2.049
N13330 X140.094 Y-7.838
N13335 X139.907 Y-7.861 Z-2.045
N13340 X139.815 Y-7.868 Z-2.047
N13345 X139.723 Y-7.871 Z-2.054
N13350 X139.593 Y-7.873 Z-2.065
N13355 X139.032 Y-7.867 Z-2.1
N13360 X138.974 Y-7.864 Z-2.103
N13365 X138.593 Y-7.842 Z-2.129
N13370 X138.235 Y-7.812 Z-2.145
N13375 X138.102 Y-7.798 Z-2.153
N13380 X137.856 Y-7.765 Z-2.162
N13385 X137.62 Y-7.73 Z-2.174
N13390 X137.478 Y-7.704 Z-2.178
N13395 X137.1 Y-7.63 Z-2.191
N13400 X136.695 Y-7.53 Z-2.201
N13405 X136.352 Y-7.428 Z-2.203
N13410 X136.244 Y-7.394 Z-2.205
N13415 X135.984 Y-7.303 Z-2.203
N13420 X135.829 Y-7.243
N13425 X135.622 Y-7.158 Z-2.198
N13430 X135.42 Y-7.067 Z-2.192
N13435 X135.222 Y-6.97 Z-2.183
N13440 X134.962 Y-6.831 Z-2.167
N13445 X134.834 Y-6.756 Z-2.159
N13450 X134.585 Y-6.6 Z-2.137
N13455 X134.462 Y-6.517 Z-2.126
N13460 X134.263 Y-6.374 Z-2.102
N13465 X134.097 Y-6.244 Z-2.082
N13470 X133.926 Y-6.103 Z-2.055
N13475 X133.684 Y-5.884 Z-2.009
N13480 X133.631 Y-5.833 Z-2.001
N13485 X133.416 Y-5.614 Z-1.96
N13490 X133.35 Y-5.542 Z-1.95
N13495 X133.171 Y-5.335 Z-1.916
N13500 X133.086 Y-5.231 Z-1.903
N13505 X132.944 Y-5.048 Z-1.875
N13510 X132.839 Y-4.902 Z-1.859
N13515 X132.734 Y-4.749 Z-1.838
N13520 X132.567 Y-4.488 Z-1.811
N13525 X132.544 Y-4.447 Z-1.806
N13530 X132.368 Y-4.138 Z-1.778
N13535 X132.206 Y-3.818 Z-1.755
N13540 X132.065 Y-3.502 Z-1.735
N13545 X132.034 Y-3.429 Z-1.732
N13550 X131.935 Y-3.175 Z-1.719
N13555 X131.881 Y-3.027 Z-1.716
N13560 X131.819 Y-2.846 Z-1.709
N13565 X131.715 Y-2.512 Z-1.703
N13570 X131.625 Y-2.176
N13575 X131.548 Y-1.836 Z-1.707
N13580 X131.534 Y-1.769 Z-1.709
N13585 X131.482 Y-1.492 Z-1.716
N13590 X131.456 Y-1.337 Z-1.723
N13595 X131.427 Y-1.142 Z-1.731
N13600 X131.387 Y-0.796 Z-1.752
N13605 X131.356 Y-0.441 Z-1.777
N13610 X131.335 Y-0.085 Z-1.813
N13615 X131.334 Y-0.03 Z-1.82
N13620 X131.333 Y0.274 Z-1.849
N13625 X131.344 Y0.495 Z-1.869
N13630 X131.356 Y0.632 Z-1.878
N13635 X131.369 Y0.748 Z-1.887
N13640 X131.407 Y1. Z-1.901
N13645 X131.47 Y1.295 Z-1.913
N13650 X131.482 Y1.344 Z-1.914
N13655 X131.524 Y1.501 Z-1.921
N13660 X131.583 Y1.693 Z-1.924
N13665 X131.601 Y1.746 Z-1.926
N13670 X131.709 Y2.033 Z-1.929
N13675 X131.794 Y2.227 Z-1.931
N13680 X131.859 Y2.363 Z-1.929
N13685 X131.91 Y2.463 Z-1.93
N13690 X132.036 Y2.693 Z-1.926
N13695 X132.198 Y2.949 Z-1.921
N13700 X132.23 Y2.996 Z-1.919
N13705 X132.326 Y3.131 Z-1.917
N13710 X132.451 Y3.295 Z-1.91
N13715 X132.486 Y3.338
N13720 X132.691 Y3.574 Z-1.899
N13725 X132.829 Y3.716 Z-1.893
N13730 X132.957 Y3.835 Z-1.882
N13735 X133.052 Y3.919 Z-1.877
N13740 X133.195 Y4.039 Z-1.865
N13745 X133.299 Y4.121 Z-1.862
N13750 X133.6 Y4.331 Z-1.854
N13755 X133.898 Y4.519 Z-1.845
N13760 X133.932 Y4.54 Z-1.844
N13765 X134.111 Y4.644 Z-1.84
N13770 X134.273 Y4.733 Z-1.834
N13775 X134.398 Y4.799 Z-1.832
N13780 X134.625 Y4.912 Z-1.824
N13785 X134.692 Y4.944
N13790 X134.993 Y5.079 Z-1.816
N13795 X135.353 Y5.223 Z-1.809
N13800 X135.688 Y5.34 Z-1.804
N13805 X135.727 Y5.353 Z-1.803
N13810 X136.108 Y5.468 Z-1.802
N13815 X136.261 Y5.511 Z-1.805
N13820 X136.494 Y5.568
N13825 X136.923 Y5.66 Z-1.817
N13830 X137.281 Y5.719 Z-1.828
N13835 X137.544 Y5.755 Z-1.844
N13840 X137.684 Y5.762 Z-1.841
N13845 X137.736 Y5.763 Z-1.842
N13850 X138.037 Y5.761 Z-1.835
N13855 X138.209 Y5.751 Z-1.832
N13860 X138.495 Y5.725 Z-1.821
N13865 X138.679 Y5.698 Z-1.815
N13870 X138.912 Y5.657 Z-1.804
N13875 X139.143 Y5.604 Z-1.793
N13880 X139.246 Y5.577 Z-1.786
N13885 X139.372 Y5.539 Z-1.782
N13890 X139.597 Y5.455 Z-1.78
N13895 X139.764 Y5.387 Z-1.776
N13900 X139.816 Y5.363 Z-1.777
N13905 X140.073 Y5.237 Z-1.773
N13910 X140.136 Y5.202 Z-1.772
N13915 X140.242 Y5.142 Z-1.774
N13920 X140.483 Y4.993 Z-1.772
N13925 X140.645 Y4.88 Z-1.774
N13930 X140.809 Y4.757
N13935 X140.837 Y4.736 Z-1.775
N13940 X141.082 Y4.528 Z-1.776
N13945 X141.199 Y4.418 Z-1.78
N13950 X141.392 Y4.225 Z-1.782
N13955 X141.531 Y4.07 Z-1.785
N13960 X141.651 Y3.93
N13965 X141.685 Y3.886 Z-1.786
N13970 X141.874 Y3.637 Z-1.787
N13975 X141.969 Y3.498 Z-1.789
N13980 X142.101 Y3.296 Z-1.787
N13985 X142.219 Y3.091 Z-1.786
N13990 X142.29 Y2.961 Z-1.783
N13995 X142.332 Y2.88
N14000 X142.458 Y2.616 Z-1.774
N14005 X142.531 Y2.445 Z-1.77
N14010 X142.619 Y2.222 Z-1.759
N14015 X142.715 Y1.939 Z-1.742
N14020 X142.768 Y1.761 Z-1.731
N14025 X142.829 Y1.525 Z-1.711
N14030 X142.904 Y1.19 Z-1.683
N14035 X142.983 Y0.821 Z-1.663
N14040 X142.992 Y0.742 Z-1.661
N14045 X142.995 Y0.69 Z-1.662
N14050 X142.996 Y0.638 Z-1.665
N14055 Y0.437 Z-1.682
N14060 X142.995 Y0.408 Z-1.685
N14065 X142.981 Y0.216 Z-1.703
N14070 X142.94 Y-0.068 Z-1.731
N14075 X142.919 Y-0.174 Z-1.744
N14080 X142.872 Y-0.358 Z-1.768
N14085 X142.846 Y-0.449 Z-1.777
N14090 X142.817 Y-0.539 Z-1.789
N14095 X142.753 Y-0.706 Z-1.812
N14100 X142.682 Y-0.869 Z-1.83
N14105 X142.601 Y-1.022 Z-1.851
N14110 X142.518 Y-1.167 Z-1.866
N14115 X142.472 Y-1.236 Z-1.873
N14120 X142.424 Y-1.303 Z-1.882
N14125 X142.295 Y-1.468 Z-1.895
N14130 X142.25 Y-1.521 Z-1.899
N14135 X142.17 Y-1.593 Z-1.898
N14140 X142.052 Y-1.69 Z-1.89
N14145 X142.006 Y-1.724 Z-1.884
N14150 X141.927 Y-1.781 Z-1.877
N14155 X141.793 Y-1.863 Z-1.865
N14160 X141.648 Y-1.944 Z-1.845
N14165 X141.596 Y-1.968 Z-1.838
N14170 X141.491 Y-2.016 Z-1.826
N14175 X141.323 Y-2.085 Z-1.802
N14180 X141.245 Y-2.113 Z-1.79
N14185 X141.144 Y-2.145 Z-1.779
N14190 X140.955 Y-2.201 Z-1.753
N14195 X140.885 Y-2.218 Z-1.744
N14200 X140.764 Y-2.244 Z-1.731
N14205 X140.598 Y-2.274 Z-1.709
N14210 X140.518 Y-2.287 Z-1.701
N14215 X140.341 Y-2.309 Z-1.688
N14220 X140.23 Y-2.32 Z-1.677
N14225 X140.15 Y-2.326 Z-1.671
N14230 X139.861 Y-2.336 Z-1.658
N14235 X139.779 Y-2.335 Z-1.656
N14240 X139.552 Y-2.326 Z-1.657
N14245 X139.49 Y-2.315 Z-1.649
N14250 X139.4 Y-2.297 Z-1.642
N14255 X139.208 Y-2.241 Z-1.62
N14260 X139.067 Y-2.19 Z-1.597
N14265 X139.016 Y-2.169 Z-1.591
N14270 X138.896 Y-2.112 Z-1.57
N14275 X138.826 Y-2.076 Z-1.56
N14280 X138.763 Y-2.04 Z-1.547
N14285 X138.701 Y-2.001 Z-1.537
N14290 X138.643 Y-1.96 Z-1.531
N14295 X138.607 Y-1.928 Z-1.528
N14300 X138.554 Y-1.875 Z-1.527
N14305 X138.486 Y-1.803 Z-1.53
N14310 X138.42 Y-1.725 Z-1.529
N14315 X138.345 Y-1.63 Z-1.531
N14320 X138.292 Y-1.558 Z-1.529
N14325 X138.214 Y-1.445
N14330 X138.174 Y-1.379 Z-1.527
N14335 X138.077 Y-1.213 Z-1.523
N14340 X138.06 Y-1.18 Z-1.522
N14345 X137.975 Y-1.005 Z-1.518
N14350 X137.962 Y-0.975 Z-1.516
N14355 X137.889 Y-0.794 Z-1.51
N14360 X137.876 Y-0.754 Z-1.508
N14365 X137.819 Y-0.571 Z-1.503
N14370 X137.809 Y-0.529 Z-1.501
N14375 X137.769 Y-0.347 Z-1.496
N14380 X137.76 Y-0.29 Z-1.494
N14385 X137.744 Y-0.161
N14390 X137.737 Y-0.067 Z-1.491
N14395 X137.735 Y0.061 Z-1.493
N14400 X137.737 Y0.15 Z-1.491
N14405 X137.744 Y0.227 Z-1.494
N14410 X137.755 Y0.266 Z-1.49
N14415 X137.786 Y0.366 Z-1.476
N14420 X137.82 Y0.45 Z-1.463
N14425 X137.861 Y0.528 Z-1.453
N14430 X137.924 Y0.636 Z-1.433
N14435 X137.98 Y0.714 Z-1.426
N14440 X138.056 Y0.806 Z-1.412
N14445 X138.129 Y0.885 Z-1.405
N14450 X138.195 Y0.945 Z-1.399
N14455 X138.297 Y1.03 Z-1.396
N14460 X138.312 Y1.041 Z-1.397
N14465 X138.407 Y1.107
N14470 X138.523 Y1.179 Z-1.404
N14475 X138.649 Y1.246 Z-1.414
N14480 X138.79 Y1.312 Z-1.431
N14485 X138.835 Y1.331 Z-1.438
N14490 X138.849 Y1.308 Z-1.412
N14495 X138.835 Y1.331 Z-1.438
N14500 X138.84 Y1.335 Z-1.436
N14505 X138.855 Y1.352 Z-1.429
N14510 X138.874 Y1.376 Z-1.418
N14515 X138.895 Y1.407 Z-1.402
N14520 X138.916 Y1.442 Z-1.38
N14525 X138.941 Y1.489 Z-1.344
N14530 X138.951 Y1.505 Z-1.329
N14535 X138.961 Y1.526 Z-1.309
N14540 X138.972 Y1.545 Z-1.289
N14545 Z5.
N14550 X155.421 Y-2.134
N14555 Z4.
N14560 Z-1.722
N14565 X155.466 Y-2.191 Z-1.791
N14570 X155.504 Y-2.23 Z-1.842
N14575 X155.548 Y-2.269 Z-1.895
N14580 X155.598 Y-2.306 Z-1.95
N14585 X155.641 Y-2.334 Z-1.993
N14590 X155.638 Y-2.336 Z-1.99
N14595 X155.587 Y-2.378 Z-1.934
N14600 X155.556 Y-2.407 Z-1.897
N14605 X155.514 Y-2.453 Z-1.841
N14610 X155.479 Y-2.496 Z-1.789
N14615 X155.455 Y-2.533 Z-1.746
N14620 X155.479 Y-2.496 Z-1.789
N14625 X155.514 Y-2.453 Z-1.841
N14630 X155.556 Y-2.407 Z-1.897
N14635 X155.587 Y-2.378 Z-1.934
N14640 X155.638 Y-2.336 Z-1.99
N14645 X155.641 Y-2.334 Z-1.993
N14650 X157.037 Y-2.299 Z-2.596
N14655 X157.696 Y-2.29 Z-2.875
N14660 X158.291 Y-2.288 Z-3.121
N14665 X158.988 Y-2.287 Z-3.399
N14670 X159.516 Y-2.293 Z-3.604
N14675 X160.214 Y-2.301 Z-3.861
N14680 X160.692 Y-2.313 Z-4.03
N14685 X161.367 Y-2.33 Z-4.253
N14690 X161.824 Y-2.349 Z-4.395
N14695 X162.344 Y-2.371 Z-4.543
N14700 X162.861 Y-2.397 Z-4.676
N14705 X163.364 Y-2.426 Z-4.79
N14710 X163.852 Y-2.458 Z-4.885
N14715 X164.326 Y-2.493 Z-4.96
N14720 X164.732 Y-2.527 Z-5.009
N14725 X164.747 Y-2.526 Z-5.008
N14730 X164.932 Y-2.512 Z-4.985
N14735 X165.073 Y-2.5 Z-4.965
N14740 X165.487 Y-2.474 Z-4.898
N14745 X165.916 Y-2.457 Z-4.819
N14750 X166.361 Y-2.444 Z-4.723
N14755 X166.856 Y-2.439 Z-4.606
N14760 X167.305 Z-4.49
N14765 X167.826 Y-2.449 Z-4.347
N14770 X168.322 Y-2.46 Z-4.198
N14775 X168.859 Y-2.478 Z-4.029
N14780 X169.414 Y-2.495 Z-3.84
N14785 X169.736 Y-2.509 Z-3.728
N14790 X170.189 Y-2.522 Z-3.561
N14795 X170.659 Y-2.534 Z-3.379
N14800 X171.13 Y-2.545 Z-3.188
N14805 X171.602 Y-2.548 Z-2.989
N14810 X171.815 Y-2.545 Z-2.896
N14815 X172.083 Y-2.546 Z-2.776
N14820 X172.573 Y-2.538 Z-2.55
N14825 X173.091 Y-2.519 Z-2.302
N14830 X173.552 Y-2.5 Z-2.066
N14835 X173.701 Y-2.484 Z-1.984
N14840 X173.986 Y-2.455 Z-1.83
N14845 X174.154 Y-2.44 Z-1.733
N14850 X174.232 Y-2.437 Z-1.685
N14855 X174.341 Y-2.428 Z-1.611
N14860 X174.432 Y-2.417 Z-1.542
N14865 X174.483 Y-2.406 Z-1.499
N14870 X174.547 Y-2.395 Z-1.443
N14875 X174.585 Y-2.383 Z-1.405
N14880 X174.969 Y-2.216 Z-1.001
N14885 Z5.
N14890 X180.113 Y40.365
N14895 Z4.
N14900 Z-1.408
N14905 X180.159 Y40.324 Z-1.463
N14910 X180.188 Y40.293 Z-1.498
N14915 X180.23 Y40.249 Z-1.545
N14920 X180.271 Y40.201 Z-1.59
N14925 X180.302 Y40.161 Z-1.624
N14930 X180.381 Y40.043 Z-1.715
N14935 X180.432 Y39.95 Z-1.775
N14940 X180.45 Y39.905 Z-1.797
N14945 X180.867 Y38.94 Z-2.306
N14950 X181.243 Y38.041 Z-2.769
N14955 X181.586 Y37.19 Z-3.193
N14960 X181.868 Y36.49 Z-3.523
N14965 X181.949 Y36.298 Z-3.611
N14970 X182.137 Y35.831 Z-3.816
N14975 X182.286 Y35.482 Z-3.962
N14980 X182.398 Y35.205 Z-4.073
N14985 X182.51 Y34.943 Z-4.172
N14990 X182.615 Y34.709 Z-4.258
N14995 X182.803 Y34.272 Z-4.406
N15000 X182.944 Y33.961 Z-4.505
N15005 X183.096 Y33.628 Z-4.598
N15010 X183.245 Y33.307 Z-4.679
N15015 X183.39 Y33.001 Z-4.745
N15020 X183.536 Y32.697 Z-4.8
N15025 X183.683 Y32.395 Z-4.845
N15030 X183.833 Y32.091 Z-4.879
N15035 X183.982 Y31.789 Z-4.903
N15040 X184.133 Y31.484 Z-4.915
N15045 X184.28 Y31.185
N15050 X184.417 Y30.906 Z-4.906
N15055 X184.551 Y30.628 Z-4.887
N15060 X184.682 Y30.355 Z-4.858
N15065 X184.745 Y30.217 Z-4.84
N15070 X184.81 Y30.081 Z-4.82
N15075 X184.9 Y29.883 Z-4.787
N15080 X185.054 Y29.543 Z-4.72
N15085 X185.185 Y29.247 Z-4.65
N15090 X185.31 Y28.953 Z-4.57
N15095 X185.407 Y28.718 Z-4.499
N15100 X185.458 Y28.582 Z-4.452
N15105 X185.505 Y28.448 Z-4.403
N15110 X185.612 Y28.141 Z-4.283
N15115 X185.781 Y27.637 Z-4.072
N15120 X185.924 Y27.212 Z-3.882
N15125 X186.074 Y26.777 Z-3.68
N15130 X186.231 Y26.337 Z-3.47
N15135 X186.398 Y25.889 Z-3.252
N15140 X186.565 Y25.456 Z-3.036
N15145 X186.761 Y24.986 Z-2.802
N15150 X186.892 Y24.681 Z-2.645
N15155 X186.921 Y24.616 Z-2.613
N15160 X187.083 Y24.269 Z-2.435
N15165 X187.272 Y23.884 Z-2.24
N15170 X187.4 Y23.633 Z-2.117
N15175 X187.472 Y23.5 Z-2.048
N15180 X187.682 Y23.128 Z-1.862
N15185 X187.718 Y23.067 Z-1.832
N15190 X187.79 Y22.958 Z-1.783
N15195 X187.795 Y22.948 Z-1.778
N15200 X187.814 Y22.895 Z-1.745
N15205 X187.833 Y22.815 Z-1.69
N15210 X187.839 Y22.773 Z-1.659
N15215 X187.845 Y22.691 Z-1.592
N15220 Y22.666 Z-1.569
N15225 Y22.643 Z-1.548
N15230 Z5.
N15235 X216.908 Y15.812
N15240 Z4.
N15245 Z-1.439
N15250 X216.912 Y15.824 Z-1.452
N15255 X216.932 Y15.887 Z-1.511
N15260 X216.954 Y15.937 Z-1.558
N15265 X216.963 Y15.954 Z-1.574
N15270 X217.012 Y16.042 Z-1.654
N15275 X217.035 Y16.077 Z-1.685
N15280 X217.13 Y16.202 Z-1.796
N15285 X217.158 Y16.233 Z-1.822
N15290 X217.455 Y16.467 Z-2.014
N15295 X217.776 Y16.725 Z-2.218
N15300 X217.944 Y16.857 Z-2.322
N15305 X218.372 Y17.199 Z-2.583
N15310 X218.894 Y17.611 Z-2.887
N15315 X219.355 Y17.975 Z-3.143
N15320 X219.515 Y18.103 Z-3.23
N15325 X219.808 Y18.331 Z-3.383
N15330 X220.064 Y18.534 Z-3.516
N15335 X220.254 Y18.681 Z-3.609
N15340 X220.598 Y18.95 Z-3.776
N15345 X221.117 Y19.35 Z-4.011
N15350 X221.556 Y19.685 Z-4.195
N15355 X221.98 Y20.005 Z-4.36
N15360 X222.111 Y20.105 Z-4.409
N15365 X222.4 Y20.317 Z-4.509
N15370 X222.589 Y20.46 Z-4.573
N15375 X222.816 Y20.623 Z-4.644
N15380 X223.057 Y20.801 Z-4.717
N15385 X223.23 Y20.923 Z-4.764
N15390 X223.514 Y21.127 Z-4.839
N15395 X223.833 Y21.349 Z-4.912
N15400 X223.966 Y21.462 Z-4.928
N15405 X224.119 Y21.59 Z-4.939
N15410 X224.249 Y21.703 Z-4.945
N15415 X224.351 Y21.796 Z-4.947
N15420 X224.584 Y21.998 Z-4.945
N15425 X224.743 Y22.144 Z-4.937
N15430 X224.903 Y22.285 Z-4.925
N15435 X225.139 Y22.503 Z-4.897
N15440 X225.236 Y22.589 Z-4.883
N15445 X225.456 Y22.794 Z-4.843
N15450 X225.588 Y22.911 Z-4.816
N15455 X225.777 Y23.087 Z-4.77
N15460 X225.961 Y23.25 Z-4.722
N15465 X226.106 Y23.385 Z-4.679
N15470 X226.357 Y23.607 Z-4.599
N15475 X226.445 Y23.688 Z-4.568
N15480 X226.797 Y23.996 Z-4.439
N15485 X227.226 Y24.366 Z-4.261
N15490 X227.542 Y24.636 Z-4.119
N15495 X227.703 Y24.768 Z-4.044
N15500 X227.937 Y24.964 Z-3.931
N15505 X228.197 Y25.173 Z-3.801
N15510 X228.351 Y25.3 Z-3.721
N15515 X228.782 Y25.642 Z-3.492
N15520 X229.289 Y26.028 Z-3.214
N15525 X229.703 Y26.338 Z-2.976
N15530 X230.195 Y26.693 Z-2.687
N15535 X230.409 Y26.841 Z-2.559
N15540 X230.65 Y27.02 Z-2.403
N15545 X230.707 Y27.06 Z-2.369
N15550 X230.898 Y27.189 Z-2.251
N15555 X231.33 Y27.471 Z-1.99
N15560 X231.503 Y27.586 Z-1.879
N15565 X231.65 Y27.693 Z-1.775
N15570 X231.762 Y27.783 Z-1.687
N15575 X231.805 Y27.81 Z-1.649
N15580 X231.853 Y27.84 Z-1.604
N15585 X231.902 Y27.866 Z-1.556
N15590 X231.953 Y27.888 Z-1.508
N15595 X232.001 Y27.905 Z-1.461
N15600 X232.063 Y27.919 Z-1.4
N15605 X232.174 Y27.933 Z-1.291
N15610 X232.463 Y27.984 Z-1.001
N15615 Z5.
N15620 X219.539 Y-12.113
N15625 Z4.
N15630 Z-1.001
N15635 X219.695 Y-12.31 Z-1.209
N15640 X219.83 Y-12.464 Z-1.373
N15645 X219.949 Y-12.589 Z-1.506
N15650 X220.051 Y-12.686 Z-1.611
N15655 X220.166 Y-12.795 Z-1.722
N15660 X220.256 Y-12.874 Z-1.803
N15665 X220.482 Y-13.053 Z-1.989
N15670 X220.705 Y-13.222 Z-2.154
N15675 X220.936 Y-13.386 Z-2.314
N15680 X221.342 Y-13.674 Z-2.576
N15685 X221.731 Y-13.962 Z-2.823
N15690 X222.027 Y-14.191 Z-3.007
N15695 X222.467 Y-14.534 Z-3.269
N15700 X222.818 Y-14.814 Z-3.467
N15705 X222.994 Y-14.96 Z-3.564
N15710 X223.162 Y-15.094 Z-3.653
N15715 X223.448 Y-15.331 Z-3.8
N15720 X223.828 Y-15.645 Z-3.983
N15725 X224.154 Y-15.918 Z-4.129
N15730 X224.305 Y-16.047 Z-4.195
N15735 X224.475 Y-16.188 Z-4.264
N15740 X224.712 Y-16.391 Z-4.358
N15745 X225.105 Y-16.722 Z-4.5
N15750 X225.368 Y-16.944 Z-4.584
N15755 X225.486 Y-17.049 Z-4.618
N15760 X225.58 Y-17.13 Z-4.642
N15765 X225.823 Y-17.346 Z-4.701
N15770 X226.066 Y-17.562 Z-4.751
N15775 X226.199 Y-17.684 Z-4.775
N15780 X226.308 Y-17.779 Z-4.791
N15785 X226.543 Y-17.991 Z-4.823
