%
(CHAR1)
(T1  D=6.35 CR=0. - ZMIN=-22. - FLAT END MILL)
N10 G90 G94 G17 G91.1
N15 G21
(WHEN USING FUSION 360 FOR PERSONAL USE, THE FEEDRATE OF)
(RAPID MOVES IS REDUCED TO MATCH THE FEEDRATE OF CUTTING)
(MOVES, WHICH CAN INCREASE MACHINING TIME. UNRESTRICTED RAPID)
(MOVES ARE AVAILABLE WITH A FUSION 360 SUBSCRIPTION.)
N20 G53 G0 Z0.
(2D CONTOUR3)
N25 T1 M6
N30 S10000 M3
N35 G54
N40 M8
N45 G0 X472.161 Y1.001
N50 G43 Z15. H1
N55 G1 Z5. F2500.
N60 Z-5.715 F833.33
N65 X472.153 Z-5.814 F2500.
N70 X472.129 Z-5.911
N75 X472.091 Z-6.003
N80 X472.039 Y1.002 Z-6.088
N85 X471.975 Z-6.164
N90 X471.899 Z-6.229
N95 X471.814 Y1.003 Z-6.281
N100 X471.722 Z-6.319
N105 X471.625 Z-6.342
N110 X471.526 Y1.004 Z-6.35
N115 X470.891 Y1.006
N120 G3 X470.253 Y0.374 I-0.003 J-0.635
N125 G1 X470.249 Y-0.615
N130 X470.246 Y-0.744
N135 X470.202 Y-1.732
N140 X470.194 Y-1.854
N145 X470.112 Y-2.841
N150 X470.099 Y-2.968
N155 X469.977 Y-3.953
N160 X469.959 Y-4.076
N165 X469.798 Y-5.057
N170 X469.775 Y-5.18
N175 X469.575 Y-6.157
N180 X469.549 Y-6.275
N185 X469.311 Y-7.247
N190 X469.278 Y-7.37
N195 X469. Y-8.335
N200 X468.964 Y-8.451
N205 X468.648 Y-9.409
N210 X468.608 Y-9.523
N215 X468.254 Y-10.473
N220 X468.209 Y-10.588
N225 X467.816 Y-11.529
N230 X467.767 Y-11.639
N235 X467.336 Y-12.57
N240 X467.285 Y-12.676
N245 X466.817 Y-13.595
N250 X466.759 Y-13.704
N255 X466.252 Y-14.612
N260 X466.195 Y-14.71
N265 X465.652 Y-15.606
N270 X465.588 Y-15.706
N275 X465.007 Y-16.588
N280 X464.942 Y-16.682
N285 X464.325 Y-17.548
N290 X464.256 Y-17.642
N295 X463.602 Y-18.492
N300 X463.532 Y-18.58
N305 X462.843 Y-19.413
N310 X462.769 Y-19.5
N315 X462.044 Y-20.315
N320 X461.968 Y-20.397
N325 X461.208 Y-21.194
N330 X461.131 Y-21.272
N335 X460.337 Y-22.049
N340 X460.259 Y-22.123
N345 X459.432 Y-22.879
N350 X459.349 Y-22.951
N355 X458.488 Y-23.685
N360 X458.404 Y-23.754
N365 X457.51 Y-24.464
N370 X457.427 Y-24.528
N375 X456.502 Y-25.215
N380 X456.416 Y-25.276
N385 X455.46 Y-25.937
N390 X455.373 Y-25.995
N395 X454.387 Y-26.63
N400 X454.299 Y-26.685
N405 X453.284 Y-27.293
N410 X453.194 Y-27.344
N415 X452.151 Y-27.923
N420 X452.061 Y-27.971
N425 X450.991 Y-28.521
N430 X450.9 Y-28.567
N435 X449.804 Y-29.086
N440 X449.712 Y-29.128
N445 X448.591 Y-29.616
N450 X448.499 Y-29.655
N455 X447.355 Y-30.111
N460 X447.263 Y-30.146
N465 X446.098 Y-30.569
N470 X446.004 Y-30.602
N475 X444.818 Y-30.991
N480 X444.723 Y-31.02
N485 X443.518 Y-31.374
N490 X443.424 Y-31.4
N495 X442.201 Y-31.719
N500 X442.106 Y-31.742
N505 X440.869 Y-32.025
N510 X440.774 Y-32.045
N515 X439.523 Y-32.29
N520 X439.427 Y-32.307
N525 X438.163 Y-32.515
N530 X438.068 Y-32.529
N535 X436.795 Y-32.699
N540 X436.699 Y-32.711
N545 X435.418 Y-32.842
N550 X435.322 Y-32.851
N555 X434.034 Y-32.943
N560 X433.938 Y-32.949
N565 X432.647 Y-33.002
N570 X432.557 Y-33.005
N575 X431.43 Y-33.02
N580 G2 X431.029 Y-33. I-0.042 J3.175
N585 G1 X357.052 Y-24.571
N590 X356.06 Y-24.464
N595 X355.101 Y-24.372
N600 X354.166 Y-24.295
N605 X353.254 Y-24.232
N610 X352.366 Y-24.184
N615 X351.502 Y-24.15
N620 X350.66 Y-24.13
N625 X349.844 Y-24.124
N630 X349.049 Y-24.132
N635 X348.279 Y-24.153
N640 X347.531 Y-24.188
N645 X346.807 Y-24.237
N650 X346.105 Y-24.298
N655 X345.427 Y-24.373
N660 X344.772 Y-24.46
N665 X344.14 Y-24.56
N670 X343.529 Y-24.672
N675 X342.94 Y-24.796
N680 X342.374 Y-24.931
N685 X341.823 Y-25.08
N690 X341.283 Y-25.244
N695 X340.756 Y-25.422
N700 X340.243 Y-25.616
N705 X339.745 Y-25.825
N710 X339.263 Y-26.049
N715 X338.795 Y-26.29
N720 X338.343 Y-26.547
N725 X337.911 Y-26.82
N730 X337.498 Y-27.107
N735 X337.106 Y-27.408
N740 X336.73 Y-27.725
N745 X336.372 Y-28.057
N750 X336.032 Y-28.405
N755 X335.707 Y-28.769
N760 X335.401 Y-29.146
N765 X335.111 Y-29.541
N770 X334.835 Y-29.954
N775 X334.577 Y-30.381
N780 X334.336 Y-30.823
N785 X334.11 Y-31.279
N790 X333.9 Y-31.747
N795 X333.706 Y-32.23
N800 X333.526 Y-32.723
N805 X333.362 Y-33.225
N810 X333.211 Y-33.742
N815 X333.074 Y-34.266
N820 X332.952 Y-34.798
N825 X332.84 Y-35.344
N830 X332.741 Y-35.904
N835 X332.652 Y-36.481
N840 X332.575 Y-37.073
N845 X332.509 Y-37.688
N850 X332.454 Y-38.324
N855 X332.41 Y-38.977
N860 X332.379 Y-39.653
N865 X332.358 Y-40.35
N870 X332.35 Y-41.065
N875 X332.354 Y-41.797
N880 X332.371 Y-42.552
N885 X332.399 Y-43.328
N890 X332.44 Y-44.121
N895 X332.494 Y-44.933
N900 X332.56 Y-45.77
N905 X332.64 Y-46.634
N910 X336.767 Y-88.433
N915 X336.775 Y-88.527
N920 X336.82 Y-89.181
N925 X336.827 Y-89.37
N930 X336.833 Y-90.025
N935 X336.829 Y-90.219
N940 X336.795 Y-90.873
N945 X336.78 Y-91.057
N950 X336.708 Y-91.709
N955 X336.68 Y-91.902
N960 X336.568 Y-92.549
N965 X336.531 Y-92.731
N970 X336.381 Y-93.372
N975 X336.333 Y-93.553
N980 X336.145 Y-94.185
N985 X336.084 Y-94.369
N990 X335.857 Y-94.991
N995 X335.79 Y-95.16
N1000 X335.527 Y-95.769
N1005 X335.447 Y-95.94
N1010 X335.147 Y-96.535
N1015 X335.06 Y-96.696
N1020 X334.725 Y-97.275
N1025 X334.625 Y-97.436
N1030 X334.254 Y-97.997
N1035 X334.15 Y-98.145
N1040 X333.746 Y-98.686
N1045 X333.632 Y-98.83
N1050 X333.194 Y-99.35
N1055 X333.074 Y-99.485
N1060 X332.606 Y-99.981
N1065 X332.476 Y-100.111
N1070 X331.977 Y-100.582
N1075 X331.845 Y-100.7
N1080 X331.318 Y-101.144
N1085 X331.175 Y-101.258
N1090 X330.62 Y-101.674
N1095 X330.475 Y-101.776
N1100 X329.895 Y-102.162
N1105 X329.746 Y-102.256
N1110 X329.143 Y-102.61
N1115 X328.987 Y-102.696
N1120 X328.361 Y-103.019
N1125 X328.203 Y-103.094
N1130 X327.559 Y-103.382
N1135 X327.395 Y-103.45
N1140 X326.732 Y-103.703
N1145 X326.568 Y-103.761
N1150 X325.89 Y-103.978
N1155 X325.722 Y-104.026
N1160 X325.031 Y-104.206
N1165 X324.866 Y-104.245
N1170 X324.165 Y-104.388
N1175 X323.991 Y-104.418
N1180 X323.282 Y-104.522
N1185 X323.108 Y-104.543
N1190 X322.392 Y-104.608
N1195 X322.22 Y-104.619
N1200 X321.502 Y-104.645
N1205 X321.413 Y-104.647
N1210 X321.291 Y-104.648
N1215 X321.265
N1220 X12.395
N1225 X12.307 Y-104.647
N1230 X11.588 Y-104.627
N1235 X11.42 Y-104.618
N1240 X10.704 Y-104.56
N1245 X10.527 Y-104.54
N1250 X9.816 Y-104.442
N1255 X9.647 Y-104.414
N1260 X8.943 Y-104.278
N1265 X8.773 Y-104.241
N1270 X8.08 Y-104.067
N1275 X7.913 Y-104.02
N1280 X7.232 Y-103.809
N1285 X7.064 Y-103.751
N1290 X6.398 Y-103.503
N1295 X6.236 Y-103.438
N1300 X5.587 Y-103.155
N1305 X5.429 Y-103.081
N1310 X4.799 Y-102.764
N1315 X4.643 Y-102.679
N1320 X4.035 Y-102.329
N1325 X3.883 Y-102.236
N1330 X3.299 Y-101.855
N1335 X3.152 Y-101.753
N1340 X2.592 Y-101.341
N1345 X2.451 Y-101.23
N1350 X1.918 Y-100.789
N1355 X1.782 Y-100.67
N1360 X1.278 Y-100.203
N1365 X1.149 Y-100.076
N1370 X0.675 Y-99.582
N1375 X0.552 Y-99.447
N1380 X0.11 Y-98.93
N1385 X-0.005 Y-98.788
N1390 X-0.415 Y-98.249
N1395 X-0.523 Y-98.099
N1400 X-0.899 Y-97.54
N1405 X-0.997 Y-97.384
N1410 X-1.339 Y-96.806
N1415 X-1.429 Y-96.644
N1420 X-1.734 Y-96.05
N1425 X-1.815 Y-95.881
N1430 X-2.084 Y-95.273
N1435 X-2.154 Y-95.1
N1440 X-2.386 Y-94.479
N1445 X-2.447 Y-94.301
N1450 X-2.641 Y-93.67
N1455 X-2.691 Y-93.488
N1460 X-2.846 Y-92.848
N1465 X-2.886 Y-92.663
N1470 X-3.003 Y-92.016
N1475 X-3.031 Y-91.829
N1480 X-3.109 Y-91.177
N1485 X-3.126 Y-90.988
N1490 X-3.165 Y-90.334
N1495 X-3.17 Y-90.192
N1500 X-3.175 Y-89.868
N1505 Y-89.822
N1510 Y89.822
N1515 X-3.174 Y89.916
N1520 X-3.154 Y90.571
N1525 X-3.143 Y90.761
N1530 X-3.084 Y91.414
N1535 X-3.061 Y91.602
N1540 X-2.964 Y92.251
N1545 X-2.93 Y92.438
N1550 X-2.793 Y93.081
N1555 X-2.749 Y93.264
N1560 X-2.574 Y93.899
N1565 X-2.518 Y94.079
N1570 X-2.306 Y94.705
N1575 X-2.24 Y94.881
N1580 X-1.99 Y95.495
N1585 X-1.914 Y95.665
N1590 X-1.627 Y96.266
N1595 X-1.542 Y96.431
N1600 X-1.219 Y97.016
N1605 X-1.124 Y97.176
N1610 X-0.766 Y97.743
N1615 X-0.663 Y97.896
N1620 X-0.271 Y98.444
N1625 X-0.16 Y98.59
N1630 X0.266 Y99.118
N1635 X0.384 Y99.257
N1640 X0.842 Y99.761
N1645 X0.967 Y99.892
N1650 X1.455 Y100.372
N1655 X1.588 Y100.495
N1660 X2.105 Y100.949
N1665 X2.244 Y101.064
N1670 X2.789 Y101.49
N1675 X2.932 Y101.596
N1680 X3.503 Y101.993
N1685 X3.653 Y102.09
N1690 X4.248 Y102.456
N1695 X4.402 Y102.545
N1700 X5.02 Y102.879
N1705 X5.174 Y102.957
N1710 X5.812 Y103.258
N1715 X5.978 Y103.33
N1720 X6.635 Y103.595
N1725 X6.796 Y103.655
N1730 X7.468 Y103.885
N1735 X7.632 Y103.936
N1740 X8.319 Y104.13
N1745 X8.49 Y104.174
N1750 X9.188 Y104.33
N1755 X9.362 Y104.363
N1760 X10.069 Y104.48
N1765 X10.238 Y104.504
N1770 X10.951 Y104.583
N1775 X11.119 Y104.597
N1780 X11.837 Y104.638
N1785 X11.976 Y104.643
N1790 X12.353 Y104.648
N1795 X12.395
N1800 X321.265
N1805 X321.353 Y104.647
N1810 X322.072 Y104.627
N1815 X322.24 Y104.618
N1820 X322.956 Y104.56
N1825 X323.134 Y104.54
N1830 X323.845 Y104.442
N1835 X324.014 Y104.414
N1840 X324.717 Y104.278
N1845 X324.886 Y104.241
N1850 X325.58 Y104.067
N1855 X325.748 Y104.02
N1860 X326.429 Y103.809
N1865 X326.597 Y103.751
N1870 X327.263 Y103.503
N1875 X327.426 Y103.438
N1880 X328.074 Y103.155
N1885 X328.23 Y103.081
N1890 X328.86 Y102.764
N1895 X329.018 Y102.679
N1900 X329.626 Y102.329
N1905 X329.776 Y102.237
N1910 X330.361 Y101.855
N1915 X330.51 Y101.752
N1920 X331.069 Y101.34
N1925 X331.208 Y101.231
N1930 X331.741 Y100.79
N1935 X331.878 Y100.67
N1940 X332.382 Y100.203
N1945 X332.511 Y100.076
N1950 X332.985 Y99.582
N1955 X333.107 Y99.448
N1960 X333.55 Y98.932
N1965 X333.668 Y98.785
N1970 X334.077 Y98.246
N1975 X334.18 Y98.102
N1980 X334.557 Y97.543
N1985 X334.658 Y97.383
N1990 X334.999 Y96.806
N1995 X335.09 Y96.642
N2000 X335.395 Y96.048
N2005 X335.475 Y95.882
N2010 X335.743 Y95.274
N2015 X335.814 Y95.101
N2020 X336.046 Y94.48
N2025 X336.107 Y94.301
N2030 X336.301 Y93.67
N2035 X336.352 Y93.485
N2040 X336.507 Y92.845
N2045 X336.545 Y92.663
N2050 X336.662 Y92.016
N2055 X336.69 Y91.828
N2060 X336.768 Y91.177
N2065 X336.785 Y90.988
N2070 X336.824 Y90.334
N2075 X336.83 Y90.145
N2080 Y89.49
N2085 X336.824 Y89.301
N2090 X336.785 Y88.647
N2095 X336.776 Y88.522
N2100 X336.767 Y88.432
N2105 X332.64 Y46.635
N2110 X332.555 Y45.704
N2115 X332.484 Y44.807
N2120 X332.429 Y43.935
N2125 X332.389 Y43.085
N2130 X332.362 Y42.259
N2135 X332.351 Y41.455
N2140 X332.353 Y40.674
N2145 X332.37 Y39.915
N2150 X332.399 Y39.179
N2155 X332.443 Y38.468
N2160 X332.5 Y37.78
N2165 X332.571 Y37.112
N2170 X332.655 Y36.466
N2175 X332.751 Y35.845
N2180 X332.859 Y35.248
N2185 X332.979 Y34.67
N2190 X333.111 Y34.116
N2195 X333.255 Y33.583
N2200 X333.413 Y33.063
N2205 X333.584 Y32.558
N2210 X333.767 Y32.072
N2215 X333.966 Y31.596
N2220 X334.18 Y31.133
N2225 X334.409 Y30.685
N2230 X334.655 Y30.249
N2235 X334.919 Y29.825
N2240 X335.197 Y29.419
N2245 X335.492 Y29.029
N2250 X335.806 Y28.655
N2255 X336.136 Y28.296
N2260 X336.482 Y27.953
N2265 X336.846 Y27.626
N2270 X337.231 Y27.312
N2275 X337.63 Y27.014
N2280 X338.048 Y26.732
N2285 X338.484 Y26.465
N2290 X338.937 Y26.214
N2295 X339.411 Y25.978
N2300 X339.901 Y25.757
N2305 X340.405 Y25.553
N2310 X340.924 Y25.363
N2315 X341.457 Y25.189
N2320 X342.003 Y25.03
N2325 X342.559 Y24.885
N2330 X343.124 Y24.755
N2335 X343.699 Y24.639
N2340 X344.283 Y24.536
N2345 X344.879 Y24.444
N2350 X345.491 Y24.365
N2355 X346.119 Y24.296
N2360 X346.767 Y24.239
N2365 X347.434 Y24.194
N2370 X348.122 Y24.159
N2375 X348.831 Y24.136
N2380 X349.561 Y24.125
N2385 X350.311 Y24.126
N2390 X351.081 Y24.138
N2395 X351.871 Y24.163
N2400 X352.682 Y24.2
N2405 X353.513 Y24.249
N2410 X354.364 Y24.31
N2415 X355.237 Y24.384
N2420 X356.129 Y24.471
N2425 X357.051 Y24.571
N2430 X431.029 Y33.
N2435 G2 X431.436 Y33.02 I0.359 J-3.155
N2440 G1 X432.73 Y33.
N2445 X432.826 Y32.997
N2450 X434.117 Y32.938
N2455 X434.213 Y32.932
N2460 X435.501 Y32.835
N2465 X435.598 Y32.826
N2470 X436.879 Y32.689
N2475 X436.974 Y32.678
N2480 X438.248 Y32.503
N2485 X438.344 Y32.488
N2490 X439.608 Y32.275
N2495 X439.704 Y32.257
N2500 X440.955 Y32.006
N2505 X441.05 Y31.985
N2510 X442.288 Y31.698
N2515 X442.383 Y31.674
N2520 X443.606 Y31.35
N2525 X443.701 Y31.323
N2530 X444.906 Y30.963
N2535 X445. Y30.933
N2540 X446.186 Y30.538
N2545 X446.279 Y30.506
N2550 X447.445 Y30.077
N2555 X447.539 Y30.04
N2560 X448.682 Y29.578
N2565 X448.774 Y29.539
N2570 X449.895 Y29.045
N2575 X449.988 Y29.002
N2580 X451.083 Y28.476
N2585 X451.174 Y28.431
N2590 X452.243 Y27.874
N2595 X452.333 Y27.826
N2600 X453.375 Y27.24
N2605 X453.464 Y27.188
N2610 X454.478 Y26.574
N2615 X454.567 Y26.518
N2620 X455.551 Y25.877
N2625 X455.637 Y25.818
N2630 X456.591 Y25.151
N2635 X456.678 Y25.088
N2640 X457.6 Y24.395
N2645 X457.683 Y24.33
N2650 X458.574 Y23.614
N2655 X458.659 Y23.543
N2660 X459.516 Y22.803
N2665 X459.595 Y22.733
N2670 X460.42 Y21.971
N2675 X460.501 Y21.894
N2680 X461.291 Y21.111
N2685 X461.368 Y21.031
N2690 X462.123 Y20.229
N2695 X462.198 Y20.146
N2700 X462.918 Y19.325
N2705 X462.992 Y19.238
N2710 X463.676 Y18.399
N2715 X463.746 Y18.309
N2720 X464.394 Y17.454
N2725 X464.461 Y17.362
N2730 X465.073 Y16.49
N2735 X465.14 Y16.392
N2740 X465.714 Y15.506
N2745 X465.775 Y15.407
N2750 X466.312 Y14.507
N2755 X466.37 Y14.406
N2760 X466.87 Y13.493
N2765 X466.926 Y13.387
N2770 X467.388 Y12.463
N2775 X467.441 Y12.352
N2780 X467.864 Y11.418
N2785 X467.91 Y11.31
N2790 X468.296 Y10.366
N2795 X468.34 Y10.251
N2800 X468.687 Y9.298
N2805 X468.727 Y9.181
N2810 X469.035 Y8.22
N2815 X469.071 Y8.101
N2820 X469.34 Y7.133
N2825 X469.37 Y7.016
N2830 X469.601 Y6.042
N2835 X469.628 Y5.918
N2840 X469.819 Y4.939
N2845 X469.84 Y4.82
N2850 X469.993 Y3.837
N2855 X470.01 Y3.71
N2860 X470.123 Y2.725
N2865 X470.135 Y2.6
N2870 X470.209 Y1.613
N2875 X470.216 Y1.488
N2880 X470.251 Y0.499
N2885 X470.253 Y0.374
N2890 G3 X470.885 Y-0.264 I0.635 J-0.003
N2895 G1 X471.52 Y-0.266
N2900 X471.62 Y-0.267 Z-6.342
N2905 X471.717 Z-6.319
N2910 X471.809 Z-6.281
N2915 X471.894 Y-0.268 Z-6.229
N2920 X471.969 Z-6.164
N2925 X472.034 Z-6.088
N2930 X472.086 Y-0.269 Z-6.003
N2935 X472.124 Z-5.911
N2940 X472.148 Z-5.814
N2945 X472.155 Z-5.715
N2950 Z5.
N2955 X472.161 Y1.001
N2960 Z-1.35 F833.33
N2965 Z-12.065
N2970 X472.153 Z-12.164 F2500.
N2975 X472.129 Z-12.261
N2980 X472.091 Z-12.353
N2985 X472.039 Y1.002 Z-12.438
N2990 X471.975 Z-12.514
N2995 X471.899 Z-12.579
N3000 X471.814 Y1.003 Z-12.631
N3005 X471.722 Z-12.669
N3010 X471.625 Z-12.692
N3015 X471.526 Y1.004 Z-12.7
N3020 X470.891 Y1.006
N3025 G3 X470.253 Y0.374 I-0.003 J-0.635
N3030 G1 X470.249 Y-0.615
N3035 X470.246 Y-0.744
N3040 X470.202 Y-1.732
N3045 X470.194 Y-1.854
N3050 X470.112 Y-2.841
N3055 X470.099 Y-2.968
N3060 X469.977 Y-3.953
N3065 X469.959 Y-4.076
N3070 X469.798 Y-5.057
N3075 X469.775 Y-5.18
N3080 X469.575 Y-6.157
N3085 X469.549 Y-6.275
N3090 X469.311 Y-7.247
N3095 X469.278 Y-7.37
N3100 X469. Y-8.335
N3105 X468.964 Y-8.451
N3110 X468.648 Y-9.409
N3115 X468.608 Y-9.523
N3120 X468.254 Y-10.473
N3125 X468.209 Y-10.588
N3130 X467.816 Y-11.529
N3135 X467.767 Y-11.639
N3140 X467.336 Y-12.57
N3145 X467.285 Y-12.676
N3150 X466.817 Y-13.595
N3155 X466.759 Y-13.704
N3160 X466.252 Y-14.612
N3165 X466.195 Y-14.71
N3170 X465.652 Y-15.606
N3175 X465.588 Y-15.706
N3180 X465.007 Y-16.588
N3185 X464.942 Y-16.682
N3190 X464.325 Y-17.548
N3195 X464.256 Y-17.642
N3200 X463.602 Y-18.492
N3205 X463.532 Y-18.58
N3210 X462.843 Y-19.413
N3215 X462.769 Y-19.5
N3220 X462.044 Y-20.315
N3225 X461.968 Y-20.397
N3230 X461.208 Y-21.194
N3235 X461.131 Y-21.272
N3240 X460.337 Y-22.049
N3245 X460.259 Y-22.123
N3250 X459.432 Y-22.879
N3255 X459.349 Y-22.951
N3260 X458.488 Y-23.685
N3265 X458.404 Y-23.754
N3270 X457.51 Y-24.464
N3275 X457.427 Y-24.528
N3280 X456.502 Y-25.215
N3285 X456.416 Y-25.276
N3290 X455.46 Y-25.937
N3295 X455.373 Y-25.995
N3300 X454.387 Y-26.63
N3305 X454.299 Y-26.685
N3310 X453.284 Y-27.293
N3315 X453.194 Y-27.344
N3320 X452.151 Y-27.923
N3325 X452.061 Y-27.971
N3330 X450.991 Y-28.521
N3335 X450.9 Y-28.567
N3340 X449.804 Y-29.086
N3345 X449.712 Y-29.128
N3350 X448.591 Y-29.616
N3355 X448.499 Y-29.655
N3360 X447.355 Y-30.111
N3365 X447.263 Y-30.146
N3370 X446.098 Y-30.569
N3375 X446.004 Y-30.602
N3380 X444.818 Y-30.991
N3385 X444.723 Y-31.02
N3390 X443.518 Y-31.374
N3395 X443.424 Y-31.4
N3400 X442.201 Y-31.719
N3405 X442.106 Y-31.742
N3410 X440.869 Y-32.025
N3415 X440.774 Y-32.045
N3420 X439.523 Y-32.29
N3425 X439.427 Y-32.307
N3430 X438.163 Y-32.515
N3435 X438.068 Y-32.529
N3440 X436.795 Y-32.699
N3445 X436.699 Y-32.711
N3450 X435.418 Y-32.842
N3455 X435.322 Y-32.851
N3460 X434.034 Y-32.943
N3465 X433.938 Y-32.949
N3470 X432.647 Y-33.002
N3475 X432.557 Y-33.005
N3480 X431.43 Y-33.02
N3485 G2 X431.029 Y-33. I-0.042 J3.175
N3490 G1 X357.052 Y-24.571
N3495 X356.06 Y-24.464
N3500 X355.101 Y-24.372
N3505 X354.166 Y-24.295
N3510 X353.254 Y-24.232
N3515 X352.366 Y-24.184
N3520 X351.502 Y-24.15
N3525 X350.66 Y-24.13
N3530 X349.844 Y-24.124
N3535 X349.049 Y-24.132
N3540 X348.279 Y-24.153
N3545 X347.531 Y-24.188
N3550 X346.807 Y-24.237
N3555 X346.105 Y-24.298
N3560 X345.427 Y-24.373
N3565 X344.772 Y-24.46
N3570 X344.14 Y-24.56
N3575 X343.529 Y-24.672
N3580 X342.94 Y-24.796
N3585 X342.374 Y-24.931
N3590 X341.823 Y-25.08
N3595 X341.283 Y-25.244
N3600 X340.756 Y-25.422
N3605 X340.243 Y-25.616
N3610 X339.745 Y-25.825
N3615 X339.263 Y-26.049
N3620 X338.795 Y-26.29
N3625 X338.343 Y-26.547
N3630 X337.911 Y-26.82
N3635 X337.498 Y-27.107
N3640 X337.106 Y-27.408
N3645 X336.73 Y-27.725
N3650 X336.372 Y-28.057
N3655 X336.032 Y-28.405
N3660 X335.707 Y-28.769
N3665 X335.401 Y-29.146
N3670 X335.111 Y-29.541
N3675 X334.835 Y-29.954
N3680 X334.577 Y-30.381
N3685 X334.336 Y-30.823
N3690 X334.11 Y-31.279
N3695 X333.9 Y-31.747
N3700 X333.706 Y-32.23
N3705 X333.526 Y-32.723
N3710 X333.362 Y-33.225
N3715 X333.211 Y-33.742
N3720 X333.074 Y-34.266
N3725 X332.952 Y-34.798
N3730 X332.84 Y-35.344
N3735 X332.741 Y-35.904
N3740 X332.652 Y-36.481
N3745 X332.575 Y-37.073
N3750 X332.509 Y-37.688
N3755 X332.454 Y-38.324
N3760 X332.41 Y-38.977
N3765 X332.379 Y-39.653
N3770 X332.358 Y-40.35
N3775 X332.35 Y-41.065
N3780 X332.354 Y-41.797
N3785 X332.371 Y-42.552
N3790 X332.399 Y-43.328
N3795 X332.44 Y-44.121
N3800 X332.494 Y-44.933
N3805 X332.56 Y-45.77
N3810 X332.64 Y-46.634
N3815 X336.767 Y-88.433
N3820 X336.775 Y-88.527
N3825 X336.82 Y-89.181
N3830 X336.827 Y-89.37
N3835 X336.833 Y-90.025
N3840 X336.829 Y-90.219
N3845 X336.795 Y-90.873
N3850 X336.78 Y-91.057
N3855 X336.708 Y-91.709
N3860 X336.68 Y-91.902
N3865 X336.568 Y-92.549
N3870 X336.531 Y-92.731
N3875 X336.381 Y-93.372
N3880 X336.333 Y-93.553
N3885 X336.145 Y-94.185
N3890 X336.084 Y-94.369
N3895 X335.857 Y-94.991
N3900 X335.79 Y-95.16
N3905 X335.527 Y-95.769
N3910 X335.447 Y-95.94
N3915 X335.147 Y-96.535
N3920 X335.06 Y-96.696
N3925 X334.725 Y-97.275
N3930 X334.625 Y-97.436
N3935 X334.254 Y-97.997
N3940 X334.15 Y-98.145
N3945 X333.746 Y-98.686
N3950 X333.632 Y-98.83
N3955 X333.194 Y-99.35
N3960 X333.074 Y-99.485
N3965 X332.606 Y-99.981
N3970 X332.476 Y-100.111
N3975 X331.977 Y-100.582
N3980 X331.845 Y-100.7
N3985 X331.318 Y-101.144
N3990 X331.175 Y-101.258
N3995 X330.62 Y-101.674
N4000 X330.475 Y-101.776
N4005 X329.895 Y-102.162
N4010 X329.746 Y-102.256
N4015 X329.143 Y-102.61
N4020 X328.987 Y-102.696
N4025 X328.361 Y-103.019
N4030 X328.203 Y-103.094
N4035 X327.559 Y-103.382
N4040 X327.395 Y-103.45
N4045 X326.732 Y-103.703
N4050 X326.568 Y-103.761
N4055 X325.89 Y-103.978
N4060 X325.722 Y-104.026
N4065 X325.031 Y-104.206
N4070 X324.866 Y-104.245
N4075 X324.165 Y-104.388
N4080 X323.991 Y-104.418
N4085 X323.282 Y-104.522
N4090 X323.108 Y-104.543
N4095 X322.392 Y-104.608
N4100 X322.22 Y-104.619
N4105 X321.502 Y-104.645
N4110 X321.413 Y-104.647
N4115 X321.291 Y-104.648
N4120 X321.265
N4125 X12.395
N4130 X12.307 Y-104.647
N4135 X11.588 Y-104.627
N4140 X11.42 Y-104.618
N4145 X10.704 Y-104.56
N4150 X10.527 Y-104.54
N4155 X9.816 Y-104.442
N4160 X9.647 Y-104.414
N4165 X8.943 Y-104.278
N4170 X8.773 Y-104.241
N4175 X8.08 Y-104.067
N4180 X7.913 Y-104.02
N4185 X7.232 Y-103.809
N4190 X7.064 Y-103.751
N4195 X6.398 Y-103.503
N4200 X6.236 Y-103.438
N4205 X5.587 Y-103.155
N4210 X5.429 Y-103.081
N4215 X4.799 Y-102.764
N4220 X4.643 Y-102.679
N4225 X4.035 Y-102.329
N4230 X3.883 Y-102.236
N4235 X3.299 Y-101.855
N4240 X3.152 Y-101.753
N4245 X2.592 Y-101.341
N4250 X2.451 Y-101.23
N4255 X1.918 Y-100.789
N4260 X1.782 Y-100.67
N4265 X1.278 Y-100.203
N4270 X1.149 Y-100.076
N4275 X0.675 Y-99.582
N4280 X0.552 Y-99.447
N4285 X0.11 Y-98.93
N4290 X-0.005 Y-98.788
N4295 X-0.415 Y-98.249
N4300 X-0.523 Y-98.099
N4305 X-0.899 Y-97.54
N4310 X-0.997 Y-97.384
N4315 X-1.339 Y-96.806
N4320 X-1.429 Y-96.644
N4325 X-1.734 Y-96.05
N4330 X-1.815 Y-95.881
N4335 X-2.084 Y-95.273
N4340 X-2.154 Y-95.1
N4345 X-2.386 Y-94.479
N4350 X-2.447 Y-94.301
N4355 X-2.641 Y-93.67
N4360 X-2.691 Y-93.488
N4365 X-2.846 Y-92.848
N4370 X-2.886 Y-92.663
N4375 X-3.003 Y-92.016
N4380 X-3.031 Y-91.829
N4385 X-3.109 Y-91.177
N4390 X-3.126 Y-90.988
N4395 X-3.165 Y-90.334
N4400 X-3.17 Y-90.192
N4405 X-3.175 Y-89.868
N4410 Y-89.822
N4415 Y89.822
N4420 X-3.174 Y89.916
N4425 X-3.154 Y90.571
N4430 X-3.143 Y90.761
N4435 X-3.084 Y91.414
N4440 X-3.061 Y91.602
N4445 X-2.964 Y92.251
N4450 X-2.93 Y92.438
N4455 X-2.793 Y93.081
N4460 X-2.749 Y93.264
N4465 X-2.574 Y93.899
N4470 X-2.518 Y94.079
N4475 X-2.306 Y94.705
N4480 X-2.24 Y94.881
N4485 X-1.99 Y95.495
N4490 X-1.914 Y95.665
N4495 X-1.627 Y96.266
N4500 X-1.542 Y96.431
N4505 X-1.219 Y97.016
N4510 X-1.124 Y97.176
N4515 X-0.766 Y97.743
N4520 X-0.663 Y97.896
N4525 X-0.271 Y98.444
N4530 X-0.16 Y98.59
N4535 X0.266 Y99.118
N4540 X0.384 Y99.257
N4545 X0.842 Y99.761
N4550 X0.967 Y99.892
N4555 X1.455 Y100.372
N4560 X1.588 Y100.495
N4565 X2.105 Y100.949
N4570 X2.244 Y101.064
N4575 X2.789 Y101.49
N4580 X2.932 Y101.596
N4585 X3.503 Y101.993
N4590 X3.653 Y102.09
N4595 X4.248 Y102.456
N4600 X4.402 Y102.545
N4605 X5.02 Y102.879
N4610 X5.174 Y102.957
N4615 X5.812 Y103.258
N4620 X5.978 Y103.33
N4625 X6.635 Y103.595
N4630 X6.796 Y103.655
N4635 X7.468 Y103.885
N4640 X7.632 Y103.936
N4645 X8.319 Y104.13
N4650 X8.49 Y104.174
N4655 X9.188 Y104.33
N4660 X9.362 Y104.363
N4665 X10.069 Y104.48
N4670 X10.238 Y104.504
N4675 X10.951 Y104.583
N4680 X11.119 Y104.597
N4685 X11.837 Y104.638
N4690 X11.976 Y104.643
N4695 X12.353 Y104.648
N4700 X12.395
N4705 X321.265
N4710 X321.353 Y104.647
N4715 X322.072 Y104.627
N4720 X322.24 Y104.618
N4725 X322.956 Y104.56
N4730 X323.134 Y104.54
N4735 X323.845 Y104.442
N4740 X324.014 Y104.414
N4745 X324.717 Y104.278
N4750 X324.886 Y104.241
N4755 X325.58 Y104.067
N4760 X325.748 Y104.02
N4765 X326.429 Y103.809
N4770 X326.597 Y103.751
N4775 X327.263 Y103.503
N4780 X327.426 Y103.438
N4785 X328.074 Y103.155
N4790 X328.23 Y103.081
N4795 X328.86 Y102.764
N4800 X329.018 Y102.679
N4805 X329.626 Y102.329
N4810 X329.776 Y102.237
N4815 X330.361 Y101.855
N4820 X330.51 Y101.752
N4825 X331.069 Y101.34
N4830 X331.208 Y101.231
N4835 X331.741 Y100.79
N4840 X331.878 Y100.67
N4845 X332.382 Y100.203
N4850 X332.511 Y100.076
N4855 X332.985 Y99.582
N4860 X333.107 Y99.448
N4865 X333.55 Y98.932
N4870 X333.668 Y98.785
N4875 X334.077 Y98.246
N4880 X334.18 Y98.102
N4885 X334.557 Y97.543
N4890 X334.658 Y97.383
N4895 X334.999 Y96.806
N4900 X335.09 Y96.642
N4905 X335.395 Y96.048
N4910 X335.475 Y95.882
N4915 X335.743 Y95.274
N4920 X335.814 Y95.101
N4925 X336.046 Y94.48
N4930 X336.107 Y94.301
N4935 X336.301 Y93.67
N4940 X336.352 Y93.485
N4945 X336.507 Y92.845
N4950 X336.545 Y92.663
N4955 X336.662 Y92.016
N4960 X336.69 Y91.828
N4965 X336.768 Y91.177
N4970 X336.785 Y90.988
N4975 X336.824 Y90.334
N4980 X336.83 Y90.145
N4985 Y89.49
N4990 X336.824 Y89.301
N4995 X336.785 Y88.647
N5000 X336.776 Y88.522
N5005 X336.767 Y88.432
N5010 X332.64 Y46.635
N5015 X332.555 Y45.704
N5020 X332.484 Y44.807
N5025 X332.429 Y43.935
N5030 X332.389 Y43.085
N5035 X332.362 Y42.259
N5040 X332.351 Y41.455
N5045 X332.353 Y40.674
N5050 X332.37 Y39.915
N5055 X332.399 Y39.179
N5060 X332.443 Y38.468
N5065 X332.5 Y37.78
N5070 X332.571 Y37.112
N5075 X332.655 Y36.466
N5080 X332.751 Y35.845
N5085 X332.859 Y35.248
N5090 X332.979 Y34.67
N5095 X333.111 Y34.116
N5100 X333.255 Y33.583
N5105 X333.413 Y33.063
N5110 X333.584 Y32.558
N5115 X333.767 Y32.072
N5120 X333.966 Y31.596
N5125 X334.18 Y31.133
N5130 X334.409 Y30.685
N5135 X334.655 Y30.249
N5140 X334.919 Y29.825
N5145 X335.197 Y29.419
N5150 X335.492 Y29.029
N5155 X335.806 Y28.655
N5160 X336.136 Y28.296
N5165 X336.482 Y27.953
N5170 X336.846 Y27.626
N5175 X337.231 Y27.312
N5180 X337.63 Y27.014
N5185 X338.048 Y26.732
N5190 X338.484 Y26.465
N5195 X338.937 Y26.214
N5200 X339.411 Y25.978
N5205 X339.901 Y25.757
N5210 X340.405 Y25.553
N5215 X340.924 Y25.363
N5220 X341.457 Y25.189
N5225 X342.003 Y25.03
N5230 X342.559 Y24.885
N5235 X343.124 Y24.755
N5240 X343.699 Y24.639
N5245 X344.283 Y24.536
N5250 X344.879 Y24.444
N5255 X345.491 Y24.365
N5260 X346.119 Y24.296
N5265 X346.767 Y24.239
N5270 X347.434 Y24.194
N5275 X348.122 Y24.159
N5280 X348.831 Y24.136
N5285 X349.561 Y24.125
N5290 X350.311 Y24.126
N5295 X351.081 Y24.138
N5300 X351.871 Y24.163
N5305 X352.682 Y24.2
N5310 X353.513 Y24.249
N5315 X354.364 Y24.31
N5320 X355.237 Y24.384
N5325 X356.129 Y24.471
N5330 X357.051 Y24.571
N5335 X431.029 Y33.
N5340 G2 X431.436 Y33.02 I0.359 J-3.155
N5345 G1 X432.73 Y33.
N5350 X432.826 Y32.997
N5355 X434.117 Y32.938
N5360 X434.213 Y32.932
N5365 X435.501 Y32.835
N5370 X435.598 Y32.826
N5375 X436.879 Y32.689
N5380 X436.974 Y32.678
N5385 X438.248 Y32.503
N5390 X438.344 Y32.488
N5395 X439.608 Y32.275
N5400 X439.704 Y32.257
N5405 X440.955 Y32.006
N5410 X441.05 Y31.985
N5415 X442.288 Y31.698
N5420 X442.383 Y31.674
N5425 X443.606 Y31.35
N5430 X443.701 Y31.323
N5435 X444.906 Y30.963
N5440 X445. Y30.933
N5445 X446.186 Y30.538
N5450 X446.279 Y30.506
N5455 X447.445 Y30.077
N5460 X447.539 Y30.04
N5465 X448.682 Y29.578
N5470 X448.774 Y29.539
N5475 X449.895 Y29.045
N5480 X449.988 Y29.002
N5485 X451.083 Y28.476
N5490 X451.174 Y28.431
N5495 X452.243 Y27.874
N5500 X452.333 Y27.826
N5505 X453.375 Y27.24
N5510 X453.464 Y27.188
N5515 X454.478 Y26.574
N5520 X454.567 Y26.518
N5525 X455.551 Y25.877
N5530 X455.637 Y25.818
N5535 X456.591 Y25.151
N5540 X456.678 Y25.088
N5545 X457.6 Y24.395
N5550 X457.683 Y24.33
N5555 X458.574 Y23.614
N5560 X458.659 Y23.543
N5565 X459.516 Y22.803
N5570 X459.595 Y22.733
N5575 X460.42 Y21.971
N5580 X460.501 Y21.894
N5585 X461.291 Y21.111
N5590 X461.368 Y21.031
N5595 X462.123 Y20.229
N5600 X462.198 Y20.146
N5605 X462.918 Y19.325
N5610 X462.992 Y19.238
N5615 X463.676 Y18.399
N5620 X463.746 Y18.309
N5625 X464.394 Y17.454
N5630 X464.461 Y17.362
N5635 X465.073 Y16.49
N5640 X465.14 Y16.392
N5645 X465.714 Y15.506
N5650 X465.775 Y15.407
N5655 X466.312 Y14.507
N5660 X466.37 Y14.406
N5665 X466.87 Y13.493
N5670 X466.926 Y13.387
N5675 X467.388 Y12.463
N5680 X467.441 Y12.352
N5685 X467.864 Y11.418
N5690 X467.91 Y11.31
N5695 X468.296 Y10.366
N5700 X468.34 Y10.251
N5705 X468.687 Y9.298
N5710 X468.727 Y9.181
N5715 X469.035 Y8.22
N5720 X469.071 Y8.101
N5725 X469.34 Y7.133
N5730 X469.37 Y7.016
N5735 X469.601 Y6.042
N5740 X469.628 Y5.918
N5745 X469.819 Y4.939
N5750 X469.84 Y4.82
N5755 X469.993 Y3.837
N5760 X470.01 Y3.71
N5765 X470.123 Y2.725
N5770 X470.135 Y2.6
N5775 X470.209 Y1.613
N5780 X470.216 Y1.488
N5785 X470.251 Y0.499
N5790 X470.253 Y0.374
N5795 G3 X470.885 Y-0.264 I0.635 J-0.003
N5800 G1 X471.52 Y-0.266
N5805 X471.62 Y-0.267 Z-12.692
N5810 X471.717 Z-12.669
N5815 X471.809 Z-12.631
N5820 X471.894 Y-0.268 Z-12.579
N5825 X471.969 Z-12.514
N5830 X472.034 Z-12.438
N5835 X472.086 Y-0.269 Z-12.353
N5840 X472.124 Z-12.261
N5845 X472.148 Z-12.164
N5850 X472.155 Z-12.065
N5855 Z5.
N5860 X472.161 Y1.001
N5865 Z-7.7 F833.33
N5870 Z-18.415
N5875 X472.153 Z-18.514 F2500.
N5880 X472.129 Z-18.611
N5885 X472.091 Z-18.703
N5890 X472.039 Y1.002 Z-18.788
N5895 X471.975 Z-18.864
N5900 X471.899 Z-18.929
N5905 X471.814 Y1.003 Z-18.981
N5910 X471.722 Z-19.019
N5915 X471.625 Z-19.042
N5920 X471.526 Y1.004 Z-19.05
N5925 X470.891 Y1.006
N5930 G3 X470.253 Y0.374 I-0.003 J-0.635
N5935 G1 X470.249 Y-0.615
N5940 X470.246 Y-0.744
N5945 X470.202 Y-1.732
N5950 X470.194 Y-1.854
N5955 X470.112 Y-2.841
N5960 X470.099 Y-2.968
N5965 X469.977 Y-3.953
N5970 X469.959 Y-4.076
N5975 X469.798 Y-5.057
N5980 X469.775 Y-5.18
N5985 X469.575 Y-6.157
N5990 X469.549 Y-6.275
N5995 X469.311 Y-7.247
N6000 X469.278 Y-7.37
N6005 X469. Y-8.335
N6010 X468.964 Y-8.451
N6015 X468.648 Y-9.409
N6020 X468.608 Y-9.523
N6025 X468.254 Y-10.473
N6030 X468.209 Y-10.588
N6035 X467.816 Y-11.529
N6040 X467.767 Y-11.639
N6045 X467.336 Y-12.57
N6050 X467.285 Y-12.676
N6055 X466.817 Y-13.595
N6060 X466.759 Y-13.704
N6065 X466.252 Y-14.612
N6070 X466.195 Y-14.71
N6075 X465.652 Y-15.606
N6080 X465.588 Y-15.706
N6085 X465.007 Y-16.588
N6090 X464.942 Y-16.682
N6095 X464.325 Y-17.548
N6100 X464.256 Y-17.642
N6105 X463.602 Y-18.492
N6110 X463.532 Y-18.58
N6115 X462.843 Y-19.413
N6120 X462.769 Y-19.5
N6125 X462.044 Y-20.315
N6130 X461.968 Y-20.397
N6135 X461.208 Y-21.194
N6140 X461.131 Y-21.272
N6145 X460.337 Y-22.049
N6150 X460.259 Y-22.123
N6155 X459.432 Y-22.879
N6160 X459.349 Y-22.951
N6165 X458.488 Y-23.685
N6170 X458.404 Y-23.754
N6175 X457.51 Y-24.464
N6180 X457.427 Y-24.528
N6185 X456.502 Y-25.215
N6190 X456.416 Y-25.276
N6195 X455.46 Y-25.937
N6200 X455.373 Y-25.995
N6205 X454.387 Y-26.63
N6210 X454.299 Y-26.685
N6215 X453.284 Y-27.293
N6220 X453.194 Y-27.344
N6225 X452.151 Y-27.923
N6230 X452.061 Y-27.971
N6235 X450.991 Y-28.521
N6240 X450.9 Y-28.567
N6245 X449.804 Y-29.086
N6250 X449.712 Y-29.128
N6255 X448.591 Y-29.616
N6260 X448.499 Y-29.655
N6265 X447.355 Y-30.111
N6270 X447.263 Y-30.146
N6275 X446.098 Y-30.569
N6280 X446.004 Y-30.602
N6285 X444.818 Y-30.991
N6290 X444.723 Y-31.02
N6295 X443.518 Y-31.374
N6300 X443.424 Y-31.4
N6305 X442.201 Y-31.719
N6310 X442.106 Y-31.742
N6315 X440.869 Y-32.025
N6320 X440.774 Y-32.045
N6325 X439.523 Y-32.29
N6330 X439.427 Y-32.307
N6335 X438.163 Y-32.515
N6340 X438.068 Y-32.529
N6345 X436.795 Y-32.699
N6350 X436.699 Y-32.711
N6355 X435.418 Y-32.842
N6360 X435.322 Y-32.851
N6365 X434.034 Y-32.943
N6370 X433.938 Y-32.949
N6375 X432.647 Y-33.002
N6380 X432.557 Y-33.005
N6385 X431.43 Y-33.02
N6390 G2 X431.029 Y-33. I-0.042 J3.175
N6395 G1 X357.052 Y-24.571
N6400 X356.06 Y-24.464
N6405 X355.101 Y-24.372
N6410 X354.166 Y-24.295
N6415 X353.254 Y-24.232
N6420 X352.366 Y-24.184
N6425 X351.502 Y-24.15
N6430 X350.66 Y-24.13
N6435 X349.844 Y-24.124
N6440 X349.049 Y-24.132
N6445 X348.279 Y-24.153
N6450 X347.531 Y-24.188
N6455 X346.807 Y-24.237
N6460 X346.105 Y-24.298
N6465 X345.427 Y-24.373
N6470 X344.772 Y-24.46
N6475 X344.14 Y-24.56
N6480 X343.529 Y-24.672
N6485 X342.94 Y-24.796
N6490 X342.374 Y-24.931
N6495 X341.823 Y-25.08
N6500 X341.283 Y-25.244
N6505 X340.756 Y-25.422
N6510 X340.243 Y-25.616
N6515 X339.745 Y-25.825
N6520 X339.263 Y-26.049
N6525 X338.795 Y-26.29
N6530 X338.343 Y-26.547
N6535 X337.911 Y-26.82
N6540 X337.498 Y-27.107
N6545 X337.106 Y-27.408
N6550 X336.73 Y-27.725
N6555 X336.372 Y-28.057
N6560 X336.032 Y-28.405
N6565 X335.707 Y-28.769
N6570 X335.401 Y-29.146
N6575 X335.111 Y-29.541
N6580 X334.835 Y-29.954
N6585 X334.577 Y-30.381
N6590 X334.336 Y-30.823
N6595 X334.11 Y-31.279
N6600 X333.9 Y-31.747
N6605 X333.706 Y-32.23
N6610 X333.526 Y-32.723
N6615 X333.362 Y-33.225
N6620 X333.211 Y-33.742
N6625 X333.074 Y-34.266
N6630 X332.952 Y-34.798
N6635 X332.84 Y-35.344
N6640 X332.741 Y-35.904
N6645 X332.652 Y-36.481
N6650 X332.575 Y-37.073
N6655 X332.509 Y-37.688
N6660 X332.454 Y-38.324
N6665 X332.41 Y-38.977
N6670 X332.379 Y-39.653
N6675 X332.358 Y-40.35
N6680 X332.35 Y-41.065
N6685 X332.354 Y-41.797
N6690 X332.371 Y-42.552
N6695 X332.399 Y-43.328
N6700 X332.44 Y-44.121
N6705 X332.494 Y-44.933
N6710 X332.56 Y-45.77
N6715 X332.64 Y-46.634
N6720 X336.767 Y-88.433
N6725 X336.775 Y-88.527
N6730 X336.82 Y-89.181
N6735 X336.827 Y-89.37
N6740 X336.833 Y-90.025
N6745 X336.829 Y-90.219
N6750 X336.795 Y-90.873
N6755 X336.78 Y-91.057
N6760 X336.708 Y-91.709
N6765 X336.68 Y-91.902
N6770 X336.568 Y-92.549
N6775 X336.531 Y-92.731
N6780 X336.381 Y-93.372
N6785 X336.333 Y-93.553
N6790 X336.145 Y-94.185
N6795 X336.084 Y-94.369
N6800 X335.857 Y-94.991
N6805 X335.79 Y-95.16
N6810 X335.527 Y-95.769
N6815 X335.447 Y-95.94
N6820 X335.147 Y-96.535
N6825 X335.06 Y-96.696
N6830 X334.725 Y-97.275
N6835 X334.625 Y-97.436
N6840 X334.254 Y-97.997
N6845 X334.15 Y-98.145
N6850 X333.746 Y-98.686
N6855 X333.632 Y-98.83
N6860 X333.194 Y-99.35
N6865 X333.074 Y-99.485
N6870 X332.606 Y-99.981
N6875 X332.476 Y-100.111
N6880 X331.977 Y-100.582
N6885 X331.845 Y-100.7
N6890 X331.318 Y-101.144
N6895 X331.175 Y-101.258
N6900 X330.62 Y-101.674
N6905 X330.475 Y-101.776
N6910 X329.895 Y-102.162
N6915 X329.746 Y-102.256
N6920 X329.143 Y-102.61
N6925 X328.987 Y-102.696
N6930 X328.361 Y-103.019
N6935 X328.203 Y-103.094
N6940 X327.559 Y-103.382
N6945 X327.395 Y-103.45
N6950 X326.732 Y-103.703
N6955 X326.568 Y-103.761
N6960 X325.89 Y-103.978
N6965 X325.722 Y-104.026
N6970 X325.031 Y-104.206
N6975 X324.866 Y-104.245
N6980 X324.165 Y-104.388
N6985 X323.991 Y-104.418
N6990 X323.282 Y-104.522
N6995 X323.108 Y-104.543
N7000 X322.392 Y-104.608
N7005 X322.22 Y-104.619
N7010 X321.502 Y-104.645
N7015 X321.413 Y-104.647
N7020 X321.291 Y-104.648
N7025 X321.265
N7030 X12.395
N7035 X12.307 Y-104.647
N7040 X11.588 Y-104.627
N7045 X11.42 Y-104.618
N7050 X10.704 Y-104.56
N7055 X10.527 Y-104.54
N7060 X9.816 Y-104.442
N7065 X9.647 Y-104.414
N7070 X8.943 Y-104.278
N7075 X8.773 Y-104.241
N7080 X8.08 Y-104.067
N7085 X7.913 Y-104.02
N7090 X7.232 Y-103.809
N7095 X7.064 Y-103.751
N7100 X6.398 Y-103.503
N7105 X6.236 Y-103.438
N7110 X5.587 Y-103.155
N7115 X5.429 Y-103.081
N7120 X4.799 Y-102.764
N7125 X4.643 Y-102.679
N7130 X4.035 Y-102.329
N7135 X3.883 Y-102.236
N7140 X3.299 Y-101.855
N7145 X3.152 Y-101.753
N7150 X2.592 Y-101.341
N7155 X2.451 Y-101.23
N7160 X1.918 Y-100.789
N7165 X1.782 Y-100.67
N7170 X1.278 Y-100.203
N7175 X1.149 Y-100.076
N7180 X0.675 Y-99.582
N7185 X0.552 Y-99.447
N7190 X0.11 Y-98.93
N7195 X-0.005 Y-98.788
N7200 X-0.415 Y-98.249
N7205 X-0.523 Y-98.099
N7210 X-0.899 Y-97.54
N7215 X-0.997 Y-97.384
N7220 X-1.339 Y-96.806
N7225 X-1.429 Y-96.644
N7230 X-1.734 Y-96.05
N7235 X-1.815 Y-95.881
N7240 X-2.084 Y-95.273
N7245 X-2.154 Y-95.1
N7250 X-2.386 Y-94.479
N7255 X-2.447 Y-94.301
N7260 X-2.641 Y-93.67
N7265 X-2.691 Y-93.488
N7270 X-2.846 Y-92.848
N7275 X-2.886 Y-92.663
N7280 X-3.003 Y-92.016
N7285 X-3.031 Y-91.829
N7290 X-3.109 Y-91.177
N7295 X-3.126 Y-90.988
N7300 X-3.165 Y-90.334
N7305 X-3.17 Y-90.192
N7310 X-3.175 Y-89.868
N7315 Y-89.822
N7320 Y89.822
N7325 X-3.174 Y89.916
N7330 X-3.154 Y90.571
N7335 X-3.143 Y90.761
N7340 X-3.084 Y91.414
N7345 X-3.061 Y91.602
N7350 X-2.964 Y92.251
N7355 X-2.93 Y92.438
N7360 X-2.793 Y93.081
N7365 X-2.749 Y93.264
N7370 X-2.574 Y93.899
N7375 X-2.518 Y94.079
N7380 X-2.306 Y94.705
N7385 X-2.24 Y94.881
N7390 X-1.99 Y95.495
N7395 X-1.914 Y95.665
N7400 X-1.627 Y96.266
N7405 X-1.542 Y96.431
N7410 X-1.219 Y97.016
N7415 X-1.124 Y97.176
N7420 X-0.766 Y97.743
N7425 X-0.663 Y97.896
N7430 X-0.271 Y98.444
N7435 X-0.16 Y98.59
N7440 X0.266 Y99.118
N7445 X0.384 Y99.257
N7450 X0.842 Y99.761
N7455 X0.967 Y99.892
N7460 X1.455 Y100.372
N7465 X1.588 Y100.495
N7470 X2.105 Y100.949
N7475 X2.244 Y101.064
N7480 X2.789 Y101.49
N7485 X2.932 Y101.596
N7490 X3.503 Y101.993
N7495 X3.653 Y102.09
N7500 X4.248 Y102.456
N7505 X4.402 Y102.545
N7510 X5.02 Y102.879
N7515 X5.174 Y102.957
N7520 X5.812 Y103.258
N7525 X5.978 Y103.33
N7530 X6.635 Y103.595
N7535 X6.796 Y103.655
N7540 X7.468 Y103.885
N7545 X7.632 Y103.936
N7550 X8.319 Y104.13
N7555 X8.49 Y104.174
N7560 X9.188 Y104.33
N7565 X9.362 Y104.363
N7570 X10.069 Y104.48
N7575 X10.238 Y104.504
N7580 X10.951 Y104.583
N7585 X11.119 Y104.597
N7590 X11.837 Y104.638
N7595 X11.976 Y104.643
N7600 X12.353 Y104.648
N7605 X12.395
N7610 X321.265
N7615 X321.353 Y104.647
N7620 X322.072 Y104.627
N7625 X322.24 Y104.618
N7630 X322.956 Y104.56
N7635 X323.134 Y104.54
N7640 X323.845 Y104.442
N7645 X324.014 Y104.414
N7650 X324.717 Y104.278
N7655 X324.886 Y104.241
N7660 X325.58 Y104.067
N7665 X325.748 Y104.02
N7670 X326.429 Y103.809
N7675 X326.597 Y103.751
N7680 X327.263 Y103.503
N7685 X327.426 Y103.438
N7690 X328.074 Y103.155
N7695 X328.23 Y103.081
N7700 X328.86 Y102.764
N7705 X329.018 Y102.679
N7710 X329.626 Y102.329
N7715 X329.776 Y102.237
N7720 X330.361 Y101.855
N7725 X330.51 Y101.752
N7730 X331.069 Y101.34
N7735 X331.208 Y101.231
N7740 X331.741 Y100.79
N7745 X331.878 Y100.67
N7750 X332.382 Y100.203
N7755 X332.511 Y100.076
N7760 X332.985 Y99.582
N7765 X333.107 Y99.448
N7770 X333.55 Y98.932
N7775 X333.668 Y98.785
N7780 X334.077 Y98.246
N7785 X334.18 Y98.102
N7790 X334.557 Y97.543
N7795 X334.658 Y97.383
N7800 X334.999 Y96.806
N7805 X335.09 Y96.642
N7810 X335.395 Y96.048
N7815 X335.475 Y95.882
N7820 X335.743 Y95.274
N7825 X335.814 Y95.101
N7830 X336.046 Y94.48
N7835 X336.107 Y94.301
N7840 X336.301 Y93.67
N7845 X336.352 Y93.485
N7850 X336.507 Y92.845
N7855 X336.545 Y92.663
N7860 X336.662 Y92.016
N7865 X336.69 Y91.828
N7870 X336.768 Y91.177
N7875 X336.785 Y90.988
N7880 X336.824 Y90.334
N7885 X336.83 Y90.145
N7890 Y89.49
N7895 X336.824 Y89.301
N7900 X336.785 Y88.647
N7905 X336.776 Y88.522
N7910 X336.767 Y88.432
N7915 X332.64 Y46.635
N7920 X332.555 Y45.704
N7925 X332.484 Y44.807
N7930 X332.429 Y43.935
N7935 X332.389 Y43.085
N7940 X332.362 Y42.259
N7945 X332.351 Y41.455
N7950 X332.353 Y40.674
N7955 X332.37 Y39.915
N7960 X332.399 Y39.179
N7965 X332.443 Y38.468
N7970 X332.5 Y37.78
N7975 X332.571 Y37.112
N7980 X332.655 Y36.466
N7985 X332.751 Y35.845
N7990 X332.859 Y35.248
N7995 X332.979 Y34.67
N8000 X333.111 Y34.116
N8005 X333.255 Y33.583
N8010 X333.413 Y33.063
N8015 X333.584 Y32.558
N8020 X333.767 Y32.072
N8025 X333.966 Y31.596
N8030 X334.18 Y31.133
N8035 X334.409 Y30.685
N8040 X334.655 Y30.249
N8045 X334.919 Y29.825
N8050 X335.197 Y29.419
N8055 X335.492 Y29.029
N8060 X335.806 Y28.655
N8065 X336.136 Y28.296
N8070 X336.482 Y27.953
N8075 X336.846 Y27.626
N8080 X337.231 Y27.312
N8085 X337.63 Y27.014
N8090 X338.048 Y26.732
N8095 X338.484 Y26.465
N8100 X338.937 Y26.214
N8105 X339.411 Y25.978
N8110 X339.901 Y25.757
N8115 X340.405 Y25.553
N8120 X340.924 Y25.363
N8125 X341.457 Y25.189
N8130 X342.003 Y25.03
N8135 X342.559 Y24.885
N8140 X343.124 Y24.755
N8145 X343.699 Y24.639
N8150 X344.283 Y24.536
N8155 X344.879 Y24.444
N8160 X345.491 Y24.365
N8165 X346.119 Y24.296
N8170 X346.767 Y24.239
N8175 X347.434 Y24.194
N8180 X348.122 Y24.159
N8185 X348.831 Y24.136
N8190 X349.561 Y24.125
N8195 X350.311 Y24.126
N8200 X351.081 Y24.138
N8205 X351.871 Y24.163
N8210 X352.682 Y24.2
N8215 X353.513 Y24.249
N8220 X354.364 Y24.31
N8225 X355.237 Y24.384
N8230 X356.129 Y24.471
N8235 X357.051 Y24.571
N8240 X431.029 Y33.
N8245 G2 X431.436 Y33.02 I0.359 J-3.155
N8250 G1 X432.73 Y33.
N8255 X432.826 Y32.997
N8260 X434.117 Y32.938
N8265 X434.213 Y32.932
N8270 X435.501 Y32.835
N8275 X435.598 Y32.826
N8280 X436.879 Y32.689
N8285 X436.974 Y32.678
N8290 X438.248 Y32.503
N8295 X438.344 Y32.488
N8300 X439.608 Y32.275
N8305 X439.704 Y32.257
N8310 X440.955 Y32.006
N8315 X441.05 Y31.985
N8320 X442.288 Y31.698
N8325 X442.383 Y31.674
N8330 X443.606 Y31.35
N8335 X443.701 Y31.323
N8340 X444.906 Y30.963
N8345 X445. Y30.933
N8350 X446.186 Y30.538
N8355 X446.279 Y30.506
N8360 X447.445 Y30.077
N8365 X447.539 Y30.04
N8370 X448.682 Y29.578
N8375 X448.774 Y29.539
N8380 X449.895 Y29.045
N8385 X449.988 Y29.002
N8390 X451.083 Y28.476
N8395 X451.174 Y28.431
N8400 X452.243 Y27.874
N8405 X452.333 Y27.826
N8410 X453.375 Y27.24
N8415 X453.464 Y27.188
N8420 X454.478 Y26.574
N8425 X454.567 Y26.518
N8430 X455.551 Y25.877
N8435 X455.637 Y25.818
N8440 X456.591 Y25.151
N8445 X456.678 Y25.088
N8450 X457.6 Y24.395
N8455 X457.683 Y24.33
N8460 X458.574 Y23.614
N8465 X458.659 Y23.543
N8470 X459.516 Y22.803
N8475 X459.595 Y22.733
N8480 X460.42 Y21.971
N8485 X460.501 Y21.894
N8490 X461.291 Y21.111
N8495 X461.368 Y21.031
N8500 X462.123 Y20.229
N8505 X462.198 Y20.146
N8510 X462.918 Y19.325
N8515 X462.992 Y19.238
N8520 X463.676 Y18.399
N8525 X463.746 Y18.309
N8530 X464.394 Y17.454
N8535 X464.461 Y17.362
N8540 X465.073 Y16.49
N8545 X465.14 Y16.392
N8550 X465.714 Y15.506
N8555 X465.775 Y15.407
N8560 X466.312 Y14.507
N8565 X466.37 Y14.406
N8570 X466.87 Y13.493
N8575 X466.926 Y13.387
N8580 X467.388 Y12.463
N8585 X467.441 Y12.352
N8590 X467.864 Y11.418
N8595 X467.91 Y11.31
N8600 X468.296 Y10.366
N8605 X468.34 Y10.251
N8610 X468.687 Y9.298
N8615 X468.727 Y9.181
N8620 X469.035 Y8.22
N8625 X469.071 Y8.101
N8630 X469.34 Y7.133
N8635 X469.37 Y7.016
N8640 X469.601 Y6.042
N8645 X469.628 Y5.918
N8650 X469.819 Y4.939
N8655 X469.84 Y4.82
N8660 X469.993 Y3.837
N8665 X470.01 Y3.71
N8670 X470.123 Y2.725
N8675 X470.135 Y2.6
N8680 X470.209 Y1.613
N8685 X470.216 Y1.488
N8690 X470.251 Y0.499
N8695 X470.253 Y0.374
N8700 G3 X470.885 Y-0.264 I0.635 J-0.003
N8705 G1 X471.52 Y-0.266
N8710 X471.62 Y-0.267 Z-19.042
N8715 X471.717 Z-19.019
N8720 X471.809 Z-18.981
N8725 X471.894 Y-0.268 Z-18.929
N8730 X471.969 Z-18.864
N8735 X472.034 Z-18.788
N8740 X472.086 Y-0.269 Z-18.703
N8745 X472.124 Z-18.611
N8750 X472.148 Z-18.514
N8755 X472.155 Z-18.415
N8760 Z5.
N8765 X472.161 Y1.001
N8770 Z-14.05 F833.33
N8775 Z-21.365
N8780 X472.153 Z-21.464 F2500.
N8785 X472.129 Z-21.561
N8790 X472.091 Z-21.653
N8795 X472.039 Y1.002 Z-21.738
N8800 X471.975 Z-21.814
N8805 X471.899 Z-21.879
N8810 X471.814 Y1.003 Z-21.931
N8815 X471.722 Z-21.969
N8820 X471.625 Z-21.992
N8825 X471.526 Y1.004 Z-22.
N8830 X470.891 Y1.006
N8835 G3 X470.253 Y0.374 I-0.003 J-0.635
N8840 G1 X470.249 Y-0.615
N8845 X470.246 Y-0.744
N8850 X470.202 Y-1.732
N8855 X470.194 Y-1.854
N8860 X470.112 Y-2.841
N8865 X470.099 Y-2.968
N8870 X469.977 Y-3.953
N8875 X469.959 Y-4.076
N8880 X469.798 Y-5.057
N8885 X469.775 Y-5.18
N8890 X469.575 Y-6.157
N8895 X469.549 Y-6.275
N8900 X469.311 Y-7.247
N8905 X469.278 Y-7.37
N8910 X469. Y-8.335
N8915 X468.964 Y-8.451
N8920 X468.648 Y-9.409
N8925 X468.608 Y-9.523
N8930 X468.254 Y-10.473
N8935 X468.209 Y-10.588
N8940 X467.816 Y-11.529
N8945 X467.767 Y-11.639
N8950 X467.336 Y-12.57
N8955 X467.285 Y-12.676
N8960 X466.817 Y-13.595
N8965 X466.759 Y-13.704
N8970 X466.252 Y-14.612
N8975 X466.195 Y-14.71
N8980 X465.652 Y-15.606
N8985 X465.588 Y-15.706
N8990 X465.007 Y-16.588
N8995 X464.942 Y-16.682
N9000 X464.325 Y-17.548
N9005 X464.256 Y-17.642
N9010 X463.602 Y-18.492
N9015 X463.532 Y-18.58
N9020 X462.843 Y-19.413
N9025 X462.769 Y-19.5
N9030 X462.044 Y-20.315
N9035 X461.968 Y-20.397
N9040 X461.208 Y-21.194
N9045 X461.131 Y-21.272
N9050 X460.337 Y-22.049
N9055 X460.259 Y-22.123
N9060 X459.432 Y-22.879
N9065 X459.349 Y-22.951
N9070 X458.488 Y-23.685
N9075 X458.404 Y-23.754
N9080 X457.51 Y-24.464
N9085 X457.427 Y-24.528
N9090 X456.502 Y-25.215
N9095 X456.416 Y-25.276
N9100 X455.46 Y-25.937
N9105 X455.373 Y-25.995
N9110 X454.387 Y-26.63
N9115 X454.299 Y-26.685
N9120 X453.284 Y-27.293
N9125 X453.194 Y-27.344
N9130 X452.151 Y-27.923
N9135 X452.061 Y-27.971
N9140 X450.991 Y-28.521
N9145 X450.9 Y-28.567
N9150 X449.804 Y-29.086
N9155 X449.712 Y-29.128
N9160 X448.591 Y-29.616
N9165 X448.499 Y-29.655
N9170 X447.355 Y-30.111
N9175 X447.263 Y-30.146
N9180 X446.098 Y-30.569
N9185 X446.004 Y-30.602
N9190 X444.818 Y-30.991
N9195 X444.723 Y-31.02
N9200 X443.518 Y-31.374
N9205 X443.424 Y-31.4
N9210 X442.201 Y-31.719
N9215 X442.106 Y-31.742
N9220 X440.869 Y-32.025
N9225 X440.774 Y-32.045
N9230 X439.523 Y-32.29
N9235 X439.427 Y-32.307
N9240 X438.163 Y-32.515
N9245 X438.068 Y-32.529
N9250 X436.795 Y-32.699
N9255 X436.699 Y-32.711
N9260 X435.418 Y-32.842
N9265 X435.322 Y-32.851
N9270 X434.034 Y-32.943
N9275 X433.938 Y-32.949
N9280 X432.647 Y-33.002
N9285 X432.557 Y-33.005
N9290 X431.43 Y-33.02
N9295 G2 X431.029 Y-33. I-0.042 J3.175
N9300 G1 X357.052 Y-24.571
N9305 X356.06 Y-24.464
N9310 X355.101 Y-24.372
N9315 X354.166 Y-24.295
N9320 X353.254 Y-24.232
N9325 X352.366 Y-24.184
N9330 X351.502 Y-24.15
N9335 X350.66 Y-24.13
N9340 X349.844 Y-24.124
N9345 X349.049 Y-24.132
N9350 X348.279 Y-24.153
N9355 X347.531 Y-24.188
N9360 X346.807 Y-24.237
N9365 X346.105 Y-24.298
N9370 X345.427 Y-24.373
N9375 X344.772 Y-24.46
N9380 X344.14 Y-24.56
N9385 X343.529 Y-24.672
N9390 X342.94 Y-24.796
N9395 X342.374 Y-24.931
N9400 X341.823 Y-25.08
N9405 X341.283 Y-25.244
N9410 X340.756 Y-25.422
N9415 X340.243 Y-25.616
N9420 X339.745 Y-25.825
N9425 X339.263 Y-26.049
N9430 X338.795 Y-26.29
N9435 X338.343 Y-26.547
N9440 X337.911 Y-26.82
N9445 X337.498 Y-27.107
N9450 X337.106 Y-27.408
N9455 X336.73 Y-27.725
N9460 X336.372 Y-28.057
N9465 X336.032 Y-28.405
N9470 X335.707 Y-28.769
N9475 X335.401 Y-29.146
N9480 X335.111 Y-29.541
N9485 X334.835 Y-29.954
N9490 X334.577 Y-30.381
N9495 X334.336 Y-30.823
N9500 X334.11 Y-31.279
N9505 X333.9 Y-31.747
N9510 X333.706 Y-32.23
N9515 X333.526 Y-32.723
N9520 X333.362 Y-33.225
N9525 X333.211 Y-33.742
N9530 X333.074 Y-34.266
N9535 X332.952 Y-34.798
N9540 X332.84 Y-35.344
N9545 X332.741 Y-35.904
N9550 X332.652 Y-36.481
N9555 X332.575 Y-37.073
N9560 X332.509 Y-37.688
N9565 X332.454 Y-38.324
N9570 X332.41 Y-38.977
N9575 X332.379 Y-39.653
N9580 X332.358 Y-40.35
N9585 X332.35 Y-41.065
N9590 X332.354 Y-41.797
N9595 X332.371 Y-42.552
N9600 X332.399 Y-43.328
N9605 X332.44 Y-44.121
N9610 X332.494 Y-44.933
N9615 X332.56 Y-45.77
N9620 X332.64 Y-46.634
N9625 X336.767 Y-88.433
N9630 X336.775 Y-88.527
N9635 X336.82 Y-89.181
N9640 X336.827 Y-89.37
N9645 X336.833 Y-90.025
N9650 X336.829 Y-90.219
N9655 X336.795 Y-90.873
N9660 X336.78 Y-91.057
N9665 X336.708 Y-91.709
N9670 X336.68 Y-91.902
N9675 X336.568 Y-92.549
N9680 X336.531 Y-92.731
N9685 X336.381 Y-93.372
N9690 X336.333 Y-93.553
N9695 X336.145 Y-94.185
N9700 X336.084 Y-94.369
N9705 X335.857 Y-94.991
N9710 X335.79 Y-95.16
N9715 X335.527 Y-95.769
N9720 X335.447 Y-95.94
N9725 X335.147 Y-96.535
N9730 X335.06 Y-96.696
N9735 X334.725 Y-97.275
N9740 X334.625 Y-97.436
N9745 X334.254 Y-97.997
N9750 X334.15 Y-98.145
N9755 X333.746 Y-98.686
N9760 X333.632 Y-98.83
N9765 X333.194 Y-99.35
N9770 X333.074 Y-99.485
N9775 X332.606 Y-99.981
N9780 X332.476 Y-100.111
N9785 X331.977 Y-100.582
N9790 X331.845 Y-100.7
N9795 X331.318 Y-101.144
N9800 X331.175 Y-101.258
N9805 X330.62 Y-101.674
N9810 X330.475 Y-101.776
N9815 X329.895 Y-102.162
N9820 X329.746 Y-102.256
N9825 X329.143 Y-102.61
N9830 X328.987 Y-102.696
N9835 X328.361 Y-103.019
N9840 X328.203 Y-103.094
N9845 X327.559 Y-103.382
N9850 X327.395 Y-103.45
N9855 X326.732 Y-103.703
N9860 X326.568 Y-103.761
N9865 X325.89 Y-103.978
N9870 X325.722 Y-104.026
N9875 X325.031 Y-104.206
N9880 X324.866 Y-104.245
N9885 X324.165 Y-104.388
N9890 X323.991 Y-104.418
N9895 X323.282 Y-104.522
N9900 X323.108 Y-104.543
N9905 X322.392 Y-104.608
N9910 X322.22 Y-104.619
N9915 X321.502 Y-104.645
N9920 X321.413 Y-104.647
N9925 X321.291 Y-104.648
N9930 X321.265
N9935 X286.082
N9940 Z-20.
N9945 X273.382
N9950 Z-22. F833.33
N9955 X223.165 F2500.
N9960 Z-20.
N9965 X210.465
N9970 Z-22. F833.33
N9975 X167.693 F2500.
N9980 Z-20.
N9985 X154.993
N9990 Z-22. F833.33
N9995 X111.787 F2500.
N10000 Z-20.
N10005 X99.087
N10010 Z-22. F833.33
N10015 X51.499 F2500.
N10020 Z-20.
N10025 X38.799
N10030 Z-22. F833.33
N10035 X12.395 F2500.
N10040 X12.307 Y-104.647
N10045 X11.588 Y-104.627
N10050 X11.42 Y-104.618
N10055 X10.704 Y-104.56
N10060 X10.527 Y-104.54
N10065 X9.816 Y-104.442
N10070 X9.647 Y-104.414
N10075 X8.943 Y-104.278
N10080 X8.773 Y-104.241
N10085 X8.08 Y-104.067
N10090 X7.913 Y-104.02
N10095 X7.232 Y-103.809
N10100 X7.064 Y-103.751
N10105 X6.398 Y-103.503
N10110 X6.236 Y-103.438
N10115 X5.587 Y-103.155
N10120 X5.429 Y-103.081
N10125 X4.799 Y-102.764
N10130 X4.643 Y-102.679
N10135 X4.035 Y-102.329
N10140 X3.883 Y-102.236
N10145 X3.299 Y-101.855
N10150 X3.152 Y-101.753
N10155 X2.592 Y-101.341
N10160 X2.451 Y-101.23
N10165 X1.918 Y-100.789
N10170 X1.782 Y-100.67
N10175 X1.278 Y-100.203
N10180 X1.149 Y-100.076
N10185 X0.675 Y-99.582
N10190 X0.552 Y-99.447
N10195 X0.11 Y-98.93
N10200 X-0.005 Y-98.788
N10205 X-0.415 Y-98.249
N10210 X-0.523 Y-98.099
N10215 X-0.899 Y-97.54
N10220 X-0.997 Y-97.384
N10225 X-1.339 Y-96.806
N10230 X-1.429 Y-96.644
N10235 X-1.734 Y-96.05
N10240 X-1.815 Y-95.881
N10245 X-2.084 Y-95.273
N10250 X-2.154 Y-95.1
N10255 X-2.386 Y-94.479
N10260 X-2.447 Y-94.301
N10265 X-2.641 Y-93.67
N10270 X-2.691 Y-93.488
N10275 X-2.846 Y-92.848
N10280 X-2.886 Y-92.663
N10285 X-3.003 Y-92.016
N10290 X-3.031 Y-91.829
N10295 X-3.109 Y-91.177
N10300 X-3.126 Y-90.988
N10305 X-3.165 Y-90.334
N10310 X-3.17 Y-90.192
N10315 X-3.175 Y-89.868
N10320 Y-89.822
N10325 Y-63.637
N10330 Z-20.
N10335 Y-50.937
N10340 Z-22. F833.33
N10345 Y-13.533 F2500.
N10350 Z-20.
N10355 Y-0.833
N10360 Z-22. F833.33
N10365 Y38.993 F2500.
N10370 Z-20.
N10375 Y51.693
N10380 Z-22. F833.33
N10385 Y89.822 F2500.
N10390 X-3.174 Y89.916
N10395 X-3.154 Y90.571
N10400 X-3.143 Y90.761
N10405 X-3.084 Y91.414
N10410 X-3.061 Y91.602
N10415 X-2.964 Y92.251
N10420 X-2.93 Y92.438
N10425 X-2.793 Y93.081
N10430 X-2.749 Y93.264
N10435 X-2.574 Y93.899
N10440 X-2.518 Y94.079
N10445 X-2.306 Y94.705
N10450 X-2.24 Y94.881
N10455 X-1.99 Y95.495
N10460 X-1.914 Y95.665
N10465 X-1.627 Y96.266
N10470 X-1.542 Y96.431
N10475 X-1.219 Y97.016
N10480 X-1.124 Y97.176
N10485 X-0.766 Y97.743
N10490 X-0.663 Y97.896
N10495 X-0.271 Y98.444
N10500 X-0.16 Y98.59
N10505 X0.266 Y99.118
N10510 X0.384 Y99.257
N10515 X0.842 Y99.761
N10520 X0.967 Y99.892
N10525 X1.455 Y100.372
N10530 X1.588 Y100.495
N10535 X2.105 Y100.949
N10540 X2.244 Y101.064
N10545 X2.789 Y101.49
N10550 X2.932 Y101.596
N10555 X3.503 Y101.993
N10560 X3.653 Y102.09
N10565 X4.248 Y102.456
N10570 X4.402 Y102.545
N10575 X5.02 Y102.879
N10580 X5.174 Y102.957
N10585 X5.812 Y103.258
N10590 X5.978 Y103.33
N10595 X6.635 Y103.595
N10600 X6.796 Y103.655
N10605 X7.468 Y103.885
N10610 X7.632 Y103.936
N10615 X8.319 Y104.13
N10620 X8.49 Y104.174
N10625 X9.188 Y104.33
N10630 X9.362 Y104.363
N10635 X10.069 Y104.48
N10640 X10.238 Y104.504
N10645 X10.951 Y104.583
N10650 X11.119 Y104.597
N10655 X11.837 Y104.638
N10660 X11.976 Y104.643
N10665 X12.353 Y104.648
N10670 X12.395
N10675 X45.806
N10680 Z-20.
N10685 X58.506
N10690 Z-22. F833.33
N10695 X105.443 F2500.
N10700 Z-20.
N10705 X118.143
N10710 Z-22. F833.33
N10715 X171.879 F2500.
N10720 Z-20.
N10725 X184.579
N10730 Z-22. F833.33
N10735 X224.7 F2500.
N10740 Z-20.
N10745 X237.4
N10750 Z-22. F833.33
N10755 X289.898 F2500.
N10760 Z-20.
N10765 X302.598
N10770 Z-22. F833.33
N10775 X321.265 F2500.
N10780 X321.353 Y104.647
N10785 X322.072 Y104.627
N10790 X322.24 Y104.618
N10795 X322.956 Y104.56
N10800 X323.134 Y104.54
N10805 X323.845 Y104.442
N10810 X324.014 Y104.414
N10815 X324.717 Y104.278
N10820 X324.886 Y104.241
N10825 X325.58 Y104.067
N10830 X325.748 Y104.02
N10835 X326.429 Y103.809
N10840 X326.597 Y103.751
N10845 X327.263 Y103.503
N10850 X327.426 Y103.438
N10855 X328.074 Y103.155
N10860 X328.23 Y103.081
N10865 X328.86 Y102.764
N10870 X329.018 Y102.679
N10875 X329.626 Y102.329
N10880 X329.776 Y102.237
N10885 X330.361 Y101.855
N10890 X330.51 Y101.752
N10895 X331.069 Y101.34
N10900 X331.208 Y101.231
N10905 X331.741 Y100.79
N10910 X331.878 Y100.67
N10915 X332.382 Y100.203
N10920 X332.511 Y100.076
N10925 X332.985 Y99.582
N10930 X333.107 Y99.448
N10935 X333.55 Y98.932
N10940 X333.668 Y98.785
N10945 X334.077 Y98.246
N10950 X334.18 Y98.102
N10955 X334.557 Y97.543
N10960 X334.658 Y97.383
N10965 X334.999 Y96.806
N10970 X335.09 Y96.642
N10975 X335.395 Y96.048
N10980 X335.475 Y95.882
N10985 X335.743 Y95.274
N10990 X335.814 Y95.101
N10995 X336.046 Y94.48
N11000 X336.107 Y94.301
N11005 X336.301 Y93.67
N11010 X336.352 Y93.485
N11015 X336.507 Y92.845
N11020 X336.545 Y92.663
N11025 X336.662 Y92.016
N11030 X336.69 Y91.828
N11035 X336.768 Y91.177
N11040 X336.785 Y90.988
N11045 X336.824 Y90.334
N11050 X336.83 Y90.145
N11055 Y89.49
N11060 X336.824 Y89.301
N11065 X336.785 Y88.647
N11070 X336.776 Y88.522
N11075 X336.767 Y88.432
N11080 X332.64 Y46.635
N11085 X332.555 Y45.704
N11090 X332.484 Y44.807
N11095 X332.429 Y43.935
N11100 X332.389 Y43.085
N11105 X332.362 Y42.259
N11110 X332.351 Y41.455
N11115 X332.353 Y40.674
N11120 X332.37 Y39.915
N11125 X332.399 Y39.179
N11130 X332.443 Y38.468
N11135 X332.5 Y37.78
N11140 X332.571 Y37.112
N11145 X332.655 Y36.466
N11150 X332.751 Y35.845
N11155 X332.859 Y35.248
N11160 X332.979 Y34.67
N11165 X333.111 Y34.116
N11170 X333.255 Y33.583
N11175 X333.413 Y33.063
N11180 X333.584 Y32.558
N11185 X333.767 Y32.072
N11190 X333.966 Y31.596
N11195 X334.18 Y31.133
N11200 X334.409 Y30.685
N11205 X334.655 Y30.249
N11210 X334.919 Y29.825
N11215 X335.197 Y29.419
N11220 X335.492 Y29.029
N11225 X335.806 Y28.655
N11230 X336.136 Y28.296
N11235 X336.482 Y27.953
N11240 X336.846 Y27.626
N11245 X337.231 Y27.312
N11250 X337.63 Y27.014
N11255 X338.048 Y26.732
N11260 X338.484 Y26.465
N11265 X338.937 Y26.214
N11270 X339.411 Y25.978
N11275 X339.901 Y25.757
N11280 X340.405 Y25.553
N11285 X340.924 Y25.363
N11290 X341.457 Y25.189
N11295 X342.003 Y25.03
N11300 X342.559 Y24.885
N11305 X343.124 Y24.755
N11310 X343.699 Y24.639
N11315 X344.283 Y24.536
N11320 X344.879 Y24.444
N11325 X345.491 Y24.365
N11330 X346.119 Y24.296
N11335 X346.767 Y24.239
N11340 X347.434 Y24.194
N11345 X348.122 Y24.159
N11350 X348.831 Y24.136
N11355 X349.561 Y24.125
N11360 X350.311 Y24.126
N11365 X351.081 Y24.138
N11370 X351.871 Y24.163
N11375 X352.682 Y24.2
N11380 X353.513 Y24.249
N11385 X354.364 Y24.31
N11390 X355.237 Y24.384
N11395 X356.129 Y24.471
N11400 X357.051 Y24.571
N11405 X431.029 Y33.
N11410 G2 X431.436 Y33.02 I0.359 J-3.155
N11415 G1 X432.73 Y33.
N11420 X432.826 Y32.997
N11425 X434.117 Y32.938
N11430 X434.213 Y32.932
N11435 X435.501 Y32.835
N11440 X435.598 Y32.826
N11445 X436.879 Y32.689
N11450 X436.974 Y32.678
N11455 X438.248 Y32.503
N11460 X438.344 Y32.488
N11465 X439.608 Y32.275
N11470 X439.704 Y32.257
N11475 X440.955 Y32.006
N11480 X441.05 Y31.985
N11485 X442.288 Y31.698
N11490 X442.383 Y31.674
N11495 X443.606 Y31.35
N11500 X443.701 Y31.323
N11505 X444.906 Y30.963
N11510 X445. Y30.933
N11515 X446.186 Y30.538
N11520 X446.279 Y30.506
N11525 X447.445 Y30.077
N11530 X447.539 Y30.04
N11535 X448.682 Y29.578
N11540 X448.774 Y29.539
N11545 X449.895 Y29.045
N11550 X449.988 Y29.002
N11555 X451.083 Y28.476
N11560 X451.174 Y28.431
N11565 X452.243 Y27.874
N11570 X452.333 Y27.826
N11575 X453.375 Y27.24
N11580 X453.464 Y27.188
N11585 X454.478 Y26.574
N11590 X454.567 Y26.518
N11595 X455.551 Y25.877
N11600 X455.637 Y25.818
N11605 X456.591 Y25.151
N11610 X456.678 Y25.088
N11615 X457.6 Y24.395
N11620 X457.683 Y24.33
N11625 X458.574 Y23.614
N11630 X458.659 Y23.543
N11635 X459.516 Y22.803
N11640 X459.595 Y22.733
N11645 X460.42 Y21.971
N11650 X460.501 Y21.894
N11655 X461.291 Y21.111
N11660 X461.368 Y21.031
N11665 X462.123 Y20.229
N11670 X462.198 Y20.146
N11675 X462.918 Y19.325
N11680 X462.992 Y19.238
N11685 X463.676 Y18.399
N11690 X463.746 Y18.309
N11695 X464.394 Y17.454
N11700 X464.461 Y17.362
N11705 X465.073 Y16.49
N11710 X465.14 Y16.392
N11715 X465.714 Y15.506
N11720 X465.775 Y15.407
N11725 X466.312 Y14.507
N11730 X466.37 Y14.406
N11735 X466.87 Y13.493
N11740 X466.926 Y13.387
N11745 X467.388 Y12.463
N11750 X467.441 Y12.352
N11755 X467.864 Y11.418
N11760 X467.91 Y11.31
N11765 X468.296 Y10.366
N11770 X468.34 Y10.251
N11775 X468.687 Y9.298
N11780 X468.727 Y9.181
N11785 X469.035 Y8.22
N11790 X469.071 Y8.101
N11795 X469.34 Y7.133
N11800 X469.37 Y7.016
N11805 X469.601 Y6.042
N11810 X469.628 Y5.918
N11815 X469.819 Y4.939
N11820 X469.84 Y4.82
N11825 X469.993 Y3.837
N11830 X470.01 Y3.71
N11835 X470.123 Y2.725
N11840 X470.135 Y2.6
N11845 X470.209 Y1.613
N11850 X470.216 Y1.488
N11855 X470.251 Y0.499
N11860 X470.253 Y0.374
N11865 G3 X470.885 Y-0.264 I0.635 J-0.003
N11870 G1 X471.52 Y-0.266
N11875 X471.62 Y-0.267 Z-21.992
N11880 X471.717 Z-21.969
N11885 X471.809 Z-21.931
N11890 X471.894 Y-0.268 Z-21.879
N11895 X471.969 Z-21.814
N11900 X472.034 Z-21.738
N11905 X472.086 Y-0.269 Z-21.653
N11910 X472.124 Z-21.561
N11915 X472.148 Z-21.464
N11920 X472.155 Z-21.365
N11925 Z5.
N11930 X430.865 Y-5.674
N11935 Z-5.715 F833.33
N11940 X430.866 Y-5.682 Z-5.814 F2500.
N11945 Y-5.705 Z-5.911
N11950 X430.867 Y-5.743 Z-6.003
N11955 X430.868 Y-5.795 Z-6.088
N11960 X430.87 Y-5.86 Z-6.164
N11965 X430.871 Y-5.936 Z-6.229
N11970 X430.873 Y-6.021 Z-6.281
N11975 X430.875 Y-6.113 Z-6.319
N11980 X430.878 Y-6.21 Z-6.342
N11985 X430.88 Y-6.309 Z-6.35
N11990 X430.894 Y-6.944
N11995 G3 X431.543 Y-7.564 I0.635 J0.014
N12000 G1 X432.113 Y-7.551
N12005 X432.843 Y-7.504
N12010 X433.569 Y-7.428
N12015 X434.286 Y-7.324
N12020 X434.99 Y-7.192
N12025 X435.678 Y-7.033
N12030 X436.345 Y-6.851
N12035 X436.989 Y-6.645
N12040 X437.604 Y-6.419
N12045 X438.191 Y-6.172
N12050 X438.75 Y-5.906
N12055 X439.279 Y-5.626
N12060 X439.776 Y-5.332
N12065 X440.244 Y-5.026
N12070 X440.68 Y-4.711
N12075 X441.082 Y-4.393
N12080 X441.448 Y-4.072
N12085 X441.781 Y-3.752
N12090 X442.077 Y-3.436
N12095 X442.339 Y-3.125
N12100 X442.573 Y-2.816
N12105 X442.777 Y-2.518
N12110 X442.95 Y-2.231
N12115 X443.099 Y-1.951
N12120 X443.223 Y-1.684
N12125 X443.326 Y-1.424
N12130 X443.41 Y-1.17
N12135 X443.475 Y-0.927
N12140 X443.524 Y-0.687
N12145 X443.559 Y-0.45
N12150 X443.58 Y-0.211
N12155 X443.589 Y0.021
N12160 X443.583 Y0.238
N12165 X443.564 Y0.463
N12170 X443.531 Y0.691
N12175 X443.484 Y0.915
N12180 X443.419 Y1.153
N12185 X443.334 Y1.404
N12190 X443.229 Y1.667
N12195 X443.101 Y1.942
N12200 X442.95 Y2.225
N12205 X442.773 Y2.519
N12210 X442.569 Y2.819
N12215 X442.335 Y3.127
N12220 X442.069 Y3.442
N12225 X441.77 Y3.761
N12230 X441.441 Y4.082
N12235 X441.08 Y4.398
N12240 X440.684 Y4.714
N12245 X440.237 Y5.036
N12250 X440.024 Y5.179
N12255 X439.806 Y5.317
N12260 X439.292 Y5.618
N12265 X438.759 Y5.899
N12270 X438.193 Y6.165
N12275 X437.598 Y6.415
N12280 X436.976 Y6.645
N12285 X436.331 Y6.854
N12290 X435.665 Y7.039
N12295 X434.982 Y7.198
N12300 X434.286 Y7.33
N12305 X433.577 Y7.434
N12310 X432.859 Y7.507
N12315 X432.131 Y7.55
N12320 X431.396 Y7.563
N12325 X430.66 Y7.547
N12330 X429.926 Y7.501
N12335 X429.198 Y7.426
N12340 X428.481 Y7.323
N12345 X427.779 Y7.193
N12350 X427.095 Y7.037
N12355 X426.435 Y6.856
N12360 X425.796 Y6.65
N12365 X425.183 Y6.422
N12370 X424.594 Y6.172
N12375 X424.031 Y5.905
N12380 X423.498 Y5.622
N12385 X422.996 Y5.327
N12390 X422.525 Y5.02
N12395 X422.088 Y4.707
N12400 X421.688 Y4.39
N12405 X421.325 Y4.073
N12410 X420.997 Y3.755
N12415 X420.702 Y3.44
N12420 X420.439 Y3.129
N12425 X420.206 Y2.821
N12430 X420.005 Y2.526
N12435 X419.831 Y2.237
N12440 X419.68 Y1.954
N12445 X419.555 Y1.683
N12450 X419.452 Y1.422
N12455 X419.368 Y1.164
N12460 X419.301 Y0.918
N12465 X419.253 Y0.685
N12470 X419.218 Y0.45
N12475 X419.198 Y0.223
N12480 X419.191 Y0.
N12485 X419.198 Y-0.232
N12490 X419.218 Y-0.466
N12495 X419.251 Y-0.696
N12500 X419.299 Y-0.929
N12505 X419.364 Y-1.172
N12510 X419.445 Y-1.416
N12515 X419.547 Y-1.671
N12520 X419.674 Y-1.944
N12525 X419.823 Y-2.224
N12530 X420. Y-2.516
N12535 X420.204 Y-2.816
N12540 X420.437 Y-3.122
N12545 X420.703 Y-3.436
N12550 X421.002 Y-3.755
N12555 X421.335 Y-4.078
N12560 X421.701 Y-4.398
N12565 X422.099 Y-4.716
N12570 X422.531 Y-5.028
N12575 X422.994 Y-5.331
N12580 X423.508 Y-5.634
N12585 X423.75 Y-5.766
N12590 X424.002 Y-5.895
N12595 X424.579 Y-6.167
N12600 X425.169 Y-6.414
N12605 X425.792 Y-6.643
N12610 X426.438 Y-6.85
N12615 X427.107 Y-7.034
N12620 X427.794 Y-7.194
N12625 X428.496 Y-7.327
N12630 X429.209 Y-7.432
N12635 X429.93 Y-7.508
N12640 X430.655 Y-7.553
N12645 X431.383 Y-7.568
N12650 X431.543 Y-7.564
N12655 G3 X432.164 Y-6.915 I-0.014 J0.635
N12660 G1 X432.149 Y-6.28
N12665 X432.147 Y-6.181 Z-6.342
N12670 X432.145 Y-6.084 Z-6.319
N12675 X432.143 Y-5.992 Z-6.281
N12680 X432.141 Y-5.907 Z-6.229
N12685 X432.139 Y-5.831 Z-6.164
N12690 X432.138 Y-5.766 Z-6.088
N12695 X432.137 Y-5.714 Z-6.003
N12700 X432.136 Y-5.676 Z-5.911
N12705 X432.135 Y-5.653 Z-5.814
N12710 Y-5.645 Z-5.715
N12715 Z5.
N12720 X430.865 Y-5.674
N12725 Z-1.35 F833.33
N12730 Z-12.065
N12735 X430.866 Y-5.682 Z-12.164 F2500.
N12740 Y-5.705 Z-12.261
N12745 X430.867 Y-5.743 Z-12.353
N12750 X430.868 Y-5.795 Z-12.438
N12755 X430.87 Y-5.86 Z-12.514
N12760 X430.871 Y-5.936 Z-12.579
N12765 X430.873 Y-6.021 Z-12.631
N12770 X430.875 Y-6.113 Z-12.669
N12775 X430.878 Y-6.21 Z-12.692
N12780 X430.88 Y-6.309 Z-12.7
N12785 X430.894 Y-6.944
N12790 G3 X431.543 Y-7.564 I0.635 J0.014
N12795 G1 X432.113 Y-7.551
N12800 X432.843 Y-7.504
N12805 X433.569 Y-7.428
N12810 X434.286 Y-7.324
N12815 X434.99 Y-7.192
N12820 X435.678 Y-7.033
N12825 X436.345 Y-6.851
N12830 X436.989 Y-6.645
N12835 X437.604 Y-6.419
N12840 X438.191 Y-6.172
N12845 X438.75 Y-5.906
N12850 X439.279 Y-5.626
N12855 X439.776 Y-5.332
N12860 X440.244 Y-5.026
N12865 X440.68 Y-4.711
N12870 X441.082 Y-4.393
N12875 X441.448 Y-4.072
N12880 X441.781 Y-3.752
N12885 X442.077 Y-3.436
N12890 X442.339 Y-3.125
N12895 X442.573 Y-2.816
N12900 X442.777 Y-2.518
N12905 X442.95 Y-2.231
N12910 X443.099 Y-1.951
N12915 X443.223 Y-1.684
N12920 X443.326 Y-1.424
N12925 X443.41 Y-1.17
N12930 X443.475 Y-0.927
N12935 X443.524 Y-0.687
N12940 X443.559 Y-0.45
N12945 X443.58 Y-0.211
N12950 X443.589 Y0.021
N12955 X443.583 Y0.238
N12960 X443.564 Y0.463
N12965 X443.531 Y0.691
N12970 X443.484 Y0.915
N12975 X443.419 Y1.153
N12980 X443.334 Y1.404
N12985 X443.229 Y1.667
N12990 X443.101 Y1.942
N12995 X442.95 Y2.225
N13000 X442.773 Y2.519
N13005 X442.569 Y2.819
N13010 X442.335 Y3.127
N13015 X442.069 Y3.442
N13020 X441.77 Y3.761
N13025 X441.441 Y4.082
N13030 X441.08 Y4.398
N13035 X440.684 Y4.714
N13040 X440.237 Y5.036
N13045 X440.024 Y5.179
N13050 X439.806 Y5.317
N13055 X439.292 Y5.618
N13060 X438.759 Y5.899
N13065 X438.193 Y6.165
N13070 X437.598 Y6.415
N13075 X436.976 Y6.645
N13080 X436.331 Y6.854
N13085 X435.665 Y7.039
N13090 X434.982 Y7.198
N13095 X434.286 Y7.33
N13100 X433.577 Y7.434
N13105 X432.859 Y7.507
N13110 X432.131 Y7.55
N13115 X431.396 Y7.563
N13120 X430.66 Y7.547
N13125 X429.926 Y7.501
N13130 X429.198 Y7.426
N13135 X428.481 Y7.323
N13140 X427.779 Y7.193
N13145 X427.095 Y7.037
N13150 X426.435 Y6.856
N13155 X425.796 Y6.65
N13160 X425.183 Y6.422
N13165 X424.594 Y6.172
N13170 X424.031 Y5.905
N13175 X423.498 Y5.622
N13180 X422.996 Y5.327
N13185 X422.525 Y5.02
N13190 X422.088 Y4.707
N13195 X421.688 Y4.39
N13200 X421.325 Y4.073
N13205 X420.997 Y3.755
N13210 X420.702 Y3.44
N13215 X420.439 Y3.129
N13220 X420.206 Y2.821
N13225 X420.005 Y2.526
N13230 X419.831 Y2.237
N13235 X419.68 Y1.954
N13240 X419.555 Y1.683
N13245 X419.452 Y1.422
N13250 X419.368 Y1.164
N13255 X419.301 Y0.918
N13260 X419.253 Y0.685
N13265 X419.218 Y0.45
N13270 X419.198 Y0.223
N13275 X419.191 Y0.
N13280 X419.198 Y-0.232
N13285 X419.218 Y-0.466
N13290 X419.251 Y-0.696
N13295 X419.299 Y-0.929
N13300 X419.364 Y-1.172
N13305 X419.445 Y-1.416
N13310 X419.547 Y-1.671
N13315 X419.674 Y-1.944
N13320 X419.823 Y-2.224
N13325 X420. Y-2.516
N13330 X420.204 Y-2.816
N13335 X420.437 Y-3.122
N13340 X420.703 Y-3.436
N13345 X421.002 Y-3.755
N13350 X421.335 Y-4.078
N13355 X421.701 Y-4.398
N13360 X422.099 Y-4.716
N13365 X422.531 Y-5.028
N13370 X422.994 Y-5.331
N13375 X423.508 Y-5.634
N13380 X423.75 Y-5.766
N13385 X424.002 Y-5.895
N13390 X424.579 Y-6.167
N13395 X425.169 Y-6.414
N13400 X425.792 Y-6.643
N13405 X426.438 Y-6.85
N13410 X427.107 Y-7.034
N13415 X427.794 Y-7.194
N13420 X428.496 Y-7.327
N13425 X429.209 Y-7.432
N13430 X429.93 Y-7.508
N13435 X430.655 Y-7.553
N13440 X431.383 Y-7.568
N13445 X431.543 Y-7.564
N13450 G3 X432.164 Y-6.915 I-0.014 J0.635
N13455 G1 X432.149 Y-6.28
N13460 X432.147 Y-6.181 Z-12.692
N13465 X432.145 Y-6.084 Z-12.669
N13470 X432.143 Y-5.992 Z-12.631
N13475 X432.141 Y-5.907 Z-12.579
N13480 X432.139 Y-5.831 Z-12.514
N13485 X432.138 Y-5.766 Z-12.438
N13490 X432.137 Y-5.714 Z-12.353
N13495 X432.136 Y-5.676 Z-12.261
N13500 X432.135 Y-5.653 Z-12.164
N13505 Y-5.645 Z-12.065
N13510 Z5.
N13515 X430.865 Y-5.674
N13520 Z-7.7 F833.33
N13525 Z-18.415
N13530 X430.866 Y-5.682 Z-18.514 F2500.
N13535 Y-5.705 Z-18.611
N13540 X430.867 Y-5.743 Z-18.703
N13545 X430.868 Y-5.795 Z-18.788
N13550 X430.87 Y-5.86 Z-18.864
N13555 X430.871 Y-5.936 Z-18.929
N13560 X430.873 Y-6.021 Z-18.981
N13565 X430.875 Y-6.113 Z-19.019
N13570 X430.878 Y-6.21 Z-19.042
N13575 X430.88 Y-6.309 Z-19.05
N13580 X430.894 Y-6.944
N13585 G3 X431.543 Y-7.564 I0.635 J0.014
N13590 G1 X432.113 Y-7.551
N13595 X432.843 Y-7.504
N13600 X433.569 Y-7.428
N13605 X434.286 Y-7.324
N13610 X434.99 Y-7.192
N13615 X435.678 Y-7.033
N13620 X436.345 Y-6.851
N13625 X436.989 Y-6.645
N13630 X437.604 Y-6.419
N13635 X438.191 Y-6.172
N13640 X438.75 Y-5.906
N13645 X439.279 Y-5.626
N13650 X439.776 Y-5.332
N13655 X440.244 Y-5.026
N13660 X440.68 Y-4.711
N13665 X441.082 Y-4.393
N13670 X441.448 Y-4.072
N13675 X441.781 Y-3.752
N13680 X442.077 Y-3.436
N13685 X442.339 Y-3.125
N13690 X442.573 Y-2.816
N13695 X442.777 Y-2.518
N13700 X442.95 Y-2.231
N13705 X443.099 Y-1.951
N13710 X443.223 Y-1.684
N13715 X443.326 Y-1.424
N13720 X443.41 Y-1.17
N13725 X443.475 Y-0.927
N13730 X443.524 Y-0.687
N13735 X443.559 Y-0.45
N13740 X443.58 Y-0.211
N13745 X443.589 Y0.021
N13750 X443.583 Y0.238
N13755 X443.564 Y0.463
N13760 X443.531 Y0.691
N13765 X443.484 Y0.915
N13770 X443.419 Y1.153
N13775 X443.334 Y1.404
N13780 X443.229 Y1.667
N13785 X443.101 Y1.942
N13790 X442.95 Y2.225
N13795 X442.773 Y2.519
N13800 X442.569 Y2.819
N13805 X442.335 Y3.127
N13810 X442.069 Y3.442
N13815 X441.77 Y3.761
N13820 X441.441 Y4.082
N13825 X441.08 Y4.398
N13830 X440.684 Y4.714
N13835 X440.237 Y5.036
N13840 X440.024 Y5.179
N13845 X439.806 Y5.317
N13850 X439.292 Y5.618
N13855 X438.759 Y5.899
N13860 X438.193 Y6.165
N13865 X437.598 Y6.415
N13870 X436.976 Y6.645
N13875 X436.331 Y6.854
N13880 X435.665 Y7.039
N13885 X434.982 Y7.198
N13890 X434.286 Y7.33
N13895 X433.577 Y7.434
N13900 X432.859 Y7.507
N13905 X432.131 Y7.55
N13910 X431.396 Y7.563
N13915 X430.66 Y7.547
N13920 X429.926 Y7.501
N13925 X429.198 Y7.426
N13930 X428.481 Y7.323
N13935 X427.779 Y7.193
N13940 X427.095 Y7.037
N13945 X426.435 Y6.856
N13950 X425.796 Y6.65
N13955 X425.183 Y6.422
N13960 X424.594 Y6.172
N13965 X424.031 Y5.905
N13970 X423.498 Y5.622
N13975 X422.996 Y5.327
N13980 X422.525 Y5.02
N13985 X422.088 Y4.707
N13990 X421.688 Y4.39
N13995 X421.325 Y4.073
N14000 X420.997 Y3.755
N14005 X420.702 Y3.44
N14010 X420.439 Y3.129
N14015 X420.206 Y2.821
N14020 X420.005 Y2.526
N14025 X419.831 Y2.237
N14030 X419.68 Y1.954
N14035 X419.555 Y1.683
N14040 X419.452 Y1.422
N14045 X419.368 Y1.164
N14050 X419.301 Y0.918
N14055 X419.253 Y0.685
N14060 X419.218 Y0.45
N14065 X419.198 Y0.223
N14070 X419.191 Y0.
N14075 X419.198 Y-0.232
N14080 X419.218 Y-0.466
N14085 X419.251 Y-0.696
N14090 X419.299 Y-0.929
N14095 X419.364 Y-1.172
N14100 X419.445 Y-1.416
N14105 X419.547 Y-1.671
N14110 X419.674 Y-1.944
N14115 X419.823 Y-2.224
N14120 X420. Y-2.516
N14125 X420.204 Y-2.816
N14130 X420.437 Y-3.122
N14135 X420.703 Y-3.436
N14140 X421.002 Y-3.755
N14145 X421.335 Y-4.078
N14150 X421.701 Y-4.398
N14155 X422.099 Y-4.716
N14160 X422.531 Y-5.028
N14165 X422.994 Y-5.331
N14170 X423.508 Y-5.634
N14175 X423.75 Y-5.766
N14180 X424.002 Y-5.895
N14185 X424.579 Y-6.167
N14190 X425.169 Y-6.414
N14195 X425.792 Y-6.643
N14200 X426.438 Y-6.85
N14205 X427.107 Y-7.034
N14210 X427.794 Y-7.194
N14215 X428.496 Y-7.327
N14220 X429.209 Y-7.432
N14225 X429.93 Y-7.508
N14230 X430.655 Y-7.553
N14235 X431.383 Y-7.568
N14240 X431.543 Y-7.564
N14245 G3 X432.164 Y-6.915 I-0.014 J0.635
N14250 G1 X432.149 Y-6.28
N14255 X432.147 Y-6.181 Z-19.042
N14260 X432.145 Y-6.084 Z-19.019
N14265 X432.143 Y-5.992 Z-18.981
N14270 X432.141 Y-5.907 Z-18.929
N14275 X432.139 Y-5.831 Z-18.864
N14280 X432.138 Y-5.766 Z-18.788
N14285 X432.137 Y-5.714 Z-18.703
N14290 X432.136 Y-5.676 Z-18.611
N14295 X432.135 Y-5.653 Z-18.514
N14300 Y-5.645 Z-18.415
N14305 Z5.
N14310 X430.865 Y-5.674
N14315 Z-14.05 F833.33
N14320 Z-21.365
N14325 X430.866 Y-5.682 Z-21.464 F2500.
N14330 Y-5.705 Z-21.561
N14335 X430.867 Y-5.743 Z-21.653
N14340 X430.868 Y-5.795 Z-21.738
N14345 X430.87 Y-5.86 Z-21.814
N14350 X430.871 Y-5.936 Z-21.879
N14355 X430.873 Y-6.021 Z-21.931
N14360 X430.875 Y-6.113 Z-21.969
N14365 X430.878 Y-6.21 Z-21.992
N14370 X430.88 Y-6.309 Z-22.
N14375 X430.894 Y-6.944
N14380 G3 X431.543 Y-7.564 I0.635 J0.014
N14385 G1 X432.113 Y-7.551
N14390 X432.843 Y-7.504
N14395 X433.569 Y-7.428
N14400 X434.286 Y-7.324
N14405 X434.99 Y-7.192
N14410 X435.678 Y-7.033
N14415 X436.345 Y-6.851
N14420 X436.989 Y-6.645
N14425 X437.604 Y-6.419
N14430 X438.191 Y-6.172
N14435 X438.75 Y-5.906
N14440 X439.279 Y-5.626
N14445 X439.776 Y-5.332
N14450 X440.244 Y-5.026
N14455 X440.68 Y-4.711
N14460 X441.082 Y-4.393
N14465 X441.448 Y-4.072
N14470 X441.781 Y-3.752
N14475 X442.077 Y-3.436
N14480 X442.339 Y-3.125
N14485 X442.573 Y-2.816
N14490 X442.777 Y-2.518
N14495 X442.95 Y-2.231
N14500 X443.099 Y-1.951
N14505 X443.223 Y-1.684
N14510 X443.326 Y-1.424
N14515 X443.41 Y-1.17
N14520 X443.475 Y-0.927
N14525 X443.524 Y-0.687
N14530 X443.559 Y-0.45
N14535 X443.58 Y-0.211
N14540 X443.589 Y0.021
N14545 X443.583 Y0.238
N14550 X443.564 Y0.463
N14555 X443.531 Y0.691
N14560 X443.484 Y0.915
N14565 X443.419 Y1.153
N14570 X443.334 Y1.404
N14575 X443.229 Y1.667
N14580 X443.101 Y1.942
N14585 X442.95 Y2.225
N14590 X442.773 Y2.519
N14595 X442.569 Y2.819
N14600 X442.335 Y3.127
N14605 X442.069 Y3.442
N14610 X441.77 Y3.761
N14615 X441.441 Y4.082
N14620 X441.08 Y4.398
N14625 X440.684 Y4.714
N14630 X440.237 Y5.036
N14635 X440.024 Y5.179
N14640 X439.806 Y5.317
N14645 X439.292 Y5.618
N14650 X438.759 Y5.899
N14655 X438.193 Y6.165
N14660 X437.598 Y6.415
N14665 X436.976 Y6.645
N14670 X436.331 Y6.854
N14675 X435.665 Y7.039
N14680 X434.982 Y7.198
N14685 X434.286 Y7.33
N14690 X433.577 Y7.434
N14695 X432.859 Y7.507
N14700 X432.131 Y7.55
N14705 X431.396 Y7.563
N14710 X430.66 Y7.547
N14715 X429.926 Y7.501
N14720 X429.198 Y7.426
N14725 X428.481 Y7.323
N14730 X427.779 Y7.193
N14735 X427.095 Y7.037
N14740 X426.435 Y6.856
N14745 X425.796 Y6.65
N14750 X425.183 Y6.422
N14755 X424.594 Y6.172
N14760 X424.031 Y5.905
N14765 X423.498 Y5.622
N14770 X422.996 Y5.327
N14775 X422.525 Y5.02
N14780 X422.088 Y4.707
N14785 X421.688 Y4.39
N14790 X421.325 Y4.073
N14795 X420.997 Y3.755
N14800 X420.702 Y3.44
N14805 X420.439 Y3.129
N14810 X420.206 Y2.821
N14815 X420.005 Y2.526
N14820 X419.831 Y2.237
N14825 X419.68 Y1.954
N14830 X419.555 Y1.683
N14835 X419.452 Y1.422
N14840 X419.368 Y1.164
N14845 X419.301 Y0.918
N14850 X419.253 Y0.685
N14855 X419.218 Y0.45
N14860 X419.198 Y0.223
N14865 X419.191 Y0.
N14870 X419.198 Y-0.232
N14875 X419.218 Y-0.466
N14880 X419.251 Y-0.696
N14885 X419.299 Y-0.929
N14890 X419.364 Y-1.172
N14895 X419.445 Y-1.416
N14900 X419.547 Y-1.671
N14905 X419.674 Y-1.944
N14910 X419.823 Y-2.224
N14915 X420. Y-2.516
N14920 X420.204 Y-2.816
N14925 X420.437 Y-3.122
N14930 X420.703 Y-3.436
N14935 X421.002 Y-3.755
N14940 X421.335 Y-4.078
N14945 X421.701 Y-4.398
N14950 X422.099 Y-4.716
N14955 X422.531 Y-5.028
N14960 X422.994 Y-5.331
N14965 X423.508 Y-5.634
N14970 X423.75 Y-5.766
N14975 X424.002 Y-5.895
N14980 X424.579 Y-6.167
N14985 X425.169 Y-6.414
N14990 X425.792 Y-6.643
N14995 X426.438 Y-6.85
N15000 X427.107 Y-7.034
N15005 X427.794 Y-7.194
N15010 X428.496 Y-7.327
N15015 X429.209 Y-7.432
N15020 X429.93 Y-7.508
N15025 X430.655 Y-7.553
N15030 X431.383 Y-7.568
N15035 X431.543 Y-7.564
N15040 G3 X432.164 Y-6.915 I-0.014 J0.635
N15045 G1 X432.149 Y-6.28
N15050 X432.147 Y-6.181 Z-21.992
N15055 X432.145 Y-6.084 Z-21.969
N15060 X432.143 Y-5.992 Z-21.931
N15065 X432.141 Y-5.907 Z-21.879
N15070 X432.139 Y-5.831 Z-21.814
N15075 X432.138 Y-5.766 Z-21.738
N15080 X432.137 Y-5.714 Z-21.653
N15085 X432.136 Y-5.676 Z-21.561
N15090 X432.135 Y-5.653 Z-21.464
N15095 Y-5.645 Z-21.365
N15100 Z15.
N15105 M9
N15110 G53 G0 Z0.
N15115 M30
%
