%
(CHARTWOFLOWER)
(T2  D=38.1 CR=0. TAPER=45DEG - ZMIN=-7.72 - CHAMFER MILL)
N10 G90 G94 G17 G91.1
N15 G21
(WHEN USING FUSION 360 FOR PERSONAL USE, THE FEEDRATE OF)
(RAPID MOVES IS REDUCED TO MATCH THE FEEDRATE OF CUTTING)
(MOVES, WHICH CAN INCREASE MACHINING TIME. UNRESTRICTED RAPID)
(MOVES ARE AVAILABLE WITH A FUSION 360 SUBSCRIPTION.)
N20 G53 G0 Z0.
(TWOFLOWER)
N25 T2 M6
N30 S16000 M3
N35 G54
N40 G0 X39.006 Y-14.129
N45 G43 Z15. H2
N50 G1 Z4. F889.
N55 Z-1.001
N60 X39.42 Y-13.961 Z-1.432
N65 X39.551 Y-13.923 Z-1.56
N70 X39.613 Y-13.911 Z-1.617
N75 X39.667 Y-13.907 Z-1.663
N80 X39.732 Y-13.906 Z-1.715
N85 X39.813 Y-13.911 Z-1.776
N90 X39.907 Y-13.923 Z-1.844
N95 X40.011 Y-13.942 Z-1.916
N100 X40.124 Y-13.967 Z-1.991
N105 X40.24 Y-13.998 Z-2.065
N110 X40.356 Y-14.032 Z-2.136
N115 X40.467 Y-14.068 Z-2.201
N120 X40.57 Y-14.105 Z-2.259
N125 X40.59 Y-14.113 Z-2.27
N130 X40.621 Y-13.841 Z-2.006
N135 X40.682 Y-13.417 Z-1.59
N140 X40.788 Y-12.825 Z-1.001
N145 X40.682 Y-13.417 Z-1.59
N150 X40.621 Y-13.841 Z-2.006
N155 X40.59 Y-14.113 Z-2.27
N160 X40.905 Y-14.343 Z-2.375
N165 X41.342 Y-14.648 Z-2.521
N170 X41.698 Y-14.884 Z-2.643
N175 X42.032 Y-15.095 Z-2.762
N180 X42.405 Y-15.325 Z-2.891
N185 X42.49 Y-15.376 Z-2.921
N190 X43.155 Y-15.758 Z-3.16
N195 X43.923 Y-16.169 Z-3.44
N200 X44.42 Y-16.421 Z-3.629
N205 X44.708 Y-16.562 Z-3.735
N210 X45.502 Y-16.937 Z-4.038
N215 X46.305 Y-17.295 Z-4.347
N220 X46.946 Y-17.57 Z-4.599
N225 X47.908 Y-17.965 Z-4.976
N230 X49.224 Y-18.485 Z-5.499
N235 X50.269 Y-18.797 Z-5.821
N240 X50.434 Y-18.572 Z-5.597
N245 X50.6 Y-18.354 Z-5.382
N250 X50.765 Y-18.146 Z-5.175
N255 X50.931 Y-17.945 Z-4.976
N260 X51.093 Y-17.759 Z-4.79
N265 X51.255 Y-17.58 Z-4.611
N270 X51.523 Y-17.301 Z-4.332
N275 X51.691 Y-17.133 Z-4.163
N280 X51.859 Y-16.973 Z-4.003
N285 X52.028 Y-16.822 Z-3.852
N290 X52.196 Y-16.68 Z-3.71
N295 X52.419 Y-16.504 Z-3.535
N300 X52.58 Y-16.377 Z-3.416
N305 X52.739 Y-16.254 Z-3.308
N310 X52.899 Y-16.139 Z-3.208
N315 X53.06 Y-16.033 Z-3.116
N320 X53.302 Y-15.888 Z-2.995
N325 X53.321 Y-15.877 Z-2.986
N330 X53.45 Y-15.802 Z-2.928
N335 X53.581 Y-15.734 Z-2.875
N340 X53.712 Y-15.67 Z-2.829
N345 X53.893 Y-15.592 Z-2.773
N350 X54.013 Y-15.544 Z-2.742
N355 X54.137 Y-15.498 Z-2.716
N360 X54.313 Y-15.441 Z-2.687
N365 X54.434 Y-15.407 Z-2.672
N370 X54.555 Y-15.376 Z-2.661
N375 X54.745 Y-15.338 Z-2.654
N380 X54.775 Y-15.332 Z-2.653
N385 X54.891 Y-15.312 Z-2.656
N390 X55.008 Y-15.295 Z-2.662
N395 X55.137 Y-15.283 Z-2.674
N400 X55.467 Y-15.244 Z-2.699
N405 X55.846 Y-15.195 Z-2.735
N410 X56.201 Y-15.144 Z-2.764
N415 X56.583 Y-15.083 Z-2.802
N420 X56.932 Y-15.022 Z-2.833
N425 X57.315 Y-14.951 Z-2.872
N430 X57.659 Y-14.881 Z-2.903
N435 X58.041 Y-14.799 Z-2.944
N440 X58.383 Y-14.72 Z-2.976
N445 X58.759 Y-14.628 Z-3.017
N450 X59.102 Y-14.539 Z-3.051
N455 X59.47 Y-14.438 Z-3.092
N460 X59.817 Y-14.338 Z-3.126
N465 X60.171 Y-14.23 Z-3.166
N470 X60.526 Y-14.117 Z-3.202
N475 X60.863 Y-14.004 Z-3.24
N480 X61.229 Y-13.876 Z-3.277
N485 X61.544 Y-13.761 Z-3.313
N490 X61.926 Y-13.615 Z-3.352
N495 X62.214 Y-13.501 Z-3.384
N500 X62.616 Y-13.335 Z-3.424
N505 X62.873 Y-13.225 Z-3.453
N510 X63.298 Y-13.036 Z-3.494
N515 X63.519 Y-12.934 Z-3.519
N520 X63.971 Y-12.717 Z-3.561
N525 X64.154 Y-12.627 Z-3.581
N530 X64.635 Y-12.379 Z-3.624
N535 X64.776 Y-12.304 Z-3.639
N540 X65.386 Y-11.968 Z-3.692
N545 X65.946 Y-11.638 Z-3.736
N550 X66.266 Y-11.431 Z-3.753
N555 X66.605 Y-11.2 Z-3.763
N560 X66.944 Y-10.953 Z-3.768
N565 X67.147 Y-10.799 Z-3.766
N570 X67.288 Y-10.691
N575 X67.725 Y-10.34 Z-3.757
N580 X67.981 Y-10.125 Z-3.751
N585 X68.286 Y-9.862 Z-3.737
N590 X68.801 Y-9.407 Z-3.719
N595 X68.836 Y-9.375 Z-3.717
N600 X69.376 Y-8.879 Z-3.696
N605 X69.909 Y-8.381 Z-3.681
N610 X70.438 Y-7.881 Z-3.674
N615 X71.098 Y-7.251 Z-3.679
N620 X71.531 Y-6.844 Z-3.694
N625 X72.028 Y-6.379 Z-3.724
N630 X72.907 Y-5.541 Z-3.788
N635 X73.113 Y-5.363 Z-3.789
N640 X73.324 Y-5.186 Z-3.793
N645 X73.819 Y-4.784 Z-3.788
N650 X74.394 Y-4.345 Z-3.772
N655 X74.435 Y-4.315 Z-3.77
N660 X74.843 Y-4.02 Z-3.755
N665 X75.133 Y-3.82 Z-3.737
N670 X75.37 Y-3.659 Z-3.726
N675 X75.906 Y-3.314 Z-3.688
N680 X76.452 Y-2.987 Z-3.642
N685 X76.602 Y-2.901 Z-3.627
N690 X77.007 Y-2.678 Z-3.59
N695 X77.373 Y-2.487 Z-3.548
N700 X77.569 Y-2.388 Z-3.529
N705 X78.166 Y-2.106 Z-3.455
N710 X78.721 Y-1.869 Z-3.383
N715 X78.983 Y-1.766 Z-3.343
N720 X79.311 Y-1.643 Z-3.299
N725 X79.819 Y-1.468 Z-3.217
N730 X79.925 Y-1.434 Z-3.203
N735 X80.214 Y-1.346 Z-3.156
N740 X80.588 Y-1.24 Z-3.09
N745 X80.83 Y-1.179 Z-3.049
N750 X81.142 Y-1.105 Z-2.993
N755 X81.544 Y-1.02 Z-2.914
N760 X81.683 Y-0.994 Z-2.889
N765 X82.118 Y-0.945 Z-2.782
N770 X82.439 Y-0.914 Z-2.699
N775 X82.652 Y-0.898 Z-2.648
N780 X83.26 Y-0.863 Z-2.493
N785 X83.317 Y-0.862 Z-2.478
N790 X83.766 Y-0.851 Z-2.366
N795 X84.296 Y-0.854 Z-2.233
N800 X84.588 Y-0.861 Z-2.157
N805 X84.692 Y-0.866 Z-2.132
N810 X84.854 Y-0.877 Z-2.097
N815 X85.156 Y-0.903 Z-2.028
N820 X85.53 Y-0.951 Z-1.954
N825 X85.594 Y-0.961 Z-1.941
N830 X86.012 Y-1.034 Z-1.868
N835 X86.414 Y-1.12 Z-1.802
N840 X86.51 Y-1.142 Z-1.789
N845 X86.81 Y-1.218 Z-1.742
N850 X87.054 Y-1.284 Z-1.709
N855 X87.596 Y-1.44 Z-1.628
N860 X88.264 Y-1.649 Z-1.524
N865 X88.684 Y-1.778 Z-1.447
N870 X88.967 Y-1.869 Z-1.392
N875 X89.31 Y-1.971 Z-1.316
N880 X89.658 Y-2.068 Z-1.227
N885 X89.801 Y-2.103 Z-1.186
N890 X90.014 Y-2.158 Z-1.123
N895 X90.384 Y-2.239 Z-1.
N900 X90.014 Y-2.158 Z-1.123
N905 X89.801 Y-2.103 Z-1.186
N910 X89.658 Y-2.068 Z-1.227
N915 X89.31 Y-1.971 Z-1.316
N920 X88.967 Y-1.869 Z-1.392
N925 X88.684 Y-1.778 Z-1.447
N930 X88.264 Y-1.649 Z-1.524
N935 X87.596 Y-1.44 Z-1.628
N940 X87.054 Y-1.284 Z-1.709
N945 X86.81 Y-1.218 Z-1.742
N950 X86.51 Y-1.142 Z-1.789
N955 X86.414 Y-1.12 Z-1.802
N960 X86.012 Y-1.034 Z-1.868
N965 X85.594 Y-0.961 Z-1.941
N970 X85.53 Y-0.951 Z-1.954
N975 X85.156 Y-0.903 Z-2.028
N980 X84.854 Y-0.877 Z-2.097
N985 X84.692 Y-0.866 Z-2.132
N990 X84.588 Y-0.861 Z-2.157
N995 X84.296 Y-0.854 Z-2.233
N1000 X83.766 Y-0.851 Z-2.366
N1005 X83.317 Y-0.862 Z-2.478
N1010 X83.26 Y-0.863 Z-2.493
N1015 X82.652 Y-0.898 Z-2.648
N1020 X82.439 Y-0.914 Z-2.699
N1025 X82.118 Y-0.945 Z-2.782
N1030 X81.683 Y-0.994 Z-2.889
N1035 X81.544 Y-1.02 Z-2.914
N1040 X81.142 Y-1.105 Z-2.993
N1045 X80.83 Y-1.179 Z-3.049
N1050 X80.588 Y-1.24 Z-3.09
N1055 X80.214 Y-1.346 Z-3.156
N1060 X79.925 Y-1.434 Z-3.203
N1065 X79.819 Y-1.468 Z-3.217
N1070 X79.311 Y-1.643 Z-3.299
N1075 X78.983 Y-1.766 Z-3.343
N1080 X78.721 Y-1.869 Z-3.383
N1085 X78.166 Y-2.106 Z-3.455
N1090 X77.569 Y-2.388 Z-3.529
N1095 X77.373 Y-2.487 Z-3.548
N1100 X77.007 Y-2.678 Z-3.59
N1105 X76.602 Y-2.901 Z-3.627
N1110 X76.452 Y-2.987 Z-3.642
N1115 X75.906 Y-3.314 Z-3.688
N1120 X75.37 Y-3.659 Z-3.726
N1125 X75.133 Y-3.82 Z-3.737
N1130 X74.843 Y-4.02 Z-3.755
N1135 X74.435 Y-4.315 Z-3.77
N1140 X74.394 Y-4.345 Z-3.772
N1145 X73.819 Y-4.784 Z-3.788
N1150 X73.324 Y-5.186 Z-3.793
N1155 X73.113 Y-5.363 Z-3.789
N1160 X72.907 Y-5.541 Z-3.788
N1165 X72.028 Y-6.379 Z-3.724
N1170 X71.531 Y-6.844 Z-3.694
N1175 X71.098 Y-7.251 Z-3.679
N1180 X70.438 Y-7.881 Z-3.674
N1185 X69.909 Y-8.381 Z-3.681
N1190 X69.376 Y-8.879 Z-3.696
N1195 X68.836 Y-9.375 Z-3.717
N1200 X68.801 Y-9.407 Z-3.719
N1205 X68.286 Y-9.862 Z-3.737
N1210 X67.981 Y-10.125 Z-3.751
N1215 X67.725 Y-10.34 Z-3.757
N1220 X67.288 Y-10.691 Z-3.766
N1225 X67.147 Y-10.799
N1230 X66.944 Y-10.953 Z-3.768
N1235 X66.605 Y-11.2 Z-3.763
N1240 X66.266 Y-11.431 Z-3.753
N1245 X65.946 Y-11.638 Z-3.736
N1250 X65.386 Y-11.968 Z-3.692
N1255 X64.776 Y-12.304 Z-3.639
N1260 X64.635 Y-12.379 Z-3.624
N1265 X64.154 Y-12.627 Z-3.581
N1270 X63.971 Y-12.717 Z-3.561
N1275 X63.519 Y-12.934 Z-3.519
N1280 X63.298 Y-13.036 Z-3.494
N1285 X62.873 Y-13.225 Z-3.453
N1290 X62.616 Y-13.335 Z-3.424
N1295 X62.214 Y-13.501 Z-3.384
N1300 X61.926 Y-13.615 Z-3.352
N1305 X61.544 Y-13.761 Z-3.313
N1310 X61.229 Y-13.876 Z-3.277
N1315 X60.863 Y-14.004 Z-3.24
N1320 X60.526 Y-14.117 Z-3.202
N1325 X60.171 Y-14.23 Z-3.166
N1330 X59.817 Y-14.338 Z-3.126
N1335 X59.47 Y-14.438 Z-3.092
N1340 X59.102 Y-14.539 Z-3.051
N1345 X58.759 Y-14.628 Z-3.017
N1350 X58.383 Y-14.72 Z-2.976
N1355 X58.041 Y-14.799 Z-2.944
N1360 X57.659 Y-14.881 Z-2.903
N1365 X57.315 Y-14.951 Z-2.872
N1370 X56.932 Y-15.022 Z-2.833
N1375 X56.583 Y-15.083 Z-2.802
N1380 X56.201 Y-15.144 Z-2.764
N1385 X55.846 Y-15.195 Z-2.735
N1390 X55.467 Y-15.244 Z-2.699
N1395 X55.137 Y-15.283 Z-2.674
N1400 X55.008 Y-15.295 Z-2.662
N1405 X54.891 Y-15.312 Z-2.656
N1410 X54.775 Y-15.332 Z-2.653
N1415 X54.745 Y-15.338 Z-2.654
N1420 X54.555 Y-15.376 Z-2.661
N1425 X54.434 Y-15.407 Z-2.672
N1430 X54.313 Y-15.441 Z-2.687
N1435 X54.137 Y-15.498 Z-2.716
N1440 X54.013 Y-15.544 Z-2.742
N1445 X53.893 Y-15.592 Z-2.773
N1450 X53.712 Y-15.67 Z-2.829
N1455 X53.581 Y-15.734 Z-2.875
N1460 X53.45 Y-15.802 Z-2.928
N1465 X53.321 Y-15.877 Z-2.986
N1470 X53.302 Y-15.888 Z-2.995
N1475 X53.06 Y-16.033 Z-3.116
N1480 X52.899 Y-16.139 Z-3.208
N1485 X52.739 Y-16.254 Z-3.308
N1490 X52.58 Y-16.377 Z-3.416
N1495 X52.419 Y-16.504 Z-3.535
N1500 X52.196 Y-16.68 Z-3.71
N1505 X52.028 Y-16.822 Z-3.852
N1510 X51.859 Y-16.973 Z-4.003
N1515 X51.691 Y-17.133 Z-4.163
N1520 X51.523 Y-17.301 Z-4.332
N1525 X51.255 Y-17.58 Z-4.611
N1530 X51.093 Y-17.759 Z-4.79
N1535 X50.931 Y-17.945 Z-4.976
N1540 X50.765 Y-18.146 Z-5.175
N1545 X50.6 Y-18.354 Z-5.382
N1550 X50.434 Y-18.572 Z-5.597
N1555 X50.269 Y-18.797 Z-5.821
N1560 X50.365 Y-18.922 Z-5.77
N1565 X50.529 Y-19.128 Z-5.69
N1570 X50.716 Y-19.35 Z-5.607
N1575 X50.873 Y-19.528 Z-5.544
N1580 X51.034 Y-19.701 Z-5.488
N1585 X51.199 Y-19.868 Z-5.438
N1590 X51.367 Y-20.031 Z-5.394
N1595 X51.538 Y-20.188 Z-5.356
N1600 X51.732 Y-20.358 Z-5.32
N1605 X51.89 Y-20.49 Z-5.297
N1610 X52.052 Y-20.616 Z-5.277
N1615 X52.216 Y-20.738 Z-5.262
N1620 X52.383 Y-20.856 Z-5.252
N1625 X52.556 Y-20.974 Z-5.245
N1630 X52.689 Y-21.06 Z-5.244
N1635 X52.897 Y-21.188 Z-5.247
N1640 X53.108 Y-21.31 Z-5.258
N1645 X53.323 Y-21.426 Z-5.275
N1650 X53.372 Y-21.452 Z-5.28
N1655 X53.645 Y-21.586 Z-5.31
N1660 X53.862 Y-21.684 Z-5.34
N1665 X54.083 Y-21.776 Z-5.377
N1670 X54.307 Y-21.863 Z-5.42
N1675 X54.365 Y-21.885 Z-5.432
N1680 X55.152 Y-22.163 Z-5.607
N1685 X55.487 Y-22.277 Z-5.679
N1690 X56.523 Y-22.622 Z-5.909
N1695 X56.918 Y-22.751 Z-5.999
N1700 X57.56 Y-22.954 Z-6.141
N1705 X58.596 Y-23.27 Z-6.37
N1710 X59.519 Y-23.538 Z-6.574
N1715 X60.381 Y-23.781 Z-6.76
N1720 X60.637 Y-23.852 Z-6.813
N1725 X61.239 Y-24.013 Z-6.942
N1730 X62.092 Y-24.235 Z-7.12
N1735 X62.693 Y-24.386 Z-7.24
N1740 X62.939 Y-24.446 Z-7.292
N1745 X63.785 Y-24.634 Z-7.472
N1750 X64.138 Y-24.709 Z-7.544
N1755 X64.626 Y-24.807 Z-7.65
N1760 X64.954 Y-24.869 Z-7.72
N1765 X65.186 Y-24.468 Z-7.325
N1770 X65.385 Y-24.136 Z-6.997
N1775 X65.521 Y-23.916 Z-6.78
N1780 X65.691 Y-23.643 Z-6.515
N1785 X65.872 Y-23.359 Z-6.241
N1790 X66.054 Y-23.084 Z-5.977
N1795 X66.237 Y-22.821 Z-5.724
N1800 X66.42 Y-22.568 Z-5.482
N1805 X66.604 Y-22.325 Z-5.25
N1810 X66.789 Y-22.093 Z-5.029
N1815 X66.902 Y-21.955 Z-4.898
N1820 X67.027 Y-21.803 Z-4.758
N1825 X67.153 Y-21.657 Z-4.624
N1830 X67.359 Y-21.428 Z-4.413
N1835 X67.516 Y-21.262 Z-4.262
N1840 X67.673 Y-21.105 Z-4.118
N1845 X67.831 Y-20.955 Z-3.983
N1850 X67.989 Y-20.813 Z-3.855
N1855 X68.194 Y-20.637 Z-3.703
N1860 X68.322 Y-20.534 Z-3.616
N1865 X68.45 Y-20.436 Z-3.533
N1870 X68.666 Y-20.281 Z-3.404
N1875 X68.832 Y-20.171 Z-3.315
N1880 X68.999 Y-20.07 Z-3.234
N1885 X69.167 Y-19.977 Z-3.161
N1890 X69.225 Y-19.947 Z-3.138
N1895 X69.43 Y-19.842 Z-3.064
N1900 X69.573 Y-19.777 Z-3.02
N1905 X69.716 Y-19.718 Z-2.983
N1910 X69.923 Y-19.64 Z-2.935
N1915 X70.061 Y-19.594 Z-2.91
N1920 X70.248 Y-19.538 Z-2.882
N1925 X70.356 Y-19.51 Z-2.87
N1930 X70.593 Y-19.452 Z-2.853
N1935 X70.711 Y-19.426 Z-2.847
N1940 X70.829 Y-19.403 Z-2.845
N1945 X71.047 Y-19.367 Z-2.847
N1950 X71.144 Y-19.352 Z-2.849
N1955 X71.241 Y-19.339 Z-2.854
N1960 X71.487 Y-19.315 Z-2.872
N1965 X71.572 Y-19.309 Z-2.88
N1970 X71.779 Y-19.297 Z-2.91
N1975 X71.877 Y-19.294 Z-2.926
N1980 X72.811 Y-19.206 Z-3.025
N1985 X72.863 Y-19.2 Z-3.031
N1990 X73.618 Y-19.113 Z-3.114
N1995 X74.098 Y-19.052 Z-3.163
N2000 X74.572 Y-18.986 Z-3.217
N2005 X75.331 Y-18.873 Z-3.295
N2010 X75.522 Y-18.842 Z-3.317
N2015 X76.559 Y-18.662 Z-3.426
N2020 X77.404 Y-18.499 Z-3.517
N2025 X77.782 Y-18.421 Z-3.554
N2030 X78.337 Y-18.302 Z-3.614
N2035 X79. Y-18.152 Z-3.68
N2040 X79.265 Y-18.089 Z-3.709
N2045 X80.21 Y-17.854 Z-3.803
N2050 X81.1 Y-17.615 Z-3.892
N2055 X81.411 Y-17.528 Z-3.92
N2060 X82.008 Y-17.354 Z-3.979
N2065 X82.617 Y-17.171 Z-4.034
N2070 X82.909 Y-17.079 Z-4.064
N2075 X83.803 Y-16.787 Z-4.148
N2080 X84.69 Y-16.48 Z-4.229
N2085 X85.569 Y-16.16 Z-4.306
N2090 X86.53 Y-15.789 Z-4.388
N2095 X87.443 Y-15.417 Z-4.462
N2100 X87.489 Y-15.398 Z-4.465
N2105 X88.16 Y-15.113 Z-4.519
N2110 X88.44 Y-14.99 Z-4.538
N2115 X89.008 Y-14.737 Z-4.582
N2120 X89.382 Y-14.566 Z-4.607
N2125 X89.849 Y-14.348 Z-4.641
N2130 X90.316 Y-14.124 Z-4.671
N2135 X90.681 Y-13.947 Z-4.696
N2140 X91.241 Y-13.667 Z-4.729
N2145 X91.505 Y-13.533 Z-4.747
N2150 X92.32 Y-13.106 Z-4.793
N2155 X93.128 Y-12.667 Z-4.834
N2160 X93.96 Y-12.197 Z-4.872
N2165 X94.846 Y-11.675 Z-4.906
N2170 X95.5 Y-11.276 Z-4.929
N2175 X95.722 Y-11.138 Z-4.935
N2180 X96.274 Y-10.789 Z-4.951
N2185 X96.587 Y-10.586 Z-4.956
N2190 X97.04 Y-10.289 Z-4.967
N2195 X97.442 Y-10.02 Z-4.971
N2200 X97.798 Y-9.778 Z-4.977
N2205 X98.546 Y-9.256 Z-4.981
N2210 X99.253 Y-8.746 Z-4.98
N2215 X100.758 Y-7.596 Z-4.946
N2220 X101.339 Y-7.144 Z-4.94
N2225 X102.369 Y-6.35 Z-4.936
N2230 X103.486 Y-5.475 Z-4.943
N2235 X103.97 Y-5.099 Z-4.95
N2240 X104.567 Y-4.628 Z-4.964
N2245 X105.651 Y-3.779 Z-4.996
N2250 X106.736 Y-2.926 Z-5.043
N2255 X107.158 Y-2.598 Z-5.064
N2260 X107.827 Y-2.07 Z-5.103
N2265 X108.924 Y-1.213 Z-5.177
N2270 X109.993 Y-0.379 Z-5.263
N2275 X110.227 Y-0.23 Z-5.257
N2280 X110.754 Y0.098 Z-5.239
N2285 X111.283 Y0.419 Z-5.215
N2290 X111.816 Y0.732 Z-5.19
N2295 X112.431 Y1.082 Z-5.153
N2300 X112.894 Y1.337 Z-5.124
N2305 X113.437 Y1.627 Z-5.084
N2310 X113.67 Y1.749 Z-5.064
N2315 X113.985 Y1.91 Z-5.04
N2320 X114.534 Y2.183 Z-4.993
N2325 X115.088 Y2.45 Z-4.939
N2330 X115.646 Y2.706 Z-4.883
N2335 X116.22 Y2.962 Z-4.817
N2340 X116.772 Y3.194 Z-4.753
N2345 X117.467 Y3.474 Z-4.663
N2350 X117.533 Y3.5 Z-4.654
N2355 X117.915 Y3.645 Z-4.604
N2360 X118.431 Y3.834 Z-4.53
N2365 X118.952 Y4.003 Z-4.443
N2370 X119.286 Y4.108 Z-4.383
N2375 X119.55 Y4.188 Z-4.338
N2380 X120.189 Y4.376 Z-4.222
N2385 X120.763 Y4.534 Z-4.117
N2390 X121.101 Y4.623 Z-4.052
N2395 X121.379 Y4.694 Z-4.001
N2400 X122.022 Y4.851 Z-3.877
N2405 X122.625 Y4.987 Z-3.762
N2410 X122.952 Y5.057 Z-3.697
N2415 X123.258 Y5.12 Z-3.638
N2420 X123.896 Y5.244 Z-3.512
N2425 X124.538 Y5.357 Z-3.387
N2430 X124.824 Y5.404 Z-3.329
N2435 X125.186 Y5.46 Z-3.26
N2440 X125.84 Y5.554 Z-3.131
N2445 X126.706 Y5.66 Z-2.962
N2450 X127.152 Y5.706 Z-2.879
N2455 X127.648 Y5.751 Z-2.781
N2460 X128.588 Y5.821 Z-2.609
N2465 X129.526 Y5.865 Z-2.44
N2470 X129.842 Y5.874 Z-2.388
N2475 X130.461 Y5.885 Z-2.28
N2480 X131.351 Y5.882 Z-2.136
N2485 X131.393 Y5.881 Z-2.129
N2490 X132.283 Y5.854 Z-1.993
N2495 X132.395 Y5.847 Z-1.979
N2500 X132.557 Y5.833 Z-1.964
N2505 X133.909 Y5.699 Z-1.818
N2510 X135.267 Y5.551 Z-1.657
N2515 X135.747 Y5.493 Z-1.596
N2520 X136.626 Y5.381 Z-1.492
N2525 X137.435 Y5.261 Z-1.398
N2530 X137.979 Y5.172 Z-1.343
N2535 X138.272 Y5.121 Z-1.311
N2540 X139.135 Y4.954 Z-1.236
N2545 X139.18 Y4.939 Z-1.238
N2550 X139.231 Y4.919 Z-1.243
N2555 X139.269 Y4.909 Z-1.242
N2560 X139.281 Z-1.24
N2565 X139.295 Y4.886 Z-1.214
N2570 X139.422 Y4.713 Z-1.001
N2575 X139.295 Y4.886 Z-1.214
N2580 X139.281 Y4.909 Z-1.24
N2585 X139.304 Y4.913 Z-1.227
N2590 X139.326 Y4.918 Z-1.209
N2595 X139.344 Y4.919 Z-1.193
N2600 X139.357 Y4.917 Z-1.18
N2605 X139.532 Y4.872 Z-1.001
N2610 Z5.
N2615 X137.121 Y-4.901
N2620 Z4.
N2625 Z-5.754
N2630 X137.27 Y-4.697 Z-5.673
N2635 X137.476 Y-4.425 Z-5.57
N2640 X137.605 Y-4.264 Z-5.512
N2645 X137.773 Y-4.067 Z-5.445
N2650 X137.946 Y-3.876 Z-5.384
N2655 X138.123 Y-3.691 Z-5.332
N2660 X138.306 Y-3.514 Z-5.285
N2665 X138.493 Y-3.343 Z-5.245
N2670 X138.684 Y-3.178 Z-5.213
N2675 X138.88 Y-3.021 Z-5.187
N2680 X139.08 Y-2.871 Z-5.168
N2685 X139.284 Y-2.727 Z-5.157
N2690 X139.419 Y-2.638 Z-5.152
N2695 X139.556 Y-2.552 Z-5.151
N2700 X139.737 Y-2.444 Z-5.153
N2705 X139.92 Y-2.341 Z-5.161
N2710 X140.087 Y-2.253 Z-5.171
N2715 X140.256 Y-2.17 Z-5.185
N2720 X140.448 Y-2.078 Z-5.204
N2725 X140.529 Y-2.036 Z-5.209
N2730 X140.583 Y-2.005 Z-5.21
N2735 X140.779 Y-1.894
N2740 X140.951 Y-1.791 Z-5.205
N2745 X141.145 Y-1.67 Z-5.196
N2750 X141.679 Y-1.334 Z-5.158
N2755 X142.259 Y-0.975 Z-5.109
N2760 X142.378 Y-0.903 Z-5.1
N2765 X142.973 Y-0.557 Z-5.055
N2770 X143.109 Y-0.48 Z-5.046
N2775 X143.445 Y-0.301 Z-5.026
N2780 X143.6 Y-0.22 Z-5.018
N2785 X143.76 Y-0.139 Z-5.012
N2790 X143.906 Y-0.067 Z-5.005
N2795 X144.099 Y0.025 Z-4.999
N2800 X144.41 Y0.168 Z-4.994
N2805 X144.61 Y0.254 Z-4.991
N2810 X145.031 Y0.426 Z-4.993
N2815 X145.153 Y0.469 Z-4.992
N2820 X145.358 Y0.538 Z-4.995
N2825 X146.361 Y0.854 Z-5.024
N2830 X147.48 Y1.193 Z-5.074
N2835 X148.597 Y1.516 Z-5.142
N2840 X149.711 Y1.82 Z-5.222
N2845 X150.487 Y2.023 Z-5.286
N2850 X150.822 Y2.107 Z-5.312
N2855 X151.931 Y2.375 Z-5.407
N2860 X152.313 Y2.464 Z-5.444
N2865 X153.036 Y2.625 Z-5.506
N2870 X154.072 Y2.841 Z-5.597
N2875 X154.94 Y3.007 Z-5.67
N2880 X155.797 Y3.158 Z-5.736
N2885 X156.323 Y3.243 Z-5.772
N2890 X156.642 Y3.294 Z-5.796
N2895 X157.475 Y3.413 Z-5.847
N2900 X158.299 Y3.52 Z-5.885
N2905 X159.275 Y3.628 Z-5.919
N2910 X159.843 Y3.667 Z-5.916
N2915 X160.049 Y3.684 Z-5.917
N2920 X160.46 Y3.726 Z-5.928
N2925 X160.73 Y3.758 Z-5.94
N2930 X161.001 Y3.798 Z-5.96
N2935 X161.257 Y3.839 Z-5.982
N2940 X161.526 Y3.886 Z-6.009
N2945 X161.795 Y3.941 Z-6.044
N2950 X161.824 Y3.947 Z-6.048
N2955 X161.811 Y4.275 Z-5.736
N2960 X161.784 Y5.004 Z-5.049
N2965 X161.767 Y5.381 Z-4.699
N2970 X161.755 Y5.706 Z-4.401
N2975 X161.746 Y6.065 Z-4.077
N2980 X161.737 Y6.396 Z-3.784
N2985 X161.733 Y6.655 Z-3.562
N2990 X161.731 Y7.049 Z-3.233
N2995 X161.73 Y7.088 Z-3.202
N3000 Y7.313 Z-3.022
N3005 X161.731 Y7.432 Z-2.93
N3010 X161.738 Y7.635 Z-2.777
N3015 X161.751 Y7.83 Z-2.635
N3020 X161.786 Y8.118 Z-2.434
N3025 X161.806 Y8.252 Z-2.343
N3030 X161.83 Y8.381 Z-2.259
N3035 X161.859 Y8.504 Z-2.182
N3040 X161.891 Y8.623 Z-2.111
N3045 X161.951 Y8.814 Z-2.001
N3050 X161.983 Y8.901 Z-1.954
N3055 X162.017 Y8.985 Z-1.911
N3060 X162.104 Y9.176 Z-1.818
N3065 X162.144 Y9.252 Z-1.785
N3070 X162.216 Y9.381 Z-1.731
N3075 X162.271 Y9.471 Z-1.696
N3080 X162.33 Y9.555 Z-1.669
N3085 X162.394 Y9.633 Z-1.649
N3090 X162.464 Y9.705 Z-1.638
N3095 X162.558 Y9.787 Z-1.634
N3100 X162.883 Y10.042 Z-1.643
N3105 X163.208 Y10.282 Z-1.665
N3110 X163.82 Y10.71 Z-1.72
N3115 X164.411 Y11.126 Z-1.771
N3120 X164.67 Y11.32 Z-1.784
N3125 X164.934 Y11.533 Z-1.786
N3130 X166.142 Y12.528 Z-1.778
N3135 X168.855 Y14.749 Z-1.749
N3140 X171.29 Y16.72 Z-1.721
N3145 X172.81 Y17.941 Z-1.697
N3150 X173.879 Y18.794 Z-1.684
N3155 X174.801 Y19.524 Z-1.667
N3160 X176.484 Y20.848 Z-1.643
N3165 X176.802 Y21.096 Z-1.636
N3170 X179.108 Y22.879 Z-1.599
N3175 X180.839 Y24.194 Z-1.566
N3180 X181.751 Y24.882 Z-1.552
N3185 X183.323 Y26.05 Z-1.514
N3190 X184.014 Y26.561 Z-1.495
N3195 X184.903 Y27.211 Z-1.476
N3200 X185.619 Y27.728 Z-1.456
N3205 X186.495 Y28.353 Z-1.438
N3210 X187.24 Y28.875 Z-1.415
N3215 X188.104 Y29.47 Z-1.398
N3220 X188.913 Y30.018 Z-1.374
N3225 X189.729 Y30.556 Z-1.351
N3230 X190.552 Y31.084 Z-1.327
N3235 X191.385 Y31.603 Z-1.302
N3240 X192.235 Y32.115 Z-1.275
N3245 X193.093 Y32.615 Z-1.246
N3250 X193.947 Y33.093 Z-1.217
N3255 X194.061 Y33.163 Z-1.204
N3260 X194.185 Y33.23 Z-1.199
N3265 X194.311 Y33.29 Z-1.202
N3270 X194.439 Y33.343 Z-1.211
N3275 X194.57 Y33.39 Z-1.227
N3280 X194.715 Y33.434 Z-1.252
N3285 X194.822 Y33.46 Z-1.276
N3290 X194.877 Y33.476 Z-1.292
N3295 X194.95 Y33.501 Z-1.316
N3300 X195.042 Y33.527 Z-1.352
N3305 X195.087 Y33.541 Z-1.371
N3310 X195.132 Y33.557 Z-1.394
N3315 X195.297 Y33.619 Z-1.481
N3320 X195.335 Y33.632 Z-1.503
N3325 X195.427 Y33.668 Z-1.564
N3330 X195.682 Y33.777 Z-1.744
N3335 X195.821 Y33.839 Z-1.856
N3340 X196.096 Y33.97 Z-2.09
N3345 X196.212 Y34.028 Z-2.194
N3350 X196.359 Y34.101 Z-2.332
N3355 X196.613 Y34.227 Z-2.575
N3360 X196.778 Y34.312 Z-2.735
N3365 X196.922 Y34.388 Z-2.879
N3370 X196.911 Y34.228 Z-2.744
N3375 X196.897 Y34.073 Z-2.616
N3380 X196.839 Y33.516 Z-2.159
N3385 X196.817 Y33.375 Z-2.047
N3390 X196.743 Y32.949 Z-1.716
N3395 X196.734 Y32.892 Z-1.677
N3400 X196.724 Y32.818 Z-1.627
N3405 X196.717 Y32.746 Z-1.582
N3410 X196.713 Y32.681 Z-1.546
N3415 X196.71 Y32.616 Z-1.513
N3420 X196.713 Y32.512 Z-1.468
N3425 X196.717 Y32.34 Z-1.41
N3430 X196.714 Y32.182 Z-1.365
N3435 X196.705 Y32.031 Z-1.332
N3440 X196.7 Y31.987 Z-1.324
N3445 X196.69 Y31.879 Z-1.31
N3450 X196.668 Y31.733 Z-1.298
N3455 X196.636 Y31.584 Z-1.294
N3460 X196.606 Y31.466 Z-1.299
N3465 X196.597 Y31.434 Z-1.302
N3470 X196.548 Y31.276 Z-1.321
N3475 X196.489 Y31.115 Z-1.35
N3480 X196.409 Y30.929 Z-1.395
N3485 X196.383 Y30.881 Z-1.412
N3490 X195.979 Y30.191 Z-1.682
N3495 X195.73 Y29.8 Z-1.835
N3500 X195.57 Y29.565 Z-1.92
N3505 X195.499 Y29.464 Z-1.954
N3510 X195.385 Y29.311 Z-2.004
N3515 X195.227 Y29.112 Z-2.062
N3520 X195.116 Y28.982 Z-2.095
N3525 X194.891 Y28.714 Z-2.159
N3530 X194.656 Y28.451 Z-2.212
N3535 X194.549 Y28.326 Z-2.234
N3540 X194.193 Y27.935 Z-2.286
N3545 X193.998 Y27.724 Z-2.3
N3550 X193.794 Y27.495 Z-2.307
N3555 X193.596 Y27.273 Z-2.3
N3560 X193.405 Y27.052 Z-2.285
N3565 X193.219 Y26.831 Z-2.256
N3570 X193.049 Y26.615 Z-2.218
N3575 X193.012 Y26.559 Z-2.199
N3580 X192.965 Y26.479 Z-2.17
N3585 X192.912 Y26.381 Z-2.132
N3590 X192.857 Y26.27 Z-2.084
N3595 X192.805 Y26.152 Z-2.03
N3600 X192.753 Y26.019 Z-1.964
N3605 X192.713 Y25.912 Z-1.905
N3610 X192.679 Y25.803 Z-1.841
N3615 X192.653 Y25.703 Z-1.778
N3620 X192.638 Y25.617 Z-1.721
N3625 X192.631 Y25.548 Z-1.672
N3630 Y25.489 Z-1.625
N3635 X192.643 Y25.38 Z-1.533
N3640 X192.649 Y25.347 Z-1.503
N3645 X192.673 Y25.249 Z-1.412
N3650 X192.721 Y25.092 Z-1.259
N3655 X192.814 Y24.836 Z-1.001
N3660 X192.721 Y25.092 Z-1.259
N3665 X192.673 Y25.249 Z-1.412
N3670 X192.649 Y25.347 Z-1.503
N3675 X192.643 Y25.38 Z-1.533
N3680 X192.631 Y25.489 Z-1.625
N3685 Y25.548 Z-1.672
N3690 X192.638 Y25.617 Z-1.721
N3695 X192.653 Y25.703 Z-1.778
N3700 X192.679 Y25.803 Z-1.841
N3705 X192.713 Y25.912 Z-1.905
N3710 X192.753 Y26.019 Z-1.964
N3715 X192.805 Y26.152 Z-2.03
N3720 X192.857 Y26.27 Z-2.084
N3725 X192.912 Y26.381 Z-2.132
N3730 X192.965 Y26.479 Z-2.17
N3735 X193.012 Y26.559 Z-2.199
N3740 X193.049 Y26.615 Z-2.218
N3745 X193.219 Y26.831 Z-2.256
N3750 X193.405 Y27.052 Z-2.285
N3755 X193.596 Y27.273 Z-2.3
N3760 X193.794 Y27.495 Z-2.307
N3765 X193.998 Y27.724 Z-2.3
N3770 X194.193 Y27.935 Z-2.286
N3775 X194.549 Y28.326 Z-2.234
N3780 X194.656 Y28.451 Z-2.212
N3785 X194.891 Y28.714 Z-2.159
N3790 X195.116 Y28.982 Z-2.095
N3795 X195.227 Y29.112 Z-2.062
N3800 X195.385 Y29.311 Z-2.004
N3805 X195.499 Y29.464 Z-1.954
N3810 X195.57 Y29.565 Z-1.92
N3815 X195.73 Y29.8 Z-1.835
N3820 X195.979 Y30.191 Z-1.682
N3825 X196.383 Y30.881 Z-1.412
N3830 X196.409 Y30.929 Z-1.395
N3835 X196.489 Y31.115 Z-1.35
N3840 X196.548 Y31.276 Z-1.321
N3845 X196.597 Y31.434 Z-1.302
N3850 X196.606 Y31.466 Z-1.299
N3855 X196.636 Y31.584 Z-1.294
N3860 X196.668 Y31.733 Z-1.298
N3865 X196.69 Y31.879 Z-1.31
N3870 X196.7 Y31.987 Z-1.324
N3875 X196.705 Y32.031 Z-1.332
N3880 X196.714 Y32.182 Z-1.365
N3885 X196.717 Y32.34 Z-1.41
N3890 X196.713 Y32.512 Z-1.468
N3895 X196.71 Y32.616 Z-1.513
N3900 X196.713 Y32.681 Z-1.546
N3905 X196.717 Y32.746 Z-1.582
N3910 X196.724 Y32.818 Z-1.627
N3915 X196.734 Y32.892 Z-1.677
N3920 X196.743 Y32.949 Z-1.716
N3925 X196.817 Y33.375 Z-2.047
N3930 X196.839 Y33.516 Z-2.159
N3935 X196.897 Y34.073 Z-2.616
N3940 X196.911 Y34.228 Z-2.744
N3945 X196.922 Y34.388 Z-2.879
N3950 X196.937 Y34.415 Z-2.895
N3955 X197.049 Y34.631 Z-3.023
N3960 X197.145 Y34.644 Z-2.985
N3965 X197.205 Y34.651 Z-2.959
N3970 X197.313 Y34.659 Z-2.905
N3975 X197.365 Y34.661 Z-2.876
N3980 X197.458 Y34.662 Z-2.82
N3985 X197.525 Y34.659 Z-2.774
N3990 X197.589 Y34.651 Z-2.724
N3995 X197.62 Y34.644 Z-2.696
N4000 X197.666 Y34.631 Z-2.653
N4005 X197.769 Y34.595 Z-2.549
N4010 X197.819 Y34.579 Z-2.497
N4015 X197.769 Y34.595 Z-2.549
N4020 X197.666 Y34.631 Z-2.653
N4025 X197.62 Y34.644 Z-2.696
N4030 X197.589 Y34.651 Z-2.724
N4035 X197.525 Y34.659 Z-2.774
N4040 X197.458 Y34.662 Z-2.82
N4045 X197.365 Y34.661 Z-2.876
N4050 X197.313 Y34.659 Z-2.905
N4055 X197.205 Y34.651 Z-2.959
N4060 X197.145 Y34.644 Z-2.985
N4065 X197.049 Y34.631 Z-3.023
N4070 X196.986 Y34.7 Z-2.966
N4075 X196.933 Y34.753 Z-2.919
N4080 X196.875 Y34.805 Z-2.869
N4085 X196.815 Y34.854 Z-2.819
N4090 X196.736 Y34.912 Z-2.754
N4095 X196.687 Y34.945 Z-2.714
N4100 X196.62 Y34.988 Z-2.658
N4105 X196.551 Y35.027 Z-2.601
N4110 X196.483 Y35.063 Z-2.543
N4115 X196.41 Y35.096 Z-2.483
N4120 X196.336 Y35.124 Z-2.421
N4125 X196.226 Y35.157 Z-2.33
N4130 X196.163 Y35.173 Z-2.278
N4135 X196.054 Y35.196 Z-2.185
N4140 X195.819 Y35.231 Z-1.983
N4145 X195.703 Y35.245 Z-1.887
N4150 X195.579 Y35.264 Z-1.789
N4155 X195.406 Y35.3 Z-1.659
N4160 X195.334 Y35.316 Z-1.61
N4165 X195.241 Y35.34 Z-1.552
N4170 X195.119 Y35.383 Z-1.485
N4175 X195.071 Y35.401 Z-1.464
N4180 X195.015 Y35.424 Z-1.444
N4185 X194.925 Y35.465 Z-1.414
N4190 X194.856 Y35.493 Z-1.395
N4195 X194.712 Y35.544 Z-1.362
N4200 X194.608 Y35.572 Z-1.346
N4205 X194.496 Y35.603 Z-1.336
N4210 X194.424 Y35.619 Z-1.335
N4215 X194.235 Y35.65 Z-1.342
N4220 X194.145 Y35.656 Z-1.355
N4225 X194.031 Y35.665 Z-1.374
N4230 X193.967 Y35.668 Z-1.388
N4235 X193.83 Y35.666 Z-1.424
N4240 X193.691 Y35.659 Z-1.466
N4245 X193.077 Y35.637 Z-1.658
N4250 X192.366 Y35.603 Z-1.888
N4255 X191.978 Y35.574 Z-2.005
N4260 X191.742 Y35.549 Z-2.069
N4265 X191.194 Y35.402 Z-2.135
N4270 X190.633 Y35.251 Z-2.187
N4275 X190.089 Y35.11 Z-2.223
N4280 X189.551 Y34.986 Z-2.243
N4285 X189.3 Y34.935 Z-2.246
N4290 X189.054 Y34.889 Z-2.245
N4295 X188.916 Y34.867 Z-2.24
N4300 X188.794 Y34.854 Z-2.231
N4305 X188.665 Y34.845 Z-2.214
N4310 X188.53 Y34.842 Z-2.192
N4315 X188.39 Y34.845 Z-2.163
N4320 X188.243 Y34.856 Z-2.127
N4325 X188.093 Y34.873 Z-2.085
N4330 X187.943 Y34.897 Z-2.037
N4335 X187.788 Y34.929 Z-1.98
N4340 X187.629 Y34.969 Z-1.915
N4345 X187.469 Y35.019 Z-1.843
N4350 X187.305 Y35.079 Z-1.761
N4355 X187.135 Y35.152 Z-1.666
N4360 X186.954 Y35.241 Z-1.554
N4365 X186.882 Y35.286 Z-1.506
N4370 X186.82 Y35.328 Z-1.466
N4375 X186.766 Y35.357 Z-1.429
N4380 X186.748 Y35.367 Z-1.415
N4385 X186.706 Y35.386 Z-1.38
N4390 X186.659 Y35.402 Z-1.34
N4395 X186.608 Y35.416 Z-1.295
N4400 X186.522 Y35.427 Z-1.217
N4405 X186.294 Y35.433 Z-1.001
N4410 Z5.
N4415 X161.824 Y3.947
N4420 Z4.
N4425 Z-6.048
N4430 X162.062 Y3.928 Z-6.01
N4435 X162.299 Y3.914 Z-5.979
N4440 X162.68 Y3.902 Z-5.939
N4445 X162.825 Y3.9 Z-5.928
N4450 X163.057 Y3.898 Z-5.916
N4455 X163.384 Y3.905 Z-5.908
N4460 X163.536 Y3.911 Z-5.907
N4465 X163.748 Y3.923 Z-5.909
N4470 X163.96 Y3.939 Z-5.916
N4475 X164.317 Y3.972 Z-5.933
N4480 X164.465 Y3.989 Z-5.943
N4485 X165.25 Y4.007 Z-5.926
N4490 X165.976 Y4.015 Z-5.911
N4495 X166.881 Y4.016 Z-5.885
N4500 X167.787 Y4.009 Z-5.853
N4505 X168.694 Y3.989 Z-5.819
N4510 X169.601 Y3.961 Z-5.777
N4515 X170.045 Y3.943 Z-5.753
N4520 X170.508 Y3.921 Z-5.731
N4525 X171.415 Y3.871 Z-5.681
N4530 X172.411 Y3.806 Z-5.616
N4535 X173.231 Y3.74 Z-5.563
N4540 X174.137 Y3.658 Z-5.495
N4545 X174.753 Y3.597 Z-5.444
N4550 X175.044 Y3.566 Z-5.422
N4555 X175.95 Y3.461 Z-5.345
N4560 X177.003 Y3.327 Z-5.244
N4565 X177.07 Y3.318 Z-5.238
N4570 X177.76 Y3.219 Z-5.172
N4575 X178.663 Y3.081 Z-5.076
N4580 X179.362 Y2.967 Z-4.996
N4585 X179.567 Y2.932 Z-4.974
N4590 X180.469 Y2.769 Z-4.868
N4595 X181.37 Y2.597 Z-4.753
N4600 X181.622 Y2.546 Z-4.719
N4605 X182.271 Y2.41 Z-4.634
N4610 X183.171 Y2.211 Z-4.508
N4615 X183.852 Y2.053 Z-4.405
N4620 X184.071 Y2. Z-4.374
N4625 X184.971 Y1.774 Z-4.235
N4630 X185.999 Y1.503 Z-4.064
N4635 X186.049 Y1.489 Z-4.055
N4640 X186.769 Y1.285 Z-3.934
N4645 X187.668 Y1.02 Z-3.772
N4650 X188.211 Y0.853 Z-3.668
N4655 X188.568 Y0.74 Z-3.602
N4660 X189.468 Y0.444 Z-3.425
N4665 X190.378 Y0.133 Z-3.235
N4670 X190.634 Y0.058 Z-3.165
N4675 X190.806 Y0.004 Z-3.121
N4680 X191.29 Y-0.16 Z-3.007
N4685 X191.34 Y-0.18 Z-2.997
N4690 X191.705 Y-0.324 Z-2.919
N4695 X191.842 Y-0.381 Z-2.893
N4700 X192.198 Y-0.538 Z-2.831
N4705 X192.323 Y-0.598 Z-2.81
N4710 X192.668 Y-0.771 Z-2.758
N4715 X192.78 Y-0.829 Z-2.744
N4720 X193.118 Y-1.013 Z-2.706
N4725 X193.267 Y-1.098 Z-2.694
N4730 X193.44 Y-1.204 Z-2.679
N4735 X193.638 Y-1.332 Z-2.658
N4740 X194.039 Y-1.609 Z-2.628
N4745 X194.399 Y-1.873 Z-2.614
N4750 X194.428 Y-1.895
N4755 X194.809 Y-2.185 Z-2.621
N4760 X195.051 Y-2.369 Z-2.642
N4765 X195.193 Y-2.474 Z-2.658
N4770 X195.428 Y-2.65 Z-2.696
N4775 X195.587 Y-2.765 Z-2.727
N4780 X195.643 Y-2.807 Z-2.74
N4785 X195.754 Y-2.887 Z-2.768
N4790 X195.989 Y-3.052 Z-2.832
N4795 X196.118 Y-3.142 Z-2.875
N4800 X196.415 Y-3.34 Z-2.98
N4805 X196.485 Y-3.386 Z-3.009
N4810 X196.54 Y-3.611 Z-2.92
N4815 X196.568 Y-3.708 Z-2.884
N4820 X196.596 Y-3.805 Z-2.852
N4825 X196.649 Y-3.97 Z-2.805
N4830 X196.724 Y-4.183 Z-2.749
N4835 X196.751 Y-4.256 Z-2.733
N4840 X196.8 Y-4.381 Z-2.711
N4845 X196.856 Y-4.515 Z-2.689
N4850 X196.908 Y-4.634 Z-2.673
N4855 X196.964 Y-4.75 Z-2.661
N4860 X197.004 Y-4.829 Z-2.655
N4865 X197.068 Y-4.956 Z-2.648
N4870 X197.11 Y-5.033 Z-2.647
N4875 X197.338 Y-5.416 Z-2.66
N4880 X197.596 Y-5.863 Z-2.684
N4885 X197.675 Y-6.005 Z-2.691
N4890 X197.941 Y-6.496 Z-2.721
N4895 X197.995 Y-6.598 Z-2.726
N4900 X198.268 Y-7.136 Z-2.761
N4905 X198.578 Y-7.784 Z-2.804
N4910 X198.859 Y-8.416 Z-2.846
N4915 X199.113 Y-9.035 Z-2.886
N4920 X199.351 Y-9.659 Z-2.924
N4925 X199.57 Y-10.284 Z-2.958
N4930 X199.583 Y-10.324 Z-2.96
N4935 X199.772 Y-10.917 Z-2.987
N4940 X199.782 Y-10.952 Z-2.989
N4945 X199.954 Y-11.55 Z-3.01
N4950 X199.992 Y-11.692 Z-3.016
N4955 X200.152 Y-12.338 Z-3.03
N4960 X200.256 Y-12.807 Z-3.029
N4965 X200.293 Y-12.983 Z-3.031
N4970 X200.414 Y-13.638 Z-3.024
N4975 X200.464 Y-13.946 Z-3.014
N4980 X200.484 Y-14.081 Z-3.008
N4985 X200.507 Y-14.255 Z-3.004
N4990 X200.52 Y-14.452 Z-3.006
N4995 X200.524 Y-14.591 Z-3.013
N5000 X200.519 Y-14.767 Z-3.027
N5005 X200.511 Y-14.915 Z-3.042
N5010 X200.49 Y-15.24 Z-3.069
N5015 X200.476 Y-15.436 Z-3.083
N5020 X200.412 Y-15.892 Z-3.074
N5025 X200.322 Y-16.486 Z-3.058
N5030 X200.304 Y-16.591 Z-3.054
N5035 X200.218 Y-17.074 Z-3.042
N5040 X200.181 Y-17.268 Z-3.035
N5045 X200.151 Y-17.412 Z-3.032
N5050 X200.121 Y-17.534 Z-3.034
N5055 X200.087 Y-17.655 Z-3.04
N5060 X200.031 Y-17.822 Z-3.052
N5065 X199.89 Y-18.215 Z-3.09
N5070 X199.686 Y-18.761 Z-3.135
N5075 X199.469 Y-19.296 Z-3.176
N5080 X199.245 Y-19.82 Z-3.207
N5085 X199.009 Y-20.329 Z-3.234
N5090 X198.762 Y-20.82 Z-3.256
N5095 X198.503 Y-21.296 Z-3.272
N5100 X198.428 Y-21.426 Z-3.273
N5105 X198.229 Y-21.758 Z-3.282
N5110 X198.115 Y-21.938
N5115 X197.943 Y-22.201 Z-3.287
N5120 X197.773 Y-22.445 Z-3.284
N5125 X197.641 Y-22.628 Z-3.286
N5130 X197.402 Y-22.94 Z-3.279
N5135 X197.356 Y-22.999
N5140 X197.003 Y-23.417 Z-3.267
N5145 X196.711 Y-23.732 Z-3.255
N5150 X196.565 Y-23.878 Z-3.243
N5155 X196.437 Y-24.001 Z-3.235
N5160 X196.146 Y-24.261 Z-3.209
N5165 X196.087 Y-24.311 Z-3.202
N5170 X195.839 Y-24.509 Z-3.179
N5175 X195.57 Y-24.71 Z-3.146
N5180 X195.516 Y-24.749 Z-3.14
N5185 X195.174 Y-24.976 Z-3.1
N5190 X195.016 Y-25.074 Z-3.077
N5195 X194.907 Y-25.139 Z-3.063
N5200 X194.818 Y-25.191 Z-3.054
N5205 X194.445 Y-25.394 Z-3.003
N5210 X194.333 Y-25.45 Z-2.986
N5215 X194.053 Y-25.576 Z-2.957
N5220 X193.794 Y-25.684 Z-2.925
N5225 X193.652 Y-25.739 Z-2.911
N5230 X193.229 Y-25.884 Z-2.867
N5235 X193.071 Y-25.932 Z-2.85
N5240 X192.8 Y-26.007 Z-2.826
N5245 X192.618 Y-26.053 Z-2.807
N5250 X192.494 Y-26.082 Z-2.795
N5255 X192.362 Y-26.11 Z-2.786
N5260 X192.035 Y-26.173 Z-2.755
N5265 X191.92 Y-26.193 Z-2.746
N5270 X191.469 Y-26.254 Z-2.709
N5275 X191.456 Y-26.256 Z-2.707
N5280 X191.163 Y-26.282 Z-2.684
N5285 X190.878 Y-26.275 Z-2.633
N5290 X190.358 Y-26.249 Z-2.554
N5295 X190.31 Y-26.246 Z-2.546
N5300 X189.892 Y-26.208 Z-2.486
N5305 X189.754 Y-26.193 Z-2.465
N5310 X189.422 Y-26.151 Z-2.421
N5315 X189.209 Y-26.121 Z-2.391
N5320 X188.957 Y-26.08 Z-2.359
N5325 X188.677 Y-26.03 Z-2.321
N5330 X188.496 Y-25.994 Z-2.299
N5335 X188.155 Y-25.92 Z-2.253
N5340 X188.112 Y-25.911 Z-2.248
N5345 X187.646 Y-25.794 Z-2.186
N5350 X187.151 Y-25.65 Z-2.118
N5355 X186.716 Y-25.506 Z-2.052
N5360 X186.286 Y-25.347 Z-1.982
N5365 X185.862 Y-25.173 Z-1.906
N5370 X185.743 Y-25.12 Z-1.881
N5375 X185.658 Y-25.079 Z-1.866
N5380 X185.46 Y-24.978 Z-1.836
N5385 X185.236 Y-24.85 Z-1.799
N5390 X185.054 Y-24.739 Z-1.773
N5395 X184.811 Y-24.575 Z-1.735
N5400 X184.673 Y-24.475 Z-1.718
N5405 X184.431 Y-24.285 Z-1.681
N5410 X184.066 Y-23.97 Z-1.64
N5415 X184.026 Y-23.933 Z-1.636
N5420 X183.728 Y-23.635 Z-1.606
N5425 X183.472 Y-23.338 Z-1.579
N5430 X183.423 Y-23.277 Z-1.572
N5435 X183.238 Y-23.03 Z-1.553
N5440 X183.148 Y-22.902 Z-1.539
N5445 X183.02 Y-22.707 Z-1.526
N5450 X182.9 Y-22.511 Z-1.507
N5455 X182.819 Y-22.369 Z-1.498
N5460 X182.68 Y-22.107 Z-1.476
N5465 X182.666 Y-22.08 Z-1.474
N5470 X182.485 Y-21.691 Z-1.447
N5475 X182.32 Y-21.281 Z-1.419
N5480 X182.189 Y-20.897 Z-1.394
N5485 X182.171 Y-20.838 Z-1.389
N5490 X182.076 Y-20.506 Z-1.37
N5495 X182.049 Y-20.404 Z-1.362
N5500 X181.979 Y-20.109 Z-1.346
N5505 X181.949 Y-19.969 Z-1.335
N5510 X181.9 Y-19.707 Z-1.323
N5515 X181.871 Y-19.532 Z-1.311
N5520 X181.838 Y-19.301 Z-1.301
N5525 X181.813 Y-19.098 Z-1.288
N5530 X181.81 Y-19.063 Z-1.287
N5535 X181.807 Y-19.005 Z-1.288
N5540 X181.803 Y-18.962 Z-1.286
N5545 X181.786 Y-18.826 Z-1.275
N5550 X181.76 Y-18.684 Z-1.252
N5555 X181.727 Y-18.552 Z-1.222
N5560 X181.724 Y-18.544 Z-1.219
N5565 X181.723 Y-18.512 Z-1.202
N5570 X181.722 Y-18.457 Z-1.165
N5575 Y-18.454 Z-1.162
N5580 Y-18.427 Z-1.139
N5585 X181.721 Y-18.421 Z-1.134
N5590 X181.722 Y-18.427 Z-1.139
N5595 Y-18.454 Z-1.162
N5600 Y-18.457 Z-1.165
N5605 X181.723 Y-18.512 Z-1.202
N5610 X181.724 Y-18.544 Z-1.219
N5615 X181.505 Y-18.485 Z-1.001
N5620 X181.724 Y-18.544 Z-1.219
N5625 X181.727 Y-18.552 Z-1.222
N5630 X181.76 Y-18.684 Z-1.252
N5635 X181.786 Y-18.826 Z-1.275
N5640 X181.803 Y-18.962 Z-1.286
N5645 X181.807 Y-19.005 Z-1.288
N5650 X181.81 Y-19.063 Z-1.287
N5655 X181.813 Y-19.098 Z-1.288
N5660 X181.838 Y-19.301 Z-1.301
N5665 X181.871 Y-19.532 Z-1.311
N5670 X181.9 Y-19.707 Z-1.323
N5675 X181.949 Y-19.969 Z-1.335
N5680 X181.979 Y-20.109 Z-1.346
N5685 X182.049 Y-20.404 Z-1.362
N5690 X182.076 Y-20.506 Z-1.37
N5695 X182.171 Y-20.838 Z-1.389
N5700 X182.189 Y-20.897 Z-1.394
N5705 X182.32 Y-21.281 Z-1.419
N5710 X182.485 Y-21.691 Z-1.447
N5715 X182.666 Y-22.08 Z-1.474
N5720 X182.68 Y-22.107 Z-1.476
N5725 X182.819 Y-22.369 Z-1.498
N5730 X182.9 Y-22.511 Z-1.507
N5735 X183.02 Y-22.707 Z-1.526
N5740 X183.148 Y-22.902 Z-1.539
N5745 X183.238 Y-23.03 Z-1.553
N5750 X183.423 Y-23.277 Z-1.572
N5755 X183.472 Y-23.338 Z-1.579
N5760 X183.728 Y-23.635 Z-1.606
N5765 X184.026 Y-23.933 Z-1.636
N5770 X184.066 Y-23.97 Z-1.64
N5775 X184.431 Y-24.285 Z-1.681
N5780 X184.673 Y-24.475 Z-1.718
N5785 X184.811 Y-24.575 Z-1.735
N5790 X185.054 Y-24.739 Z-1.773
N5795 X185.236 Y-24.85 Z-1.799
N5800 X185.46 Y-24.978 Z-1.836
N5805 X185.658 Y-25.079 Z-1.866
N5810 X185.743 Y-25.12 Z-1.881
N5815 X185.862 Y-25.173 Z-1.906
N5820 X186.286 Y-25.347 Z-1.982
N5825 X186.716 Y-25.506 Z-2.052
N5830 X187.151 Y-25.65 Z-2.118
N5835 X187.646 Y-25.794 Z-2.186
N5840 X188.112 Y-25.911 Z-2.248
N5845 X188.155 Y-25.92 Z-2.253
N5850 X188.496 Y-25.994 Z-2.299
N5855 X188.677 Y-26.03 Z-2.321
N5860 X188.957 Y-26.08 Z-2.359
N5865 X189.209 Y-26.121 Z-2.391
N5870 X189.422 Y-26.151 Z-2.421
N5875 X189.754 Y-26.193 Z-2.465
N5880 X189.892 Y-26.208 Z-2.486
N5885 X190.31 Y-26.246 Z-2.546
N5890 X190.358 Y-26.249 Z-2.554
N5895 X190.878 Y-26.275 Z-2.633
N5900 X191.163 Y-26.282 Z-2.684
N5905 X191.456 Y-26.256 Z-2.707
N5910 X191.469 Y-26.254 Z-2.709
N5915 X191.92 Y-26.193 Z-2.746
N5920 X192.035 Y-26.173 Z-2.755
N5925 X192.362 Y-26.11 Z-2.786
N5930 X192.494 Y-26.082 Z-2.795
N5935 X192.618 Y-26.053 Z-2.807
N5940 X192.8 Y-26.007 Z-2.826
N5945 X193.071 Y-25.932 Z-2.85
N5950 X193.229 Y-25.884 Z-2.867
N5955 X193.652 Y-25.739 Z-2.911
N5960 X193.794 Y-25.684 Z-2.925
N5965 X194.053 Y-25.576 Z-2.957
N5970 X194.333 Y-25.45 Z-2.986
N5975 X194.445 Y-25.394 Z-3.003
N5980 X194.818 Y-25.191 Z-3.054
N5985 X194.907 Y-25.139 Z-3.063
N5990 X195.016 Y-25.074 Z-3.077
N5995 X195.174 Y-24.976 Z-3.1
N6000 X195.516 Y-24.749 Z-3.14
N6005 X195.57 Y-24.71 Z-3.146
N6010 X195.839 Y-24.509 Z-3.179
N6015 X196.087 Y-24.311 Z-3.202
N6020 X196.146 Y-24.261 Z-3.209
N6025 X196.437 Y-24.001 Z-3.235
N6030 X196.565 Y-23.878 Z-3.243
N6035 X196.711 Y-23.732 Z-3.255
N6040 X197.003 Y-23.417 Z-3.267
N6045 X197.356 Y-22.999 Z-3.279
N6050 X197.402 Y-22.94
N6055 X197.641 Y-22.628 Z-3.286
N6060 X197.773 Y-22.445 Z-3.284
N6065 X197.943 Y-22.201 Z-3.287
N6070 X198.115 Y-21.938 Z-3.282
N6075 X198.229 Y-21.758
N6080 X198.428 Y-21.426 Z-3.273
N6085 X198.503 Y-21.296 Z-3.272
N6090 X198.762 Y-20.82 Z-3.256
N6095 X199.009 Y-20.329 Z-3.234
N6100 X199.245 Y-19.82 Z-3.207
N6105 X199.469 Y-19.296 Z-3.176
N6110 X199.686 Y-18.761 Z-3.135
N6115 X199.89 Y-18.215 Z-3.09
N6120 X200.031 Y-17.822 Z-3.052
N6125 X200.087 Y-17.655 Z-3.04
N6130 X200.121 Y-17.534 Z-3.034
N6135 X200.151 Y-17.412 Z-3.032
N6140 X200.181 Y-17.268 Z-3.035
N6145 X200.218 Y-17.074 Z-3.042
N6150 X200.304 Y-16.591 Z-3.054
N6155 X200.322 Y-16.486 Z-3.058
N6160 X200.412 Y-15.892 Z-3.074
N6165 X200.476 Y-15.436 Z-3.083
N6170 X200.49 Y-15.24 Z-3.069
N6175 X200.511 Y-14.915 Z-3.042
N6180 X200.519 Y-14.767 Z-3.027
N6185 X200.524 Y-14.591 Z-3.013
N6190 X200.52 Y-14.452 Z-3.006
N6195 X200.507 Y-14.255 Z-3.004
N6200 X200.484 Y-14.081 Z-3.008
N6205 X200.464 Y-13.946 Z-3.014
N6210 X200.414 Y-13.638 Z-3.024
N6215 X200.293 Y-12.983 Z-3.031
N6220 X200.256 Y-12.807 Z-3.029
N6225 X200.152 Y-12.338 Z-3.03
N6230 X199.992 Y-11.692 Z-3.016
N6235 X199.954 Y-11.55 Z-3.01
N6240 X199.782 Y-10.952 Z-2.989
N6245 X199.772 Y-10.917 Z-2.987
N6250 X199.583 Y-10.324 Z-2.96
N6255 X199.57 Y-10.284 Z-2.958
N6260 X199.351 Y-9.659 Z-2.924
N6265 X199.113 Y-9.035 Z-2.886
N6270 X198.859 Y-8.416 Z-2.846
N6275 X198.578 Y-7.784 Z-2.804
N6280 X198.268 Y-7.136 Z-2.761
N6285 X197.995 Y-6.598 Z-2.726
N6290 X197.941 Y-6.496 Z-2.721
N6295 X197.675 Y-6.005 Z-2.691
N6300 X197.596 Y-5.863 Z-2.684
N6305 X197.338 Y-5.416 Z-2.66
N6310 X197.11 Y-5.033 Z-2.647
N6315 X197.068 Y-4.956 Z-2.648
N6320 X197.004 Y-4.829 Z-2.655
N6325 X196.964 Y-4.75 Z-2.661
N6330 X196.908 Y-4.634 Z-2.673
N6335 X196.856 Y-4.515 Z-2.689
N6340 X196.8 Y-4.381 Z-2.711
N6345 X196.751 Y-4.256 Z-2.733
N6350 X196.724 Y-4.183 Z-2.749
N6355 X196.649 Y-3.97 Z-2.805
N6360 X196.596 Y-3.805 Z-2.852
N6365 X196.568 Y-3.708 Z-2.884
N6370 X196.54 Y-3.611 Z-2.92
N6375 X196.485 Y-3.386 Z-3.009
N6380 X196.536 Y-3.351 Z-2.964
N6385 X196.69 Y-3.25 Z-2.835
N6390 X196.843 Y-3.157 Z-2.714
N6395 X196.934 Y-3.104 Z-2.647
N6400 X197.074 Y-3.022 Z-2.551
N6405 X197.2 Y-2.951 Z-2.469
N6410 X197.325 Y-2.887 Z-2.395
N6415 X197.482 Y-2.809 Z-2.313
N6420 X197.618 Y-2.744 Z-2.252
N6425 X197.729 Y-2.712 Z-2.199
N6430 X197.898 Y-2.672 Z-2.126
N6435 X198.001 Y-2.651 Z-2.086
N6440 X198.104 Y-2.635 Z-2.05
N6445 X198.265 Y-2.619 Z-2.003
N6450 X198.353 Y-2.614 Z-1.98
N6455 X198.439 Y-2.612 Z-1.961
N6460 X198.593 Y-2.618 Z-1.936
N6465 X198.691 Y-2.625 Z-1.924
N6470 X198.835 Y-2.644 Z-1.915
N6475 X198.866 Y-2.65 Z-1.913
N6480 X198.968 Y-2.67 Z-1.91
N6485 X200.107 Y-2.928 Z-1.909
N6490 X201.061 Y-3.157 Z-1.895
N6495 X201.374 Y-3.235 Z-1.893
N6500 X202.639 Y-3.563 Z-1.871
N6505 X203.146 Y-3.701 Z-1.857
N6510 X203.901 Y-3.912 Z-1.842
N6515 X205.217 Y-4.293 Z-1.803
N6520 X206.418 Y-4.661 Z-1.767
N6525 X207.28 Y-4.936 Z-1.738
N6530 X207.673 Y-5.063 Z-1.727
N6535 X208.307 Y-5.272 Z-1.705
N6540 X208.926 Y-5.48 Z-1.687
N6545 X209.33 Y-5.619 Z-1.673
N6550 X210.35 Y-5.974 Z-1.642
N6555 X211.367 Y-6.34 Z-1.611
N6560 X212.668 Y-6.817 Z-1.582
N6565 X213.391 Y-7.089 Z-1.567
N6570 X214.399 Y-7.476 Z-1.551
N6575 X215.404 Y-7.868 Z-1.542
N6580 X216.407 Y-8.266 Z-1.54
N6585 X217.612 Y-8.755 Z-1.548
N6590 X218.462 Y-9.102 Z-1.563
N6595 X219.394 Y-9.509 Z-1.566
N6600 X220.115 Y-9.844 Z-1.563
N6605 X220.371 Y-9.967 Z-1.558
N6610 X220.931 Y-10.242 Z-1.55
N6615 X221.337 Y-10.448 Z-1.538
N6620 X221.741 Y-10.657 Z-1.53
N6625 X222.291 Y-10.95 Z-1.512
N6630 X222.546 Y-11.088 Z-1.505
N6635 X223.346 Y-11.533 Z-1.476
N6640 X224.168 Y-12.009 Z-1.444
N6645 X225.093 Y-12.563 Z-1.407
N6650 X225.717 Y-12.949 Z-1.384
N6655 X226.008 Y-13.131 Z-1.371
N6660 X226.917 Y-13.709 Z-1.34
N6665 X227.819 Y-14.297 Z-1.317
N6670 X228.824 Y-14.967 Z-1.301
N6675 X229.611 Y-15.498 Z-1.299
N6680 X230.351 Y-16.006 Z-1.305
N6685 X230.4 Y-16.037 Z-1.308
N6690 X230.453 Y-16.063 Z-1.317
N6695 X230.512 Y-16.085 Z-1.332
N6700 X230.578 Y-16.111 Z-1.355
N6705 X230.643 Y-16.144 Z-1.386
N6710 X230.683 Y-16.167 Z-1.409
N6715 X230.726 Y-16.192 Z-1.437
N6720 X230.837 Y-16.268 Z-1.519
N6725 X230.977 Y-16.36 Z-1.628
N6730 X231.131 Y-16.466 Z-1.757
N6735 X231.22 Y-16.525 Z-1.835
N6740 X231.42 Y-16.662 Z-2.016
N6745 X231.506 Y-16.719 Z-2.096
N6750 X231.724 Y-16.868 Z-2.304
N6755 X231.871 Y-16.966 Z-2.449
N6760 X232.118 Y-17.135 Z-2.698
N6765 X232.311 Y-17.262 Z-2.897
N6770 X232.592 Y-17.451 Z-3.192
N6775 X232.77 Y-17.569 Z-3.381
N6780 X232.761 Y-17.575 Z-3.372
N6785 X232.414 Y-17.68 Z-3.045
N6790 X232.06 Y-17.795 Z-2.717
N6795 X231.924 Y-17.838 Z-2.594
N6800 X231.598 Y-17.947 Z-2.305
N6805 X231.404 Y-18.011 Z-2.141
N6810 X231.188 Y-18.085 Z-1.964
N6815 X231.028 Y-18.142 Z-1.842
N6820 X230.909 Y-18.183 Z-1.756
N6825 X230.778 Y-18.234 Z-1.666
N6830 X230.628 Y-18.286 Z-1.574
N6835 X230.556 Y-18.312 Z-1.531
N6840 X230.507 Y-18.332 Z-1.506
N6845 X230.457 Y-18.35 Z-1.483
N6850 X230.31 Y-18.401 Z-1.42
N6855 X230.226 Y-18.431 Z-1.394
N6860 X230.08 Y-18.479 Z-1.359
N6865 X230.012 Y-18.5 Z-1.35
N6870 X229.846 Y-18.545 Z-1.343
N6875 X229.796 Y-18.558 Z-1.346
N6880 X229.603 Y-18.599 Z-1.37
N6885 X229.496 Y-18.618 Z-1.393
N6890 X229.379 Y-18.634 Z-1.424
N6895 X229.346 Y-18.638 Z-1.434
N6900 X229.149 Y-18.665 Z-1.495
N6905 X228.909 Y-18.699 Z-1.572
N6910 X228.718 Y-18.722 Z-1.637
N6915 X228.464 Y-18.749 Z-1.721
N6920 X228.327 Y-18.76 Z-1.768
N6925 X228.193 Y-18.766 Z-1.81
N6930 X228.022 Z-1.855
N6935 X227.614 Y-18.758 Z-1.969
N6940 X227.574 Y-18.755 Z-1.979
N6945 X227.285 Y-18.733 Z-2.055
N6950 X226.938 Y-18.695 Z-2.136
N6955 X226.731 Y-18.666 Z-2.178
N6960 X226.594 Y-18.644 Z-2.208
N6965 X226.249 Y-18.58 Z-2.273
N6970 X225.901 Y-18.507 Z-2.332
N6975 X225.547 Y-18.423 Z-2.384
N6980 X225.176 Y-18.328 Z-2.432
N6985 X224.439 Y-18.132 Z-2.505
N6990 X224.113 Y-18.045 Z-2.526
N6995 X223.782 Y-17.962 Z-2.542
N7000 X223.461 Y-17.886 Z-2.551
N7005 X223.367 Y-17.866 Z-2.552
N7010 X223.355 Z-2.549
N7015 X223.263 Y-17.869 Z-2.528
N7020 X223.158 Y-17.877 Z-2.499
N7025 X223.04 Y-17.889 Z-2.462
N7030 X222.905 Y-17.908 Z-2.415
N7035 X222.751 Y-17.935 Z-2.359
N7040 X222.598 Y-17.966 Z-2.299
N7045 X222.206 Y-18.059 Z-2.133
N7050 X222.034 Y-18.106 Z-2.055
N7055 X221.852 Y-18.141 Z-1.962
N7060 X221.771 Y-18.158 Z-1.922
N7065 X221.232 Y-18.283 Z-1.644
N7070 X220.955 Y-18.337 Z-1.491
N7075 X220.828 Y-18.354 Z-1.416
N7080 X220.766 Y-18.364 Z-1.373
N7085 X220.694 Y-18.374 Z-1.316
N7090 X220.66 Y-18.382 Z-1.283
N7095 X220.694 Y-18.374 Z-1.316
N7100 X220.766 Y-18.364 Z-1.373
N7105 X220.828 Y-18.354 Z-1.416
N7110 X220.955 Y-18.337 Z-1.491
N7115 X221.232 Y-18.283 Z-1.644
N7120 X221.771 Y-18.158 Z-1.922
N7125 X221.852 Y-18.141 Z-1.962
N7130 X222.034 Y-18.106 Z-2.055
N7135 X222.206 Y-18.059 Z-2.133
N7140 X222.598 Y-17.966 Z-2.299
N7145 X222.751 Y-17.935 Z-2.359
N7150 X222.905 Y-17.908 Z-2.415
N7155 X223.04 Y-17.889 Z-2.462
N7160 X223.158 Y-17.877 Z-2.499
N7165 X223.263 Y-17.869 Z-2.528
N7170 X223.355 Y-17.866 Z-2.549
N7175 X223.367 Z-2.552
N7180 X223.461 Y-17.886 Z-2.551
N7185 X223.782 Y-17.962 Z-2.542
N7190 X224.113 Y-18.045 Z-2.526
N7195 X224.439 Y-18.132 Z-2.505
N7200 X225.176 Y-18.328 Z-2.432
N7205 X225.547 Y-18.423 Z-2.384
N7210 X225.901 Y-18.507 Z-2.332
N7215 X226.249 Y-18.58 Z-2.273
N7220 X226.594 Y-18.644 Z-2.208
N7225 X226.731 Y-18.666 Z-2.178
N7230 X226.938 Y-18.695 Z-2.136
N7235 X227.285 Y-18.733 Z-2.055
N7240 X227.574 Y-18.755 Z-1.979
N7245 X227.614 Y-18.758 Z-1.969
N7250 X228.022 Y-18.766 Z-1.855
N7255 X228.193 Z-1.81
N7260 X228.327 Y-18.76 Z-1.768
N7265 X228.464 Y-18.749 Z-1.721
N7270 X228.718 Y-18.722 Z-1.637
N7275 X228.909 Y-18.699 Z-1.572
N7280 X229.149 Y-18.665 Z-1.495
N7285 X229.346 Y-18.638 Z-1.434
N7290 X229.379 Y-18.634 Z-1.424
N7295 X229.496 Y-18.618 Z-1.393
N7300 X229.603 Y-18.599 Z-1.37
N7305 X229.796 Y-18.558 Z-1.346
N7310 X229.846 Y-18.545 Z-1.343
N7315 X230.012 Y-18.5 Z-1.35
N7320 X230.08 Y-18.479 Z-1.359
N7325 X230.226 Y-18.431 Z-1.394
N7330 X230.31 Y-18.401 Z-1.42
N7335 X230.457 Y-18.35 Z-1.483
N7340 X230.507 Y-18.332 Z-1.506
N7345 X230.556 Y-18.312 Z-1.531
N7350 X230.628 Y-18.286 Z-1.574
N7355 X230.778 Y-18.234 Z-1.666
N7360 X230.909 Y-18.183 Z-1.756
N7365 X231.028 Y-18.142 Z-1.842
N7370 X231.188 Y-18.085 Z-1.964
N7375 X231.404 Y-18.011 Z-2.141
N7380 X231.598 Y-17.947 Z-2.305
N7385 X231.924 Y-17.838 Z-2.594
N7390 X232.06 Y-17.795 Z-2.717
N7395 X232.414 Y-17.68 Z-3.045
N7400 X232.761 Y-17.575 Z-3.372
N7405 X232.572 Y-17.835 Z-3.058
N7410 X232.375 Y-18.103 Z-2.735
N7415 X232.19 Y-18.343 Z-2.441
N7420 X231.791 Y-18.845 Z-1.822
N7425 X231.723 Y-18.918 Z-1.725
N7430 X231.642 Y-18.996 Z-1.614
N7435 X231.723 Y-18.918 Z-1.725
N7440 X231.791 Y-18.845 Z-1.822
N7445 X232.19 Y-18.343 Z-2.441
N7450 X232.375 Y-18.103 Z-2.735
N7455 X232.572 Y-17.835 Z-3.058
N7460 X232.761 Y-17.575 Z-3.372
N7465 X232.77 Y-17.569 Z-3.381
N7470 X232.921 Y-17.56 Z-3.452
N7475 X232.891 Y-17.401 Z-3.301
N7480 X232.817 Y-16.974 Z-2.903
N7485 X232.779 Y-16.764 Z-2.712
N7490 X232.718 Y-16.436 Z-2.417
N7495 X232.697 Y-16.302 Z-2.3
N7500 X232.665 Y-16.126 Z-2.15
N7505 X232.631 Y-15.956 Z-2.008
N7510 X232.598 Y-15.75 Z-1.844
N7515 X232.558 Y-15.558 Z-1.699
N7520 X232.528 Y-15.388 Z-1.58
N7525 X232.513 Y-15.319 Z-1.534
N7530 X232.49 Y-15.214 Z-1.47
N7535 X232.469 Y-15.103 Z-1.408
N7540 X232.458 Y-15.056 Z-1.385
N7545 X232.439 Y-14.98 Z-1.352
N7550 X232.424 Y-14.899 Z-1.321
N7555 X232.411 Y-14.844 Z-1.302
N7560 X232.395 Y-14.779 Z-1.288
N7565 X232.377 Y-14.683 Z-1.273
N7570 X232.363 Y-14.627 Z-1.267
N7575 X232.354 Y-14.585 Z-1.27
N7580 X232.341 Y-14.464 Z-1.287
N7585 X232.318 Y-14.331 Z-1.317
N7590 X232.297 Y-14.237 Z-1.344
N7595 X232.249 Y-13.975 Z-1.394
N7600 X232.173 Y-13.67 Z-1.458
N7605 X232.085 Y-13.396 Z-1.518
N7610 X231.985 Y-13.134 Z-1.579
N7615 X231.963 Y-13.081 Z-1.59
N7620 X231.874 Y-12.883 Z-1.639
N7625 X231.832 Y-12.794 Z-1.66
N7630 X231.752 Y-12.639 Z-1.7
N7635 X231.683 Y-12.512 Z-1.731
N7640 X231.62 Y-12.402 Z-1.761
N7645 X231.521 Y-12.239 Z-1.802
N7650 X231.347 Y-11.975 Z-1.873
N7655 X231.169 Y-11.73 Z-1.942
N7660 X231.01 Y-11.52 Z-1.997
N7665 X230.655 Y-11.094 Z-2.113
N7670 X230.575 Y-11.004 Z-2.135
N7675 X230.282 Y-10.684 Z-2.221
N7680 X229.893 Y-10.277 Z-2.321
N7685 X229.492 Y-9.869 Z-2.408
N7690 X229.408 Y-9.785 Z-2.425
N7695 X229.086 Y-9.451 Z-2.478
N7700 X228.932 Y-9.288 Z-2.497
N7705 X228.799 Y-9.141 Z-2.509
N7710 X228.691 Y-9.014 Z-2.516
N7715 X228.571 Y-8.869 Z-2.517
N7720 X228.474 Y-8.744 Z-2.512
N7725 X228.386 Y-8.621 Z-2.503
N7730 X228.308 Y-8.503 Z-2.489
N7735 X228.235 Y-8.383 Z-2.469
N7740 X228.166 Y-8.257 Z-2.442
N7745 X228.1 Y-8.123 Z-2.409
N7750 X228.034 Y-7.972 Z-2.364
N7755 X227.934 Y-7.463 Z-2.12
N7760 X227.87 Y-7.078 Z-1.929
N7765 X227.851 Y-6.929 Z-1.851
N7770 X227.839 Y-6.79 Z-1.773
N7775 X227.837 Y-6.739 Z-1.743
N7780 X227.821 Y-6.665 Z-1.688
N7785 X227.799 Y-6.545 Z-1.587
N7790 X227.795 Y-6.526 Z-1.569
N7795 X227.792 Y-6.498 Z-1.542
N7800 X227.785 Y-6.447 Z-1.493
N7805 X227.77 Y-6.381 Z-1.426
N7810 X227.785 Y-6.447 Z-1.493
N7815 X227.792 Y-6.498 Z-1.542
N7820 X227.795 Y-6.526 Z-1.569
N7825 X227.799 Y-6.545 Z-1.587
N7830 X227.821 Y-6.665 Z-1.688
N7835 X227.837 Y-6.739 Z-1.743
N7840 X227.839 Y-6.79 Z-1.773
N7845 X227.851 Y-6.929 Z-1.851
N7850 X227.87 Y-7.078 Z-1.929
N7855 X227.934 Y-7.463 Z-2.12
N7860 X228.034 Y-7.972 Z-2.364
N7865 X227.998 Y-7.969 Z-2.33
N7870 X227.549 Y-7.915 Z-1.884
N7875 X226.657 Y-7.805 Z-1.
N7880 X227.549 Y-7.915 Z-1.884
N7885 X227.998 Y-7.969 Z-2.33
N7890 X228.034 Y-7.972 Z-2.364
N7895 X228.1 Y-8.123 Z-2.409
N7900 X228.166 Y-8.257 Z-2.442
N7905 X228.235 Y-8.383 Z-2.469
N7910 X228.308 Y-8.503 Z-2.489
N7915 X228.386 Y-8.621 Z-2.503
N7920 X228.474 Y-8.744 Z-2.512
N7925 X228.571 Y-8.869 Z-2.517
N7930 X228.691 Y-9.014 Z-2.516
N7935 X228.799 Y-9.141 Z-2.509
N7940 X228.932 Y-9.288 Z-2.497
N7945 X229.086 Y-9.451 Z-2.478
N7950 X229.408 Y-9.785 Z-2.425
N7955 X229.492 Y-9.869 Z-2.408
N7960 X229.893 Y-10.277 Z-2.321
N7965 X230.282 Y-10.684 Z-2.221
N7970 X230.575 Y-11.004 Z-2.135
N7975 X230.655 Y-11.094 Z-2.113
N7980 X231.01 Y-11.52 Z-1.997
N7985 X231.169 Y-11.73 Z-1.942
N7990 X231.347 Y-11.975 Z-1.873
N7995 X231.521 Y-12.239 Z-1.802
N8000 X231.62 Y-12.402 Z-1.761
N8005 X231.683 Y-12.512 Z-1.731
N8010 X231.752 Y-12.639 Z-1.7
N8015 X231.832 Y-12.794 Z-1.66
N8020 X231.874 Y-12.883 Z-1.639
N8025 X231.963 Y-13.081 Z-1.59
N8030 X231.985 Y-13.134 Z-1.579
N8035 X232.085 Y-13.396 Z-1.518
N8040 X232.173 Y-13.67 Z-1.458
N8045 X232.249 Y-13.975 Z-1.394
N8050 X232.297 Y-14.237 Z-1.344
N8055 X232.318 Y-14.331 Z-1.317
N8060 X232.341 Y-14.464 Z-1.287
N8065 X232.354 Y-14.585 Z-1.27
N8070 X232.363 Y-14.627 Z-1.267
N8075 X232.377 Y-14.683 Z-1.273
N8080 X232.395 Y-14.779 Z-1.288
N8085 X232.411 Y-14.844 Z-1.302
N8090 X232.424 Y-14.899 Z-1.321
N8095 X232.439 Y-14.98 Z-1.352
N8100 X232.458 Y-15.056 Z-1.385
N8105 X232.469 Y-15.103 Z-1.408
N8110 X232.49 Y-15.214 Z-1.47
N8115 X232.513 Y-15.319 Z-1.534
N8120 X232.528 Y-15.388 Z-1.58
N8125 X232.558 Y-15.558 Z-1.699
N8130 X232.598 Y-15.75 Z-1.844
N8135 X232.631 Y-15.956 Z-2.008
N8140 X232.665 Y-16.126 Z-2.15
N8145 X232.697 Y-16.302 Z-2.3
N8150 X232.718 Y-16.436 Z-2.417
N8155 X232.779 Y-16.764 Z-2.712
N8160 X232.817 Y-16.974 Z-2.903
N8165 X232.891 Y-17.401 Z-3.301
N8170 X232.921 Y-17.56 Z-3.452
N8175 X232.927 Y-17.562
N8180 X232.955 Y-17.552 Z-3.439
N8185 X233.049 Y-17.351 Z-3.225
N8190 X233.264 Y-16.909 Z-2.756
N8195 X233.369 Y-16.686 Z-2.523
N8200 X233.512 Y-16.387 Z-2.219
N8205 X233.645 Y-16.128 Z-1.959
N8210 X233.734 Y-15.947 Z-1.786
N8215 X233.835 Y-15.759 Z-1.615
N8220 X233.885 Y-15.668 Z-1.535
N8225 X233.928 Y-15.587 Z-1.473
N8230 X233.992 Y-15.476 Z-1.39
N8235 X234.023 Y-15.426 Z-1.357
N8240 X234.062 Y-15.355 Z-1.319
N8245 X234.112 Y-15.273 Z-1.281
N8250 X234.133 Y-15.237 Z-1.267
N8255 X234.157 Y-15.194 Z-1.256
N8260 X234.21 Y-15.099 Z-1.241
N8265 X234.236 Y-15.045 Z-1.237
N8270 X234.261 Y-14.995 Z-1.239
N8275 X234.278 Y-14.958 Z-1.243
N8280 X234.315 Y-14.867 Z-1.258
N8285 X234.34 Y-14.8 Z-1.274
N8290 X234.353 Y-14.765 Z-1.285
N8295 X234.388 Y-14.65 Z-1.323
N8300 X234.425 Y-14.504 Z-1.38
N8305 X234.438 Y-14.442 Z-1.405
N8310 X234.461 Y-14.349 Z-1.44
N8315 X234.589 Y-13.845 Z-1.632
N8320 X234.649 Y-13.579 Z-1.739
N8325 X234.725 Y-13.207 Z-1.882
N8330 X234.789 Y-12.831 Z-2.029
N8335 X234.829 Y-12.573 Z-2.126
N8340 X234.844 Y-12.458 Z-2.171
N8345 X234.888 Y-12.094 Z-2.309
N8350 X234.904 Y-11.924 Z-2.372
N8355 X234.919 Y-11.74 Z-2.441
N8360 X234.944 Y-11.328 Z-2.589
N8365 X234.953 Y-11.059 Z-2.685
N8370 X234.955 Y-10.685 Z-2.809
N8375 X234.948 Y-10.433 Z-2.891
N8380 X234.933 Y-10.141 Z-2.98
N8385 X234.91 Y-9.868 Z-3.058
N8390 X234.879 Y-9.604 Z-3.127
N8395 X234.842 Y-9.354 Z-3.187
N8400 X234.797 Y-9.12 Z-3.238
N8405 X234.772 Y-9.008 Z-3.259
N8410 X234.66 Y-8.668 Z-3.29
N8415 X234.483 Y-8.156 Z-3.33
N8420 X234.295 Y-7.644 Z-3.365
N8425 X234.099 Y-7.132 Z-3.394
N8430 X233.898 Y-6.616 Z-3.415
N8435 X233.692 Y-6.103 Z-3.429
N8440 X233.536 Y-5.72 Z-3.432
N8445 X233.298 Y-5.125
N8450 X233.258 Y-5.033 Z-3.435
N8455 X233.103 Y-4.709 Z-3.45
N8460 X233.072 Y-4.635
N8465 X233.041 Y-4.556 Z-3.448
N8470 X233.012 Y-4.479 Z-3.443
N8475 X232.984 Y-4.395 Z-3.436
N8480 X232.939 Y-4.243 Z-3.418
N8485 X232.885 Y-4.022 Z-3.381
N8490 X232.843 Y-3.815 Z-3.337
N8495 X232.807 Y-3.59 Z-3.278
N8500 X232.778 Y-3.339 Z-3.202
N8505 X232.758 Y-3.072 Z-3.112
N8510 X232.748 Y-2.785 Z-3.005
N8515 Y-2.477 Z-2.879
N8520 X232.761 Y-2.151 Z-2.734
N8525 X232.787 Y-1.806 Z-2.57
N8530 X232.828 Y-1.443 Z-2.384
N8535 X232.887 Y-1.058 Z-2.174
N8540 X233.056 Y-0.179 Z-1.661
N8545 X233.105 Y0.027 Z-1.533
N8550 X233.164 Y0.219 Z-1.403
N8555 X233.196 Y0.297 Z-1.343
N8560 X233.207 Y0.327 Z-1.317
N8565 X233.229 Y0.377 Z-1.268
N8570 X233.207 Y0.327 Z-1.317
N8575 X233.196 Y0.297 Z-1.343
N8580 X233.164 Y0.219 Z-1.403
N8585 X233.105 Y0.027 Z-1.533
N8590 X233.056 Y-0.179 Z-1.661
N8595 X232.887 Y-1.058 Z-2.174
N8600 X232.828 Y-1.443 Z-2.384
N8605 X232.787 Y-1.806 Z-2.57
N8610 X232.761 Y-2.151 Z-2.734
N8615 X232.748 Y-2.477 Z-2.879
N8620 Y-2.785 Z-3.005
N8625 X232.758 Y-3.072 Z-3.112
N8630 X232.778 Y-3.339 Z-3.202
N8635 X232.807 Y-3.59 Z-3.278
N8640 X232.843 Y-3.815 Z-3.337
N8645 X232.885 Y-4.022 Z-3.381
N8650 X232.939 Y-4.243 Z-3.418
N8655 X232.984 Y-4.395 Z-3.436
N8660 X233.012 Y-4.479 Z-3.443
N8665 X233.041 Y-4.556 Z-3.448
N8670 X233.072 Y-4.635 Z-3.45
N8675 X233.103 Y-4.709
N8680 X233.258 Y-5.033 Z-3.435
N8685 X233.298 Y-5.125 Z-3.432
N8690 X233.536 Y-5.72
N8695 X233.692 Y-6.103 Z-3.429
N8700 X233.898 Y-6.616 Z-3.415
N8705 X234.099 Y-7.132 Z-3.394
N8710 X234.295 Y-7.644 Z-3.365
N8715 X234.483 Y-8.156 Z-3.33
N8720 X234.66 Y-8.668 Z-3.29
N8725 X234.772 Y-9.008 Z-3.259
N8730 X234.797 Y-9.12 Z-3.238
N8735 X234.842 Y-9.354 Z-3.187
N8740 X234.879 Y-9.604 Z-3.127
N8745 X234.91 Y-9.868 Z-3.058
N8750 X234.933 Y-10.141 Z-2.98
N8755 X234.948 Y-10.433 Z-2.891
N8760 X234.955 Y-10.685 Z-2.809
N8765 X234.953 Y-11.059 Z-2.685
N8770 X234.944 Y-11.328 Z-2.589
N8775 X234.919 Y-11.74 Z-2.441
N8780 X234.904 Y-11.924 Z-2.372
N8785 X234.888 Y-12.094 Z-2.309
N8790 X234.844 Y-12.458 Z-2.171
N8795 X234.829 Y-12.573 Z-2.126
N8800 X234.789 Y-12.831 Z-2.029
N8805 X234.725 Y-13.207 Z-1.882
N8810 X234.649 Y-13.579 Z-1.739
N8815 X234.589 Y-13.845 Z-1.632
N8820 X234.461 Y-14.349 Z-1.44
N8825 X234.438 Y-14.442 Z-1.405
N8830 X234.425 Y-14.504 Z-1.38
N8835 X234.388 Y-14.65 Z-1.323
N8840 X234.353 Y-14.765 Z-1.285
N8845 X234.34 Y-14.8 Z-1.274
N8850 X234.315 Y-14.867 Z-1.258
N8855 X234.278 Y-14.958 Z-1.243
N8860 X234.261 Y-14.995 Z-1.239
N8865 X234.236 Y-15.045 Z-1.237
N8870 X234.21 Y-15.099 Z-1.241
N8875 X234.157 Y-15.194 Z-1.256
N8880 X234.133 Y-15.237 Z-1.267
N8885 X234.112 Y-15.273 Z-1.281
N8890 X234.062 Y-15.355 Z-1.319
N8895 X234.023 Y-15.426 Z-1.357
N8900 X233.992 Y-15.476 Z-1.39
N8905 X233.928 Y-15.587 Z-1.473
N8910 X233.885 Y-15.668 Z-1.535
N8915 X233.835 Y-15.759 Z-1.615
N8920 X233.734 Y-15.947 Z-1.786
N8925 X233.645 Y-16.128 Z-1.959
N8930 X233.512 Y-16.387 Z-2.219
N8935 X233.369 Y-16.686 Z-2.523
N8940 X233.264 Y-16.909 Z-2.756
N8945 X233.049 Y-17.351 Z-3.225
N8950 X232.955 Y-17.552 Z-3.439
N8955 X233.061 Y-17.548 Z-3.368
N8960 X233.153 Y-17.544 Z-3.308
N8965 X233.18 Y-17.553 Z-3.283
N8970 X233.285 Y-17.598 Z-3.18
N8975 X233.348 Y-17.63 Z-3.114
N8980 X233.395 Y-17.657 Z-3.063
N8985 X233.456 Y-17.697 Z-2.992
N8990 X233.507 Y-17.736 Z-2.928
N8995 X233.518 Y-17.746 Z-2.914
N9000 X233.507 Y-17.736 Z-2.928
N9005 X233.456 Y-17.697 Z-2.992
N9010 X233.395 Y-17.657 Z-3.063
N9015 X233.348 Y-17.63 Z-3.114
N9020 X233.285 Y-17.598 Z-3.18
N9025 X233.18 Y-17.553 Z-3.283
N9030 X233.153 Y-17.544 Z-3.308
N9035 X233.205 Y-17.509 Z-3.248
N9040 X233.263 Y-17.464 Z-3.176
N9045 X233.329 Y-17.407 Z-3.09
N9050 X233.367 Y-17.37 Z-3.038
N9055 X233.329 Y-17.407 Z-3.09
N9060 X233.263 Y-17.464 Z-3.176
N9065 X233.205 Y-17.509 Z-3.248
N9070 X233.153 Y-17.544 Z-3.308
N9075 X233.061 Y-17.548 Z-3.368
N9080 X232.955 Y-17.552 Z-3.439
N9085 X232.927 Y-17.562 Z-3.452
N9090 X232.95 Y-18.039 Z-3.036
N9095 X232.955 Y-18.171 Z-2.921
N9100 X232.959 Y-18.369 Z-2.752
N9105 X232.954 Y-18.732 Z-2.449
N9110 X232.951 Y-18.927 Z-2.293
N9115 X232.943 Y-19.08 Z-2.174
N9120 X232.934 Y-19.221 Z-2.067
N9125 X232.929 Y-19.309 Z-2.004
N9130 X232.922 Y-19.417 Z-1.929
N9135 X232.911 Y-19.521 Z-1.86
N9140 X232.901 Y-19.6 Z-1.809
N9145 X232.888 Y-19.712 Z-1.741
N9150 X232.879 Y-19.777 Z-1.705
N9155 X232.868 Y-19.841 Z-1.672
N9160 X232.854 Y-19.918 Z-1.635
N9165 X232.834 Y-20.039 Z-1.583
N9170 X232.823 Y-20.087 Z-1.566
N9175 X232.806 Y-20.176 Z-1.544
N9180 X232.798 Y-20.229 Z-1.535
N9185 X232.793 Y-20.275 Z-1.53
N9190 X232.789 Y-20.31 Z-1.528
N9195 X232.766 Y-20.47 Z-1.534
N9200 X232.752 Y-20.547 Z-1.54
N9205 X232.732 Y-20.623 Z-1.552
N9210 X232.706 Y-20.698 Z-1.569
N9215 X232.667 Y-20.785 Z-1.594
N9220 X232.62 Y-20.87 Z-1.627
N9225 X232.565 Y-20.954 Z-1.668
N9230 X232.503 Y-21.037 Z-1.717
N9235 X232.224 Y-21.34 Z-1.928
N9240 X231.95 Y-21.619 Z-2.121
N9245 X231.683 Y-21.878 Z-2.297
N9250 X231.417 Y-22.122 Z-2.461
N9255 X231.151 Y-22.354 Z-2.615
N9260 X230.892 Y-22.571 Z-2.757
N9265 X230.63 Y-22.779 Z-2.889
N9270 X230.368 Y-22.98 Z-3.014
N9275 X230.105 Y-23.174 Z-3.131
N9280 X229.838 Y-23.362 Z-3.242
N9285 X229.57 Y-23.546 Z-3.347
N9290 X229.298 Y-23.727 Z-3.445
N9295 X229.024 Y-23.905 Z-3.539
N9300 X228.759 Y-24.07 Z-3.624
N9305 X228.467 Y-24.251 Z-3.709
N9310 X228.195 Y-24.416 Z-3.782
N9315 X227.889 Y-24.596 Z-3.857
N9320 X227.599 Y-24.771 Z-3.924
N9325 X227.468 Y-24.847 Z-3.95
N9330 X227.064 Y-25.087 Z-4.027
N9335 X226.67 Y-25.32 Z-4.088
N9340 X226.416 Y-25.474 Z-4.122
N9345 X226.291 Y-25.548 Z-4.137
N9350 X225.947 Y-25.759 Z-4.169
N9355 X225.834 Y-25.863 Z-4.152
N9360 X225.519 Y-26.147 Z-4.098
N9365 X225.305 Y-26.344 Z-4.057
N9370 X225.12 Y-26.511 Z-4.019
N9375 X224.715 Y-26.885 Z-3.928
N9380 X224.239 Y-27.327 Z-3.809
N9385 X223.889 Y-27.653 Z-3.713
N9390 X223.612 Y-27.908 Z-3.627
N9395 X223.294 Y-28.19 Z-3.524
N9400 X222.967 Y-28.473 Z-3.412
N9405 X222.632 Y-28.758 Z-3.286
N9410 X222.287 Y-29.044 Z-3.151
N9415 X221.931 Y-29.329 Z-3.007
N9420 X221.565 Y-29.616 Z-2.851
N9425 X221.188 Y-29.904 Z-2.685
N9430 X220.8 Y-30.19 Z-2.509
N9435 X220.4 Y-30.475 Z-2.324
N9440 X219.988 Y-30.76 Z-2.128
N9445 X219.563 Y-31.045 Z-1.921
N9450 X219.126 Y-31.329 Z-1.703
N9455 X218.676 Y-31.613 Z-1.472
N9460 X218.568 Y-31.679 Z-1.416
N9465 X218.457 Y-31.748 Z-1.357
N9470 X218.371 Y-31.808 Z-1.304
N9475 X218.297 Y-31.873 Z-1.246
N9480 X218.289 Y-31.876 Z-1.239
N9485 X218.297 Y-31.873 Z-1.246
N9490 X218.293 Y-31.88 Z-1.239
N9495 X218.274 Y-31.936 Z-1.185
N9500 X218.23 Y-32.125 Z-1.001
N9505 Z5.
N9510 X64.954 Y-24.869
N9515 Z4.
N9520 Z-7.72
N9525 X65.155 Y-25.044 Z-7.635
N9530 X65.359 Y-25.215 Z-7.557
N9535 X65.586 Y-25.394 Z-7.474
N9540 X65.815 Y-25.568 Z-7.398
N9545 X66.047 Y-25.735 Z-7.328
N9550 X66.219 Y-25.852 Z-7.279
N9555 X66.467 Y-26.015 Z-7.215
N9560 X66.613 Y-26.108 Z-7.179
N9565 X66.759 Y-26.198 Z-7.146
N9570 X67.002 Y-26.339 Z-7.095
N9575 X67.248 Y-26.474 Z-7.051
N9580 X67.523 Y-26.617 Z-7.008
N9585 X67.628 Y-26.668 Z-6.993
N9590 X67.834 Y-26.767 Z-6.964
N9595 X68.041 Y-26.861 Z-6.941
N9600 X68.249 Y-26.952 Z-6.921
N9605 X68.505 Y-27.053 Z-6.901
N9610 X68.763 Y-27.149 Z-6.887
N9615 X69.022 Y-27.238 Z-6.879
N9620 X69.171 Y-27.285 Z-6.876
N9625 X69.321 Y-27.329 Z-6.875
N9630 X69.484 Y-27.376 Z-6.876
N9635 X69.811 Y-27.462 Z-6.885
N9640 X70.163 Y-27.549 Z-6.891
N9645 X70.421 Y-27.61 Z-6.899
N9650 X70.606 Y-27.652 Z-6.907
N9655 X70.938 Y-27.723 Z-6.917
N9660 X71.169 Y-27.77 Z-6.926
N9665 X71.403 Y-27.815 Z-6.938
N9670 X71.892 Y-27.901 Z-6.959
N9675 X72.202 Y-27.952 Z-6.976
N9680 X72.587 Y-28.009 Z-6.995
N9685 X73.111 Y-28.079 Z-7.025
N9690 X73.253 Y-28.096 Z-7.032
N9695 X73.928 Y-28.169 Z-7.071
N9700 X74.419 Y-28.212 Z-7.1
N9705 X75.15 Y-28.244 Z-7.113
N9710 X76.074 Y-28.27 Z-7.123
N9715 X77.115 Y-28.286 Z-7.122
N9720 X77.521 Y-28.293 Z-7.114
N9725 X77.925 Y-28.304 Z-7.102
N9730 X78.278 Y-28.314 Z-7.083
N9735 X78.854 Y-28.339 Z-7.044
N9740 X79.136 Y-28.342 Z-7.029
N9745 X79.418 Y-28.338 Z-7.019
N9750 X79.785 Y-28.329 Z-7.012
N9755 X80.842 Y-28.291 Z-6.979
N9760 X81.651 Y-28.248 Z-6.953
N9765 X82.261 Y-28.209 Z-6.928
N9770 X82.586 Y-28.185 Z-6.917
N9775 X83.673 Y-28.095 Z-6.869
N9780 X84.461 Y-28.016 Z-6.834
N9785 X85.079 Y-27.948 Z-6.801
N9790 X85.4 Y-27.911 Z-6.786
N9795 X86.478 Y-27.772 Z-6.725
N9800 X87.284 Y-27.656 Z-6.679
N9805 X87.869 Y-27.566 Z-6.641
N9810 X88.227 Y-27.508 Z-6.62
N9815 X89.254 Y-27.331 Z-6.55
N9820 X90.115 Y-27.169 Z-6.491
N9825 X90.63 Y-27.068 Z-6.451
N9830 X91.06 Y-26.979 Z-6.421
N9835 X92.006 Y-26.777 Z-6.347
N9840 X92.951 Y-26.559 Z-6.271
N9845 X93.357 Y-26.462 Z-6.235
N9850 X93.897 Y-26.329 Z-6.191
N9855 X94.842 Y-26.086 Z-6.107
N9860 X95.982 Y-25.774 Z-6.
N9865 X96.048 Y-25.755 Z-5.994
N9870 X96.729 Y-25.559 Z-5.93
N9875 X97.38 Y-25.366 Z-5.864
N9880 X97.672 Y-25.277 Z-5.836
N9885 X98.703 Y-24.954 Z-5.729
N9890 X99.552 Y-24.675 Z-5.639
N9895 X100.016 Y-24.519 Z-5.587
N9900 X100.489 Y-24.356 Z-5.536
N9905 X101.424 Y-24.025 Z-5.428
N9910 X102.563 Y-23.604 Z-5.293
N9915 X102.613 Y-23.585 Z-5.287
N9920 X103.289 Y-23.325 Z-5.206
N9925 X103.903 Y-23.084 Z-5.128
N9930 X104.241 Y-22.913 Z-5.053
N9935 X104.902 Y-22.587 Z-4.913
N9940 X105.14 Y-22.472 Z-4.864
N9945 X105.556 Y-22.268 Z-4.782
N9950 X106.238 Y-21.941 Z-4.655
N9955 X106.383 Y-21.872 Z-4.63
N9960 X107.59 Y-21.303 Z-4.429
N9965 X107.625 Y-21.287 Z-4.423
N9970 X108.864 Y-20.715 Z-4.244
N9975 X110.104 Y-20.153 Z-4.09
N9980 X111.344 Y-19.6 Z-3.959
N9985 X112.601 Y-19.049 Z-3.848
N9990 X113.851 Y-18.506 Z-3.758
N9995 X115.095 Y-17.972 Z-3.685
N10000 X116.334 Y-17.441 Z-3.628
N10005 X117.566 Y-16.916 Z-3.585
N10010 X118.799 Y-16.39 Z-3.553
N10015 X119.98 Y-15.886 Z-3.534
N10020 X121.131 Y-15.389 Z-3.521
N10025 X121.254 Y-15.34 Z-3.516
N10030 X121.419 Y-15.27 Z-3.513
N10035 X121.593 Y-15.192
N10040 X121.738 Y-15.125 Z-3.515
N10045 X121.909 Y-15.042 Z-3.521
N10050 X122.05 Y-14.971 Z-3.529
N10055 X122.217 Y-14.884 Z-3.541
N10060 X122.391 Y-14.789 Z-3.557
N10065 X122.813 Y-14.546 Z-3.608
N10070 X122.905 Y-14.489 Z-3.622
N10075 X123.311 Y-14.233 Z-3.692
N10080 X123.646 Y-13.96 Z-3.724
N10085 X123.822 Y-13.812 Z-3.744
N10090 X123.993 Y-13.671 Z-3.765
N10095 X124.546 Y-13.217 Z-3.832
N10100 X125.265 Y-12.649 Z-3.912
N10105 X126.002 Y-12.075 Z-4.001
N10110 X126.746 Y-11.507 Z-4.097
N10115 X127.098 Y-11.241 Z-4.146
N10120 X127.498 Y-10.943 Z-4.199
N10125 X128.401 Y-10.282 Z-4.327
N10130 X129.033 Y-9.83 Z-4.418
N10135 X129.814 Y-9.284 Z-4.537
N10140 X130.606 Y-8.746 Z-4.659
N10145 X131.049 Y-8.45 Z-4.732
N10150 X131.407 Y-8.215 Z-4.787
N10155 X132.221 Y-7.692 Z-4.919
N10160 X132.388 Y-7.586 Z-4.948
N10165 X133.045 Y-7.18 Z-5.055
N10170 X133.881 Y-6.677 Z-5.196
N10175 X134.728 Y-6.187 Z-5.34
N10180 X135.102 Y-5.974 Z-5.407
N10185 X135.588 Y-5.706 Z-5.488
N10190 X135.77 Y-5.607 Z-5.521
N10195 X136.462 Y-5.238 Z-5.64
N10200 X137.121 Y-4.901 Z-5.754
N10205 X137.489 Y-5.247 Z-5.311
N10210 X137.679 Y-5.421 Z-5.089
N10215 X138.01 Y-5.712 Z-4.714
N10220 X138.194 Y-5.87 Z-4.509
N10225 X138.376 Y-6.02 Z-4.312
N10230 X138.555 Y-6.162 Z-4.124
N10235 X138.817 Y-6.359 Z-3.859
N10240 X138.962 Y-6.464 Z-3.719
N10245 X139.208 Y-6.634 Z-3.489
N10250 X139.393 Y-6.756 Z-3.321
N10255 X139.576 Y-6.868 Z-3.163
N10260 X139.756 Y-6.971 Z-3.015
N10265 X139.981 Y-7.088 Z-2.842
N10270 X140.105 Y-7.148 Z-2.753
N10275 X140.239 Y-7.21 Z-2.659
N10280 X140.372 Y-7.267 Z-2.571
N10285 X140.503 Y-7.317 Z-2.489
N10290 X140.632 Y-7.361 Z-2.414
N10295 X140.833 Y-7.418 Z-2.308
N10300 X140.91 Y-7.438 Z-2.27
N10305 X141.017 Y-7.462 Z-2.22
N10310 X141.121 Y-7.482 Z-2.177
N10315 X141.296 Y-7.507 Z-2.112
N10320 X141.426 Y-7.52 Z-2.07
N10325 X141.554 Y-7.525 Z-2.035
N10330 X141.71 Y-7.526 Z-1.999
N10335 X141.871 Y-7.518 Z-1.971
N10340 X141.956 Y-7.51 Z-1.958
N10345 X142.009 Y-7.505 Z-1.953
N10350 X142.194 Y-7.482 Z-1.937
N10355 X142.292 Y-7.467 Z-1.931
N10360 X142.527 Y-7.425 Z-1.924
N10365 X142.847 Y-7.361 Z-1.921
N10370 X143.735 Y-7.2 Z-1.916
N10375 X144.164 Y-7.128 Z-1.919
N10380 X144.627 Y-7.056 Z-1.917
N10385 X145.522 Y-6.927 Z-1.924
N10390 X146.422 Y-6.82 Z-1.931
N10395 X146.824 Y-6.777 Z-1.94
N10400 X147.326 Y-6.731 Z-1.944
N10405 X148.233 Y-6.66 Z-1.962
N10410 X148.836 Y-6.627 Z-1.976
N10415 X149.145 Y-6.612 Z-1.981
N10420 X149.506 Y-6.6 Z-1.991
N10425 X150.176 Y-6.584 Z-2.007
N10430 X150.955 Y-6.582 Z-2.026
N10435 X151.513 Y-6.586 Z-2.037
N10440 X152.18 Y-6.597 Z-2.045
N10445 X152.844 Y-6.619 Z-2.051
N10450 X153.164 Y-6.632
N10455 X153.507 Y-6.65 Z-2.054
N10460 X154.283 Y-6.699 Z-2.051
N10465 X154.824 Y-6.744
N10470 X155.48 Y-6.807 Z-2.044
N10475 X156.133 Y-6.885 Z-2.037
N10480 X156.53 Y-6.936 Z-2.028
N10485 X156.783 Y-6.973 Z-2.026
N10490 X157.431 Y-7.075 Z-2.013
N10495 X157.652 Y-7.112 Z-2.006
N10500 X158.073 Y-7.191 Z-1.999
N10505 X158.76 Y-7.329 Z-1.978
N10510 X159.352 Y-7.464 Z-1.961
N10515 X159.986 Y-7.624 Z-1.941
N10520 X160.412 Y-7.743 Z-1.924
N10525 X160.615 Y-7.801 Z-1.918
N10530 X160.958 Y-7.905 Z-1.904
N10535 X161.241 Y-7.995 Z-1.894
N10540 X161.497 Y-8.079 Z-1.882
N10545 X161.863 Y-8.206 Z-1.869
N10550 X162.033 Y-8.267 Z-1.86
N10555 X162.562 Y-8.467 Z-1.838
N10560 X163.093 Y-8.684 Z-1.815
N10565 X163.699 Y-8.952 Z-1.789
N10570 X164.117 Y-9.153 Z-1.766
N10575 X164.424 Y-9.311 Z-1.749
N10580 X164.62 Y-9.415 Z-1.736
N10585 X164.784 Y-9.504 Z-1.728
N10590 X165.139 Y-9.705 Z-1.705
N10595 X165.6 Y-9.984 Z-1.674
N10600 X165.836 Y-10.134 Z-1.66
N10605 X166.076 Y-10.292 Z-1.642
N10610 X166.177 Y-10.36 Z-1.636
N10615 X166.544 Y-10.616 Z-1.609
N10620 X166.999 Y-10.956 Z-1.574
N10625 X167.172 Y-11.09 Z-1.565
N10630 X167.448 Y-11.313 Z-1.541
N10635 X167.872 Y-11.671 Z-1.511
N10640 X167.885 Y-11.683 Z-1.51
N10645 X168.157 Y-11.931 Z-1.49
N10650 X168.422 Y-12.18 Z-1.476
N10655 X168.677 Y-12.438 Z-1.459
N10660 X168.929 Y-12.701 Z-1.447
N10665 X168.996 Y-12.773 Z-1.446
N10670 X169.4 Y-13.234 Z-1.426
N10675 X169.54 Y-13.402 Z-1.425
N10680 X169.844 Y-13.784 Z-1.413
N10685 X170.05 Y-14.06
N10690 X170.257 Y-14.349 Z-1.407
N10695 X170.525 Y-14.745 Z-1.41
N10700 X170.646 Y-14.931 Z-1.407
N10705 X171.006 Y-15.527 Z-1.415
N10710 X171.363 Y-16.185 Z-1.43
N10715 X171.645 Y-16.766 Z-1.444
N10720 X171.723 Y-16.936 Z-1.453
N10725 X171.926 Y-17.406 Z-1.466
N10730 X172.045 Y-17.702 Z-1.482
N10735 X172.18 Y-18.059 Z-1.494
N10740 X172.317 Y-18.448 Z-1.515
N10745 X172.388 Y-18.728 Z-1.505
N10750 X172.466 Y-19.067 Z-1.499
N10755 X172.542 Y-19.414 Z-1.491
N10760 X172.606 Y-19.735 Z-1.49
N10765 X172.674 Y-20.105 Z-1.486
N10770 X172.724 Y-20.408 Z-1.489
N10775 X172.784 Y-20.801
N10780 X172.821 Y-21.085 Z-1.494
N10785 X172.87 Y-21.502 Z-1.498
N10790 X172.896 Y-21.764 Z-1.505
N10795 X172.933 Y-22.207 Z-1.512
N10800 X172.948 Y-22.444 Z-1.52
N10805 X172.971 Y-22.916 Z-1.53
N10810 X172.977 Y-23.122 Z-1.538
N10815 X172.982 Y-23.628 Z-1.55
N10820 X172.981 Y-23.798 Z-1.557
N10825 X172.967 Y-24.341 Z-1.572
N10830 X172.961 Y-24.472 Z-1.578
N10835 X172.917 Y-25.139 Z-1.597
N10840 X172.848 Y-25.801 Z-1.615
N10845 X172.749 Y-26.473 Z-1.631
N10850 X172.615 Y-27.175 Z-1.644
N10855 X172.48 Y-27.748 Z-1.652
N10860 X172.448 Y-27.87 Z-1.651
N10865 X172.303 Y-28.382 Z-1.655
N10870 X172.249 Y-28.554 Z-1.652
N10875 X172.098 Y-29.005
N10880 X172.015 Y-29.226 Z-1.644
N10885 X171.902 Y-29.507 Z-1.638
N10890 X171.742 Y-29.88 Z-1.622
N10895 X171.683 Y-30.008 Z-1.618
N10900 X171.437 Y-30.516 Z-1.591
N10905 X171.185 Y-30.982 Z-1.564
N10910 X171.099 Y-31.131 Z-1.551
N10915 X170.905 Y-31.455 Z-1.53
N10920 X170.733 Y-31.725 Z-1.505
N10925 X170.605 Y-31.918 Z-1.492
N10930 X170.337 Y-32.3 Z-1.455
N10935 X170.285 Y-32.371 Z-1.45
N10940 X170.133 Y-32.567 Z-1.431
N10945 X169.922 Y-32.828 Z-1.412
N10950 X169.703 Y-33.077 Z-1.393
N10955 X169.569 Y-33.223 Z-1.385
N10960 X169.478 Y-33.319 Z-1.377
N10965 X169.246 Y-33.552 Z-1.363
N10970 X169.176 Y-33.62 Z-1.361
N10975 X169.008 Y-33.776 Z-1.35
N10980 X168.76 Y-33.998 Z-1.341
N10985 X168.513 Y-34.202 Z-1.332
N10990 X168.258 Y-34.403 Z-1.326
N10995 X167.996 Y-34.595 Z-1.321
N11000 X167.869 Y-34.685
N11005 X167.73 Y-34.78 Z-1.318
N11010 X167.398 Y-34.995
N11015 X167.18 Y-35.126 Z-1.317
N11020 X166.899 Y-35.288 Z-1.32
N11025 X166.612 Y-35.44 Z-1.322
N11030 X166.331 Y-35.581 Z-1.327
N11035 X166.321 Y-35.585
N11040 X166.026 Y-35.722 Z-1.333
N11045 X165.898 Y-35.779 Z-1.338
N11050 X165.721 Y-35.853 Z-1.341
N11055 X165.374 Y-35.989 Z-1.355
N11060 X165.111 Y-36.086 Z-1.359
N11065 X164.843 Y-36.175 Z-1.373
N11070 X164.487 Y-36.285 Z-1.383
N11075 X164.304 Y-36.336 Z-1.394
N11080 X163.85 Y-36.451 Z-1.411
N11085 X163.76 Y-36.472 Z-1.417
N11090 X163.204 Y-36.583 Z-1.444
N11095 X162.579 Y-36.673 Z-1.477
N11100 X162.55 Y-36.676 Z-1.478
N11105 X162.106 Y-36.718 Z-1.507
N11110 X161.889 Y-36.733 Z-1.517
N11115 X161.552 Y-36.747 Z-1.542
N11120 X161.285 Y-36.752 Z-1.556
N11125 X161.001 Y-36.77 Z-1.558
N11130 X160.826 Y-36.777 Z-1.555
N11135 X160.452 Y-36.786 Z-1.556
N11140 X160.339 Z-1.554
N11145 X159.851 Y-36.774 Z-1.553
N11150 X159.354 Y-36.742 Z-1.552
N11155 X158.807 Y-36.681 Z-1.55
N11160 X158.386 Y-36.615 Z-1.547
N11165 X158.264 Y-36.593 Z-1.549
N11170 X157.903 Y-36.519 Z-1.545
N11175 X157.724 Y-36.478 Z-1.547
N11180 X157.368 Y-36.387 Z-1.546
N11185 X156.953 Y-36.259 Z-1.542
N11190 X156.683 Y-36.162 Z-1.541
N11195 X156.49 Y-36.088 Z-1.536
N11200 X156.35 Y-36.03
N11205 X156.023 Y-35.886 Z-1.529
N11210 X155.706 Y-35.726 Z-1.523
N11215 X155.598 Y-35.669 Z-1.519
N11220 X155.395 Y-35.554 Z-1.517
N11225 X155.169 Y-35.419 Z-1.509
N11230 X155.09 Y-35.369
N11235 X154.756 Y-35.145 Z-1.501
N11240 X154.505 Y-34.959 Z-1.499
N11245 X154.357 Y-34.845 Z-1.494
N11250 X154.225 Y-34.736 Z-1.495
N11255 X153.952 Y-34.501 Z-1.491
N11260 X153.636 Y-34.2 Z-1.488
N11265 X153.436 Y-33.996 Z-1.489
N11270 X153.312 Y-33.864 Z-1.487
N11275 X153.189 Y-33.728 Z-1.489
N11280 X153.004 Y-33.515 Z-1.487
N11285 X152.952 Y-33.452 Z-1.488
N11290 X152.712 Y-33.153
N11295 X152.437 Y-32.779 Z-1.489
N11300 X152.293 Y-32.57 Z-1.492
N11305 X152.177 Y-32.396
N11310 X152.091 Y-32.261 Z-1.494
N11315 X151.898 Y-31.945 Z-1.497
N11320 X151.701 Y-31.6 Z-1.501
N11325 X151.487 Y-31.19 Z-1.506
N11330 X151.376 Y-30.964 Z-1.51
N11335 X151.286 Y-30.772 Z-1.512
N11340 X151.221 Y-30.627 Z-1.515
N11345 X151.075 Y-30.29 Z-1.521
N11350 X150.929 Y-29.918 Z-1.524
N11355 X150.81 Y-29.598 Z-1.533
N11360 X150.772 Y-29.486
N11365 X150.629 Y-29.048 Z-1.541
N11370 X150.583 Y-28.901 Z-1.546
N11375 X150.501 Y-28.608 Z-1.548
N11380 X150.413 Y-28.279 Z-1.556
N11385 X150.403 Y-28.178 Z-1.541
N11390 X150.399 Y-28.101 Z-1.532
N11395 X150.4 Y-28.024 Z-1.53
N11400 X150.422 Y-27.726 Z-1.523
N11405 X150.455 Y-27.41 Z-1.514
N11410 X150.501 Y-27.089 Z-1.505
N11415 X150.504 Y-27.07
N11420 X150.559 Y-26.767 Z-1.496
N11425 X150.583 Y-26.655 Z-1.495
N11430 X150.631 Y-26.447 Z-1.487
N11435 X150.664 Y-26.315 Z-1.485
N11440 X150.715 Y-26.128 Z-1.479
N11445 X150.76 Y-25.978 Z-1.477
N11450 X150.813 Y-25.814 Z-1.471
N11455 X150.871 Y-25.646 Z-1.47
N11460 X150.926 Y-25.502 Z-1.465
N11465 X151. Y-25.321 Z-1.464
N11470 X151.054 Y-25.196 Z-1.461
N11475 X151.143 Y-25.003
N11480 X151.196 Y-24.897 Z-1.459
N11485 X151.304 Y-24.695 Z-1.462
N11490 X151.355 Y-24.604 Z-1.461
N11495 X151.481 Y-24.398 Z-1.465
N11500 X151.531 Y-24.32
N11505 X151.674 Y-24.114 Z-1.473
N11510 X151.725 Y-24.045 Z-1.474
N11515 X151.884 Y-23.844 Z-1.485
N11520 X151.938 Y-23.781 Z-1.487
N11525 X152.111 Y-23.591 Z-1.502
N11530 X152.173 Y-23.526 Z-1.505
N11535 X152.349 Y-23.358 Z-1.522
N11540 X152.43 Y-23.287 Z-1.527
N11545 X152.463 Y-23.258 Z-1.529
N11550 X152.584 Y-23.169 Z-1.54
N11555 X152.691 Y-23.096 Z-1.546
N11560 X152.829 Y-23.013 Z-1.554
N11565 X152.914 Y-22.966 Z-1.556
N11570 X153.074 Y-22.889 Z-1.562
N11575 X153.11 Y-22.874 Z-1.561
N11580 X153.343 Y-22.784 Z-1.564
N11585 X153.591 Y-22.712 Z-1.562
N11590 X153.836 Y-22.661 Z-1.557
N11595 X153.863 Y-22.655 Z-1.556
N11600 X154.083 Y-22.626 Z-1.549
N11605 X154.194 Y-22.614 Z-1.546
N11610 X154.329 Y-22.606 Z-1.539
N11615 X154.5 Y-22.602 Z-1.534
N11620 X154.807 Y-22.606 Z-1.516
N11625 X155.136 Y-22.634 Z-1.498
N11630 X155.288 Y-22.653 Z-1.486
N11635 X155.46 Y-22.68 Z-1.477
N11640 X155.753 Y-22.734 Z-1.455
N11645 X156.111 Y-22.822 Z-1.431
N11650 X156.199 Y-22.846 Z-1.422
N11655 X156.269 Y-22.868 Z-1.419
N11660 X156.427 Y-22.926 Z-1.418
N11665 X156.566 Y-22.981 Z-1.413
N11670 X156.73 Y-23.055 Z-1.417
N11675 X156.892 Y-23.134 Z-1.418
N11680 X157.015 Y-23.202 Z-1.426
N11685 X157.163 Y-23.288 Z-1.432
N11690 X157.202 Y-23.312 Z-1.433
N11695 X157.302 Y-23.381 Z-1.439
N11700 X157.437 Y-23.481 Z-1.444
N11705 X157.523 Y-23.551 Z-1.446
N11710 X157.692 Y-23.704 Z-1.453
N11715 X157.753 Y-23.762 Z-1.454
N11720 X157.782 Y-23.792 Z-1.455
N11725 X157.989 Y-24.027 Z-1.459
N11730 X158.016 Y-24.059 Z-1.46
N11735 X158.201 Y-24.313 Z-1.464
N11740 X158.222 Y-24.344 Z-1.465
N11745 X158.385 Y-24.615
N11750 X158.404 Y-24.649 Z-1.466
N11755 X158.544 Y-24.942 Z-1.464
N11760 X158.668 Y-25.266 Z-1.46
N11765 X158.764 Y-25.606 Z-1.451
N11770 X158.8 Y-25.787 Z-1.446
N11775 X158.827 Y-25.952 Z-1.437
N11780 X158.844 Y-26.118 Z-1.429
N11785 X158.856 Y-26.285 Z-1.417
N11790 X158.858 Y-26.451 Z-1.405
N11795 X158.853 Y-26.616 Z-1.391
N11800 X158.851 Y-26.647 Z-1.387
N11805 X158.838 Y-26.782 Z-1.375
N11810 X158.816 Y-26.948 Z-1.357
N11815 X158.809 Y-26.989 Z-1.351
N11820 X158.784 Y-27.114 Z-1.338
N11825 X158.743 Y-27.28 Z-1.315
N11830 X158.707 Y-27.412 Z-1.291
N11835 X158.636 Y-27.617 Z-1.254
N11840 X158.568 Y-27.791 Z-1.215
N11845 X158.559 Y-27.814 Z-1.209
N11850 X158.531 Y-27.9 Z-1.179
N11855 X158.53 Y-27.906 Z-1.176
N11860 X158.519 Y-27.919 Z-1.162
N11865 X158.512 Y-27.928 Z-1.151
N11870 X158.519 Y-27.919 Z-1.162
N11875 X158.53 Y-27.906 Z-1.176
N11880 X158.542 Y-27.933 Z-1.15
N11885 X158.622 Y-28.075 Z-1.001
N11890 Z5.
N11895 X197.607 Y18.856
N11900 Z4.
N11905 Z-1.001
N11910 X197.671 Y19.083 Z-1.235
N11915 X197.685 Y19.124 Z-1.277
N11920 X197.686 Y19.12 Z-1.273
N11925 X197.685 Y19.124 Z-1.277
N11930 X197.686 Y19.156 Z-1.304
N11935 X197.681 Y19.21 Z-1.345
N11940 X197.671 Y19.266 Z-1.384
N11945 X197.614 Y19.433 Z-1.485
N11950 X197.49 Y19.848 Z-1.735
N11955 X197.424 Y20.087 Z-1.874
N11960 X197.326 Y20.492 Z-2.106
N11965 X197.269 Y20.758 Z-2.253
N11970 X197.212 Y21.083 Z-2.428
N11975 X197.172 Y21.353 Z-2.567
N11980 X197.143 Y21.6 Z-2.688
N11985 X197.123 Y21.826 Z-2.791
N11990 X197.114 Y21.985 Z-2.86
N11995 X197.111 Y22.201 Z-2.948
N12000 X197.116 Y22.359 Z-3.006
N12005 X197.126 Y22.494 Z-3.05
N12010 X197.14 Y22.61 Z-3.083
N12015 X197.145 Y22.639 Z-3.09
N12020 X197.408 Y23.322 Z-3.116
N12025 X197.707 Y24.083 Z-3.136
N12030 X197.881 Y24.539 Z-3.141
N12035 X198.046 Y24.983 Z-3.137
N12040 X198.199 Y25.413 Z-3.126
N12045 X198.339 Y25.829 Z-3.104
N12050 X198.465 Y26.235 Z-3.072
N12055 X198.577 Y26.632 Z-3.03
N12060 X198.674 Y27.024 Z-2.975
N12065 X198.758 Y27.414 Z-2.907
N12070 X198.885 Y28.169 Z-2.745
N12075 X198.915 Y28.385 Z-2.692
N12080 X198.939 Y28.609 Z-2.631
N12085 X198.957 Y28.839 Z-2.563
N12090 X198.969 Y29.078 Z-2.486
N12095 X198.976 Y29.325 Z-2.401
N12100 Y29.581 Z-2.307
N12105 X198.969 Y29.849 Z-2.202
N12110 X198.956 Y30.128 Z-2.087
N12115 X198.936 Y30.415 Z-1.962
N12120 X198.908 Y30.713 Z-1.826
N12125 X198.885 Y30.903 Z-1.735
N12130 X198.867 Y31.02 Z-1.683
N12135 X198.823 Y31.232 Z-1.589
N12140 X198.798 Y31.322 Z-1.555
N12145 X198.745 Y31.488 Z-1.489
N12150 X198.701 Y31.615 Z-1.441
N12155 X198.622 Y31.828 Z-1.356
N12160 X198.581 Y31.959 Z-1.296
N12165 X198.571 Y31.998 Z-1.276
N12170 X198.565 Y32.037 Z-1.253
N12175 X198.562 Y32.075 Z-1.228
N12180 X198.563 Y32.122 Z-1.194
N12185 X198.574 Y32.202 Z-1.13
N12190 X198.609 Y32.351 Z-1.001
N12195 Z5.
N12200 X199.534 Y33.118
N12205 Z4.
N12210 Z-1.001
N12215 X199.624 Y33.015 Z-1.116
N12220 X199.683 Y32.961 Z-1.179
N12225 X199.727 Y32.927 Z-1.219
N12230 X199.762 Y32.906 Z-1.246
N12235 X199.874 Y32.85 Z-1.317
N12240 X200.004 Y32.796 Z-1.385
N12245 X200.16 Y32.737 Z-1.458
N12250 X200.4 Y32.639 Z-1.569
N12255 X200.432 Y32.624 Z-1.585
N12260 X200.567 Y32.558 Z-1.65
N12265 X200.688 Y32.492 Z-1.716
N12270 X200.732 Y32.465 Z-1.74
N12275 X200.873 Y32.371 Z-1.826
N12280 X200.928 Y32.335 Z-1.859
N12285 X201.152 Y32.179 Z-1.99
N12290 X201.419 Y31.982 Z-2.142
N12295 X201.564 Y31.867 Z-2.225
N12300 X201.754 Y31.709 Z-2.331
N12305 X201.946 Y31.54 Z-2.435
N12310 X202.107 Y31.388 Z-2.524
N12315 X202.274 Y31.224 Z-2.613
N12320 X202.435 Y31.058 Z-2.698
N12325 X202.59 Y30.888 Z-2.78
N12330 X202.74 Y30.717 Z-2.856
N12335 X202.886 Y30.543 Z-2.929
N12340 X203.028 Y30.364 Z-3.001
N12345 X203.153 Y30.2 Z-3.062
N12350 X203.256 Y30.057 Z-3.11
N12355 X203.426 Y29.816 Z-3.193
N12360 X203.675 Y29.437 Z-3.308
N12365 X203.907 Y29.05 Z-3.414
N12370 X204.125 Y28.659 Z-3.506
N12375 X204.249 Y28.422 Z-3.554
N12380 X204.328 Y28.264 Z-3.588
N12385 X204.515 Y27.869 Z-3.66
N12390 X204.756 Y27.315 Z-3.742
N12395 X204.932 Y26.897 Z-3.804
N12400 X205.137 Y26.385 Z-3.872
N12405 X205.335 Y25.868 Z-3.932
N12410 X205.525 Y25.348 Z-3.985
N12415 X205.71 Y24.82 Z-4.031
N12420 X205.891 Y24.284 Z-4.071
N12425 X205.97 Y24.042 Z-4.086
N12430 X206.02 Y23.881 Z-4.098
N12435 X206.075 Y23.694 Z-4.115
N12440 X206.111 Y23.578 Z-4.121
N12445 X206.153 Y23.455 Z-4.125
N12450 X206.198 Y23.329 Z-4.126
N12455 X206.249 Y23.197 Z-4.124
N12460 X206.295 Y23.083 Z-4.118
N12465 X206.349 Y22.957 Z-4.109
N12470 X206.409 Y22.824 Z-4.096
N12475 X206.486 Y22.664 Z-4.076
N12480 X206.538 Y22.559 Z-4.06
N12485 X206.609 Y22.422 Z-4.036
N12490 X206.682 Y22.287 Z-4.009
N12495 X206.763 Y22.145 Z-3.977
N12500 X206.842 Y22.007 Z-3.942
N12505 X206.926 Y21.869 Z-3.903
N12510 X207.072 Y21.637 Z-3.832
N12515 X207.418 Y21.078 Z-3.666
N12520 X207.657 Y20.685 Z-3.546
N12525 X207.933 Y20.241 Z-3.403
N12530 X208.217 Y19.792 Z-3.251
N12535 X208.505 Y19.346 Z-3.091
N12540 X208.805 Y18.894 Z-2.921
N12545 X208.886 Y18.781 Z-2.878
N12550 X208.97 Y18.671 Z-2.84
N12555 X209.121 Y18.491 Z-2.784
N12560 X209.512 Y18.052 Z-2.642
N12565 X209.814 Y17.734 Z-2.536
N12570 X209.979 Y17.568 Z-2.475
N12575 X210.178 Y17.373 Z-2.407
N12580 X210.462 Y17.108 Z-2.304
N12585 X210.554 Y17.024 Z-2.272
N12590 X210.958 Y16.674 Z-2.124
N12595 X211.35 Y16.358 Z-1.978
N12600 X211.47 Y16.267 Z-1.931
N12605 X211.777 Y16.038 Z-1.813
N12610 X212. Y15.882 Z-1.722
N12615 X212.226 Y15.726 Z-1.633
N12620 X212.869 Y15.312 Z-1.361
N12625 X212.96 Y15.26 Z-1.319
N12630 X213.051 Y15.213 Z-1.273
N12635 X213.081 Y15.2 Z-1.257
N12640 X213.141 Y15.168 Z-1.215
N12645 X213.198 Y15.134 Z-1.165
N12650 X213.2 Z-1.164
N12655 Z5.
N12660 X202.012 Y34.279
N12665 Z4.
N12670 Z-1.129
N12675 X202.024 Y34.277 Z-1.141
N12680 X202.048 Y34.274 Z-1.161
N12685 X202.072 Y34.272 Z-1.178
N12690 X202.139 Y34.266 Z-1.216
N12695 X202.159 Y34.261 Z-1.224
N12700 X202.244 Y34.248 Z-1.25
N12705 X202.323 Y34.242 Z-1.268
N12710 X202.414 Y34.246 Z-1.279
N12715 X202.79 Y34.252 Z-1.331
N12720 X203.176 Y34.246 Z-1.396
N12725 X203.567 Y34.228 Z-1.476
N12730 X203.964 Y34.196 Z-1.568
N12735 X204.367 Y34.15 Z-1.674
N12740 X204.776 Y34.089 Z-1.792
N12745 X205.11 Y34.03 Z-1.897
N12750 X205.193 Y34.014 Z-1.923
N12755 X205.6 Y33.925 Z-2.06
N12760 X206.049 Y33.808 Z-2.22
N12765 X206.484 Y33.677 Z-2.384
N12770 X206.922 Y33.526 Z-2.556
N12775 X206.999 Y33.498 Z-2.588
N12780 X207.369 Y33.349 Z-2.74
N12785 X207.812 Y33.15 Z-2.927
N12790 X208.22 Y32.944 Z-3.105
N12795 X208.252 Y32.926 Z-3.118
N12800 X208.578 Y32.739 Z-3.264
N12805 X208.694 Y32.668 Z-3.314
N12810 X208.913 Y32.528 Z-3.414
N12815 X209.121 Y32.384 Z-3.507
N12820 X209.647 Y32.009 Z-3.745
N12825 X209.98 Y31.759 Z-3.889
N12830 X210.301 Y31.508 Z-4.022
N12835 X210.609 Y31.257 Z-4.145
N12840 X210.909 Y31.008 Z-4.254
N12845 X211.201 Y30.756 Z-4.355
N12850 X211.325 Y30.645 Z-4.395
N12855 X211.489 Y30.502 Z-4.445
N12860 X211.771 Y30.247 Z-4.526
N12865 X211.938 Y30.092 Z-4.57
N12870 X212.052 Y29.988 Z-4.598
N12875 X212.332 Y29.727 Z-4.66
N12880 X212.524 Y29.541 Z-4.699
N12885 X212.784 Y29.293 Z-4.743
N12890 X212.885 Y29.197 Z-4.757
N12895 X213.047 Y29.04 Z-4.777
N12900 X213.166 Y28.926 Z-4.79
N12905 X213.306 Y28.79 Z-4.803
N12910 X213.451 Y28.652 Z-4.813
N12915 X213.56 Y28.545 Z-4.818
N12920 X213.737 Y28.377 Z-4.824
N12925 X214.029 Y28.098 Z-4.823
N12930 X214.094 Y28.035 Z-4.821
N12935 X214.225 Y27.905 Z-4.82
N12940 X214.547 Y27.573 Z-4.818
N12945 X214.826 Y27.285 Z-4.806
N12950 X215.11 Y26.997 Z-4.782
N12955 X215.397 Y26.706 Z-4.746
N12960 X215.692 Y26.415 Z-4.701
N12965 X215.815 Y26.297 Z-4.68
N12970 X215.991 Y26.122 Z-4.644
N12975 X216.294 Y25.831 Z-4.578
N12980 X216.458 Y25.677 Z-4.538
N12985 X216.604 Y25.537 Z-4.5
N12990 X216.92 Y25.242 Z-4.411
N12995 X217.129 Y25.053 Z-4.349
N13000 X217.241 Y24.947 Z-4.312
N13005 X217.569 Y24.651 Z-4.201
N13010 X217.827 Y24.425 Z-4.109
N13015 X218.246 Y24.058 Z-3.945
N13020 X218.556 Y23.796 Z-3.819
N13025 X218.955 Y23.462 Z-3.643
N13030 X219.252 Y23.222 Z-3.507
N13035 X219.45 Y23.053 Z-3.402
N13040 X219.551 Y22.969 Z-3.35
N13045 X219.653 Y22.889 Z-3.301
N13050 X219.94 Y22.676 Z-3.167
N13055 X220.093 Y22.569 Z-3.1
N13060 X220.425 Y22.358 Z-2.964
N13065 X220.503 Y22.31 Z-2.933
N13070 X220.892 Y22.096 Z-2.79
N13075 X221.038 Y22.023 Z-2.739
N13080 X221.346 Y21.879 Z-2.639
N13085 X221.471 Y21.825 Z-2.599
N13090 X221.817 Y21.688 Z-2.497
N13095 X222.214 Y21.554 Z-2.388
N13100 X222.278 Y21.534 Z-2.372
N13105 X222.629 Y21.436 Z-2.282
N13110 X222.699 Y21.418 Z-2.265
N13115 X223.032 Y21.341 Z-2.185
N13120 X223.228 Y21.301 Z-2.141
N13125 X223.43 Y21.264 Z-2.093
N13130 X223.715 Y21.218 Z-2.031
N13135 X223.815 Y21.205 Z-2.007
N13140 X224.194 Y21.159 Z-1.924
N13145 X224.709 Y21.12 Z-1.812
N13150 X224.916 Y21.109 Z-1.763
N13155 X225.218 Y21.098 Z-1.697
N13160 X225.602 Y21.094 Z-1.606
N13165 X225.738 Y21.09 Z-1.572
N13170 X225.84 Y21.093 Z-1.546
N13175 X226. Y21.104 Z-1.514
N13180 X226.064 Y21.111 Z-1.503
N13185 X226.22 Y21.131 Z-1.48
N13190 X226.425 Y21.172 Z-1.456
N13195 X226.754 Y21.258 Z-1.435
N13200 X226.818 Y21.278 Z-1.43
N13205 X227.13 Y21.383 Z-1.416
N13210 X227.355 Y21.46 Z-1.405
N13215 X227.426 Y21.488 Z-1.399
N13220 X227.542 Y21.528 Z-1.385
N13225 X227.688 Y21.587 Z-1.357
N13230 X227.771 Y21.621 Z-1.333
N13235 X227.832 Y21.649 Z-1.308
N13240 X227.887 Y21.677 Z-1.279
N13245 X227.944 Y21.71 Z-1.241
N13250 X228.015 Y21.757 Z-1.185
N13255 X228.127 Y21.835 Z-1.079
N13260 X228.201 Y21.894 Z-1.001
N13265 Z5.
N13270 X201.758 Y35.454
N13275 Z4.
N13280 Z-1.001
N13285 X201.853 Y35.544 Z-1.129
N13290 X201.808 Y35.421 Z-1.001
N13295 X201.853 Y35.544 Z-1.129
N13300 X201.857 Y35.551 Z-1.135
N13305 X201.873 Y35.568 Z-1.154
N13310 X201.878 Y35.572 Z-1.159
N13315 X201.891 Y35.585 Z-1.17
N13320 X201.909 Y35.599 Z-1.18
N13325 X201.921 Y35.606 Z-1.185
N13330 X201.958 Y35.62 Z-1.193
N13335 X202.004 Y35.641 Z-1.205
N13340 X202.475 Y35.888 Z-1.369
N13345 X203.103 Y36.206 Z-1.593
N13350 X203.741 Y36.515 Z-1.822
N13355 X203.961 Y36.619 Z-1.904
N13360 X204.387 Y36.815 Z-2.056
N13365 X205.043 Y37.106 Z-2.296
N13370 X205.706 Y37.386 Z-2.539
N13375 X205.961 Y37.49 Z-2.634
N13380 X206.378 Y37.656 Z-2.784
N13385 X207.056 Y37.916 Z-3.032
N13390 X207.741 Y38.163 Z-3.278
N13395 X207.958 Y38.239 Z-3.358
N13400 X208.449 Y38.403 Z-3.53
N13405 X208.944 Y38.562 Z-3.708
N13410 X209.925 Y38.859 Z-4.045
N13415 X210.389 Y38.987 Z-4.202
N13420 X210.86 Y39.112 Z-4.357
N13425 X211.325 Y39.229 Z-4.506
N13430 X211.783 Y39.336 Z-4.651
N13435 X212.234 Y39.436 Z-4.788
N13440 X212.68 Y39.528 Z-4.92
N13445 X213.119 Y39.611 Z-5.047
N13450 X213.549 Y39.687 Z-5.166
N13455 X214.028 Y39.764 Z-5.291
N13460 X214.392 Y39.816 Z-5.385
N13465 X214.804 Y39.869 Z-5.485
N13470 X215.208 Y39.916 Z-5.577
N13475 X215.608 Y39.955 Z-5.664
N13480 X216.002 Y39.987 Z-5.745
N13485 X216.392 Y40.013 Z-5.819
N13490 X216.758 Y40.031 Z-5.883
N13495 X217.108 Y40.042 Z-5.937
N13500 X217.442 Y40.046 Z-5.982
N13505 X217.735 Y40.043 Z-6.016
N13510 X217.98 Y40.034 Z-6.037
N13515 X218.262 Y40.014 Z-6.052
N13520 X218.39 Y39.998
N13525 X218.472 Y39.985 Z-6.049
N13530 X218.676 Y39.944 Z-6.034
N13535 X220.139 Y39.657 Z-5.929
N13540 X220.584 Y39.568 Z-5.895
N13545 X221.802 Y39.329 Z-5.794
N13550 X223.047 Y39.09 Z-5.677
N13555 X223.248 Y39.048 Z-5.659
N13560 X223.774 Y38.933 Z-5.619
N13565 X224.197 Y38.85 Z-5.577
N13570 X224.625 Y38.776 Z-5.525
N13575 X225.058 Y38.71 Z-5.461
N13580 X225.498 Y38.653 Z-5.386
N13585 X225.947 Y38.604 Z-5.3
N13590 X226.406 Y38.564 Z-5.204
N13595 X226.873 Y38.533 Z-5.095
N13600 X227.352 Y38.511 Z-4.975
N13605 X227.843 Y38.498 Z-4.841
N13610 X228.347 Y38.493 Z-4.694
N13615 X228.863 Y38.498 Z-4.533
N13620 X229.393 Y38.513 Z-4.358
N13625 X229.934 Y38.539 Z-4.17
N13630 X230.49 Y38.576 Z-3.967
N13635 X230.857 Y38.609 Z-3.828
N13640 X231.056 Y38.634 Z-3.76
N13645 X231.624 Y38.722 Z-3.559
N13650 X231.754 Y38.747 Z-3.513
N13655 X232.307 Y38.863 Z-3.321
N13660 X232.461 Y38.9 Z-3.267
N13665 X232.765 Y38.979 Z-3.166
N13670 X233.001 Y39.044 Z-3.084
N13675 X233.132 Y39.083 Z-3.04
N13680 X233.336 Y39.146 Z-2.974
N13685 X233.77 Y39.292 Z-2.827
N13690 X233.905 Y39.341 Z-2.785
N13695 X234.378 Y39.524 Z-2.628
N13700 X234.469 Y39.562 Z-2.6
N13705 X234.957 Y39.777 Z-2.442
N13710 X235.026 Y39.81 Z-2.421
N13715 X235.509 Y40.049 Z-2.266
N13720 X235.575 Y40.084 Z-2.246
N13725 X236.038 Y40.339 Z-2.099
N13730 X236.116 Y40.384 Z-2.076
N13735 X236.544 Y40.644 Z-1.942
N13740 X236.646 Y40.709 Z-1.912
N13745 X237.03 Y40.964 Z-1.791
N13750 X237.164 Y41.058 Z-1.751
N13755 X237.495 Y41.298 Z-1.647
N13760 X237.669 Y41.43 Z-1.595
N13765 X237.941 Y41.644 Z-1.508
N13770 X238.161 Y41.825 Z-1.442
N13775 X238.369 Y42.002 Z-1.375
N13780 X238.639 Y42.241 Z-1.293
N13785 X238.78 Y42.371 Z-1.246
N13790 X239.173 Y42.749 Z-1.121
N13795 X239.548 Y43.135 Z-1.
N13800 Z5.
N13805 X201.724 Y37.695
N13810 Z4.
N13815 Z-1.001
N13820 X201.843 Y37.803 Z-1.082
N13825 X201.939 Y37.904 Z-1.143
N13830 X202.02 Y38.001 Z-1.191
N13835 X202.092 Y38.098 Z-1.23
N13840 X202.159 Y38.2 Z-1.264
N13845 X202.222 Y38.304 Z-1.293
N13850 X202.354 Y38.543 Z-1.346
N13855 X202.631 Y39.066 Z-1.44
N13860 X202.79 Y39.345 Z-1.5
N13865 X202.894 Y39.51 Z-1.544
N13870 X202.985 Y39.642 Z-1.587
N13875 X203.321 Y40.127 Z-1.732
N13880 X203.646 Y40.585 Z-1.876
N13885 X204.024 Y41.092 Z-2.034
N13890 X204.337 Y41.501 Z-2.169
N13895 X204.768 Y42.038 Z-2.345
N13900 X205.053 Y42.386 Z-2.465
N13905 X205.552 Y42.965 Z-2.663
N13910 X205.792 Y43.238 Z-2.762
N13915 X205.959 Y43.422 Z-2.825
N13920 X206.377 Y43.873 Z-2.987
N13925 X206.55 Y44.057 Z-3.056
N13930 X206.803 Y44.315 Z-3.148
N13935 X207.335 Y44.846 Z-3.35
N13940 X207.667 Y45.168 Z-3.468
N13945 X208.117 Y45.585 Z-3.63
N13950 X208.514 Y45.945 Z-3.767
N13955 X208.585 Y46.008 Z-3.79
N13960 X208.914 Y46.292 Z-3.903
N13965 X209.317 Y46.631 Z-4.035
N13970 X209.537 Y46.813 Z-4.104
N13975 X209.613 Y46.875 Z-4.129
N13980 X210.13 Y47.282 Z-4.293
N13985 X210.523 Y47.584 Z-4.41
N13990 X210.944 Y47.892 Z-4.535
N13995 X211.354 Y48.185 Z-4.651
N14000 X211.624 Y48.371 Z-4.723
N14005 X212.176 Y48.738 Z-4.872
N14010 X212.584 Y49.001 Z-4.974
N14015 X212.999 Y49.255 Z-5.076
N14020 X213.413 Y49.501 Z-5.172
N14025 X213.743 Y49.691 Z-5.244
N14030 X214.092 Y49.883 Z-5.32
N14035 X214.345 Y50.017 Z-5.37
N14040 X214.599 Y50.147 Z-5.416
N14045 X214.749 Y50.221 Z-5.44
N14050 X215.106 Y50.389 Z-5.498
N14055 X215.36 Y50.502 Z-5.535
N14060 X215.619 Y50.613 Z-5.567
N14065 X215.87 Y50.718 Z-5.596
N14070 X216.14 Y50.823 Z-5.625
N14075 X216.378 Y50.912 Z-5.647
N14080 X216.941 Y51.11 Z-5.689
N14085 X217.486 Y51.282 Z-5.719
N14090 X217.613 Y51.318 Z-5.723
N14095 X218.027 Y51.494 Z-5.682
N14100 X218.576 Y51.716 Z-5.611
N14105 X219.141 Y51.931 Z-5.524
N14110 X219.723 Y52.139 Z-5.421
N14115 X220.321 Y52.338 Z-5.302
N14120 X220.933 Y52.528 Z-5.169
N14125 X221.562 Y52.708 Z-5.019
N14130 X222.206 Y52.879 Z-4.855
N14135 X222.935 Y53.055 Z-4.657
N14140 X223.059 Y53.085 Z-4.624
N14145 X223.498 Y53.205 Z-4.519
N14150 X223.943 Y53.324 Z-4.416
N14155 X224.494 Y53.461 Z-4.28
N14160 X224.653 Y53.499 Z-4.241
N14165 X225.377 Y53.66 Z-4.056
N14170 X226.114 Y53.803 Z-3.86
N14175 X226.54 Y53.876 Z-3.74
N14180 X226.864 Y53.928 Z-3.653
N14185 X227.586 Y54.03 Z-3.446
N14190 X228.398 Y54.119 Z-3.21
N14195 X228.645 Y54.141 Z-3.134
N14200 X229.183 Y54.18 Z-2.975
N14205 X229.709 Y54.207 Z-2.811
N14210 X229.978 Y54.217 Z-2.731
N14215 X230.776 Y54.228 Z-2.479
N14220 X231.6 Y54.207 Z-2.217
N14225 X231.843 Y54.195 Z-2.135
N14230 X232.383 Y54.161 Z-1.959
N14235 X232.912 Y54.11 Z-1.783
N14240 X233.001 Y54.099 Z-1.755
N14245 X233.149 Y54.076 Z-1.713
N14250 X233.203 Y54.067 Z-1.699
N14255 X233.255 Y54.056 Z-1.687
N14260 X233.442 Y54.004 Z-1.645
N14265 X233.516 Y53.981 Z-1.631
N14270 X233.69 Y53.922 Z-1.603
N14275 X233.917 Y53.835 Z-1.573
N14280 X234.022 Y53.792 Z-1.563
N14285 X234.72 Y53.485 Z-1.475
N14290 X234.883 Y53.416 Z-1.447
N14295 X235.028 Y53.359 Z-1.417
N14300 X235.146 Y53.321 Z-1.385
N14305 X235.247 Y53.296 Z-1.35
N14310 X235.294 Y53.29 Z-1.329
N14315 X235.346 Y53.292 Z-1.298
N14320 X235.387 Y53.299 Z-1.269
N14325 X235.454 Y53.315 Z-1.218
N14330 X235.556 Y53.348 Z-1.134
N14335 X235.707 Y53.407 Z-1.001
N14340 Z5.
N14345 X199.775 Y37.759
N14350 Z4.
N14355 Z-1.
N14360 X200.015 Y38.605 Z-1.212
N14365 X200.196 Y39.269 Z-1.372
N14370 X200.615 Y40.779 Z-1.714
N14375 X200.962 Y41.994 Z-1.985
N14380 X201.215 Y42.852 Z-2.185
N14385 X201.484 Y43.726 Z-2.4
N14390 X201.771 Y44.616 Z-2.638
N14395 X202.02 Y45.354 Z-2.848
N14400 X202.519 Y46.865 Z-3.29
N14405 X202.789 Y47.725 Z-3.542
N14410 X203.036 Y48.537 Z-3.787
N14415 X203.194 Y49.07 Z-3.951
N14420 X203.278 Y49.363 Z-4.04
N14425 X203.486 Y50.108 Z-4.271
N14430 X203.583 Y50.424 Z-4.361
N14435 X203.693 Y50.765 Z-4.453
N14440 X203.81 Y51.103 Z-4.539
N14445 X203.93 Y51.44 Z-4.618
N14450 X204.052 Y51.767 Z-4.689
N14455 X204.178 Y52.089 Z-4.754
N14460 X204.309 Y52.409 Z-4.812
N14465 X204.444 Y52.723 Z-4.865
N14470 X204.582 Y53.031 Z-4.912
N14475 X204.712 Y53.309 Z-4.95
N14480 X204.869 Y53.637 Z-4.986
N14485 X205.015 Y53.929 Z-5.013
N14490 X205.165 Y54.218 Z-5.035
N14495 X205.321 Y54.505 Z-5.051
N14500 X205.479 Y54.786 Z-5.061
N14505 X205.641 Y55.061 Z-5.066
N14510 X205.802 Y55.327 Z-5.064
N14515 X205.97 Y55.595 Z-5.055
N14520 X206.14 Y55.857 Z-5.041
N14525 X206.312 Y56.111 Z-5.021
N14530 X206.49 Y56.364 Z-4.996
N14535 X206.671 Y56.611 Z-4.965
N14540 X206.856 Y56.854 Z-4.928
N14545 X206.995 Y57.029 Z-4.897
N14550 X207.243 Y57.337 Z-4.832
N14555 X207.44 Y57.57 Z-4.775
N14560 X207.647 Y57.804 Z-4.71
N14565 X207.863 Y58.039 Z-4.637
N14570 X208.083 Y58.269 Z-4.558
N14575 X208.313 Y58.499 Z-4.471
N14580 X208.505 Y58.682 Z-4.394
N14585 X208.825 Y58.982 Z-4.255
N14590 X209.061 Y59.196 Z-4.149
N14595 X209.403 Y59.513 Z-4.
N14600 X209.734 Y59.829 Z-3.859
N14605 X210.059 Y60.148 Z-3.725
N14610 X210.116 Y60.205 Z-3.702
N14615 X210.37 Y60.475 Z-3.591
N14620 X210.672 Y60.805 Z-3.461
N14625 X210.964 Y61.135 Z-3.338
N14630 X211.249 Y61.469 Z-3.22
N14635 X211.525 Y61.802 Z-3.109
N14640 X211.791 Y62.14 Z-3.001
N14645 X212.05 Y62.481 Z-2.898
N14650 X212.255 Y62.761 Z-2.82
N14655 X212.537 Y63.168 Z-2.708
N14660 X212.765 Y63.516 Z-2.616
N14665 X212.794 Y63.561 Z-2.604
N14670 X212.983 Y63.871 Z-2.526
N14675 X213.113 Y64.091 Z-2.473
N14680 X213.189 Y64.225 Z-2.439
N14685 X213.365 Y64.546 Z-2.364
N14690 X213.567 Y64.95 Z-2.271
N14695 X213.736 Y65.315 Z-2.188
N14700 X213.807 Y65.479 Z-2.153
N14705 X213.891 Y65.685 Z-2.106
N14710 X213.998 Y65.957 Z-2.048
N14715 X214.034 Y66.056 Z-2.024
N14720 X214.162 Y66.434 Z-1.943
N14725 X214.274 Y66.812 Z-1.861
N14730 X214.31 Y66.944 Z-1.834
N14735 X214.37 Y67.19 Z-1.779
N14740 X214.43 Y67.46 Z-1.724
N14745 X214.452 Y67.573 Z-1.698
N14750 X214.485 Y67.756 Z-1.66
N14755 X214.517 Y67.955 Z-1.615
N14760 X214.521 Y67.979 Z-1.61
N14765 X214.566 Y68.337 Z-1.533
N14770 X214.594 Y68.677 Z-1.459
N14775 X214.6 Y68.865 Z-1.413
N14780 X214.611 Y69.102 Z-1.363
N14785 X214.619 Y69.481 Z-1.289
N14790 Y69.528 Z-1.28
N14795 X214.608 Y69.709 Z-1.238
N14800 X214.587 Y69.863 Z-1.19
N14805 X214.564 Y69.964 Z-1.154
N14810 X214.538 Y70.05 Z-1.116
N14815 X214.5 Y70.144 Z-1.067
N14820 X214.447 Y70.252 Z-1.001
N14825 Z5.
N14830 X190.033 Y61.466
N14835 Z4.
N14840 Z-1.001
N14845 X190.216 Y61.413 Z-1.189
N14850 X190.244 Y61.399 Z-1.219
N14855 X190.247 Y61.403 Z-1.218
N14860 X190.298 Y61.445 Z-1.198
N14865 X190.34 Y61.47 Z-1.177
N14870 X190.364 Y61.487 Z-1.163
N14875 X190.384 Y61.498 Z-1.149
N14880 X190.405 Y61.51 Z-1.13
N14885 X190.41 Y61.512 Z-1.126
N14890 X190.42 Y61.518 Z-1.115
N14895 X190.41 Y61.512 Z-1.126
N14900 X190.405 Y61.51 Z-1.13
N14905 X190.384 Y61.498 Z-1.149
N14910 X190.364 Y61.487 Z-1.163
N14915 X190.34 Y61.47 Z-1.177
N14920 X190.298 Y61.445 Z-1.198
N14925 X190.247 Y61.403 Z-1.218
N14930 X190.244 Y61.399 Z-1.219
N14935 X190.232 Y61.355 Z-1.214
N14940 X190.227 Y61.335 Z-1.215
N14945 X190.216 Y61.299 Z-1.22
N14950 X190.202 Y61.265 Z-1.229
N14955 X190.059 Y60.948 Z-1.32
N14960 X190.023 Y60.859 Z-1.342
N14965 X189.936 Y60.642 Z-1.399
N14970 X189.826 Y60.339 Z-1.469
N14975 X189.731 Y60.035 Z-1.534
N14980 X189.675 Y59.832 Z-1.572
N14985 X189.65 Y59.732 Z-1.594
N14990 X189.585 Y59.428 Z-1.651
N14995 X189.559 Y59.29 Z-1.673
N15000 X189.533 Y59.122 Z-1.706
N15005 X189.518 Y59.004 Z-1.726
N15010 X189.493 Y58.754 Z-1.772
N15015 X189.49 Y58.708 Z-1.78
N15020 X189.478 Y58.458 Z-1.828
N15025 X189.477 Y58.402 Z-1.838
N15030 X189.479 Y58.151 Z-1.888
N15035 X189.482 Y58.086 Z-1.901
N15040 X189.498 Y57.835 Z-1.955
N15045 X189.506 Y57.757 Z-1.972
N15050 X189.538 Y57.505 Z-2.03
N15055 X189.553 Y57.418 Z-2.051
N15060 X189.579 Y57.276 Z-2.088
N15065 X189.602 Y57.164 Z-2.115
N15070 X189.624 Y57.068 Z-2.14
N15075 X189.648 Y56.974 Z-2.167
N15080 X189.713 Y56.736 Z-2.232
N15085 X189.731 Y56.679 Z-2.249
N15090 X189.854 Y56.298 Z-2.358
N15095 X189.902 Y56.139 Z-2.407
N15100 X190.033 Y55.728 Z-2.543
N15105 X190.1 Y55.532 Z-2.604
N15110 X190.221 Y55.199 Z-2.716
N15115 X190.321 Y54.941 Z-2.798
N15120 X190.425 Y54.684 Z-2.884
N15125 X190.564 Y54.359 Z-2.988
N15130 X190.643 Y54.182 Z-3.048
N15135 X190.872 Y53.695 Z-3.205
N15140 X191.114 Y53.222 Z-3.355
N15145 X191.405 Y52.694 Z-3.521
N15150 X191.627 Y52.315 Z-3.638
N15155 X191.722 Y52.16 Z-3.683
N15160 X191.896 Y51.882 Z-3.768
N15165 X192.171 Y51.461 Z-3.889
N15170 X192.451 Y51.052 Z-4.001
N15175 X192.737 Y50.657 Z-4.103
N15180 X193.028 Y50.271 Z-4.196
N15185 X193.323 Y49.894 Z-4.279
N15190 X193.683 Y49.457 Z-4.364
N15195 X193.702 Y49.439
N15200 X194.258 Y48.929
N15205 X194.495 Y48.668 Z-4.331
N15210 X194.875 Y48.225 Z-4.266
N15215 X195.254 Y47.76 Z-4.184
N15220 X195.463 Y47.491 Z-4.129
N15225 X195.585 Y47.327 Z-4.096
N15230 X195.749 Y47.1 Z-4.046
N15235 X195.955 Y46.8 Z-3.974
N15240 X196.057 Y46.647 Z-3.937
N15245 X196.2 Y46.419 Z-3.879
N15250 X196.339 Y46.19 Z-3.815
N15255 X196.475 Y45.953 Z-3.747
N15260 X196.638 Y45.646 Z-3.655
N15265 X196.817 Y45.196 Z-3.478
N15270 X196.925 Y44.915 Z-3.372
N15275 X197.139 Y44.348 Z-3.157
N15280 X197.237 Y44.073 Z-3.058
N15285 X197.439 Y43.495 Z-2.847
N15290 X197.525 Y43.232 Z-2.758
N15295 X197.703 Y42.669 Z-2.562
N15300 X197.827 Y42.245 Z-2.422
N15305 X197.942 Y41.823 Z-2.287
N15310 X198.049 Y41.405 Z-2.157
N15315 X198.147 Y40.984 Z-2.03
N15320 X198.235 Y40.567 Z-1.911
N15325 X198.312 Y40.153 Z-1.795
N15330 X198.381 Y39.739 Z-1.686
N15335 X198.437 Y39.328 Z-1.581
N15340 X198.485 Y38.918 Z-1.483
N15345 X198.52 Y38.508 Z-1.387
N15350 X198.547 Y38.079 Z-1.295
N15355 X198.549 Y38.016 Z-1.282
N15360 X198.546 Y37.959 Z-1.266
N15365 X198.537 Y37.896 Z-1.242
N15370 X198.524 Y37.837 Z-1.216
N15375 X198.51 Y37.795 Z-1.192
N15380 X198.498 Y37.773 Z-1.175
N15385 X198.47 Y37.739 Z-1.139
N15390 X198.445 Y37.718 Z-1.111
N15395 X198.349 Y37.651 Z-1.001
N15400 Z5.
N15405 X184.352 Y46.861
N15410 Z4.
N15415 Z-1.151
N15420 X184.376 Y46.846 Z-1.176
N15425 X184.461 Y46.786 Z-1.238
N15430 X184.549 Y46.735 Z-1.292
N15435 X184.649 Y46.684 Z-1.345
N15440 X184.826 Y46.601 Z-1.433
N15445 X185.204 Y46.418 Z-1.61
N15450 X185.41 Y46.314 Z-1.71
N15455 X185.591 Y46.217 Z-1.793
N15460 X185.897 Y46.044 Z-1.943
N15465 X186.34 Y45.779 Z-2.152
N15470 X186.791 Y45.48 Z-2.37
N15475 X187.069 Y45.284 Z-2.499
N15480 X187.203 Y45.187 Z-2.565
N15485 X187.595 Y44.887 Z-2.751
N15490 X187.764 Y44.751 Z-2.828
N15495 X187.969 Y44.581 Z-2.925
N15500 X188.327 Y44.271 Z-3.09
N15505 X188.669 Y43.957 Z-3.244
N15510 X188.999 Y43.639 Z-3.388
N15515 X189.317 Y43.316 Z-3.524
N15520 X189.625 Y42.99 Z-3.649
N15525 X189.796 Y42.802 Z-3.715
N15530 X189.941 Y42.69 Z-3.731
N15535 X190.332 Y42.385 Z-3.754
N15540 X190.628 Y42.16 Z-3.755
N15545 X190.767 Y42.05 Z-3.753
N15550 X190.974 Y41.893 Z-3.742
N15555 X191.21 Y41.709 Z-3.725
N15560 X191.327 Y41.622 Z-3.713
N15565 X191.682 Y41.348 Z-3.668
N15570 X192.114 Y41.018 Z-3.59
N15575 X192.413 Y40.794 Z-3.521
N15580 X192.574 Y40.669 Z-3.48
N15585 X192.79 Y40.51 Z-3.42
N15590 X193.041 Y40.319 Z-3.344
N15595 X193.176 Y40.222 Z-3.3
N15600 X193.57 Y39.93 Z-3.159
N15605 X194.013 Y39.606 Z-2.98
N15610 X194.247 Y39.437 Z-2.876
N15615 X194.397 Y39.332 Z-2.808
N15620 X194.496 Y39.261 Z-2.76
N15625 X194.833 Y39.027 Z-2.593
N15630 X195.007 Y38.905 Z-2.501
N15635 X195.289 Y38.715 Z-2.349
N15640 X195.54 Y38.545 Z-2.205
N15645 X195.817 Y38.364 Z-2.041
N15650 X196.102 Y38.178 Z-1.864
N15655 X196.269 Y38.075 Z-1.759
N15660 X196.398 Y37.991 Z-1.674
N15665 X196.708 Y37.8 Z-1.468
N15670 X196.803 Y37.744 Z-1.403
N15675 X197.031 Y37.604 Z-1.243
N15680 X197.373 Y37.404 Z-1.001
N15685 Z5.
N15690 X235.506 Y-15.554
N15695 Z4.
