%
(CHARFLOWERS)
(T2  D=38.1 CR=0. TAPER=45DEG - ZMIN=-7.12 - CHAMFER MILL)
N10 G90 G94 G17 G91.1
N15 G21
(WHEN USING FUSION 360 FOR PERSONAL USE, THE FEEDRATE OF)
(RAPID MOVES IS REDUCED TO MATCH THE FEEDRATE OF CUTTING)
(MOVES, WHICH CAN INCREASE MACHINING TIME. UNRESTRICTED RAPID)
(MOVES ARE AVAILABLE WITH A FUSION 360 SUBSCRIPTION.)
N20 G53 G0 Z0.
(FLOWERS)
N25 T2 M6
N30 S16000 M3
N35 G54
N40 G0 X67.746 Y-54.418
N45 G43 Z15. H2
N50 G1 Z4. F889.
N55 Z-1.001
N60 X68.101 Y-54.318 Z-1.189
N65 X68.482 Y-54.21 Z-1.408
N70 X68.887 Y-54.095 Z-1.657
N75 X69.315 Y-53.974 Z-1.933
N80 X70.199 Y-53.722 Z-2.538
N85 X71.145 Y-53.452 Z-3.215
N90 X72.139 Y-53.163 Z-3.938
N95 X72.83 Y-52.966 Z-4.438
N100 X73.461 Y-52.783 Z-4.878
N105 X73.655 Y-52.726 Z-5.008
N110 X73.826 Y-52.677 Z-5.116
N115 X73.836 Y-52.674 Z-5.122
N120 X73.831 Y-52.665 Z-5.113
N125 X73.724 Y-52.434 Z-4.882
N130 X73.603 Y-52.182 Z-4.619
N135 X73.557 Y-52.088 Z-4.517
N140 X73.518 Y-52.006 Z-4.427
N145 X73.557 Y-52.088 Z-4.517
N150 X73.603 Y-52.182 Z-4.619
N155 X73.724 Y-52.434 Z-4.882
N160 X73.831 Y-52.665 Z-5.113
N165 X73.836 Y-52.674 Z-5.122
N170 X73.895 Y-52.685 Z-5.131
N175 X73.907 Y-52.766 Z-5.059
N180 X73.932 Y-52.961 Z-4.878
N185 X73.946 Y-53.046 Z-4.797
N190 X73.954 Y-53.115 Z-4.732
N195 X73.98 Y-53.299 Z-4.553
N200 X73.99 Y-53.382 Z-4.47
N205 X73.98 Y-53.299 Z-4.553
N210 X73.954 Y-53.115 Z-4.732
N215 X73.946 Y-53.046 Z-4.797
N220 X73.932 Y-52.961 Z-4.878
N225 X73.907 Y-52.766 Z-5.059
N230 X73.895 Y-52.685 Z-5.131
N235 X74.005 Y-52.654 Z-5.09
N240 X74.098 Y-52.627 Z-5.051
N245 X74.209 Y-52.595 Z-5.002
N250 X74.339 Y-52.557 Z-4.94
N255 X74.489 Y-52.513 Z-4.866
N260 X74.713 Y-52.447 Z-4.749
N265 X75.013 Y-52.367 Z-4.596
N270 X75.221 Y-52.314 Z-4.501
N275 X75.429 Y-52.26 Z-4.417
N280 X75.534 Y-52.233 Z-4.379
N285 X75.64 Y-52.206 Z-4.344
N290 X75.746 Y-52.179 Z-4.312
N295 X75.854 Y-52.151 Z-4.283
N300 X75.962 Y-52.123 Z-4.257
N305 X76.071 Y-52.095 Z-4.235
N310 X76.181 Y-52.067 Z-4.216
N315 X76.293 Y-52.038 Z-4.201
N320 X76.406 Y-52.009 Z-4.19
N325 X76.52 Y-51.979 Z-4.184
N330 X76.636 Y-51.95 Z-4.181
N335 X76.814 Y-51.904 Z-4.187
N340 X76.992 Y-51.858 Z-4.203
N345 X77.17 Y-51.812 Z-4.229
N350 X77.349 Y-51.766 Z-4.265
N355 X77.528 Y-51.72 Z-4.312
N360 X77.709 Y-51.674 Z-4.369
N365 X77.89 Y-51.627 Z-4.435
N370 X78.074 Y-51.58 Z-4.511
N375 X78.258 Y-51.532 Z-4.595
N380 X78.445 Y-51.484 Z-4.689
N385 X78.634 Y-51.436 Z-4.791
N390 X78.824 Y-51.387 Z-4.902
N395 X79.018 Y-51.337 Z-5.021
N400 X79.214 Y-51.287 Z-5.148
N405 X79.412 Y-51.235 Z-5.282
N410 X79.614 Y-51.183 Z-5.425
N415 X79.721 Y-51.325 Z-5.358
N420 X79.825 Y-51.463 Z-5.298
N425 X79.927 Y-51.598 Z-5.246
N430 X80.027 Y-51.731 Z-5.2
N435 X80.126 Y-51.862 Z-5.162
N440 X80.224 Y-51.991 Z-5.129
N445 X80.321 Y-52.12 Z-5.103
N450 X80.418 Y-52.248 Z-5.084
N455 X80.618 Y-52.29 Z-4.937
N460 X80.814 Y-52.332 Z-4.798
N465 X81.008 Y-52.373 Z-4.667
N470 X81.198 Y-52.413 Z-4.544
N475 X81.385 Y-52.452 Z-4.429
N480 X81.571 Y-52.492 Z-4.322
N485 X81.754 Y-52.53 Z-4.224
N490 X81.934 Y-52.568 Z-4.136
N495 X82.114 Y-52.606 Z-4.056
N500 X82.291 Y-52.644 Z-3.987
N505 X82.468 Y-52.681 Z-3.927
N510 X82.643 Y-52.718 Z-3.878
N515 X82.817 Y-52.755 Z-3.839
N520 X82.991 Y-52.791 Z-3.811
N525 X83.077 Y-52.81 Z-3.801
N530 X83.164 Y-52.828 Z-3.794
N535 X83.251 Y-52.846 Z-3.79
N540 X83.337 Y-52.864 Z-3.789
N545 X83.434 Y-52.885 Z-3.791
N550 X83.529 Y-52.905 Z-3.796
N555 X83.623 Y-52.925 Z-3.804
N560 X83.715 Y-52.944 Z-3.816
N565 X83.807 Y-52.964 Z-3.83
N570 X83.897 Y-52.983 Z-3.847
N575 X84.075 Y-53.02 Z-3.889
N580 X84.249 Y-53.057 Z-3.941
N585 X84.422 Y-53.094 Z-4.001
N590 X84.593 Y-53.13 Z-4.07
N595 X84.763 Y-53.165 Z-4.146
N600 X84.961 Y-53.21 Z-4.243
N605 X85.161 Y-53.261 Z-4.346
N610 X85.363 Y-53.319 Z-4.456
N615 X85.503 Y-53.363 Z-4.534
N620 X85.902 Y-53.501 Z-4.768
N625 X86.233 Y-53.62 Z-4.96
N630 X86.746 Y-53.803 Z-5.249
N635 X87.217 Y-53.973 Z-5.507
N640 X87.651 Y-54.131 Z-5.734
N645 X88.011 Y-54.263 Z-5.914
N650 X88.324 Y-54.38 Z-6.064
N655 X88.604 Y-54.486 Z-6.193
N660 X88.854 Y-54.581 Z-6.301
N665 X89.022 Y-54.648 Z-6.37
N670 X89.268 Y-54.745 Z-6.465
N675 X89.436 Y-54.813 Z-6.525
N680 X89.513 Y-54.845 Z-6.551
N685 X89.706 Y-54.926 Z-6.61
N690 X89.811 Y-54.972 Z-6.638
N695 X89.9 Y-55.012 Z-6.66
N700 X90.035 Y-55.076 Z-6.687
N705 X90.13 Y-55.124 Z-6.7
N710 X90.201 Y-55.163 Z-6.705
N715 X90.266 Y-55.201 Z-6.707
N720 X90.34 Y-55.247 Z-6.703
N725 X90.366 Y-55.266 Z-6.7
N730 X90.495 Y-55.352 Z-6.68
N735 X90.598 Y-55.419 Z-6.656
N740 X90.641 Y-55.445 Z-6.644
N745 X90.713 Y-55.488 Z-6.619
N750 X90.787 Y-55.526 Z-6.589
N755 X90.849 Y-55.553 Z-6.56
N760 X90.935 Y-55.593 Z-6.518
N765 X91.133 Y-55.674 Z-6.414
N770 X91.284 Y-55.735 Z-6.329
N775 X91.554 Y-55.838 Z-6.17
N780 X91.933 Y-55.979 Z-5.936
N785 X92.444 Y-56.166 Z-5.605
N790 X92.79 Y-56.292 Z-5.376
N795 X93.015 Y-56.371 Z-5.226
N800 X93.332 Y-56.487 Z-5.011
N805 X94.608 Y-56.94 Z-4.143
N810 X95.956 Y-57.421 Z-3.235
N815 X96.644 Y-57.669 Z-2.784
N820 X97.32 Y-57.913 Z-2.356
N825 X97.975 Y-58.151 Z-1.959
N830 X98.605 Y-58.382 Z-1.598
N835 X99.207 Y-58.604 Z-1.278
N840 X99.78 Y-58.817 Z-1.001
N845 X99.207 Y-58.604 Z-1.278
N850 X98.605 Y-58.382 Z-1.598
N855 X97.975 Y-58.151 Z-1.959
N860 X97.32 Y-57.913 Z-2.356
N865 X96.644 Y-57.669 Z-2.784
N870 X95.956 Y-57.421 Z-3.235
N875 X94.608 Y-56.94 Z-4.143
N880 X93.332 Y-56.487 Z-5.011
N885 X93.015 Y-56.371 Z-5.226
N890 X92.79 Y-56.292 Z-5.376
N895 X92.444 Y-56.166 Z-5.605
N900 X91.933 Y-55.979 Z-5.936
N905 X91.554 Y-55.838 Z-6.17
N910 X91.284 Y-55.735 Z-6.329
N915 X91.133 Y-55.674 Z-6.414
N920 X90.935 Y-55.593 Z-6.518
N925 X90.849 Y-55.553 Z-6.56
N930 X90.787 Y-55.526 Z-6.589
N935 X90.713 Y-55.488 Z-6.619
N940 X90.641 Y-55.445 Z-6.644
N945 X90.598 Y-55.419 Z-6.656
N950 X90.495 Y-55.352 Z-6.68
N955 X90.366 Y-55.266 Z-6.7
N960 X90.34 Y-55.247 Z-6.703
N965 X90.266 Y-55.201 Z-6.707
N970 X90.201 Y-55.163 Z-6.705
N975 X90.13 Y-55.124 Z-6.7
N980 X90.035 Y-55.076 Z-6.687
N985 X89.9 Y-55.012 Z-6.66
N990 X89.811 Y-54.972 Z-6.638
N995 X89.706 Y-54.926 Z-6.61
N1000 X89.513 Y-54.845 Z-6.551
N1005 X89.436 Y-54.813 Z-6.525
N1010 X89.268 Y-54.745 Z-6.465
N1015 X89.022 Y-54.648 Z-6.37
N1020 X88.854 Y-54.581 Z-6.301
N1025 X88.604 Y-54.486 Z-6.193
N1030 X88.324 Y-54.38 Z-6.064
N1035 X88.011 Y-54.263 Z-5.914
N1040 X87.651 Y-54.131 Z-5.734
N1045 X87.217 Y-53.973 Z-5.507
N1050 X86.746 Y-53.803 Z-5.249
N1055 X86.233 Y-53.62 Z-4.96
N1060 X85.902 Y-53.501 Z-4.768
N1065 X85.503 Y-53.363 Z-4.534
N1070 X85.363 Y-53.319 Z-4.456
N1075 X85.161 Y-53.261 Z-4.346
N1080 X84.961 Y-53.21 Z-4.243
N1085 X84.763 Y-53.165 Z-4.146
N1090 X84.593 Y-53.13 Z-4.07
N1095 X84.422 Y-53.094 Z-4.001
N1100 X84.249 Y-53.057 Z-3.941
N1105 X84.075 Y-53.02 Z-3.889
N1110 X83.897 Y-52.983 Z-3.847
N1115 X83.807 Y-52.964 Z-3.83
N1120 X83.715 Y-52.944 Z-3.816
N1125 X83.623 Y-52.925 Z-3.804
N1130 X83.529 Y-52.905 Z-3.796
N1135 X83.434 Y-52.885 Z-3.791
N1140 X83.337 Y-52.864 Z-3.789
N1145 X83.251 Y-52.846 Z-3.79
N1150 X83.164 Y-52.828 Z-3.794
N1155 X83.077 Y-52.81 Z-3.801
N1160 X82.991 Y-52.791 Z-3.811
N1165 X82.817 Y-52.755 Z-3.839
N1170 X82.643 Y-52.718 Z-3.878
N1175 X82.468 Y-52.681 Z-3.927
N1180 X82.291 Y-52.644 Z-3.987
N1185 X82.114 Y-52.606 Z-4.056
N1190 X81.934 Y-52.568 Z-4.136
N1195 X81.754 Y-52.53 Z-4.224
N1200 X81.571 Y-52.492 Z-4.322
N1205 X81.385 Y-52.452 Z-4.429
N1210 X81.198 Y-52.413 Z-4.544
N1215 X81.008 Y-52.373 Z-4.667
N1220 X80.814 Y-52.332 Z-4.798
N1225 X80.618 Y-52.29 Z-4.937
N1230 X80.418 Y-52.248 Z-5.084
N1235 X80.396 Y-52.459 Z-4.927
N1240 X80.374 Y-52.665 Z-4.778
N1245 X80.353 Y-52.868 Z-4.636
N1250 X80.332 Y-53.069 Z-4.504
N1255 X80.311 Y-53.266 Z-4.379
N1260 X80.29 Y-53.46 Z-4.264
N1265 X80.27 Y-53.652 Z-4.158
N1270 X80.25 Y-53.842 Z-4.061
N1275 X80.23 Y-54.03 Z-3.975
N1280 X80.211 Y-54.216 Z-3.898
N1285 X80.191 Y-54.401 Z-3.833
N1290 X80.172 Y-54.585 Z-3.779
N1295 X80.162 Y-54.676 Z-3.756
N1300 X80.152 Y-54.767 Z-3.736
N1305 X80.143 Y-54.858 Z-3.719
N1310 X80.133 Y-54.949 Z-3.705
N1315 X80.124 Y-55.04 Z-3.695
N1320 X80.114 Y-55.131 Z-3.687
N1325 X80.105 Y-55.221 Z-3.682
N1330 X80.095 Y-55.312 Z-3.681
N1335 X80.08 Y-55.449 Z-3.684
N1340 X80.066 Y-55.587 Z-3.695
N1345 X80.051 Y-55.726 Z-3.713
N1350 X80.036 Y-55.868 Z-3.738
N1355 X80.021 Y-56.012 Z-3.772
N1360 X80.005 Y-56.161 Z-3.813
N1365 X79.989 Y-56.313 Z-3.863
N1370 X79.973 Y-56.471 Z-3.923
N1375 X79.947 Y-56.783 Z-4.054
N1380 X79.93 Y-57.046 Z-4.164
N1385 X79.914 Y-57.308 Z-4.269
N1390 X79.899 Y-57.576 Z-4.369
N1395 X79.885 Y-57.825 Z-4.457
N1400 X79.874 Y-58.054 Z-4.532
N1405 X79.866 Y-58.233 Z-4.586
N1410 X79.865 Y-58.265 Z-4.595
N1415 X79.854 Y-58.547 Z-4.669
N1420 X79.853 Y-58.64 Z-4.69
N1425 X79.848 Y-58.803 Z-4.724
N1430 X79.845 Y-58.993 Z-4.755
N1435 X79.846 Y-59.185 Z-4.776
N1440 Y-59.318 Z-4.782
N1445 X79.85 Y-59.456 Z-4.783
N1450 X79.856 Y-59.617 Z-4.774
N1455 X79.863 Y-59.774 Z-4.754
N1460 X79.868 Y-59.914 Z-4.728
N1465 X79.872 Y-60.044 Z-4.696
N1470 X79.873 Y-60.22 Z-4.641
N1475 Y-60.309 Z-4.609
N1480 X79.87 Y-60.46 Z-4.55
N1485 X79.86 Y-60.687 Z-4.452
N1490 X79.854 Y-60.836 Z-4.382
N1495 X79.846 Y-60.952 Z-4.324
N1500 X79.84 Y-61.07 Z-4.265
N1505 X79.824 Y-61.313 Z-4.136
N1510 X79.791 Y-61.672 Z-3.94
N1515 X79.767 Y-61.994 Z-3.759
N1520 X79.695 Y-62.765 Z-3.311
N1525 X79.607 Y-63.642 Z-2.796
N1530 X79.532 Y-64.398 Z-2.358
N1535 X79.513 Y-64.567 Z-2.264
N1540 X79.427 Y-65.419 Z-1.798
N1545 X79.423 Y-65.46 Z-1.777
N1550 X79.379 Y-65.902 Z-1.553
N1555 X79.338 Y-66.331 Z-1.347
N1560 X79.299 Y-66.748 Z-1.163
N1565 X79.263 Y-67.151 Z-1.001
N1570 X79.299 Y-66.748 Z-1.163
N1575 X79.338 Y-66.331 Z-1.347
N1580 X79.379 Y-65.902 Z-1.553
N1585 X79.423 Y-65.46 Z-1.777
N1590 X79.427 Y-65.419 Z-1.798
N1595 X79.513 Y-64.567 Z-2.264
N1600 X79.532 Y-64.398 Z-2.358
N1605 X79.607 Y-63.642 Z-2.796
N1610 X79.695 Y-62.765 Z-3.311
N1615 X79.767 Y-61.994 Z-3.759
N1620 X79.791 Y-61.672 Z-3.94
N1625 X79.824 Y-61.313 Z-4.136
N1630 X79.84 Y-61.07 Z-4.265
N1635 X79.846 Y-60.952 Z-4.324
N1640 X79.854 Y-60.836 Z-4.382
N1645 X79.86 Y-60.687 Z-4.452
N1650 X79.87 Y-60.46 Z-4.55
N1655 X79.873 Y-60.309 Z-4.609
N1660 Y-60.22 Z-4.641
N1665 X79.872 Y-60.044 Z-4.696
N1670 X79.868 Y-59.914 Z-4.728
N1675 X79.863 Y-59.774 Z-4.754
N1680 X79.856 Y-59.617 Z-4.774
N1685 X79.85 Y-59.456 Z-4.783
N1690 X79.846 Y-59.318 Z-4.782
N1695 Y-59.185 Z-4.776
N1700 X79.845 Y-58.993 Z-4.755
N1705 X79.848 Y-58.803 Z-4.724
N1710 X79.853 Y-58.64 Z-4.69
N1715 X79.854 Y-58.547 Z-4.669
N1720 X79.865 Y-58.265 Z-4.595
N1725 X79.866 Y-58.233 Z-4.586
N1730 X79.874 Y-58.054 Z-4.532
N1735 X79.885 Y-57.825 Z-4.457
N1740 X79.899 Y-57.576 Z-4.369
N1745 X79.914 Y-57.308 Z-4.269
N1750 X79.93 Y-57.046 Z-4.164
N1755 X79.947 Y-56.783 Z-4.054
N1760 X79.973 Y-56.471 Z-3.923
N1765 X79.989 Y-56.313 Z-3.863
N1770 X80.005 Y-56.161 Z-3.813
N1775 X80.021 Y-56.012 Z-3.772
N1780 X80.036 Y-55.868 Z-3.738
N1785 X80.051 Y-55.726 Z-3.713
N1790 X80.066 Y-55.587 Z-3.695
N1795 X80.08 Y-55.449 Z-3.684
N1800 X80.095 Y-55.312 Z-3.681
N1805 X80.105 Y-55.221 Z-3.682
N1810 X80.114 Y-55.131 Z-3.687
N1815 X80.124 Y-55.04 Z-3.695
N1820 X80.133 Y-54.949 Z-3.705
N1825 X80.143 Y-54.858 Z-3.719
N1830 X80.152 Y-54.767 Z-3.736
N1835 X80.162 Y-54.676 Z-3.756
N1840 X80.172 Y-54.585 Z-3.779
N1845 X80.191 Y-54.401 Z-3.833
N1850 X80.211 Y-54.216 Z-3.898
N1855 X80.23 Y-54.03 Z-3.975
N1860 X80.25 Y-53.842 Z-4.061
N1865 X80.27 Y-53.652 Z-4.158
N1870 X80.29 Y-53.46 Z-4.264
N1875 X80.311 Y-53.266 Z-4.379
N1880 X80.332 Y-53.069 Z-4.504
N1885 X80.353 Y-52.868 Z-4.636
N1890 X80.374 Y-52.665 Z-4.778
N1895 X80.396 Y-52.459 Z-4.927
N1900 X80.418 Y-52.248 Z-5.084
N1905 X80.321 Y-52.12 Z-5.103
N1910 X80.224 Y-51.991 Z-5.129
N1915 X80.126 Y-51.862 Z-5.162
N1920 X80.027 Y-51.731 Z-5.2
N1925 X79.927 Y-51.598 Z-5.246
N1930 X79.825 Y-51.463 Z-5.298
N1935 X79.721 Y-51.325 Z-5.358
N1940 X79.614 Y-51.183 Z-5.425
N1945 X79.649 Y-50.96 Z-5.343
N1950 X79.684 Y-50.743 Z-5.273
N1955 X79.717 Y-50.529 Z-5.215
N1960 X79.75 Y-50.319 Z-5.167
N1965 X79.783 Y-50.113 Z-5.131
N1970 X79.815 Y-49.908 Z-5.105
N1975 X79.847 Y-49.705 Z-5.089
N1980 X79.878 Y-49.502 Z-5.084
N1985 X79.902 Y-49.352 Z-5.087
N1990 X79.926 Y-49.201 Z-5.096
N1995 X79.95 Y-49.049 Z-5.11
N2000 X79.974 Y-48.895 Z-5.13
N2005 X79.998 Y-48.739 Z-5.157
N2010 X80.023 Y-48.58 Z-5.189
N2015 X80.049 Y-48.419 Z-5.229
N2020 X80.075 Y-48.253 Z-5.276
N2025 X79.934 Y-48.129 Z-5.157
N2030 X79.796 Y-48.007 Z-5.045
N2035 X79.659 Y-47.887 Z-4.94
N2040 X79.525 Y-47.768 Z-4.842
N2045 X79.392 Y-47.651 Z-4.751
N2050 X79.26 Y-47.535 Z-4.668
N2055 X79.13 Y-47.421 Z-4.592
N2060 X79.002 Y-47.307 Z-4.523
N2065 X78.874 Y-47.195 Z-4.462
N2070 X78.747 Y-47.083 Z-4.409
N2075 X78.621 Y-46.972 Z-4.364
N2080 X78.496 Y-46.861 Z-4.326
N2085 X78.371 Y-46.751 Z-4.297
N2090 X78.247 Y-46.642 Z-4.276
N2095 X78.123 Y-46.533 Z-4.264
N2100 X77.999 Y-46.423 Z-4.26
N2105 X77.899 Y-46.335 Z-4.262
N2110 X77.806 Y-46.253 Z-4.27
N2115 X77.663 Y-46.123 Z-4.288
N2120 X77.523 Y-45.988 Z-4.312
N2125 X77.405 Y-45.866 Z-4.336
N2130 X77.289 Y-45.739 Z-4.364
N2135 X77.183 Y-45.615 Z-4.393
N2140 X77.079 Y-45.488 Z-4.426
N2145 X76.985 Y-45.364 Z-4.46
N2150 X76.892 Y-45.236 Z-4.497
N2155 X76.809 Y-45.113 Z-4.533
N2160 X76.727 Y-44.987 Z-4.573
N2165 X76.654 Y-44.865 Z-4.612
N2170 X76.582 Y-44.742 Z-4.653
N2175 X76.492 Y-44.574 Z-4.711
N2180 X76.349 Y-44.291 Z-4.807
N2185 X76.235 Y-44.064 Z-4.878
N2190 X76.137 Y-43.866 Z-4.935
N2195 X76.046 Y-43.681 Z-4.983
N2200 X76.021 Y-43.628 Z-4.996
N2205 X75.927 Y-43.434 Z-5.04
N2210 X75.841 Y-43.252 Z-5.075
N2215 X75.761 Y-43.081 Z-5.103
N2220 X75.697 Y-42.945 Z-5.121
N2225 X75.57 Y-42.665 Z-5.143
N2230 X75.468 Y-42.435 Z-5.148
N2235 X75.373 Y-42.217 Z-5.14
N2240 X75.344 Y-42.145 Z-5.134
N2245 X75.281 Y-42.004 Z-5.118
N2250 X75.254 Y-41.938 Z-5.109
N2255 X75.188 Y-41.787 Z-5.082
N2260 X75.091 Y-41.564 Z-5.031
N2265 X75.011 Y-41.385 Z-4.978
N2270 X74.926 Y-41.202 Z-4.915
N2275 X74.853 Y-41.05 Z-4.857
N2280 X74.734 Y-40.802 Z-4.751
N2285 X74.621 Y-40.575 Z-4.644
N2290 X74.548 Y-40.435 Z-4.574
N2295 X74.494 Y-40.325 Z-4.518
N2300 X74.366 Y-40.081 Z-4.388
N2305 X74.202 Y-39.766 Z-4.212
N2310 X73.829 Y-39.062 Z-3.795
N2315 X73.202 Y-37.898 Z-3.081
N2320 X72.968 Y-37.466 Z-2.816
N2325 X72.68 Y-36.924 Z-2.49
N2330 X72.507 Y-36.606 Z-2.301
N2335 X72.488 Y-36.57 Z-2.28
N2340 X72.267 Y-36.157 Z-2.044
N2345 X72.142 Y-35.92 Z-1.912
N2350 X72.033 Y-35.719 Z-1.803
N2355 X71.882 Y-35.429 Z-1.65
N2360 X71.803 Y-35.283 Z-1.575
N2365 X71.627 Y-34.945 Z-1.409
N2370 X71.619 Y-34.931 Z-1.402
N2375 X71.378 Y-34.471 Z-1.192
N2380 X71.135 Y-34.007 Z-1.
N2385 X71.378 Y-34.471 Z-1.192
N2390 X71.619 Y-34.931 Z-1.402
N2395 X71.627 Y-34.945 Z-1.409
N2400 X71.803 Y-35.283 Z-1.575
N2405 X71.882 Y-35.429 Z-1.65
N2410 X72.033 Y-35.719 Z-1.803
N2415 X72.142 Y-35.92 Z-1.912
N2420 X72.267 Y-36.157 Z-2.044
N2425 X72.488 Y-36.57 Z-2.28
N2430 X72.507 Y-36.606 Z-2.301
N2435 X72.68 Y-36.924 Z-2.49
N2440 X72.968 Y-37.466 Z-2.816
N2445 X73.202 Y-37.898 Z-3.081
N2450 X73.829 Y-39.062 Z-3.795
N2455 X74.202 Y-39.766 Z-4.212
N2460 X74.366 Y-40.081 Z-4.388
N2465 X74.494 Y-40.325 Z-4.518
N2470 X74.548 Y-40.435 Z-4.574
N2475 X74.621 Y-40.575 Z-4.644
N2480 X74.734 Y-40.802 Z-4.751
N2485 X74.853 Y-41.05 Z-4.857
N2490 X74.926 Y-41.202 Z-4.915
N2495 X75.011 Y-41.385 Z-4.978
N2500 X75.091 Y-41.564 Z-5.031
N2505 X75.188 Y-41.787 Z-5.082
N2510 X75.254 Y-41.938 Z-5.109
N2515 X75.281 Y-42.004 Z-5.118
N2520 X75.344 Y-42.145 Z-5.134
N2525 X75.373 Y-42.217 Z-5.14
N2530 X75.468 Y-42.435 Z-5.148
N2535 X75.57 Y-42.665 Z-5.143
N2540 X75.697 Y-42.945 Z-5.121
N2545 X75.761 Y-43.081 Z-5.103
N2550 X75.841 Y-43.252 Z-5.075
N2555 X75.927 Y-43.434 Z-5.04
N2560 X76.021 Y-43.628 Z-4.996
N2565 X76.046 Y-43.681 Z-4.983
N2570 X76.137 Y-43.866 Z-4.935
N2575 X76.235 Y-44.064 Z-4.878
N2580 X76.349 Y-44.291 Z-4.807
N2585 X76.492 Y-44.574 Z-4.711
N2590 X76.582 Y-44.742 Z-4.653
N2595 X76.654 Y-44.865 Z-4.612
N2600 X76.727 Y-44.987 Z-4.573
N2605 X76.809 Y-45.113 Z-4.533
N2610 X76.892 Y-45.236 Z-4.497
N2615 X76.985 Y-45.364 Z-4.46
N2620 X77.079 Y-45.488 Z-4.426
N2625 X77.183 Y-45.615 Z-4.393
N2630 X77.289 Y-45.739 Z-4.364
N2635 X77.405 Y-45.866 Z-4.336
N2640 X77.523 Y-45.988 Z-4.312
N2645 X77.663 Y-46.123 Z-4.288
N2650 X77.806 Y-46.253 Z-4.27
N2655 X77.899 Y-46.335 Z-4.262
N2660 X77.999 Y-46.423 Z-4.26
N2665 X78.123 Y-46.533 Z-4.264
N2670 X78.247 Y-46.642 Z-4.276
N2675 X78.371 Y-46.751 Z-4.297
N2680 X78.496 Y-46.861 Z-4.326
N2685 X78.621 Y-46.972 Z-4.364
N2690 X78.747 Y-47.083 Z-4.409
N2695 X78.874 Y-47.195 Z-4.462
N2700 X79.002 Y-47.307 Z-4.523
N2705 X79.13 Y-47.421 Z-4.592
N2710 X79.26 Y-47.535 Z-4.668
N2715 X79.392 Y-47.651 Z-4.751
N2720 X79.525 Y-47.768 Z-4.842
N2725 X79.659 Y-47.887 Z-4.94
N2730 X79.796 Y-48.007 Z-5.045
N2735 X79.934 Y-48.129 Z-5.157
N2740 X80.075 Y-48.253 Z-5.276
N2745 X80.206 Y-48.173 Z-5.195
N2750 X80.336 Y-48.093 Z-5.119
N2755 X80.464 Y-48.015 Z-5.049
N2760 X80.591 Y-47.938 Z-4.983
N2765 X80.716 Y-47.861 Z-4.923
N2770 X80.84 Y-47.786 Z-4.869
N2775 X80.963 Y-47.711 Z-4.819
N2780 X81.085 Y-47.636 Z-4.775
N2785 X81.205 Y-47.563 Z-4.735
N2790 X81.325 Y-47.49 Z-4.701
N2795 X81.445 Y-47.417 Z-4.672
N2800 X81.563 Y-47.344 Z-4.649
N2805 X81.681 Y-47.272 Z-4.631
N2810 X81.799 Y-47.2 Z-4.617
N2815 X81.917 Y-47.129 Z-4.61
N2820 X82.034 Y-47.057 Z-4.607
N2825 X82.154 Y-46.984 Z-4.61
N2830 X82.266 Y-46.915 Z-4.617
N2835 X82.434 Y-46.81 Z-4.635
N2840 X82.6 Y-46.699 Z-4.658
N2845 X82.763 Y-46.583 Z-4.686
N2850 X82.908 Y-46.473 Z-4.716
N2855 X83.051 Y-46.359 Z-4.749
N2860 X83.192 Y-46.241 Z-4.787
N2865 X83.322 Y-46.124 Z-4.826
N2870 X83.451 Y-46.004 Z-4.869
N2875 X83.578 Y-45.88 Z-4.916
N2880 X83.752 Y-45.697 Z-4.987
N2885 X83.922 Y-45.508 Z-5.066
N2890 X84.077 Y-45.321 Z-5.145
N2895 X84.227 Y-45.129 Z-5.232
N2900 X84.363 Y-44.941 Z-5.317
N2905 X84.496 Y-44.749 Z-5.409
N2910 X84.733 Y-44.378 Z-5.588
N2915 X84.95 Y-44.034 Z-5.746
N2920 X85.104 Y-43.791 Z-5.851
N2925 X85.248 Y-43.568 Z-5.943
N2930 X85.338 Y-43.43 Z-5.997
N2935 X85.504 Y-43.176 Z-6.09
N2940 X85.617 Y-43.004 Z-6.148
N2945 X85.666 Y-42.931 Z-6.171
N2950 X85.809 Y-42.716 Z-6.233
N2955 X85.906 Y-42.573 Z-6.269
N2960 X85.941 Y-42.523 Z-6.281
N2965 X86.061 Y-42.35 Z-6.316
N2970 X86.134 Y-42.246 Z-6.332
N2975 X86.171 Y-42.196 Z-6.339
N2980 X86.261 Y-42.07 Z-6.352
N2985 X86.362 Y-41.933 Z-6.359
N2990 X86.4 Y-41.881
N2995 X86.522 Y-41.724 Z-6.351
N3000 X86.533 Y-41.709 Z-6.349
N3005 X86.639 Y-41.571 Z-6.33
N3010 X86.716 Y-41.472 Z-6.31
N3015 X86.772 Y-41.398 Z-6.291
N3020 X86.875 Y-41.261 Z-6.25
N3025 X86.931 Y-41.185 Z-6.222
N3030 X87.011 Y-41.07 Z-6.175
N3035 X87.099 Y-40.946 Z-6.12
N3040 X87.166 Y-40.845 Z-6.072
N3045 X87.23 Y-40.754 Z-6.026
N3050 X87.342 Y-40.583 Z-5.935
N3055 X87.54 Y-40.277 Z-5.761
N3060 X87.763 Y-39.927 Z-5.548
N3065 X88.009 Y-39.534 Z-5.296
N3070 X88.273 Y-39.11 Z-5.014
N3075 X88.586 Y-38.605 Z-4.669
N3080 X88.886 Y-38.114 Z-4.33
N3085 X89.535 Y-37.063 Z-3.601
N3090 X89.983 Y-36.328 Z-3.098
N3095 X90.212 Y-35.962 Z-2.851
N3100 X90.369 Y-35.705 Z-2.681
N3105 X90.564 Y-35.395 Z-2.478
N3110 X90.746 Y-35.096 Z-2.287
N3115 X90.905 Y-34.845 Z-2.129
N3120 X91.121 Y-34.494 Z-1.916
N3125 X91.241 Y-34.306 Z-1.804
N3130 X91.488 Y-33.906 Z-1.575
N3135 X91.569 Y-33.781 Z-1.505
N3140 X91.848 Y-33.335 Z-1.269
N3145 X92.198 Y-32.78 Z-1.
N3150 Z5.
N3155 X123.892 Y-55.503
N3160 Z4.
N3165 Z-1.001
N3170 X124.089 Y-55.511 Z-1.088
N3175 X124.274 Y-55.495 Z-1.161
N3180 X124.325 Y-55.486 Z-1.178
N3185 X124.455 Y-55.457 Z-1.227
N3190 X124.548 Y-55.429 Z-1.256
N3195 X124.642 Y-55.398 Z-1.289
N3200 X124.771 Y-55.345 Z-1.328
N3205 X124.837 Y-55.315 Z-1.35
N3210 X124.995 Y-55.233 Z-1.398
N3215 X125.022 Y-55.219 Z-1.406
N3220 X125.219 Y-55.097 Z-1.468
N3225 X125.246 Y-55.08 Z-1.477
N3230 X125.442 Y-54.939 Z-1.54
N3235 X125.469 Y-54.919 Z-1.55
N3240 X125.663 Y-54.758 Z-1.613
N3245 X125.721 Y-54.707 Z-1.634
N3250 X125.819 Y-54.611 Z-1.665
N3255 X125.938 Y-54.488 Z-1.708
N3260 X126.11 Y-54.283 Z-1.767
N3265 X126.138 Y-54.247 Z-1.779
N3270 X126.216 Y-54.142 Z-1.809
N3275 X126.279 Y-54.059 Z-1.837
N3280 X126.339 Y-53.986 Z-1.869
N3285 X126.404 Y-53.915 Z-1.906
N3290 X126.445 Y-53.872 Z-1.932
N3295 X126.516 Y-53.8 Z-1.981
N3300 X126.593 Y-53.73 Z-2.035
N3305 X126.659 Y-53.672 Z-2.085
N3310 X126.744 Y-53.601 Z-2.153
N3315 X126.834 Y-53.531 Z-2.227
N3320 X126.929 Y-53.46 Z-2.307
N3325 X127.03 Y-53.387 Z-2.397
N3330 X127.136 Y-53.315 Z-2.492
N3335 X127.287 Y-53.217 Z-2.631
N3340 X127.349 Y-53.176 Z-2.691
N3345 X127.442 Y-53.225 Z-2.682
N3350 X127.524 Y-53.268 Z-2.679
N3355 X127.615 Y-53.316 Z-2.682
N3360 X127.707 Y-53.364 Z-2.692
N3365 X127.8 Y-53.413 Z-2.708
N3370 X127.896 Y-53.463 Z-2.73
N3375 X127.994 Y-53.514 Z-2.761
N3380 X128.096 Y-53.568 Z-2.799
N3385 X128.202 Y-53.624 Z-2.845
N3390 X128.314 Y-53.682 Z-2.901
N3395 X128.296 Y-53.818 Z-2.813
N3400 X128.259 Y-54.031 Z-2.679
N3405 X128.229 Y-54.183 Z-2.591
N3410 X128.193 Y-54.33 Z-2.51
N3415 X128.152 Y-54.472 Z-2.436
N3420 X128.119 Y-54.578 Z-2.386
N3425 X128.076 Y-54.705 Z-2.333
N3430 X128.028 Y-54.828 Z-2.287
N3435 X127.976 Y-54.946 Z-2.247
N3440 X127.935 Y-55.033 Z-2.223
N3445 X127.827 Y-55.262 Z-2.17
N3450 X127.729 Y-55.484 Z-2.126
N3455 X127.661 Y-55.662 Z-2.089
N3460 X127.639 Y-55.729 Z-2.074
N3465 X127.557 Y-55.998 Z-2.019
N3470 X127.49 Y-56.284 Z-1.963
N3475 X127.45 Y-56.517 Z-1.915
N3480 X127.442 Y-56.579 Z-1.904
N3485 X127.421 Y-56.775 Z-1.862
N3490 X127.414 Y-56.862 Z-1.845
N3495 X127.407 Y-57.03 Z-1.809
N3500 X127.406 Y-57.132 Z-1.789
N3505 X127.409 Y-57.28 Z-1.755
N3510 X127.413 Y-57.388 Z-1.732
N3515 X127.425 Y-57.523 Z-1.7
N3520 X127.435 Y-57.627 Z-1.677
N3525 X127.469 Y-57.853 Z-1.62
N3530 X127.503 Y-58.023 Z-1.576
N3535 X127.542 Y-58.186 Z-1.532
N3540 X127.584 Y-58.333 Z-1.491
N3545 X127.63 Y-58.471 Z-1.45
N3550 X127.678 Y-58.598 Z-1.411
N3555 X127.727 Y-58.714 Z-1.373
N3560 X127.779 Y-58.82 Z-1.337
N3565 X127.853 Y-58.958 Z-1.286
N3570 X127.884 Y-59.008 Z-1.267
N3575 X127.935 Y-59.087 Z-1.236
N3580 X127.999 Y-59.176 Z-1.195
N3585 X128.041 Y-59.23 Z-1.172
N3590 X128.161 Y-59.366 Z-1.101
N3595 X128.225 Y-59.427 Z-1.068
N3600 X128.288 Y-59.483 Z-1.032
N3605 X128.34 Y-59.524 Z-1.
N3610 X128.288 Y-59.483 Z-1.032
N3615 X128.225 Y-59.427 Z-1.068
N3620 X128.161 Y-59.366 Z-1.101
N3625 X128.041 Y-59.23 Z-1.172
N3630 X127.999 Y-59.176 Z-1.195
N3635 X127.935 Y-59.087 Z-1.236
N3640 X127.884 Y-59.008 Z-1.267
N3645 X127.853 Y-58.958 Z-1.286
N3650 X127.779 Y-58.82 Z-1.337
N3655 X127.727 Y-58.714 Z-1.373
N3660 X127.678 Y-58.598 Z-1.411
N3665 X127.63 Y-58.471 Z-1.45
N3670 X127.584 Y-58.333 Z-1.491
N3675 X127.542 Y-58.186 Z-1.532
N3680 X127.503 Y-58.023 Z-1.576
N3685 X127.469 Y-57.853 Z-1.62
N3690 X127.435 Y-57.627 Z-1.677
N3695 X127.425 Y-57.523 Z-1.7
N3700 X127.413 Y-57.388 Z-1.732
N3705 X127.409 Y-57.28 Z-1.755
N3710 X127.406 Y-57.132 Z-1.789
N3715 X127.407 Y-57.03 Z-1.809
N3720 X127.414 Y-56.862 Z-1.845
N3725 X127.421 Y-56.775 Z-1.862
N3730 X127.442 Y-56.579 Z-1.904
N3735 X127.45 Y-56.517 Z-1.915
N3740 X127.49 Y-56.284 Z-1.963
N3745 X127.557 Y-55.998 Z-2.019
N3750 X127.639 Y-55.729 Z-2.074
N3755 X127.661 Y-55.662 Z-2.089
N3760 X127.729 Y-55.484 Z-2.126
N3765 X127.827 Y-55.262 Z-2.17
N3770 X127.935 Y-55.033 Z-2.223
N3775 X127.976 Y-54.946 Z-2.247
N3780 X128.028 Y-54.828 Z-2.287
N3785 X128.076 Y-54.705 Z-2.333
N3790 X128.119 Y-54.578 Z-2.386
N3795 X128.152 Y-54.472 Z-2.436
N3800 X128.193 Y-54.33 Z-2.51
N3805 X128.229 Y-54.183 Z-2.591
N3810 X128.259 Y-54.031 Z-2.679
N3815 X128.296 Y-53.818 Z-2.813
N3820 X128.314 Y-53.682 Z-2.901
N3825 X128.41 Y-53.644 Z-2.865
N3830 X128.505 Y-53.603 Z-2.833
N3835 X128.585 Y-53.567 Z-2.808
N3840 X128.708 Y-53.51 Z-2.775
N3845 X128.828 Y-53.448 Z-2.747
N3850 X128.996 Y-53.352 Z-2.716
N3855 X129.11 Y-53.283 Z-2.703
N3860 X129.22 Y-53.209 Z-2.696
N3865 X129.359 Y-53.107 Z-2.693
N3870 X129.455 Y-53.03 Z-2.698
N3875 X129.548 Y-52.95 Z-2.706
N3880 X129.688 Y-52.82 Z-2.728
N3885 X129.892 Y-52.622 Z-2.762
N3890 X130.121 Y-52.408 Z-2.794
N3895 X130.343 Y-52.204 Z-2.818
N3900 X130.421 Y-52.133 Z-2.824
N3905 X130.625 Y-51.946 Z-2.837
N3910 X130.824 Y-51.759 Z-2.843
N3915 X130.994 Y-51.595 Z-2.842
N3920 X131.28 Y-51.32 Z-2.834
N3925 X131.458 Y-51.142 Z-2.823
N3930 X131.619 Y-50.974 Z-2.807
N3935 X131.782 Y-50.792 Z-2.787
N3940 X131.983 Y-50.552 Z-2.755
N3945 X132.119 Y-50.384 Z-2.728
N3950 X132.205 Y-50.271 Z-2.708
N3955 X132.291 Y-50.157 Z-2.689
N3960 X132.371 Y-50.045 Z-2.669
N3965 X132.459 Y-49.916 Z-2.648
N3970 X132.609 Y-49.676 Z-2.61
N3975 X132.752 Y-49.417 Z-2.565
N3980 X132.8 Y-49.315 Z-2.549
N3985 X132.875 Y-49.149 Z-2.526
N3990 X132.905 Y-49.079 Z-2.514
N3995 X132.978 Y-48.885 Z-2.488
N4000 X133.064 Y-48.622 Z-2.451
N4005 X133.081 Y-48.556 Z-2.442
N4010 X133.129 Y-48.362 Z-2.417
N4015 X133.148 Y-48.276 Z-2.404
N4020 X133.18 Y-48.106 Z-2.383
N4025 X133.216 Y-47.853 Z-2.347
N4030 X133.225 Y-47.762 Z-2.333
N4035 X133.237 Y-47.606 Z-2.313
N4040 X133.246 Y-47.368 Z-2.278
N4045 X133.239 Y-47.136 Z-2.244
N4050 X133.234 Y-47.051 Z-2.229
N4055 X133.222 Y-46.907 Z-2.208
N4060 X133.185 Y-46.644 Z-2.166
N4065 X133.153 Y-46.486 Z-2.141
N4070 X133.094 Y-46.254 Z-2.099
N4075 X133.047 Y-46.105 Z-2.073
N4080 X132.983 Y-45.939 Z-2.04
N4085 X132.957 Y-45.877 Z-2.025
N4090 X132.915 Y-45.785 Z-2.005
N4095 X132.843 Y-45.65 Z-1.974
N4100 X132.767 Y-45.517 Z-1.937
N4105 X132.686 Y-45.397 Z-1.903
N4110 X132.577 Y-45.251 Z-1.854
N4115 X132.519 Y-45.181 Z-1.83
N4120 X132.43 Y-45.084 Z-1.792
N4125 X132.339 Y-44.992 Z-1.752
N4130 X132.245 Y-44.907 Z-1.712
N4135 X132.107 Y-44.795 Z-1.651
N4140 X132.05 Y-44.753 Z-1.627
N4145 X131.951 Y-44.685 Z-1.584
N4150 X131.822 Y-44.605 Z-1.527
N4155 X131.752 Y-44.566 Z-1.497
N4160 X131.592 Y-44.486 Z-1.427
N4165 X131.568 Y-44.475 Z-1.417
N4170 X131.411 Y-44.413 Z-1.347
N4175 X131.247 Y-44.353 Z-1.277
N4180 X131.098 Y-44.311 Z-1.213
N4185 X131.018 Y-44.291 Z-1.18
N4190 X130.962 Y-44.272 Z-1.161
N4195 X130.934 Y-44.261 Z-1.158
N4200 X130.915 Y-44.254 Z-1.16
N4205 X130.866 Y-44.234 Z-1.174
N4210 X130.781 Y-44.197 Z-1.208
N4215 X130.585 Y-44.116 Z-1.292
N4220 X130.535 Y-44.099 Z-1.311
N4225 X130.406 Y-44.06 Z-1.362
N4230 X130.257 Y-44.023 Z-1.419
N4235 X130.151 Y-44.002 Z-1.456
N4240 X130.046 Y-43.986 Z-1.495
N4245 X129.894 Y-43.97 Z-1.545
N4250 X129.812 Y-43.964 Z-1.574
N4255 X129.668 Y-43.961 Z-1.619
N4260 X129.582 Y-43.964 Z-1.646
N4265 X129.46 Y-43.972 Z-1.683
N4270 X129.319 Y-43.987 Z-1.722
N4275 X129.209 Y-44.007 Z-1.753
N4280 X129.081 Y-44.033 Z-1.786
N4285 X128.949 Y-44.069 Z-1.821
N4290 X128.781 Y-44.125 Z-1.861
N4295 X128.675 Y-44.167 Z-1.887
N4300 X128.538 Y-44.229 Z-1.92
N4305 X128.471 Y-44.263 Z-1.934
N4310 X128.381 Y-44.312 Z-1.954
N4315 X128.245 Y-44.396 Z-1.987
N4320 X128.095 Y-44.497 Z-2.019
N4325 X127.946 Y-44.609 Z-2.051
N4330 X127.835 Y-44.7 Z-2.072
N4335 X127.798 Y-44.731 Z-2.08
N4340 X127.634 Y-44.881 Z-2.111
N4345 X127.511 Y-45.006 Z-2.135
N4350 X127.357 Y-45.176 Z-2.162
N4355 X127.207 Y-45.366 Z-2.188
N4360 X127.113 Y-45.496 Z-2.206
N4365 X126.982 Y-45.698 Z-2.229
N4370 X126.873 Y-45.891 Z-2.25
N4375 X126.833 Y-45.97 Z-2.257
N4380 X126.778 Y-46.084 Z-2.27
N4385 X126.704 Y-46.254 Z-2.285
N4390 X126.685 Y-46.302 Z-2.291
N4395 X126.601 Y-46.535 Z-2.311
N4400 X126.532 Y-46.772 Z-2.332
N4405 X126.48 Y-47.007 Z-2.35
N4410 X126.464 Y-47.093 Z-2.356
N4415 X126.434 Y-47.289 Z-2.371
N4420 X126.412 Y-47.482 Z-2.387
N4425 X126.405 Y-47.568 Z-2.393
N4430 X126.397 Y-47.711 Z-2.406
N4435 X126.392 Y-47.931 Z-2.424
N4440 X126.393 Y-48.143 Z-2.437
N4445 X126.406 Y-48.341 Z-2.451
N4450 X126.438 Y-48.655 Z-2.466
N4455 X126.46 Y-48.815 Z-2.475
N4460 X126.5 Y-49.069 Z-2.485
N4465 X126.549 Y-49.324 Z-2.495
N4470 X126.597 Y-49.556 Z-2.5
N4475 X126.648 Y-49.78 Z-2.503
N4480 X126.758 Y-50.246 Z-2.502
N4485 X126.827 Y-50.564 Z-2.493
N4490 X126.881 Y-50.854 Z-2.475
N4495 X126.921 Y-51.138 Z-2.447
N4500 X126.93 Y-51.246 Z-2.434
N4505 X126.937 Y-51.365 Z-2.416
N4510 X126.942 Y-51.602 Z-2.375
N4515 X126.945 Y-51.718 Z-2.361
N4520 X126.954 Y-51.833 Z-2.352
N4525 X126.975 Y-52.003 Z-2.349
N4530 X126.992 Y-52.111 Z-2.354
N4535 X127.013 Y-52.219 Z-2.364
N4540 X127.039 Y-52.326 Z-2.378
N4545 X127.065 Y-52.424 Z-2.396
N4550 X127.095 Y-52.528 Z-2.422
N4555 X127.129 Y-52.632 Z-2.452
N4560 X127.167 Y-52.736 Z-2.486
N4565 X127.197 Y-52.814 Z-2.515
N4570 X127.231 Y-52.903 Z-2.553
N4575 X127.287 Y-53.039 Z-2.618
N4580 X127.349 Y-53.176 Z-2.691
N4585 Z5.
N4590 X112.033 Y-32.06
N4595 Z4.
N4600 Z-1.
N4605 X112.239 Y-31.914 Z-1.097
N4610 X112.441 Y-31.766 Z-1.197
N4615 X112.823 Y-31.461 Z-1.4
N4620 X112.956 Y-31.347 Z-1.477
N4625 X113.19 Y-31.135 Z-1.611
N4630 X113.359 Y-30.971 Z-1.718
N4635 X113.536 Y-30.787 Z-1.827
N4640 X113.717 Y-30.589 Z-1.949
N4645 X113.859 Y-30.422 Z-2.044
N4650 X114.002 Y-30.239 Z-2.145
N4655 X114.127 Y-30.069 Z-2.233
N4660 X114.236 Y-29.907 Z-2.312
N4665 X114.332 Y-29.752 Z-2.383
N4670 X114.396 Y-29.641 Z-2.43
N4675 X114.491 Y-29.46 Z-2.502
N4680 X114.59 Y-29.249 Z-2.575
N4685 X114.692 Y-29.045 Z-2.659
N4690 X114.777 Y-28.896 Z-2.731
N4695 X114.87 Y-28.749 Z-2.812
N4700 X114.972 Y-28.601 Z-2.901
N4705 X115.082 Y-28.455 Z-2.999
N4710 X115.201 Y-28.309 Z-3.106
N4715 X115.329 Y-28.164 Z-3.221
N4720 X115.465 Y-28.02 Z-3.344
N4725 X115.609 Y-27.876 Z-3.477
N4730 X115.744 Y-27.754 Z-3.597
N4735 X115.886 Y-27.632 Z-3.724
N4740 X116.018 Y-27.528 Z-3.839
N4745 X116.155 Y-27.424 Z-3.96
N4750 X116.272 Y-27.343 Z-4.059
N4755 X116.393 Y-27.262 Z-4.162
N4760 X116.582 Y-27.148 Z-4.318
N4765 X116.585 Y-27.103 Z-4.309
N4770 X116.623 Y-26.693 Z-4.221
N4775 X116.647 Y-26.47 Z-4.172
N4780 X116.688 Y-26.12 Z-4.091
N4785 X116.735 Y-25.763 Z-4.004
N4790 X116.81 Y-25.239 Z-3.87
N4795 X116.852 Y-24.961 Z-3.8
N4800 X117.037 Y-23.853 Z-3.506
N4805 X117.046 Y-23.8 Z-3.492
N4810 X117.15 Y-23.235 Z-3.345
N4815 X117.324 Y-22.303 Z-3.1
N4820 X117.513 Y-21.337 Z-2.86
N4825 X117.585 Y-20.955 Z-2.768
N4830 X117.719 Y-20.277 Z-2.613
N4835 X117.724 Y-20.246 Z-2.607
N4840 X117.744 Y-20.107 Z-2.586
N4845 X117.757 Y-19.969 Z-2.571
N4850 X117.765 Y-19.831 Z-2.561
N4855 X117.766 Y-19.693 Z-2.558
N4860 X117.761 Y-19.545 Z-2.562
N4865 X117.751 Y-19.411 Z-2.572
N4870 X117.736 Y-19.277 Z-2.589
N4875 X117.715 Y-19.143 Z-2.611
N4880 X117.688 Y-19.009 Z-2.638
N4885 X117.646 Y-18.839 Z-2.682
N4890 X117.607 Y-18.705 Z-2.724
N4895 X117.563 Y-18.57 Z-2.772
N4900 X117.513 Y-18.435 Z-2.825
N4905 X117.457 Y-18.3 Z-2.885
N4910 X117.373 Y-18.117 Z-2.975
N4915 X117.297 Y-17.965 Z-3.058
N4920 X117.214 Y-17.813 Z-3.149
N4925 X117.124 Y-17.661 Z-3.246
N4930 X117.027 Y-17.508 Z-3.351
N4935 X116.923 Y-17.355 Z-3.463
N4940 X116.812 Y-17.201 Z-3.582
N4945 X116.775 Y-17.219 Z-3.557
N4950 X116.598 Y-17.312 Z-3.431
N4955 X116.427 Y-17.409 Z-3.313
N4960 X116.265 Y-17.509 Z-3.204
N4965 X116.109 Y-17.612 Z-3.102
N4970 X115.959 Y-17.723 Z-3.004
N4975 X115.818 Y-17.838 Z-2.913
N4980 X115.684 Y-17.956 Z-2.832
N4985 X115.558 Y-18.078 Z-2.759
N4990 X115.476 Y-18.165 Z-2.711
N4995 X115.399 Y-18.254 Z-2.667
N5000 X115.325 Y-18.345 Z-2.627
N5005 X115.117 Y-18.61 Z-2.518
N5010 X114.849 Y-18.966 Z-2.364
N5015 X114.692 Y-19.169 Z-2.272
N5020 X114.634 Y-19.248 Z-2.235
N5025 X114.409 Y-19.536 Z-2.087
N5030 X114.299 Y-19.669 Z-2.012
N5035 X114.175 Y-19.817 Z-1.924
N5040 X114.039 Y-19.974 Z-1.824
N5045 X113.886 Y-20.144 Z-1.707
N5050 X113.684 Y-20.361 Z-1.547
N5055 X113.518 Y-20.537 Z-1.41
N5060 X113.294 Y-20.765 Z-1.221
N5065 X113.04 Y-21.019 Z-1.001
N5070 X113.294 Y-20.765 Z-1.221
N5075 X113.518 Y-20.537 Z-1.41
N5080 X113.684 Y-20.361 Z-1.547
N5085 X113.886 Y-20.144 Z-1.707
N5090 X114.039 Y-19.974 Z-1.824
N5095 X114.175 Y-19.817 Z-1.924
N5100 X114.299 Y-19.669 Z-2.012
N5105 X114.409 Y-19.536 Z-2.087
N5110 X114.634 Y-19.248 Z-2.235
N5115 X114.692 Y-19.169 Z-2.272
N5120 X114.849 Y-18.966 Z-2.364
N5125 X115.117 Y-18.61 Z-2.518
N5130 X115.325 Y-18.345 Z-2.627
N5135 X115.399 Y-18.254 Z-2.667
N5140 X115.476 Y-18.165 Z-2.711
N5145 X115.558 Y-18.078 Z-2.759
N5150 X115.684 Y-17.956 Z-2.832
N5155 X115.818 Y-17.838 Z-2.913
N5160 X115.959 Y-17.723 Z-3.004
N5165 X116.109 Y-17.612 Z-3.102
N5170 X116.265 Y-17.509 Z-3.204
N5175 X116.427 Y-17.409 Z-3.313
N5180 X116.598 Y-17.312 Z-3.431
N5185 X116.775 Y-17.219 Z-3.557
N5190 X116.812 Y-17.201 Z-3.582
N5195 X116.913 Y-16.799 Z-3.502
N5200 X116.961 Y-16.614 Z-3.467
N5205 X117.135 Y-15.988 Z-3.34
N5210 X117.318 Y-15.359 Z-3.208
N5215 X117.72 Y-14.058 Z-2.926
N5220 X118.141 Y-12.742 Z-2.636
N5225 X118.556 Y-11.421 Z-2.351
N5230 X118.756 Y-10.758 Z-2.213
N5235 X118.946 Y-10.092 Z-2.079
N5240 X119.017 Y-9.828 Z-2.03
N5245 X119.12 Y-9.428 Z-1.951
N5250 X119.285 Y-8.744 Z-1.829
N5255 X119.417 Y-8.107 Z-1.72
N5260 X119.528 Y-7.48 Z-1.621
N5265 X119.533 Y-7.448 Z-1.617
N5270 X119.575 Y-7.153 Z-1.576
N5275 X119.623 Y-6.79 Z-1.522
N5280 X119.639 Y-6.631 Z-1.503
N5285 X119.685 Y-6.111 Z-1.436
N5290 X119.702 Y-5.812 Z-1.399
N5295 X119.713 Y-5.481 Z-1.362
N5300 X119.715 Y-5.083 Z-1.322
N5305 X119.708 Y-4.819 Z-1.295
N5310 X119.692 Y-4.487 Z-1.265
N5315 X119.659 Y-4.072 Z-1.231
N5320 X119.63 Y-3.817 Z-1.209
N5325 X119.583 Y-3.478 Z-1.184
N5330 X119.513 Y-3.079 Z-1.157
N5335 X119.453 Y-2.795 Z-1.136
N5340 X119.406 Y-2.59 Z-1.125
N5345 X119.37 Y-2.45 Z-1.114
N5350 X119.275 Y-2.101 Z-1.093
N5355 X119.163 Y-1.749 Z-1.07
N5360 X119.121 Y-1.625 Z-1.064
N5365 X119.038 Y-1.395 Z-1.047
N5370 X118.943 Y-1.148 Z-1.033
N5375 X118.898 Y-1.037 Z-1.023
N5380 X118.742 Y-0.676 Z-1.
N5385 X118.898 Y-1.037 Z-1.023
N5390 X118.943 Y-1.148 Z-1.033
N5395 X119.038 Y-1.395 Z-1.047
N5400 X119.121 Y-1.625 Z-1.064
N5405 X119.163 Y-1.749 Z-1.07
N5410 X119.275 Y-2.101 Z-1.093
N5415 X119.37 Y-2.45 Z-1.114
N5420 X119.406 Y-2.59 Z-1.125
N5425 X119.453 Y-2.795 Z-1.136
N5430 X119.513 Y-3.079 Z-1.157
N5435 X119.583 Y-3.478 Z-1.184
N5440 X119.63 Y-3.817 Z-1.209
N5445 X119.659 Y-4.072 Z-1.231
N5450 X119.692 Y-4.487 Z-1.265
N5455 X119.708 Y-4.819 Z-1.295
N5460 X119.715 Y-5.083 Z-1.322
N5465 X119.713 Y-5.481 Z-1.362
N5470 X119.702 Y-5.812 Z-1.399
N5475 X119.685 Y-6.111 Z-1.436
N5480 X119.639 Y-6.631 Z-1.503
N5485 X119.623 Y-6.79 Z-1.522
N5490 X119.575 Y-7.153 Z-1.576
N5495 X119.533 Y-7.448 Z-1.617
N5500 X119.528 Y-7.48 Z-1.621
N5505 X119.417 Y-8.107 Z-1.72
N5510 X119.285 Y-8.744 Z-1.829
N5515 X119.12 Y-9.428 Z-1.951
N5520 X119.017 Y-9.828 Z-2.03
N5525 X118.946 Y-10.092 Z-2.079
N5530 X118.756 Y-10.758 Z-2.213
N5535 X118.556 Y-11.421 Z-2.351
N5540 X118.141 Y-12.742 Z-2.636
N5545 X117.72 Y-14.058 Z-2.926
N5550 X117.318 Y-15.359 Z-3.208
N5555 X117.135 Y-15.988 Z-3.34
N5560 X116.961 Y-16.614 Z-3.467
N5565 X116.913 Y-16.799 Z-3.502
N5570 X116.812 Y-17.201 Z-3.582
N5575 X116.923 Y-17.355 Z-3.463
N5580 X117.027 Y-17.508 Z-3.351
N5585 X117.124 Y-17.661 Z-3.246
N5590 X117.214 Y-17.813 Z-3.149
N5595 X117.297 Y-17.965 Z-3.058
N5600 X117.373 Y-18.117 Z-2.975
N5605 X117.457 Y-18.3 Z-2.885
N5610 X117.513 Y-18.435 Z-2.825
N5615 X117.563 Y-18.57 Z-2.772
N5620 X117.607 Y-18.705 Z-2.724
N5625 X117.646 Y-18.839 Z-2.682
N5630 X117.688 Y-19.009 Z-2.638
N5635 X117.715 Y-19.143 Z-2.611
N5640 X117.736 Y-19.277 Z-2.589
N5645 X117.751 Y-19.411 Z-2.572
N5650 X117.761 Y-19.545 Z-2.562
N5655 X117.766 Y-19.693 Z-2.558
N5660 X117.765 Y-19.831 Z-2.561
N5665 X117.757 Y-19.969 Z-2.571
N5670 X117.744 Y-20.107 Z-2.586
N5675 X117.724 Y-20.246 Z-2.607
N5680 X117.719 Y-20.277 Z-2.613
N5685 X117.585 Y-20.955 Z-2.768
N5690 X117.513 Y-21.337 Z-2.86
N5695 X117.324 Y-22.303 Z-3.1
N5700 X117.15 Y-23.235 Z-3.345
N5705 X117.046 Y-23.8 Z-3.492
N5710 X117.037 Y-23.853 Z-3.506
N5715 X116.852 Y-24.961 Z-3.8
N5720 X116.81 Y-25.239 Z-3.87
N5725 X116.735 Y-25.763 Z-4.004
N5730 X116.688 Y-26.12 Z-4.091
N5735 X116.647 Y-26.47 Z-4.172
N5740 X116.623 Y-26.693 Z-4.221
N5745 X116.585 Y-27.103 Z-4.309
N5750 X116.582 Y-27.148 Z-4.318
N5755 X116.721 Y-27.312 Z-4.2
N5760 X116.852 Y-27.477 Z-4.09
N5765 X116.976 Y-27.643 Z-3.987
N5770 X117.094 Y-27.809 Z-3.891
N5775 X117.208 Y-27.983 Z-3.799
N5780 X117.318 Y-28.161 Z-3.713
N5785 X117.419 Y-28.341 Z-3.635
N5790 X117.512 Y-28.521 Z-3.565
N5795 X117.598 Y-28.702 Z-3.502
N5800 X117.676 Y-28.884 Z-3.448
N5805 X117.745 Y-29.067 Z-3.402
N5810 X117.807 Y-29.251 Z-3.363
N5815 X117.837 Y-29.346 Z-3.347
N5820 X117.868 Y-29.443 Z-3.336
N5825 X117.9 Y-29.544 Z-3.328
N5830 X117.934 Y-29.653 Z-3.325
N5835 X117.97 Y-29.766 Z-3.328
N5840 X118.006 Y-29.88 Z-3.337
N5845 X118.042 Y-29.996 Z-3.353
N5850 X118.079 Y-30.113 Z-3.375
N5855 X118.117 Y-30.233 Z-3.404
N5860 X118.156 Y-30.357 Z-3.44
N5865 X118.196 Y-30.485 Z-3.483
N5870 X118.238 Y-30.617 Z-3.536
N5875 X118.289 Y-30.773 Z-3.603
N5880 X118.346 Y-30.93 Z-3.676
N5885 X118.399 Y-31.058 Z-3.738
N5890 X118.456 Y-31.186 Z-3.803
N5895 X118.519 Y-31.316 Z-3.87
N5900 X118.587 Y-31.445 Z-3.942
N5905 X118.654 Y-31.564 Z-4.009
N5910 X118.724 Y-31.682 Z-4.079
N5915 X118.856 Y-31.883 Z-4.202
N5920 X118.84 Y-32.06 Z-4.179
N5925 X118.829 Y-32.244 Z-4.16
N5930 X118.815 Y-32.812 Z-4.096
N5935 X118.808 Y-33.192 Z-4.043
N5940 X118.797 Y-33.616 Z-3.977
N5945 X118.778 Y-34.109 Z-3.89
N5950 X118.765 Y-34.407 Z-3.832
N5955 X118.743 Y-34.781 Z-3.755
N5960 X118.716 Y-35.139 Z-3.675
N5965 X118.673 Y-35.591 Z-3.566
N5970 X118.648 Y-35.807 Z-3.513
N5975 X118.606 Y-36.122 Z-3.43
N5980 X118.559 Y-36.428 Z-3.345
N5985 X118.505 Y-36.721 Z-3.261
N5990 X118.447 Y-37.004 Z-3.174
N5995 X118.402 Y-37.203 Z-3.11
N6000 X118.383 Y-37.281 Z-3.086
N6005 X118.313 Y-37.548 Z-2.998
N6010 X118.238 Y-37.809 Z-2.906
N6015 X118.156 Y-38.068 Z-2.81
N6020 X118.049 Y-38.371 Z-2.694
N6025 X117.971 Y-38.574 Z-2.614
N6030 X117.866 Y-38.827 Z-2.509
N6035 X117.754 Y-39.073 Z-2.405
N6040 X117.635 Y-39.318 Z-2.295
N6045 X117.47 Y-39.63 Z-2.15
N6050 X117.365 Y-39.813 Z-2.064
N6055 X117.215 Y-40.062 Z-1.941
N6060 X117.019 Y-40.364 Z-1.786
N6065 X117. Y-40.391 Z-1.771
N6070 X116.706 Y-40.805 Z-1.553
N6075 X116.465 Y-41.11 Z-1.382
N6080 X116.313 Y-41.296 Z-1.281
N6085 X116.178 Y-41.45 Z-1.189
N6090 X115.881 Y-41.778 Z-1.
N6095 X116.178 Y-41.45 Z-1.189
N6100 X116.313 Y-41.296 Z-1.281
N6105 X116.465 Y-41.11 Z-1.382
N6110 X116.706 Y-40.805 Z-1.553
N6115 X117. Y-40.391 Z-1.771
N6120 X117.019 Y-40.364 Z-1.786
N6125 X117.215 Y-40.062 Z-1.941
N6130 X117.365 Y-39.813 Z-2.064
N6135 X117.47 Y-39.63 Z-2.15
N6140 X117.635 Y-39.318 Z-2.295
N6145 X117.754 Y-39.073 Z-2.405
N6150 X117.866 Y-38.827 Z-2.509
N6155 X117.971 Y-38.574 Z-2.614
N6160 X118.049 Y-38.371 Z-2.694
N6165 X118.156 Y-38.068 Z-2.81
N6170 X118.238 Y-37.809 Z-2.906
N6175 X118.313 Y-37.548 Z-2.998
N6180 X118.383 Y-37.281 Z-3.086
N6185 X118.402 Y-37.203 Z-3.11
N6190 X118.447 Y-37.004 Z-3.174
N6195 X118.505 Y-36.721 Z-3.261
N6200 X118.559 Y-36.428 Z-3.345
N6205 X118.606 Y-36.122 Z-3.43
N6210 X118.648 Y-35.807 Z-3.513
N6215 X118.673 Y-35.591 Z-3.566
N6220 X118.716 Y-35.139 Z-3.675
N6225 X118.743 Y-34.781 Z-3.755
N6230 X118.765 Y-34.407 Z-3.832
N6235 X118.778 Y-34.109 Z-3.89
N6240 X118.797 Y-33.616 Z-3.977
N6245 X118.808 Y-33.192 Z-4.043
N6250 X118.815 Y-32.812 Z-4.096
N6255 X118.829 Y-32.244 Z-4.16
N6260 X118.84 Y-32.06 Z-4.179
N6265 X118.856 Y-31.883 Z-4.202
N6270 X119.01 Y-31.808 Z-4.073
N6275 X119.162 Y-31.734 Z-3.951
N6280 X119.31 Y-31.662 Z-3.836
N6285 X119.455 Y-31.592 Z-3.727
N6290 X119.597 Y-31.522 Z-3.627
N6295 X119.737 Y-31.454 Z-3.533
N6300 X119.875 Y-31.387 Z-3.448
N6305 X120.011 Y-31.321 Z-3.37
N6310 X120.146 Y-31.255 Z-3.301
N6315 X120.279 Y-31.191 Z-3.24
N6320 X120.41 Y-31.127 Z-3.187
N6325 X120.541 Y-31.063 Z-3.144
N6330 X120.67 Y-31. Z-3.11
N6335 X120.799 Y-30.937 Z-3.086
N6340 X120.928 Y-30.875 Z-3.071
N6345 X121.056 Y-30.812 Z-3.066
N6350 X121.147 Y-30.768 Z-3.068
N6355 X121.237 Y-30.724 Z-3.076
N6360 X121.329 Y-30.68 Z-3.088
N6365 X121.42 Y-30.635 Z-3.105
N6370 X121.512 Y-30.59 Z-3.127
N6375 X121.605 Y-30.545 Z-3.154
N6380 X121.699 Y-30.499 Z-3.186
N6385 X121.794 Y-30.453 Z-3.223
N6390 X121.89 Y-30.406 Z-3.265
N6395 X121.987 Y-30.359 Z-3.311
N6400 X122.086 Y-30.311 Z-3.363
N6405 X122.187 Y-30.262 Z-3.419
N6410 X122.29 Y-30.212 Z-3.48
N6415 X122.394 Y-30.161 Z-3.546
N6420 X122.501 Y-30.109 Z-3.617
N6425 X122.61 Y-30.056 Z-3.694
N6430 X122.715 Y-30.207 Z-3.576
N6435 X122.813 Y-30.357 Z-3.465
N6440 X122.904 Y-30.511 Z-3.357
N6445 X122.989 Y-30.663 Z-3.255
N6450 X123.068 Y-30.815 Z-3.16
N6455 X123.14 Y-30.967 Z-3.072
N6460 X123.205 Y-31.117 Z-2.99
N6465 X123.264 Y-31.267 Z-2.915
N6470 X123.316 Y-31.416 Z-2.847
N6475 X123.355 Y-31.544 Z-2.793
N6480 X123.389 Y-31.671 Z-2.743
N6485 X123.418 Y-31.798 Z-2.699
N6490 X123.442 Y-31.925 Z-2.659
N6495 X123.463 Y-32.065 Z-2.62
N6500 X123.478 Y-32.205 Z-2.588
N6505 X123.539 Y-32.909 Z-2.437
N6510 X123.588 Y-33.399 Z-2.326
N6515 X123.62 Y-33.671 Z-2.26
N6520 X123.657 Y-33.946 Z-2.189
N6525 X123.714 Y-34.3 Z-2.089
N6530 X123.749 Y-34.492 Z-2.032
N6535 X123.807 Y-34.768 Z-1.944
N6540 X123.875 Y-35.051 Z-1.847
N6545 X123.956 Y-35.342 Z-1.74
N6550 X124.052 Y-35.647 Z-1.619
N6555 X124.167 Y-35.967 Z-1.485
N6560 X124.307 Y-36.304 Z-1.335
N6565 X124.419 Y-36.542 Z-1.224
N6570 X124.476 Y-36.657 Z-1.172
N6575 X124.555 Y-36.803 Z-1.101
N6580 X124.682 Y-37.022 Z-1.001
N6585 X124.555 Y-36.803 Z-1.101
N6590 X124.476 Y-36.657 Z-1.172
N6595 X124.419 Y-36.542 Z-1.224
N6600 X124.307 Y-36.304 Z-1.335
N6605 X124.167 Y-35.967 Z-1.485
N6610 X124.052 Y-35.647 Z-1.619
N6615 X123.956 Y-35.342 Z-1.74
N6620 X123.875 Y-35.051 Z-1.847
N6625 X123.807 Y-34.768 Z-1.944
N6630 X123.749 Y-34.492 Z-2.032
N6635 X123.714 Y-34.3 Z-2.089
N6640 X123.657 Y-33.946 Z-2.189
N6645 X123.62 Y-33.671 Z-2.26
N6650 X123.588 Y-33.399 Z-2.326
N6655 X123.539 Y-32.909 Z-2.437
N6660 X123.478 Y-32.205 Z-2.588
N6665 X123.463 Y-32.065 Z-2.62
N6670 X123.442 Y-31.925 Z-2.659
N6675 X123.418 Y-31.798 Z-2.699
N6680 X123.389 Y-31.671 Z-2.743
N6685 X123.355 Y-31.544 Z-2.793
N6690 X123.316 Y-31.416 Z-2.847
N6695 X123.264 Y-31.267 Z-2.915
N6700 X123.205 Y-31.117 Z-2.99
N6705 X123.14 Y-30.967 Z-3.072
N6710 X123.068 Y-30.815 Z-3.16
N6715 X122.989 Y-30.663 Z-3.255
N6720 X122.904 Y-30.511 Z-3.357
N6725 X122.813 Y-30.357 Z-3.465
N6730 X122.715 Y-30.207 Z-3.576
N6735 X122.61 Y-30.056 Z-3.694
N6740 X122.654 Y-29.878 Z-3.667
N6745 X122.691 Y-29.7 Z-3.646
N6750 X122.773 Y-29.263 Z-3.601
N6755 X122.951 Y-28.241 Z-3.486
N6760 X123.008 Y-27.88 Z-3.442
N6765 X123.079 Y-27.397 Z-3.38
N6770 X123.141 Y-26.918 Z-3.315
N6775 X123.202 Y-26.374 Z-3.235
N6780 X123.239 Y-25.986 Z-3.175
N6785 X123.273 Y-25.532 Z-3.1
N6790 X123.296 Y-25.088 Z-3.021
N6795 X123.302 Y-24.927 Z-2.989
N6800 X123.309 Y-24.653 Z-2.937
N6805 Y-24.149 Z-2.829
N6810 X123.3 Y-23.818 Z-2.755
N6815 X123.274 Y-23.367 Z-2.64
N6820 X123.238 Y-22.969 Z-2.532
N6825 X123.227 Y-22.82 Z-2.495
N6830 X123.225 Y-22.672 Z-2.466
N6835 X123.23 Y-22.498 Z-2.44
N6840 X123.238 Y-22.396 Z-2.431
N6845 X123.249 Y-22.294 Z-2.426
N6850 X123.264 Y-22.193 Z-2.424
N6855 X123.287 Y-22.068 Z-2.427
N6860 X123.316 Y-21.944 Z-2.435
N6865 X123.351 Y-21.82 Z-2.449
N6870 X123.401 Y-21.669 Z-2.475
N6875 X123.452 Y-21.534 Z-2.507
N6880 X123.51 Y-21.401 Z-2.545
N6885 X123.575 Y-21.269 Z-2.591
N6890 X123.647 Y-21.137 Z-2.643
N6895 X123.725 Y-21.007 Z-2.702
N6900 X123.836 Y-20.84 Z-2.789
N6905 X123.933 Y-20.705 Z-2.869
N6910 X124.036 Y-20.572 Z-2.956
N6915 X124.148 Y-20.44 Z-3.051
N6920 X124.266 Y-20.309 Z-3.153
N6925 X124.392 Y-20.178 Z-3.262
N6930 X124.579 Y-19.997 Z-3.427
N6935 X124.751 Y-19.841 Z-3.583
N6940 X124.9 Y-19.979 Z-3.456
N6945 X125.042 Y-20.117 Z-3.336
N6950 X125.175 Y-20.257 Z-3.225
N6955 X125.3 Y-20.398 Z-3.121
N6960 X125.417 Y-20.54 Z-3.026
N6965 X125.523 Y-20.68 Z-2.941
N6970 X125.621 Y-20.822 Z-2.863
N6975 X125.712 Y-20.964 Z-2.794
N6980 X125.795 Y-21.107 Z-2.732
N6985 X125.87 Y-21.252 Z-2.677
N6990 X125.924 Y-21.369 Z-2.639
N6995 X125.974 Y-21.487 Z-2.606
N7000 X126.018 Y-21.605 Z-2.578
N7005 X126.045 Y-21.683 Z-2.562
N7010 X126.069 Y-21.761 Z-2.549
N7015 X126.175 Y-22.119 Z-2.492
N7020 X126.272 Y-22.413 Z-2.436
N7025 X126.374 Y-22.692 Z-2.373
N7030 X126.48 Y-22.96 Z-2.304
N7035 X126.614 Y-23.261 Z-2.214
N7040 X126.718 Y-23.479 Z-2.143
N7045 X126.851 Y-23.735 Z-2.051
N7050 X126.994 Y-23.994 Z-1.95
N7055 X127.148 Y-24.253 Z-1.841
N7060 X127.314 Y-24.515 Z-1.724
N7065 X127.493 Y-24.78 Z-1.601
N7070 X127.531 Y-24.834 Z-1.574
N7075 X127.682 Y-25.044 Z-1.473
N7080 X127.832 Y-25.241 Z-1.374
N7085 X127.973 Y-25.418 Z-1.288
N7090 X128.107 Y-25.581 Z-1.21
N7095 X128.234 Y-25.723 Z-1.141
N7100 X128.353 Y-25.85 Z-1.082
N7105 X128.462 Y-25.958 Z-1.035
N7110 X128.561 Y-26.048 Z-1.
N7115 X128.462 Y-25.958 Z-1.035
N7120 X128.353 Y-25.85 Z-1.082
N7125 X128.234 Y-25.723 Z-1.141
N7130 X128.107 Y-25.581 Z-1.21
N7135 X127.973 Y-25.418 Z-1.288
N7140 X127.832 Y-25.241 Z-1.374
N7145 X127.682 Y-25.044 Z-1.473
N7150 X127.531 Y-24.834 Z-1.574
N7155 X127.493 Y-24.78 Z-1.601
N7160 X127.314 Y-24.515 Z-1.724
N7165 X127.148 Y-24.253 Z-1.841
N7170 X126.994 Y-23.994 Z-1.95
N7175 X126.851 Y-23.735 Z-2.051
N7180 X126.718 Y-23.479 Z-2.143
N7185 X126.614 Y-23.261 Z-2.214
N7190 X126.48 Y-22.96 Z-2.304
N7195 X126.374 Y-22.692 Z-2.373
N7200 X126.272 Y-22.413 Z-2.436
N7205 X126.175 Y-22.119 Z-2.492
N7210 X126.069 Y-21.761 Z-2.549
N7215 X126.045 Y-21.683 Z-2.562
N7220 X126.018 Y-21.605 Z-2.578
N7225 X125.974 Y-21.487 Z-2.606
N7230 X125.924 Y-21.369 Z-2.639
N7235 X125.87 Y-21.252 Z-2.677
N7240 X125.795 Y-21.107 Z-2.732
N7245 X125.712 Y-20.964 Z-2.794
N7250 X125.621 Y-20.822 Z-2.863
N7255 X125.523 Y-20.68 Z-2.941
N7260 X125.417 Y-20.54 Z-3.026
N7265 X125.3 Y-20.398 Z-3.121
N7270 X125.175 Y-20.257 Z-3.225
N7275 X125.042 Y-20.117 Z-3.336
N7280 X124.9 Y-19.979 Z-3.456
N7285 X124.751 Y-19.841 Z-3.583
N7290 Y-19.837
N7295 X124.724 Y-19.011 Z-3.48
N7300 X124.678 Y-18.074 Z-3.366
N7305 X124.606 Y-17.073 Z-3.249
N7310 X124.543 Y-16.388 Z-3.173
N7315 X124.509 Y-16.05 Z-3.133
N7320 X124.442 Y-15.472 Z-3.071
N7325 X124.383 Y-15.012 Z-3.017
N7330 X124.317 Y-14.538 Z-2.967
N7335 X124.227 Y-13.952 Z-2.899
N7340 X124.166 Y-13.59 Z-2.862
N7345 X124.036 Y-12.883 Z-2.781
N7350 X123.986 Y-12.631 Z-2.756
N7355 X123.81 Y-11.808 Z-2.661
N7360 X123.777 Y-11.659 Z-2.645
N7365 X123.681 Y-11.264 Z-2.599
N7370 X123.534 Y-10.68 Z-2.534
N7375 X123.39 Y-10.161 Z-2.471
N7380 X123.23 Y-9.606 Z-2.407
N7385 X123.056 Y-9.049 Z-2.339
N7390 X122.943 Y-8.703 Z-2.298
N7395 X122.871 Y-8.493 Z-2.271
N7400 X122.771 Y-8.206 Z-2.235
N7405 X122.673 Y-7.934 Z-2.199
N7410 X122.589 Y-7.708 Z-2.171
N7415 X122.398 Y-7.211 Z-2.105
N7420 X122.195 Y-6.711 Z-2.037
N7425 X121.982 Y-6.213 Z-1.967
N7430 X121.747 Y-5.692 Z-1.891
N7435 X121.481 Y-5.133 Z-1.808
N7440 X121.2 Y-4.574 Z-1.72
N7445 X121.011 Y-4.215 Z-1.663
N7450 X120.903 Y-4.016 Z-1.629
N7455 X120.736 Y-3.715 Z-1.58
N7460 X120.591 Y-3.46 Z-1.534
N7465 X120.449 Y-3.215 Z-1.493
N7470 X120.263 Y-2.906 Z-1.436
N7475 X120.147 Y-2.715 Z-1.402
N7480 X119.831 Y-2.215 Z-1.308
N7485 X119.5 Y-1.716 Z-1.21
N7490 X119.154 Y-1.216 Z-1.107
N7495 X118.792 Y-0.718 Z-1.
N7500 Z5.
N7505 X119.143 Y5.959
N7510 Z4.
N7515 Z-1.001
N7520 X119.152 Y5.95 Z-1.01
N7525 X119.153 Y5.948 Z-1.011
N7530 X119.143 Y5.945 Z-1.001
N7535 X119.153 Y5.948 Z-1.011
N7540 X119.172 Y5.93 Z-1.02
N7545 X119.207 Y5.902 Z-1.029
N7550 X119.255 Y5.864 Z-1.039
N7555 X119.394 Y5.755 Z-1.06
N7560 X119.583 Y5.604 Z-1.082
N7565 X119.823 Y5.411 Z-1.104
N7570 X120.108 Y5.174 Z-1.127
N7575 X120.437 Y4.894 Z-1.15
N7580 X120.808 Y4.569 Z-1.172
N7585 X121.215 Y4.201 Z-1.195
N7590 X121.657 Y3.788 Z-1.218
N7595 X121.89 Y3.565 Z-1.229
N7600 X122.131 Y3.33 Z-1.239
N7605 X122.379 Y3.084 Z-1.25
N7610 X122.634 Y2.827 Z-1.261
N7615 X122.895 Y2.558 Z-1.271
N7620 X123.164 Y2.277 Z-1.281
N7625 X123.436 Y1.985 Z-1.291
N7630 X123.715 Y1.682 Z-1.3
N7635 X123.999 Y1.367 Z-1.309
N7640 X124.287 Y1.041 Z-1.318
N7645 X124.581 Y0.702 Z-1.326
N7650 X124.877 Y0.353 Z-1.335
N7655 X125.184 Y-0.016 Z-1.343
N7660 X125.491 Y-0.396 Z-1.351
N7665 X125.801 Y-0.787 Z-1.358
N7670 X126.11 Y-1.188 Z-1.366
N7675 X126.42 Y-1.601 Z-1.373
N7680 X126.731 Y-2.024 Z-1.38
N7685 X127.041 Y-2.457 Z-1.387
N7690 X127.351 Y-2.902 Z-1.393
N7695 X127.66 Y-3.358 Z-1.399
N7700 X127.966 Y-3.824 Z-1.405
N7705 X128.272 Y-4.301 Z-1.411
N7710 X128.576 Y-4.789 Z-1.417
N7715 X128.876 Y-5.287 Z-1.422
N7720 X129.174 Y-5.796 Z-1.427
N7725 X129.469 Y-6.317 Z-1.432
N7730 X129.76 Y-6.846 Z-1.437
N7735 X130.048 Y-7.388 Z-1.441
N7740 X130.331 Y-7.94 Z-1.445
N7745 X130.609 Y-8.502 Z-1.449
N7750 X130.882 Y-9.075 Z-1.453
N7755 X131.15 Y-9.658 Z-1.456
N7760 X131.412 Y-10.252 Z-1.459
N7765 X131.667 Y-10.856 Z-1.462
N7770 X131.917 Y-11.472 Z-1.464
N7775 X132.159 Y-12.097 Z-1.466
N7780 X132.394 Y-12.733 Z-1.468
N7785 X132.621 Y-13.379 Z-1.47
N7790 X132.84 Y-14.035 Z-1.471
N7795 X133.051 Y-14.703 Z-1.472
N7800 X133.253 Y-15.38 Z-1.473
N7805 X133.446 Y-16.068
N7810 X133.628 Y-16.766
N7815 X133.814 Y-17.526
N7820 X133.984 Y-18.282
N7825 X134.138 Y-19.033 Z-1.471
N7830 X134.277 Y-19.78 Z-1.47
N7835 X134.402 Y-20.521 Z-1.468
N7840 X134.512 Y-21.258 Z-1.466
N7845 X134.608 Y-21.988 Z-1.464
N7850 X134.69 Y-22.714 Z-1.461
N7855 X134.759 Y-23.433 Z-1.458
N7860 X134.814 Y-24.146 Z-1.455
N7865 X134.857 Y-24.853 Z-1.451
N7870 X134.886 Y-25.552 Z-1.447
N7875 X134.904 Y-26.246 Z-1.443
N7880 X134.909 Y-26.932 Z-1.438
N7885 X134.902 Y-27.61 Z-1.434
N7890 X134.885 Y-28.282 Z-1.428
N7895 X134.845 Y-29.16 Z-1.421
N7900 X134.79 Y-30.019 Z-1.413
N7905 X134.718 Y-30.854 Z-1.404
N7910 X134.634 Y-31.666 Z-1.395
N7915 X134.537 Y-32.454 Z-1.384
N7920 X134.429 Y-33.218 Z-1.373
N7925 X134.311 Y-33.958 Z-1.362
N7930 X134.183 Y-34.673 Z-1.35
N7935 X134.049 Y-35.362 Z-1.337
N7940 X133.907 Y-36.027 Z-1.322
N7945 X133.76 Y-36.666 Z-1.308
N7950 X133.609 Y-37.279 Z-1.293
N7955 X133.455 Y-37.866 Z-1.278
N7960 X133.298 Y-38.426 Z-1.262
N7965 X133.14 Y-38.96 Z-1.246
N7970 X132.983 Y-39.467 Z-1.229
N7975 X132.827 Y-39.945 Z-1.213
N7980 X132.673 Y-40.396 Z-1.196
N7985 X132.524 Y-40.819 Z-1.179
N7990 X132.379 Y-41.214 Z-1.162
N7995 X132.239 Y-41.579 Z-1.146
N8000 X132.107 Y-41.915 Z-1.13
N8005 X131.873 Y-42.484 Z-1.098
N8010 X131.763 Y-42.743 Z-1.082
N8015 X131.589 Y-43.142 Z-1.054
N8020 X131.469 Y-43.415 Z-1.029
N8025 X131.433 Y-43.502 Z-1.018
N8030 X131.415 Y-43.554 Z-1.009
N8035 X131.407 Z-1.001
N8040 X131.415 Z-1.009
N8045 X131.413 Y-43.578 Z-1.
N8050 Z5.
N8055 X133.51 Y-6.18
N8060 Z4.
N8065 Z-1.001
N8070 X133.538 Y-6.197 Z-1.026
N8075 X133.535 Y-6.171 Z-1.001
N8080 X133.538 Y-6.197 Z-1.026
N8085 X133.539 Y-6.198 Z-1.027
N8090 X133.514 Y-6.208 Z-1.001
N8095 X133.539 Y-6.198 Z-1.027
N8100 X133.582 Y-6.223 Z-1.047
N8105 X133.654 Y-6.265 Z-1.068
N8110 X133.756 Y-6.323 Z-1.091
N8115 X133.885 Y-6.399 Z-1.113
N8120 X134.038 Y-6.491 Z-1.136
N8125 X134.217 Y-6.601 Z-1.158
N8130 X134.418 Y-6.727 Z-1.18
N8135 X134.641 Y-6.871 Z-1.201
N8140 X134.884 Y-7.033 Z-1.223
N8145 X135.148 Y-7.213 Z-1.243
N8150 X135.429 Y-7.412 Z-1.263
N8155 X135.729 Y-7.629 Z-1.282
N8160 X136.044 Y-7.866 Z-1.3
N8165 X136.374 Y-8.122 Z-1.318
N8170 X136.718 Y-8.397 Z-1.334
N8175 X137.08 Y-8.697 Z-1.35
N8180 X137.449 Y-9.016 Z-1.365
N8185 X137.824 Y-9.353 Z-1.379
N8190 X138.205 Y-9.708 Z-1.392
N8195 X138.589 Y-10.082 Z-1.405
N8200 X138.976 Y-10.474 Z-1.416
N8205 X139.366 Y-10.887 Z-1.427
N8210 X139.756 Y-11.318 Z-1.436
N8215 X140.146 Y-11.77 Z-1.444
N8220 X140.534 Y-12.241 Z-1.452
N8225 X140.92 Y-12.733 Z-1.458
N8230 X141.302 Y-13.245 Z-1.464
N8235 X141.679 Y-13.779 Z-1.468
N8240 X142.051 Y-14.333 Z-1.471
N8245 X142.416 Y-14.908 Z-1.472
N8250 X142.772 Y-15.505 Z-1.473
N8255 X143.012 Y-15.933 Z-1.475
N8260 X143.241 Y-16.352 Z-1.472
N8265 X143.457 Y-16.772 Z-1.473
N8270 X143.664 Y-17.189 Z-1.47
N8275 X143.747 Y-17.359 Z-1.467
N8280 X143.86 Y-17.605
N8285 X144.047 Y-18.018 Z-1.464
N8290 X144.175 Y-18.31 Z-1.459
N8295 X144.39 Y-18.836 Z-1.457
N8300 X144.549 Y-19.241 Z-1.45
N8305 X144.696 Y-19.643 Z-1.446
N8310 X144.836 Y-20.041 Z-1.44
N8315 X144.91 Y-20.256 Z-1.435
N8320 X145.089 Y-20.827 Z-1.428
N8325 X145.204 Y-21.21 Z-1.418
N8330 X145.407 Y-21.965 Z-1.402
N8335 X145.492 Y-22.315 Z-1.395
N8340 X145.567 Y-22.638 Z-1.386
N8345 X145.64 Y-22.978 Z-1.377
N8350 X145.703 Y-23.283 Z-1.367
N8355 X145.765 Y-23.612 Z-1.358
N8360 X145.817 Y-23.898 Z-1.347
N8365 X145.869 Y-24.213 Z-1.337
N8370 X145.911 Y-24.482 Z-1.326
N8375 X145.953 Y-24.779 Z-1.314
N8380 X145.987 Y-25.031 Z-1.302
N8385 X146.021 Y-25.309 Z-1.29
N8390 X146.072 Y-25.787 Z-1.265
N8395 X146.093 Y-26.02 Z-1.252
N8400 X146.125 Y-26.453 Z-1.225
N8405 X146.148 Y-26.844 Z-1.197
N8410 X146.162 Y-27.189 Z-1.169
N8415 X146.168 Y-27.487 Z-1.14
N8420 X146.171 Y-27.734 Z-1.112
N8425 X146.17 Y-27.931 Z-1.084
N8430 Y-28.074 Z-1.056
N8435 Y-28.125 Z-1.043
N8440 Y-28.161 Z-1.03
N8445 X146.171 Y-28.182 Z-1.019
N8450 X146.159 Y-28.196 Z-1.001
N8455 X146.171 Y-28.182 Z-1.019
N8460 X146.172 Y-28.186 Z-1.016
N8465 X146.183 Y-28.196 Z-1.001
N8470 X146.172 Y-28.186 Z-1.016
N8475 X146.173 Y-28.203 Z-1.001
N8480 Z5.
N8485 X118.546 Y18.706
N8490 Z4.
N8495 Z-1.001
N8500 X118.56 Y18.705 Z-1.008
N8505 X118.556 Y18.698 Z-1.001
N8510 X118.56 Y18.705 Z-1.008
N8515 X118.632 Y18.706 Z-1.022
N8520 X118.781 Y18.713 Z-1.039
N8525 X119.001 Y18.724 Z-1.057
N8530 X119.291 Y18.738 Z-1.075
N8535 X119.649 Y18.751 Z-1.094
N8540 X120.074 Y18.763 Z-1.114
N8545 X120.564 Y18.771 Z-1.134
N8550 X121.118 Y18.774 Z-1.154
N8555 X121.734 Y18.769 Z-1.174
N8560 X122.41 Y18.755 Z-1.194
N8565 X122.781 Y18.743 Z-1.204
N8570 X123.535 Y18.711 Z-1.223
N8575 X123.939 Y18.69 Z-1.232
N8580 X124.358 Y18.665 Z-1.241
N8585 X124.789 Y18.636 Z-1.25
N8590 X125.235 Y18.602 Z-1.259
N8595 X125.694 Y18.564 Z-1.267
N8600 X126.167 Y18.522 Z-1.276
N8605 X126.652 Y18.474 Z-1.284
N8610 X127.15 Y18.421 Z-1.291
N8615 X127.663 Y18.362 Z-1.299
N8620 X128.186 Y18.297 Z-1.306
N8625 X128.721 Y18.225 Z-1.314
N8630 X129.267 Y18.146 Z-1.321
N8635 X129.822 Y18.061 Z-1.328
N8640 X130.39 Y17.968 Z-1.335
N8645 X130.966 Y17.867 Z-1.341
N8650 X131.552 Y17.758 Z-1.348
N8655 X132.149 Y17.641 Z-1.354
N8660 X132.753 Y17.515 Z-1.36
N8665 X133.367 Y17.381 Z-1.367
N8670 X133.989 Y17.238 Z-1.372
N8675 X134.619 Y17.085 Z-1.378
N8680 X135.258 Y16.923 Z-1.384
N8685 X135.903 Y16.75 Z-1.389
N8690 X136.556 Y16.568 Z-1.395
N8695 X137.215 Y16.375 Z-1.4
N8700 X137.882 Y16.171 Z-1.405
N8705 X138.555 Y15.956 Z-1.41
N8710 X139.233 Y15.73 Z-1.415
N8715 X139.917 Y15.492 Z-1.419
N8720 X140.607 Y15.242 Z-1.423
N8725 X141.301 Y14.98 Z-1.428
N8730 X142.001 Y14.706 Z-1.432
N8735 X142.705 Y14.419 Z-1.436
N8740 X143.412 Y14.118 Z-1.439
N8745 X144.124 Y13.805 Z-1.443
N8750 X144.839 Y13.478 Z-1.446
N8755 X145.557 Y13.137 Z-1.449
N8760 X146.278 Y12.782 Z-1.452
N8765 X147.002 Y12.412 Z-1.455
N8770 X147.728 Y12.028 Z-1.458
N8775 X148.807 Y11.43 Z-1.461
N8780 X149.885 Y10.801 Z-1.464
N8785 X150.959 Y10.142 Z-1.467
N8790 X152.029 Y9.451 Z-1.469
N8795 X153.093 Y8.73 Z-1.471
N8800 X154.149 Y7.976 Z-1.472
N8805 X155.198 Y7.192 Z-1.473
N8810 X156.239 Y6.375
N8815 X157.3 Y5.5
N8820 X158.327 Y4.612 Z-1.472
N8825 X159.321 Y3.709 Z-1.471
N8830 X160.282 Y2.795 Z-1.469
N8835 X161.211 Y1.87 Z-1.466
N8840 X162.106 Y0.935 Z-1.464
N8845 X162.97 Y-0.009 Z-1.46
N8850 X163.802 Y-0.959 Z-1.457
N8855 X164.602 Y-1.915 Z-1.453
N8860 X165.371 Y-2.877 Z-1.448
N8865 X166.11 Y-3.841 Z-1.443
N8870 X166.818 Y-4.808 Z-1.437
N8875 X167.495 Y-5.776 Z-1.431
N8880 X168.142 Y-6.744 Z-1.425
N8885 X168.76 Y-7.71 Z-1.418
N8890 X169.348 Y-8.674 Z-1.411
N8895 X169.92 Y-9.652 Z-1.403
N8900 X170.459 Y-10.618 Z-1.394
N8905 X170.968 Y-11.571 Z-1.384
N8910 X171.448 Y-12.509 Z-1.375
N8915 X171.899 Y-13.431 Z-1.364
N8920 X172.322 Y-14.337 Z-1.352
N8925 X172.718 Y-15.224 Z-1.339
N8930 X173.087 Y-16.091 Z-1.326
N8935 X173.432 Y-16.938 Z-1.312
N8940 X173.751 Y-17.762 Z-1.298
N8945 X174.047 Y-18.563 Z-1.283
N8950 X174.321 Y-19.339 Z-1.268
N8955 X174.572 Y-20.089 Z-1.251
N8960 X174.802 Y-20.812 Z-1.235
N8965 X175.013 Y-21.507 Z-1.218
N8970 X175.204 Y-22.172 Z-1.202
N8975 X175.378 Y-22.805 Z-1.185
N8980 X175.534 Y-23.407 Z-1.167
N8985 X175.673 Y-23.976 Z-1.15
N8990 X175.797 Y-24.509 Z-1.134
N8995 X175.907 Y-25.007 Z-1.118
N9000 X176.004 Y-25.468 Z-1.102
N9005 X176.088 Y-25.89 Z-1.087
N9010 X176.193 Y-26.449 Z-1.065
N9015 X176.337 Y-27.283 Z-1.03
N9020 X176.384 Y-27.55 Z-1.016
N9025 X176.408 Y-27.67 Z-1.009
N9030 X176.426 Y-27.742 Z-1.004
N9035 X176.434 Y-27.76 Z-1.002
N9040 Z-1.001
N9045 Z-1.002
N9050 X176.441 Y-27.765 Z-1.
N9055 Z5.
N9060 X118.844 Y15.043
N9065 Z4.
N9070 Z-1.
N9075 X119.299 Y14.88 Z-1.021
N9080 X119.746 Y14.713 Z-1.043
N9085 X120.101 Y14.576 Z-1.062
N9090 X120.61 Y14.371 Z-1.09
N9095 X121.029 Y14.197 Z-1.115
N9100 X121.407 Y14.034 Z-1.14
N9105 X122.073 Y13.734 Z-1.189
N9110 X122.237 Y13.659 Z-1.2
N9115 X122.746 Y13.416 Z-1.245
N9120 X123.004 Y13.29 Z-1.266
N9125 X123.424 Y13.078 Z-1.307
N9130 X123.746 Y12.913 Z-1.337
N9135 X124.105 Y12.721 Z-1.378
N9140 X124.465 Y12.527 Z-1.417
N9145 X125.161 Y12.134 Z-1.503
N9150 X125.838 Y11.733 Z-1.596
N9155 X126.498 Y11.323 Z-1.696
N9160 X126.831 Y11.109 Z-1.751
N9165 X127.142 Y10.906 Z-1.801
N9170 X127.773 Y10.48 Z-1.913
N9175 X128.177 Y10.2 Z-1.991
N9180 X128.391 Y10.049 Z-2.031
N9185 X128.997 Y9.608 Z-2.152
N9190 X129.495 Y9.239 Z-2.259
N9195 X130.18 Y8.71 Z-2.407
N9200 X130.779 Y8.235 Z-2.547
N9205 X131.32 Y7.798 Z-2.668
N9210 X132.031 Y7.209 Z-2.838
N9215 X132.443 Y6.862 Z-2.934
N9220 X133.232 Y6.184 Z-3.119
N9225 X133.817 Y5.674 Z-3.252
N9230 X134.39 Y5.168 Z-3.378
N9235 X134.951 Y4.67 Z-3.495
N9240 X135.497 Y4.181 Z-3.603
N9245 X136.03 Y3.701 Z-3.7
N9250 X136.549 Y3.234 Z-3.784
N9255 X136.563 Y3.22 Z-3.787
N9260 X136.566 Y2.969 Z-3.623
N9265 X136.576 Y2.791 Z-3.51
N9270 X136.59 Y2.616 Z-3.403
N9275 X136.608 Y2.445 Z-3.302
N9280 X136.631 Y2.279 Z-3.208
N9285 X136.659 Y2.102 Z-3.109
N9290 X136.743 Y1.589 Z-2.82
N9295 X136.78 Y1.331 Z-2.67
N9300 X136.809 Y1.059 Z-2.503
N9305 X136.817 Y0.955 Z-2.436
N9310 X136.823 Y0.814 Z-2.341
N9315 X136.826 Y0.641 Z-2.222
N9320 X136.823 Y0.433 Z-2.075
N9325 X136.813 Y0.175 Z-1.887
N9330 X136.795 Y-0.141 Z-1.649
N9335 X136.763 Y-0.521 Z-1.356
N9340 X136.716 Y-0.972 Z-1.001
N9345 X136.763 Y-0.521 Z-1.356
N9350 X136.795 Y-0.141 Z-1.649
N9355 X136.813 Y0.175 Z-1.887
N9360 X136.823 Y0.433 Z-2.075
N9365 X136.826 Y0.641 Z-2.222
N9370 X136.823 Y0.814 Z-2.341
N9375 X136.817 Y0.955 Z-2.436
N9380 X136.809 Y1.059 Z-2.503
N9385 X136.78 Y1.331 Z-2.67
N9390 X136.743 Y1.589 Z-2.82
N9395 X136.659 Y2.102 Z-3.109
N9400 X136.631 Y2.279 Z-3.208
N9405 X136.608 Y2.445 Z-3.302
N9410 X136.59 Y2.616 Z-3.403
N9415 X136.576 Y2.791 Z-3.51
N9420 X136.566 Y2.969 Z-3.623
N9425 X136.563 Y3.22 Z-3.787
N9430 X136.782 Y3.24 Z-3.642
N9435 X136.995 Y3.253 Z-3.507
N9440 X137.203 Y3.259 Z-3.38
N9445 X137.405 Y3.258 Z-3.262
N9450 X137.567 Y3.25 Z-3.171
N9455 X137.724 Y3.237 Z-3.086
N9460 X137.879 Y3.22 Z-3.007
N9465 X138.029 Y3.198 Z-2.934
N9470 X138.177 Y3.171 Z-2.867
N9475 X138.318 Y3.139 Z-2.805
N9480 X138.456 Y3.102 Z-2.75
N9485 X138.59 Y3.061 Z-2.699
N9490 X138.72 Y3.015 Z-2.655
N9495 X138.847 Y2.965 Z-2.616
N9500 X138.971 Y2.909 Z-2.582
N9505 X139.09 Y2.849 Z-2.553
N9510 X139.206 Y2.784 Z-2.53
N9515 X139.318 Y2.715 Z-2.513
N9520 X139.427 Y2.641 Z-2.502
N9525 X139.507 Y2.583 Z-2.497
N9530 X139.585 Y2.521 Z-2.495
N9535 X139.683 Y2.438 Z-2.498
N9540 X139.777 Y2.35 Z-2.506
N9545 X139.868 Y2.258 Z-2.52
N9550 X139.955 Y2.162 Z-2.539
N9555 X140.056 Y2.043 Z-2.571
N9560 X140.44 Y1.564 Z-2.71
N9565 X140.592 Y1.379 Z-2.766
N9570 X140.931 Y0.955 Z-2.898
N9575 X141.432 Y0.337 Z-3.101
N9580 X141.938 Y-0.28 Z-3.308
N9585 X142.162 Y-0.549 Z-3.401
N9590 X142.46 Y-0.899 Z-3.518
N9595 X142.636 Y-1.102 Z-3.589
N9600 X143.102 Y-1.623 Z-3.76
N9605 X143.309 Y-1.846 Z-3.83
N9610 X143.52 Y-2.068 Z-3.896
N9615 X143.729 Y-2.278 Z-3.958
N9620 X143.914 Y-2.458 Z-4.008
N9625 X144.052 Y-2.584 Z-4.039
N9630 X144.197 Y-2.71 Z-4.065
N9635 X144.379 Y-2.858 Z-4.091
N9640 X144.593 Y-3.028 Z-4.116
N9645 X145.201 Y-3.491 Z-4.181
N9650 X145.2 Y-3.748 Z-3.99
N9655 X145.207 Y-3.997 Z-3.81
N9660 X145.22 Y-4.238 Z-3.641
N9665 X145.241 Y-4.471 Z-3.482
N9670 X145.253 Y-4.578 Z-3.411
N9675 X145.272 Y-4.737 Z-3.311
N9680 X145.294 Y-4.891 Z-3.216
N9685 X145.338 Y-5.134 Z-3.073
N9690 X145.368 Y-5.277 Z-2.996
N9695 X145.401 Y-5.416 Z-2.923
N9700 X145.438 Y-5.551 Z-2.856
N9705 X145.467 Y-5.65 Z-2.811
N9710 X145.493 Y-5.737 Z-2.774
N9715 X145.565 Y-5.953 Z-2.686
N9720 X145.573 Y-5.99 Z-2.669
N9725 X145.583 Y-6.047 Z-2.639
N9730 X145.595 Y-6.157 Z-2.579
N9735 X145.601 Y-6.25 Z-2.528
N9740 X145.605 Y-6.397 Z-2.442
N9745 X145.603 Y-6.612 Z-2.31
N9750 X145.594 Y-6.791 Z-2.201
N9755 X145.574 Y-7.017 Z-2.061
N9760 X145.538 Y-7.3 Z-1.881
N9765 X145.495 Y-7.569 Z-1.717
N9770 X145.444 Y-7.83 Z-1.552
N9775 X145.365 Y-8.157 Z-1.355
N9780 X145.326 Y-8.305 Z-1.264
N9785 X145.256 Y-8.537 Z-1.126
N9790 X145.183 Y-8.756 Z-1.001
N9795 X145.256 Y-8.537 Z-1.126
N9800 X145.326 Y-8.305 Z-1.264
N9805 X145.365 Y-8.157 Z-1.355
N9810 X145.444 Y-7.83 Z-1.552
N9815 X145.495 Y-7.569 Z-1.717
N9820 X145.538 Y-7.3 Z-1.881
N9825 X145.574 Y-7.017 Z-2.061
N9830 X145.594 Y-6.791 Z-2.201
N9835 X145.603 Y-6.612 Z-2.31
N9840 X145.605 Y-6.397 Z-2.442
N9845 X145.601 Y-6.25 Z-2.528
N9850 X145.595 Y-6.157 Z-2.579
N9855 X145.583 Y-6.047 Z-2.639
N9860 X145.573 Y-5.99 Z-2.669
N9865 X145.565 Y-5.953 Z-2.686
N9870 X145.493 Y-5.737 Z-2.774
N9875 X145.467 Y-5.65 Z-2.811
N9880 X145.438 Y-5.551 Z-2.856
N9885 X145.401 Y-5.416 Z-2.923
N9890 X145.368 Y-5.277 Z-2.996
N9895 X145.338 Y-5.134 Z-3.073
N9900 X145.294 Y-4.891 Z-3.216
N9905 X145.272 Y-4.737 Z-3.311
N9910 X145.253 Y-4.578 Z-3.411
N9915 X145.241 Y-4.471 Z-3.482
N9920 X145.22 Y-4.238 Z-3.641
N9925 X145.207 Y-3.997 Z-3.81
N9930 X145.2 Y-3.748 Z-3.99
N9935 X145.201 Y-3.491 Z-4.181
N9940 X145.402 Y-3.48 Z-4.063
N9945 X145.6 Y-3.474 Z-3.953
N9950 X145.795 Z-3.848
N9955 X145.986 Y-3.479 Z-3.75
N9960 X146.174 Y-3.489 Z-3.659
N9965 X146.358 Y-3.506 Z-3.574
N9970 X146.565 Y-3.53 Z-3.486
N9975 X146.747 Y-3.559 Z-3.413
N9980 X146.926 Y-3.593 Z-3.348
N9985 X147.102 Y-3.633 Z-3.29
N9990 X147.273 Y-3.679 Z-3.238
N9995 X147.441 Y-3.731 Z-3.194
N10000 X147.605 Y-3.789 Z-3.156
N10005 X147.765 Y-3.853 Z-3.126
N10010 X147.922 Y-3.923 Z-3.102
N10015 X148.071 Y-3.996 Z-3.086
N10020 X148.212 Y-4.072 Z-3.077
N10025 X148.349 Y-4.154 Z-3.074
N10030 X148.467 Y-4.229 Z-3.076
N10035 X148.582 Y-4.309 Z-3.083
N10040 X148.695 Y-4.393 Z-3.095
N10045 X148.954 Y-4.592 Z-3.128
N10050 X149.192 Y-4.768 Z-3.153
N10055 X149.319 Y-4.855 Z-3.166
N10060 X149.449 Y-4.938 Z-3.184
N10065 X149.582 Y-5.015 Z-3.206
N10070 X149.719 Y-5.086 Z-3.233
N10075 X149.876 Y-5.158 Z-3.266
N10080 X150.037 Y-5.225 Z-3.306
N10085 X150.202 Y-5.286 Z-3.353
N10090 X150.371 Y-5.342 Z-3.406
N10095 X150.549 Y-5.39 Z-3.464
N10100 X150.731 Y-5.433 Z-3.529
N10105 X150.917 Y-5.47 Z-3.601
N10110 X151.107 Y-5.5 Z-3.68
N10115 X151.309 Y-5.523 Z-3.768
N10120 X151.514 Y-5.54 Z-3.863
N10125 X151.724 Y-5.55 Z-3.965
N10130 X151.938 Y-5.554 Z-4.075
N10135 X152.182 Y-5.549 Z-4.206
N10140 X152.309 Y-5.704 Z-4.138
N10145 X152.438 Y-5.853 Z-4.078
N10150 X152.571 Y-5.997 Z-4.023
N10155 X152.695 Y-6.122 Z-3.978
N10160 X152.822 Y-6.243 Z-3.939
N10165 X152.951 Y-6.36 Z-3.905
N10170 X153.083 Y-6.472 Z-3.876
N10175 X153.217 Y-6.579 Z-3.852
N10180 X153.62 Y-6.892 Z-3.788
N10185 X153.972 Y-7.174 Z-3.728
N10190 X154.299 Y-7.446 Z-3.667
N10195 X154.599 Y-7.705 Z-3.607
N10200 X154.875 Y-7.953 Z-3.547
N10205 X155.19 Y-8.249 Z-3.469
N10210 X155.356 Y-8.414 Z-3.428
N10215 X155.565 Y-8.63 Z-3.368
N10220 X155.757 Y-8.836 Z-3.307
N10225 X155.92 Y-9.026 Z-3.251
N10230 X156.069 Y-9.21 Z-3.194
N10235 X156.203 Y-9.383 Z-3.136
N10240 X156.328 Y-9.554 Z-3.075
N10245 X156.426 Y-9.701 Z-3.021
N10250 X156.519 Y-9.852 Z-2.964
N10255 X156.62 Y-10.029 Z-2.891
N10260 X156.676 Y-10.136 Z-2.847
N10265 X156.743 Y-10.277 Z-2.784
N10270 X156.825 Y-10.468 Z-2.694
N10275 X156.863 Y-10.567 Z-2.647
N10280 X156.917 Y-10.723 Z-2.569
N10285 X156.983 Y-10.944 Z-2.453
N10290 X157.014 Y-11.061 Z-2.391
N10295 X157.057 Y-11.253 Z-2.286
N10300 X157.097 Y-11.463 Z-2.167
N10305 X157.131 Y-11.69 Z-2.038
N10310 X157.162 Y-11.948 Z-1.886
N10315 X157.181 Y-12.194 Z-1.741
N10320 X157.196 Y-12.477 Z-1.57
N10325 X157.2 Y-12.771 Z-1.394
N10330 X157.197 Y-12.943 Z-1.286
N10335 X157.179 Y-13.415 Z-1.001
N10340 X157.197 Y-12.943 Z-1.286
N10345 X157.2 Y-12.771 Z-1.394
N10350 X157.196 Y-12.477 Z-1.57
N10355 X157.181 Y-12.194 Z-1.741
N10360 X157.162 Y-11.948 Z-1.886
N10365 X157.131 Y-11.69 Z-2.038
N10370 X157.097 Y-11.463 Z-2.167
N10375 X157.057 Y-11.253 Z-2.286
N10380 X157.014 Y-11.061 Z-2.391
N10385 X156.983 Y-10.944 Z-2.453
N10390 X156.917 Y-10.723 Z-2.569
N10395 X156.863 Y-10.567 Z-2.647
N10400 X156.825 Y-10.468 Z-2.694
N10405 X156.743 Y-10.277 Z-2.784
N10410 X156.676 Y-10.136 Z-2.847
N10415 X156.62 Y-10.029 Z-2.891
N10420 X156.519 Y-9.852 Z-2.964
N10425 X156.426 Y-9.701 Z-3.021
N10430 X156.328 Y-9.554 Z-3.075
N10435 X156.203 Y-9.383 Z-3.136
N10440 X156.069 Y-9.21 Z-3.194
N10445 X155.92 Y-9.026 Z-3.251
N10450 X155.757 Y-8.836 Z-3.307
N10455 X155.565 Y-8.63 Z-3.368
N10460 X155.356 Y-8.414 Z-3.428
N10465 X155.19 Y-8.249 Z-3.469
N10470 X154.875 Y-7.953 Z-3.547
N10475 X154.599 Y-7.705 Z-3.607
N10480 X154.299 Y-7.446 Z-3.667
N10485 X153.972 Y-7.174 Z-3.728
N10490 X153.62 Y-6.892 Z-3.788
N10495 X153.217 Y-6.579 Z-3.852
N10500 X153.083 Y-6.472 Z-3.876
N10505 X152.951 Y-6.36 Z-3.905
N10510 X152.822 Y-6.243 Z-3.939
N10515 X152.695 Y-6.122 Z-3.978
N10520 X152.571 Y-5.997 Z-4.023
N10525 X152.438 Y-5.853 Z-4.078
N10530 X152.309 Y-5.704 Z-4.138
N10535 X152.182 Y-5.549 Z-4.206
N10540 X152.223 Y-5.425 Z-4.13
N10545 X152.264 Y-5.303 Z-4.06
N10550 X152.303 Y-5.184 Z-3.994
N10555 X152.342 Y-5.066 Z-3.934
N10560 X152.38 Y-4.95 Z-3.878
N10565 X152.418 Y-4.836 Z-3.827
N10570 X152.456 Y-4.723 Z-3.781
N10575 X152.493 Y-4.612 Z-3.74
N10580 X152.529 Y-4.501 Z-3.704
N10585 X152.565 Y-4.392 Z-3.672
N10590 X152.601 Y-4.283 Z-3.646
N10595 X152.637 Y-4.176 Z-3.624
N10600 X152.672 Y-4.069 Z-3.607
N10605 X152.708 Y-3.962 Z-3.595
N10610 X152.743 Y-3.855 Z-3.587
N10615 X152.778 Y-3.749 Z-3.585
N10620 X152.828 Y-3.599 Z-3.59
N10625 X152.878 Y-3.448 Z-3.604
N10630 X152.928 Y-3.296 Z-3.629
N10635 X152.979 Y-3.141 Z-3.663
N10640 X153.032 Y-2.983 Z-3.708
N10645 X153.085 Y-2.82 Z-3.764
N10650 X153.141 Y-2.653 Z-3.831
N10655 X153.198 Y-2.48 Z-3.91
N10660 X153.379 Y-2.476 Z-3.79
N10665 X153.555 Y-2.477 Z-3.675
N10670 X153.728 Y-2.482 Z-3.567
N10675 X153.894 Y-2.492 Z-3.464
N10680 X154.057 Y-2.507 Z-3.367
N10685 X154.216 Y-2.525 Z-3.276
N10690 X154.371 Y-2.548 Z-3.19
N10695 X154.523 Y-2.576 Z-3.108
N10700 X154.672 Y-2.608 Z-3.032
N10705 X154.817 Y-2.645 Z-2.961
N10710 X154.958 Y-2.685 Z-2.896
N10715 X155.096 Y-2.731 Z-2.836
N10720 X155.229 Y-2.78 Z-2.781
N10725 X155.359 Y-2.834 Z-2.732
N10730 X155.484 Y-2.892 Z-2.688
N10735 X155.623 Y-2.963 Z-2.645
N10740 X155.756 Y-3.04 Z-2.609
N10745 X155.946 Y-3.164 Z-2.568
N10750 X156.498 Y-3.539 Z-2.454
N10755 X157.101 Y-3.943 Z-2.32
N10760 X157.717 Y-4.343 Z-2.17
N10765 X158.054 Y-4.552 Z-2.081
N10770 X158.345 Y-4.727 Z-2.002
N10775 X158.678 Y-4.92 Z-1.906
N10780 X159.024 Y-5.111 Z-1.803
N10785 X159.388 Y-5.302 Z-1.689
N10790 X159.771 Y-5.491 Z-1.567
N10795 X160.178 Y-5.678 Z-1.434
N10800 X160.361 Y-5.757 Z-1.373
N10805 X160.696 Y-5.893 Z-1.264
N10810 X161.073 Y-6.032 Z-1.145
N10815 X161.302 Y-6.107 Z-1.074
N10820 X161.565 Y-6.184 Z-1.
N10825 X161.302 Y-6.107 Z-1.074
N10830 X161.073 Y-6.032 Z-1.145
N10835 X160.696 Y-5.893 Z-1.264
N10840 X160.361 Y-5.757 Z-1.373
N10845 X160.178 Y-5.678 Z-1.434
N10850 X159.771 Y-5.491 Z-1.567
N10855 X159.388 Y-5.302 Z-1.689
N10860 X159.024 Y-5.111 Z-1.803
N10865 X158.678 Y-4.92 Z-1.906
N10870 X158.345 Y-4.727 Z-2.002
N10875 X158.054 Y-4.552 Z-2.081
N10880 X157.717 Y-4.343 Z-2.17
N10885 X157.101 Y-3.943 Z-2.32
N10890 X156.498 Y-3.539 Z-2.454
N10895 X155.946 Y-3.164 Z-2.568
N10900 X155.756 Y-3.04 Z-2.609
N10905 X155.623 Y-2.963 Z-2.645
N10910 X155.484 Y-2.892 Z-2.688
N10915 X155.359 Y-2.834 Z-2.732
N10920 X155.229 Y-2.78 Z-2.781
N10925 X155.096 Y-2.731 Z-2.836
N10930 X154.958 Y-2.685 Z-2.896
N10935 X154.817 Y-2.645 Z-2.961
N10940 X154.672 Y-2.608 Z-3.032
N10945 X154.523 Y-2.576 Z-3.108
N10950 X154.371 Y-2.548 Z-3.19
N10955 X154.216 Y-2.525 Z-3.276
N10960 X154.057 Y-2.507 Z-3.367
N10965 X153.894 Y-2.492 Z-3.464
N10970 X153.728 Y-2.482 Z-3.567
N10975 X153.555 Y-2.477 Z-3.675
N10980 X153.379 Y-2.476 Z-3.79
N10985 X153.198 Y-2.48 Z-3.91
N10990 X153.135 Y-2.369 Z-3.867
N10995 X153.057 Y-2.243 Z-3.82
N11000 X152.978 Y-2.12 Z-3.777
N11005 X152.833 Y-1.912 Z-3.709
N11010 X152.665 Y-1.68 Z-3.633
N11015 X152.499 Y-1.46 Z-3.564
N11020 X152.423 Y-1.364 Z-3.534
N11025 X152.172 Y-1.054 Z-3.442
N11030 X151.927 Y-0.77 Z-3.358
N11035 X151.721 Y-0.542 Z-3.292
N11040 X151.665 Y-0.482 Z-3.275
N11045 X151.398 Y-0.203 Z-3.196
N11050 X151.07 Y0.123 Z-3.105
N11055 X150.828 Y0.349 Z-3.04
N11060 X150.678 Y0.486 Z-3.003
N11065 X150.525 Y0.621 Z-2.962
N11070 X150.211 Y0.89 Z-2.884
N11075 X149.862 Y1.172 Z-2.799
N11080 X149.438 Y1.494 Z-2.696
N11085 X149.197 Y1.668 Z-2.636
N11090 X149.005 Y1.803 Z-2.59
N11095 X148.831 Y1.92 Z-2.546
N11100 X148.457 Y2.168 Z-2.456
N11105 X148.341 Y2.253 Z-2.436
N11110 X148.23 Y2.342 Z-2.423
N11115 X148.106 Y2.454 Z-2.417
N11120 X148.002 Y2.556 Z-2.421
N11125 X147.904 Y2.664 Z-2.433
N11130 X147.794 Y2.798 Z-2.456
N11135 X147.703 Y2.921 Z-2.486
N11140 X147.618 Y3.049 Z-2.524
N11145 X147.523 Y3.209 Z-2.579
N11150 X147.446 Y3.354 Z-2.637
N11155 X147.374 Y3.505 Z-2.704
N11160 X147.297 Y3.689 Z-2.792
N11165 X147.235 Y3.857 Z-2.88
N11170 X147.178 Y4.033 Z-2.977
N11175 X147.116 Y4.256 Z-3.108
N11180 X147.069 Y4.452 Z-3.229
N11185 X147.028 Y4.655 Z-3.361
N11190 X146.986 Y4.911 Z-3.532
N11195 X146.959 Y5.107 Z-3.668
N11200 X146.937 Y5.309 Z-3.812
N11205 X146.92 Y5.517 Z-3.964
N11210 X147.109 Y5.536 Z-3.843
N11215 X147.295 Y5.55 Z-3.728
N11220 X147.477 Y5.559 Z-3.619
N11225 X147.675 Y5.561 Z-3.506
N11230 X147.868 Y5.558 Z-3.399
N11235 X148.057 Y5.548 Z-3.301
N11240 X148.239 Y5.531 Z-3.211
N11245 X148.417 Y5.508 Z-3.128
N11250 X148.59 Y5.479 Z-3.052
N11255 X148.756 Y5.443 Z-2.984
N11260 X148.917 Y5.402 Z-2.924
N11265 X149.075 Y5.356 Z-2.87
N11270 X149.225 Y5.303 Z-2.824
N11275 X149.372 Y5.246 Z-2.784
N11280 X149.514 Y5.182 Z-2.752
N11285 X149.634 Y5.123 Z-2.729
N11290 X150.066 Y4.896 Z-2.653
N11295 X150.458 Y4.698 Z-2.575
N11300 X150.844 Y4.511 Z-2.489
N11305 X151.225 Y4.334 Z-2.396
N11310 X151.604 Y4.167 Z-2.296
N11315 X151.982 Y4.008 Z-2.19
N11320 X152.362 Y3.857 Z-2.077
N11325 X152.853 Y3.673 Z-1.922
N11330 X153.191 Y3.553 Z-1.812
N11335 X153.515 Y3.444 Z-1.705
N11340 X153.822 Y3.349 Z-1.601
N11345 X154.31 Y3.203 Z-1.441
N11350 X154.396 Y3.18 Z-1.412
N11355 X154.662 Y3.111 Z-1.325
N11360 X154.912 Y3.05 Z-1.247
N11365 X155.145 Y2.998 Z-1.179
N11370 X155.362 Y2.956 Z-1.118
N11375 X155.562 Y2.924 Z-1.069
N11380 X155.745 Y2.901 Z-1.029
N11385 X155.911 Y2.886 Z-1.
N11390 X155.745 Y2.901 Z-1.029
N11395 X155.562 Y2.924 Z-1.069
N11400 X155.362 Y2.956 Z-1.118
N11405 X155.145 Y2.998 Z-1.179
N11410 X154.912 Y3.05 Z-1.247
N11415 X154.662 Y3.111 Z-1.325
N11420 X154.396 Y3.18 Z-1.412
N11425 X154.31 Y3.203 Z-1.441
N11430 X153.822 Y3.349 Z-1.601
N11435 X153.515 Y3.444 Z-1.705
N11440 X153.191 Y3.553 Z-1.812
N11445 X152.853 Y3.673 Z-1.922
N11450 X152.362 Y3.857 Z-2.077
N11455 X151.982 Y4.008 Z-2.19
N11460 X151.604 Y4.167 Z-2.296
N11465 X151.225 Y4.334 Z-2.396
N11470 X150.844 Y4.511 Z-2.489
N11475 X150.458 Y4.698 Z-2.575
N11480 X150.066 Y4.896 Z-2.653
N11485 X149.634 Y5.123 Z-2.729
N11490 X149.514 Y5.182 Z-2.752
N11495 X149.372 Y5.246 Z-2.784
N11500 X149.225 Y5.303 Z-2.824
N11505 X149.075 Y5.356 Z-2.87
N11510 X148.917 Y5.402 Z-2.924
N11515 X148.756 Y5.443 Z-2.984
N11520 X148.59 Y5.479 Z-3.052
N11525 X148.417 Y5.508 Z-3.128
N11530 X148.239 Y5.531 Z-3.211
N11535 X148.057 Y5.548 Z-3.301
N11540 X147.868 Y5.558 Z-3.399
N11545 X147.675 Y5.561 Z-3.506
N11550 X147.477 Y5.559 Z-3.619
N11555 X147.295 Y5.55 Z-3.728
N11560 X147.109 Y5.536 Z-3.843
N11565 X146.92 Y5.517 Z-3.964
N11570 X146.832 Y5.581 Z-3.959
N11575 X146.389 Y5.894 Z-3.937
N11580 X145.935 Y6.207 Z-3.914
N11585 X145.467 Y6.521 Z-3.89
N11590 X144.988 Y6.832 Z-3.866
N11595 X144.495 Y7.143 Z-3.84
N11600 X144.02 Y7.434 Z-3.814
N11605 X143.727 Y7.61 Z-3.799
N11610 X143.218 Y7.907 Z-3.77
N11615 X142.697 Y8.202 Z-3.74
N11620 X142.158 Y8.497 Z-3.706
N11625 X141.605 Y8.792 Z-3.671
N11630 X141.034 Y9.084 Z-3.633
N11635 X140.448 Y9.375 Z-3.591
N11640 X139.843 Y9.665 Z-3.547
N11645 X139.221 Y9.952 Z-3.499
N11650 X138.934 Y10.081 Z-3.475
N11655 X138.581 Y10.237 Z-3.447
N11660 X138.316 Y10.351 Z-3.424
N11665 X137.923 Y10.519 Z-3.392
N11670 X137.683 Y10.618 Z-3.37
N11675 X137.061 Y10.871 Z-3.315
N11680 X136.549 Y11.073 Z-3.269
N11685 X136.388 Y11.134 Z-3.253
N11690 X135.726 Y11.383 Z-3.189
N11695 X135.051 Y11.627 Z-3.122
N11700 X134.336 Y11.874 Z-3.049
N11705 X133.555 Y12.131 Z-2.966
N11710 X132.753 Y12.383 Z-2.878
N11715 X131.927 Y12.629 Z-2.784
N11720 X131.53 Y12.742 Z-2.737
N11725 X131.077 Y12.869 Z-2.684
N11730 X130.797 Y12.945 Z-2.65
N11735 X130.048 Y13.142 Z-2.559
N11740 X129.307 Y13.326 Z-2.469
N11745 X128.384 Y13.545 Z-2.35
N11750 X127.435 Y13.753 Z-2.227
N11755 X126.995 Y13.846 Z-2.166
N11760 X126.459 Y13.953 Z-2.097
N11765 X125.421 Y14.152 Z-1.954
N11770 X124.426 Y14.323 Z-1.817
N11775 X123.816 Y14.423 Z-1.728
N11780 X123.369 Y14.492 Z-1.667
N11785 X122.184 Y14.664 Z-1.495
N11790 X121.166 Y14.794 Z-1.348
N11795 X120.525 Y14.87 Z-1.25
N11800 X120.019 Y14.925 Z-1.178
N11805 X118.844 Y15.044 Z-1.
N11810 Z5.
N11815 X148.587 Y14.229
N11820 Z4.
N11825 Z-1.
N11830 X148.932 Y14.176 Z-1.015
N11835 X149.273 Y14.133 Z-1.029
N11840 X149.487 Y14.11 Z-1.04
N11845 X149.932 Y14.073 Z-1.058
N11850 X150.252 Y14.057 Z-1.071
N11855 X150.385 Y14.051 Z-1.078
N11860 X150.565 Y14.047 Z-1.085
N11865 X150.834 Y14.046 Z-1.1
N11870 X151.174 Y14.05 Z-1.115
N11875 X151.734 Y14.076 Z-1.147
N11880 X152.183 Y14.116 Z-1.176
N11885 X152.334 Y14.131 Z-1.185
N11890 X152.634 Y14.169 Z-1.209
N11895 X152.888 Y14.205 Z-1.227
N11900 X153.083 Y14.237 Z-1.246
N11905 X153.428 Y14.3 Z-1.274
N11910 X153.958 Y14.409 Z-1.33
N11915 X154.478 Y14.537 Z-1.389
N11920 X154.892 Y14.649 Z-1.445
N11925 X154.99 Y14.677 Z-1.457
N11930 X155.497 Y14.833 Z-1.529
N11935 X155.8 Y14.931 Z-1.577
N11940 X155.999 Y14.998 Z-1.607
N11945 X156.497 Y15.175 Z-1.689
N11950 X157.476 Y15.547 Z-1.864
N11955 X158.457 Y15.943 Z-2.049
N11960 X159.426 Y16.341 Z-2.234
N11965 X160.393 Y16.731 Z-2.413
N11970 X160.87 Y16.916 Z-2.497
N11975 X161.35 Y17.097 Z-2.576
N11980 X161.832 Y17.269 Z-2.652
N11985 X162.317 Y17.435 Z-2.722
N11990 X162.8 Y17.589 Z-2.785
N11995 X162.804 Y17.596 Z-2.78
N12000 X162.881 Y17.75 Z-2.669
N12005 X162.961 Y17.895 Z-2.567
N12010 X163.045 Y18.032 Z-2.473
N12015 X163.132 Y18.162 Z-2.387
N12020 X163.222 Y18.278 Z-2.31
N12025 X163.314 Y18.387 Z-2.241
N12030 X163.41 Y18.489 Z-2.181
N12035 X163.544 Y18.615 Z-2.11
N12040 X163.893 Y18.919 Z-1.933
N12045 X164.056 Y19.065 Z-1.845
N12050 X164.205 Y19.205 Z-1.753
N12055 X164.361 Y19.367 Z-1.641
N12060 X164.431 Y19.447 Z-1.584
N12065 X164.516 Y19.549 Z-1.509
N12070 X164.613 Y19.67 Z-1.415
N12075 X164.719 Y19.811 Z-1.303
N12080 X164.838 Y19.982 Z-1.166
N12085 X164.97 Y20.185 Z-1.001
N12090 X164.838 Y19.982 Z-1.166
N12095 X164.719 Y19.811 Z-1.303
N12100 X164.613 Y19.67 Z-1.415
N12105 X164.516 Y19.549 Z-1.509
N12110 X164.431 Y19.447 Z-1.584
N12115 X164.361 Y19.367 Z-1.641
N12120 X164.205 Y19.205 Z-1.753
N12125 X164.056 Y19.065 Z-1.845
N12130 X163.893 Y18.919 Z-1.933
N12135 X163.544 Y18.615 Z-2.11
N12140 X163.41 Y18.489 Z-2.181
N12145 X163.314 Y18.387 Z-2.241
N12150 X163.222 Y18.278 Z-2.31
N12155 X163.132 Y18.162 Z-2.387
N12160 X163.045 Y18.032 Z-2.473
N12165 X162.961 Y17.895 Z-2.567
N12170 X162.881 Y17.75 Z-2.669
N12175 X162.804 Y17.596 Z-2.78
N12180 X162.8 Y17.589 Z-2.785
N12185 X162.951 Y17.499 Z-2.67
N12190 X163.1 Y17.418 Z-2.564
N12195 X163.248 Y17.345 Z-2.467
N12200 X163.394 Y17.281 Z-2.378
N12205 X163.538 Y17.226 Z-2.299
N12210 X163.681 Y17.18 Z-2.228
N12215 X163.837 Y17.137 Z-2.162
N12220 X163.958 Y17.111 Z-2.118
N12225 X164.079 Y17.092 Z-2.081
N12230 X164.198 Y17.079 Z-2.05
N12235 X164.317 Y17.073 Z-2.026
N12240 X164.434 Z-2.01
N12245 X164.551 Y17.081 Z-1.999
N12250 X164.666 Y17.095 Z-1.996
N12255 X164.782 Y17.116 Z-1.999
N12260 X164.898 Y17.144 Z-2.01
N12265 X164.925 Y17.152 Z-2.014
N12270 X165.71 Y17.394 Z-2.158
N12275 X166.069 Y17.508 Z-2.228
N12280 X167.131 Y17.834 Z-2.446
N12285 X167.805 Y18.034 Z-2.588
N12290 X168.453 Y18.221 Z-2.722
N12295 X169.077 Y18.388 Z-2.847
N12300 X169.664 Y18.535 Z-2.954
N12305 X170.249 Y18.665 Z-3.051
N12310 X170.457 Y18.706 Z-3.08
N12315 X170.662 Y18.741 Z-3.104
N12320 X171.183 Y18.816 Z-3.152
N12325 X171.587 Y18.867 Z-3.183
N12330 X171.686 Y19.042 Z-3.031
N12335 X171.787 Y19.208 Z-2.888
N12340 X171.889 Y19.364 Z-2.755
N12345 X171.994 Y19.511 Z-2.632
N12350 X172.1 Y19.648 Z-2.519
N12355 X172.255 Y19.828 Z-2.374
N12360 X172.356 Y19.937 Z-2.292
N12365 X172.46 Y20.039 Z-2.218
N12370 X172.565 Y20.132 Z-2.153
N12375 X172.673 Y20.217 Z-2.096
N12380 X172.782 Y20.294 Z-2.048
N12385 X172.879 Y20.356 Z-2.014
N12390 X172.999 Y20.431 Z-1.977
N12395 X173.104 Y20.503 Z-1.938
N12400 X173.161 Y20.546 Z-1.915
N12405 X173.239 Y20.611 Z-1.88
N12410 X173.317 Y20.682 Z-1.839
N12415 X173.397 Y20.76 Z-1.792
N12420 X173.428 Y20.794 Z-1.771
N12425 X173.573 Y20.956 Z-1.676
N12430 X173.688 Y21.102 Z-1.587
N12435 X173.757 Y21.193 Z-1.535
N12440 X173.946 Y21.474 Z-1.369
N12445 X174.133 Y21.791 Z-1.187
N12450 X174.31 Y22.133 Z-1.
N12455 X174.133 Y21.791 Z-1.187
N12460 X173.946 Y21.474 Z-1.369
N12465 X173.757 Y21.193 Z-1.535
N12470 X173.688 Y21.102 Z-1.587
N12475 X173.573 Y20.956 Z-1.676
N12480 X173.428 Y20.794 Z-1.771
N12485 X173.397 Y20.76 Z-1.792
N12490 X173.317 Y20.682 Z-1.839
N12495 X173.239 Y20.611 Z-1.88
N12500 X173.161 Y20.546 Z-1.915
N12505 X173.104 Y20.503 Z-1.938
N12510 X172.999 Y20.431 Z-1.977
N12515 X172.879 Y20.356 Z-2.014
N12520 X172.782 Y20.294 Z-2.048
N12525 X172.673 Y20.217 Z-2.096
N12530 X172.565 Y20.132 Z-2.153
N12535 X172.46 Y20.039 Z-2.218
N12540 X172.356 Y19.937 Z-2.292
N12545 X172.255 Y19.828 Z-2.374
N12550 X172.1 Y19.648 Z-2.519
N12555 X171.994 Y19.511 Z-2.632
N12560 X171.889 Y19.364 Z-2.755
N12565 X171.787 Y19.208 Z-2.888
N12570 X171.686 Y19.042 Z-3.031
N12575 X171.587 Y18.867 Z-3.183
N12580 X171.754 Y18.763 Z-3.071
N12585 X171.921 Y18.669 Z-2.968
N12590 X172.092 Y18.581 Z-2.872
N12595 X172.243 Y18.511 Z-2.795
N12600 X172.394 Y18.449 Z-2.725
N12605 X172.545 Y18.394 Z-2.663
N12610 X172.695 Y18.347 Z-2.609
N12615 X172.844 Y18.307 Z-2.562
N12620 X172.994 Y18.275 Z-2.523
N12625 X173.143 Y18.25 Z-2.491
N12630 X173.291 Y18.233 Z-2.467
N12635 X173.384 Y18.225 Z-2.458
N12640 X173.49 Y18.215 Z-2.454
N12645 X173.612 Y18.205 Z-2.459
N12650 X173.736 Y18.194 Z-2.475
N12655 X173.861 Y18.182 Z-2.501
N12660 X173.99 Y18.171 Z-2.538
N12665 X174.124 Y18.159 Z-2.587
N12670 X174.263 Y18.147 Z-2.648
N12675 X174.409 Y18.134 Z-2.722
N12680 X174.563 Y18.12 Z-2.809
N12685 X174.71 Y18.104 Z-2.899
N12690 X174.86 Y18.084 Z-2.995
N12695 X175.014 Y18.058 Z-3.097
N12700 X175.197 Y18.016 Z-3.22
N12705 X175.384 Y17.966 Z-3.351
N12710 X175.44 Y17.948 Z-3.391
N12715 X175.545 Y18.012 Z-3.377
N12720 X175.652 Y18.073 Z-3.365
N12725 X175.788 Y18.141 Z-3.352
N12730 X175.926 Y18.205 Z-3.343
N12735 X176.069 Y18.261 Z-3.335
N12740 X176.223 Y18.316 Z-3.333
N12745 X176.396 Y18.367
N12750 X176.542 Y18.406 Z-3.335
N12755 X176.878 Y18.491 Z-3.334
N12760 X177.23 Y18.578 Z-3.322
N12765 X177.596 Y18.668 Z-3.298
N12770 X177.996 Y18.766 Z-3.261
N12775 X178.402 Y18.866 Z-3.212
N12780 X178.81 Y18.97 Z-3.157
N12785 X179.221 Y19.076 Z-3.091
N12790 X179.634 Y19.186 Z-3.02
N12795 X180.048 Y19.299 Z-2.94
N12800 X180.5 Y19.429 Z-2.847
N12805 X180.872 Y19.539 Z-2.767
N12810 X181.41 Y19.707 Z-2.643
N12815 X181.685 Y19.798 Z-2.578
N12820 X182.082 Y19.933 Z-2.481
N12825 X182.321 Y20.018 Z-2.419
N12830 X182.472 Y20.074 Z-2.383
N12835 X182.854 Y20.22 Z-2.285
N12840 X183.227 Y20.368 Z-2.185
N12845 X183.644 Y20.547 Z-2.072
N12850 X184.046 Y20.733 Z-1.962
N12855 X184.268 Y20.843 Z-1.902
N12860 X184.492 Y20.957 Z-1.838
N12865 X184.587 Y21.008 Z-1.812
N12870 X184.898 Y21.18 Z-1.723
N12875 X185.261 Y21.4 Z-1.617
N12880 X185.285 Y21.415 Z-1.61
N12885 X185.441 Y21.517 Z-1.565
N12890 X185.689 Y21.688 Z-1.488
N12895 X185.917 Y21.86 Z-1.416
N12900 X186.007 Y21.931 Z-1.385
N12905 X186.125 Y22.031 Z-1.346
N12910 X186.334 Y22.216 Z-1.269
N12915 X186.482 Y22.366 Z-1.211
N12920 X186.634 Y22.53 Z-1.143
N12925 X186.764 Y22.695 Z-1.075
N12930 X186.881 Y22.861 Z-1.001
N12935 X186.764 Y22.695 Z-1.075
N12940 X186.634 Y22.53 Z-1.143
N12945 X186.482 Y22.366 Z-1.211
N12950 X186.334 Y22.216 Z-1.269
N12955 X186.125 Y22.031 Z-1.346
N12960 X186.007 Y21.931 Z-1.385
N12965 X185.917 Y21.86 Z-1.416
N12970 X185.689 Y21.688 Z-1.488
N12975 X185.441 Y21.517 Z-1.565
N12980 X185.285 Y21.415 Z-1.61
N12985 X185.261 Y21.4 Z-1.617
N12990 X184.898 Y21.18 Z-1.723
N12995 X184.587 Y21.008 Z-1.812
N13000 X184.492 Y20.957 Z-1.838
N13005 X184.268 Y20.843 Z-1.902
N13010 X184.046 Y20.733 Z-1.962
N13015 X183.644 Y20.547 Z-2.072
N13020 X183.227 Y20.368 Z-2.185
N13025 X182.854 Y20.22 Z-2.285
N13030 X182.472 Y20.074 Z-2.383
N13035 X182.321 Y20.018 Z-2.419
N13040 X182.082 Y19.933 Z-2.481
N13045 X181.685 Y19.798 Z-2.578
N13050 X181.41 Y19.707 Z-2.643
N13055 X180.872 Y19.539 Z-2.767
N13060 X180.5 Y19.429 Z-2.847
N13065 X180.048 Y19.299 Z-2.94
N13070 X179.634 Y19.186 Z-3.02
N13075 X179.221 Y19.076 Z-3.091
N13080 X178.81 Y18.97 Z-3.157
N13085 X178.402 Y18.866 Z-3.212
N13090 X177.996 Y18.766 Z-3.261
N13095 X177.596 Y18.668 Z-3.298
N13100 X177.23 Y18.578 Z-3.322
N13105 X176.878 Y18.491 Z-3.334
N13110 X176.542 Y18.406 Z-3.335
N13115 X176.396 Y18.367 Z-3.333
N13120 X176.223 Y18.316
N13125 X176.069 Y18.261 Z-3.335
N13130 X175.926 Y18.205 Z-3.343
N13135 X175.788 Y18.141 Z-3.352
N13140 X175.652 Y18.073 Z-3.365
N13145 X175.545 Y18.012 Z-3.377
N13150 X175.44 Y17.948 Z-3.391
N13155 X175.42 Y17.841 Z-3.322
N13160 X175.401 Y17.736 Z-3.258
N13165 X175.382 Y17.633 Z-3.199
N13170 X175.364 Y17.533 Z-3.144
N13175 X175.346 Y17.434 Z-3.094
N13180 X175.328 Y17.338 Z-3.048
N13185 X175.31 Y17.243 Z-3.007
N13190 X175.293 Y17.15 Z-2.97
N13195 X175.276 Y17.058 Z-2.937
N13200 X175.259 Y16.967 Z-2.909
N13205 X175.243 Y16.877 Z-2.885
N13210 X175.226 Y16.787 Z-2.865
N13215 X175.21 Y16.699 Z-2.85
N13220 X175.194 Y16.611 Z-2.839
N13225 X175.178 Y16.523 Z-2.833
N13230 X175.161 Y16.436 Z-2.831
N13235 X175.145 Y16.347 Z-2.833
N13240 X175.129 Y16.258 Z-2.84
N13245 X175.112 Y16.168 Z-2.851
N13250 X175.095 Y16.076 Z-2.867
N13255 X175.078 Y15.981 Z-2.888
N13260 X175.06 Y15.883 Z-2.915
N13265 X175.041 Y15.781 Z-2.948
N13270 X175.021 Y15.673 Z-2.988
N13275 X175.154 Y15.59 Z-2.879
N13280 X175.286 Y15.513 Z-2.777
N13285 X175.416 Y15.443 Z-2.681
N13290 X175.545 Y15.378 Z-2.592
N13295 X175.687 Y15.315 Z-2.499
N13300 X175.826 Y15.26 Z-2.415
N13305 X175.964 Y15.212 Z-2.338
N13310 X176.101 Y15.172 Z-2.269
N13315 X176.235 Y15.14 Z-2.207
N13320 X176.368 Y15.115 Z-2.154
N13325 X176.499 Y15.097 Z-2.108
N13330 X176.631 Y15.088 Z-2.069
N13335 X176.76 Y15.086 Z-2.038
N13340 X176.934 Y15.096 Z-2.007
N13345 X177.435 Y15.136 Z-1.931
N13350 X177.967 Y15.173 Z-1.844
N13355 X178.562 Y15.202 Z-1.734
N13360 X179.024 Y15.213 Z-1.64
N13365 X179.307 Y15.211 Z-1.575
N13370 X179.551 Y15.204 Z-1.517
N13375 X179.824 Y15.19 Z-1.446
N13380 X180.104 Y15.168 Z-1.37
N13385 X180.391 Y15.135 Z-1.287
N13390 X180.688 Y15.091 Z-1.196
N13395 X180.863 Y15.059 Z-1.14
N13400 X180.995 Y15.032 Z-1.1
N13405 X181.103 Y15.007 Z-1.065
N13410 X181.311 Y14.953 Z-1.
N13415 X181.103 Y15.007 Z-1.065
N13420 X180.995 Y15.032 Z-1.1
N13425 X180.863 Y15.059 Z-1.14
N13430 X180.688 Y15.091 Z-1.196
N13435 X180.391 Y15.135 Z-1.287
N13440 X180.104 Y15.168 Z-1.37
N13445 X179.824 Y15.19 Z-1.446
N13450 X179.551 Y15.204 Z-1.517
N13455 X179.307 Y15.211 Z-1.575
N13460 X179.024 Y15.213 Z-1.64
N13465 X178.562 Y15.202 Z-1.734
N13470 X177.967 Y15.173 Z-1.844
N13475 X177.435 Y15.136 Z-1.931
N13480 X176.934 Y15.096 Z-2.007
N13485 X176.76 Y15.086 Z-2.038
N13490 X176.631 Y15.088 Z-2.069
N13495 X176.499 Y15.097 Z-2.108
N13500 X176.368 Y15.115 Z-2.154
N13505 X176.235 Y15.14 Z-2.207
N13510 X176.101 Y15.172 Z-2.269
N13515 X175.964 Y15.212 Z-2.338
N13520 X175.826 Y15.26 Z-2.415
N13525 X175.687 Y15.315 Z-2.499
N13530 X175.545 Y15.378 Z-2.592
N13535 X175.416 Y15.443 Z-2.681
N13540 X175.286 Y15.513 Z-2.777
N13545 X175.154 Y15.59 Z-2.879
N13550 X175.021 Y15.673 Z-2.988
N13555 X174.893 Y15.59 Z-2.932
N13560 X174.764 Y15.512 Z-2.883
N13565 X174.634 Y15.44 Z-2.839
N13570 X174.501 Y15.375 Z-2.8
N13575 X174.367 Y15.316 Z-2.766
N13580 X174.231 Y15.262 Z-2.738
N13585 X174.095 Y15.215 Z-2.717
N13590 X173.957 Y15.174 Z-2.702
N13595 X173.793 Y15.128 Z-2.687
N13600 X172.933 Y14.901 Z-2.598
N13605 X172.322 Y14.752 Z-2.527
N13610 X172.069 Y14.692 Z-2.498
N13615 X171.653 Y14.599 Z-2.446
N13620 X171.232 Y14.512 Z-2.39
N13625 X170.727 Y14.418 Z-2.317
N13630 X170.404 Y14.363 Z-2.269
N13635 X169.997 Y14.302 Z-2.203
N13640 X169.498 Y14.238 Z-2.114
N13645 X169.202 Y14.207 Z-2.06
N13650 X168.793 Y14.173 Z-1.976
N13655 X168.698 Y14.163 Z-1.96
N13660 X168.604 Y14.149 Z-1.948
N13665 X168.511 Y14.13 Z-1.941
N13670 X168.42 Y14.107 Z-1.939
N13675 X168.341 Y14.083 Z-1.941
N13680 X168.263 Y14.055 Z-1.946
N13685 X168.172 Y14.018 Z-1.957
N13690 X168.066 Y13.969 Z-1.978
N13695 X167.962 Y13.912 Z-2.005
N13700 X167.86 Y13.849 Z-2.04
N13705 X167.759 Y13.779 Z-2.082
N13710 X167.66 Y13.702 Z-2.131
N13715 X167.547 Y13.604 Z-2.197
N13720 X167.45 Y13.511 Z-2.263
N13725 X167.354 Y13.411 Z-2.337
N13730 X167.261 Y13.305 Z-2.418
N13735 X167.169 Y13.191 Z-2.506
N13740 X167.079 Y13.07 Z-2.602
N13745 X166.99 Y12.941 Z-2.705
N13750 X167.105 Y12.85 Z-2.61
N13755 X167.219 Y12.765 Z-2.521
N13760 X167.333 Y12.686 Z-2.438
N13765 X167.45 Y12.612 Z-2.36
N13770 X167.567 Y12.545 Z-2.289
N13775 X167.683 Y12.485 Z-2.225
N13780 X167.799 Y12.432 Z-2.167
N13785 X167.915 Y12.386 Z-2.116
N13790 X168.031 Y12.346 Z-2.072
N13795 X168.151 Y12.313 Z-2.034
N13800 X168.27 Y12.286 Z-2.003
N13805 X168.389 Y12.267 Z-1.979
N13810 X168.508 Y12.256 Z-1.962
N13815 X168.854 Y12.233 Z-1.925
N13820 X169.164 Y12.205 Z-1.885
N13825 X169.457 Y12.173 Z-1.841
N13830 X169.736 Y12.135 Z-1.793
N13835 X170.004 Y12.093 Z-1.741
N13840 X170.263 Y12.045 Z-1.685
N13845 X170.515 Y11.991 Z-1.625
N13850 X170.762 Y11.933 Z-1.561
N13855 X171.006 Y11.869 Z-1.494
N13860 X171.244 Y11.8 Z-1.425
N13865 X171.598 Y11.685 Z-1.314
N13870 X171.792 Y11.617 Z-1.253
N13875 X171.972 Y11.549 Z-1.196
N13880 X172.195 Y11.46 Z-1.127
N13885 X172.287 Y11.42 Z-1.098
N13890 X172.423 Y11.358 Z-1.058
N13895 X172.542 Y11.301 Z-1.025
N13900 X172.644 Y11.247 Z-1.
N13905 X172.542 Y11.301 Z-1.025
N13910 X172.423 Y11.358 Z-1.058
N13915 X172.287 Y11.42 Z-1.098
N13920 X172.195 Y11.46 Z-1.127
N13925 X171.972 Y11.549 Z-1.196
N13930 X171.792 Y11.617 Z-1.253
N13935 X171.598 Y11.685 Z-1.314
N13940 X171.244 Y11.8 Z-1.425
N13945 X171.006 Y11.869 Z-1.494
N13950 X170.762 Y11.933 Z-1.561
N13955 X170.515 Y11.991 Z-1.625
N13960 X170.263 Y12.045 Z-1.685
N13965 X170.004 Y12.093 Z-1.741
N13970 X169.736 Y12.135 Z-1.793
N13975 X169.457 Y12.173 Z-1.841
N13980 X169.164 Y12.205 Z-1.885
N13985 X168.854 Y12.233 Z-1.925
N13990 X168.508 Y12.256 Z-1.962
N13995 X168.389 Y12.267 Z-1.979
N14000 X168.27 Y12.286 Z-2.003
N14005 X168.151 Y12.313 Z-2.034
N14010 X168.031 Y12.346 Z-2.072
N14015 X167.915 Y12.386 Z-2.116
N14020 X167.799 Y12.432 Z-2.167
N14025 X167.683 Y12.485 Z-2.225
N14030 X167.567 Y12.545 Z-2.289
N14035 X167.45 Y12.612 Z-2.36
N14040 X167.333 Y12.686 Z-2.438
N14045 X167.219 Y12.765 Z-2.521
N14050 X167.105 Y12.85 Z-2.61
N14055 X166.99 Y12.941 Z-2.705
N14060 X166.945 Y12.935 Z-2.7
N14065 X166.177 Y12.836 Z-2.624
N14070 X165.874 Y12.801 Z-2.596
N14075 X165.383 Y12.745 Z-2.548
N14080 X165.108 Y12.716 Z-2.524
N14085 X164.566 Y12.663 Z-2.474
N14090 X164.317 Y12.64 Z-2.453
N14095 X163.725 Y12.591 Z-2.4
N14100 X163.502 Y12.575 Z-2.383
N14105 X162.859 Y12.532 Z-2.327
N14110 X162.664 Y12.521 Z-2.312
N14115 X161.807 Y12.481 Z-2.242
N14120 X160.931 Y12.457 Z-2.172
N14125 X160.039 Y12.449 Z-2.102
N14130 X159.133 Y12.46 Z-2.03
N14135 X158.2 Y12.492 Z-1.956
N14140 X157.204 Y12.549 Z-1.877
N14145 X156.209 Y12.632 Z-1.795
N14150 X156.19 Y12.634 Z-1.793
N14155 X155.396 Y12.719 Z-1.728
N14160 X155.157 Y12.748 Z-1.705
N14165 X154.442 Y12.844 Z-1.644
N14170 X154.107 Y12.894 Z-1.611
N14175 X153.482 Y12.996 Z-1.556
N14180 X153.039 Y13.075 Z-1.51
N14185 X152.519 Y13.176 Z-1.462
N14190 X151.957 Y13.294 Z-1.4
N14195 X151.552 Y13.385 Z-1.36
N14200 X150.861 Y13.553 Z-1.279
N14205 X150.58 Y13.625 Z-1.25
N14210 X150.095 Y13.757 Z-1.192
N14215 X149.752 Y13.854 Z-1.148
N14220 X149.608 Y13.897 Z-1.131
N14225 X149.122 Y14.047 Z-1.068
N14230 X148.635 Y14.203 Z-1.
N14235 Z5.
N14240 X157.513 Y10.799
N14245 Z4.
N14250 Z-1.001
N14255 X157.528 Y10.794 Z-1.014
N14260 X157.516 Y10.788 Z-1.001
N14265 X157.528 Y10.794 Z-1.014
N14270 X157.523 Y10.807 Z-1.001
N14275 X157.528 Y10.794 Z-1.014
N14280 X157.547 Y10.787 Z-1.023
N14285 X157.58 Y10.773 Z-1.034
N14290 X157.624 Y10.754 Z-1.045
N14295 X157.751 Y10.7 Z-1.067
N14300 X157.926 Y10.626 Z-1.089
N14305 X158.149 Y10.532 Z-1.112
N14310 X158.417 Y10.421 Z-1.134
N14315 X158.731 Y10.295 Z-1.157
N14320 X159.091 Y10.153 Z-1.179
N14325 X159.494 Y9.998 Z-1.201
N14330 X159.94 Y9.83 Z-1.222
N14335 X160.428 Y9.652 Z-1.243
N14340 X160.957 Y9.465 Z-1.263
N14345 X161.525 Y9.27 Z-1.282
N14350 X162.132 Y9.069 Z-1.3
N14355 X162.776 Y8.862 Z-1.318
N14360 X163.458 Y8.652 Z-1.334
N14365 X164.192 Y8.435 Z-1.351
N14370 X164.955 Y8.22 Z-1.366
N14375 X165.746 Y8.008 Z-1.38
N14380 X166.564 Y7.801 Z-1.393
N14385 X167.411 Y7.6 Z-1.405
N14390 X168.285 Y7.406 Z-1.416
N14395 X169.186 Y7.219 Z-1.427
N14400 X170.113 Y7.042 Z-1.436
N14405 X171.067 Y6.875 Z-1.444
N14410 X172.046 Y6.719 Z-1.452
N14415 X173.051 Y6.577 Z-1.458
N14420 X174.081 Y6.448 Z-1.463
N14425 X175.135 Y6.335 Z-1.468
N14430 X176.213 Y6.238 Z-1.471
N14435 X177.315 Y6.159 Z-1.473
N14440 X178.439 Y6.098
N14445 X179.43 Y6.062
N14450 X180.403 Y6.042 Z-1.471
N14455 X181.359 Y6.038 Z-1.469
N14460 X182.298 Y6.048 Z-1.465
N14465 X183.22 Y6.072 Z-1.461
N14470 X184.125 Y6.11 Z-1.456
N14475 X185.011 Y6.159 Z-1.451
N14480 X185.88 Y6.221 Z-1.444
N14485 X186.731 Y6.293 Z-1.437
N14490 X187.562 Y6.376 Z-1.429
N14495 X188.375 Y6.468 Z-1.42
N14500 X189.169 Y6.569 Z-1.41
N14505 X189.942 Y6.677 Z-1.4
N14510 X190.697 Y6.793 Z-1.388
N14515 X191.43 Y6.916 Z-1.376
N14520 X192.143 Y7.044 Z-1.364
N14525 X192.576 Y7.126 Z-1.356
N14530 X193.406 Y7.291 Z-1.338
N14535 X193.811 Y7.377 Z-1.329
N14540 X194.577 Y7.545 Z-1.309
N14545 X195.296 Y7.712 Z-1.288
N14550 X195.964 Y7.876 Z-1.266
N14555 X196.583 Y8.036 Z-1.244
N14560 X197.15 Y8.188 Z-1.221
N14565 X197.663 Y8.332 Z-1.197
N14570 X198.122 Y8.466 Z-1.172
N14575 X198.525 Y8.587 Z-1.148
N14580 X198.871 Y8.694 Z-1.123
N14585 X199.157 Y8.785 Z-1.098
N14590 X199.382 Y8.858 Z-1.073
N14595 X199.546 Y8.912 Z-1.048
N14600 X199.604 Y8.931 Z-1.037
N14605 X199.646 Y8.944 Z-1.025
N14610 X199.669 Y8.951 Z-1.015
N14615 X199.675 Y8.964 Z-1.001
N14620 X199.669 Y8.951 Z-1.015
N14625 X199.671 Z-1.014
N14630 X199.687 Y8.955 Z-1.001
N14635 Z5.
N14640 X175.869 Y9.476
N14645 Z4.
N14650 Z-1.001
N14655 X175.906 Y9.478 Z-1.034
N14660 X175.883 Y9.454 Z-1.001
N14665 X175.906 Y9.478 Z-1.034
N14670 X175.881 Y9.5 Z-1.001
N14675 X175.906 Y9.478 Z-1.034
N14680 X175.942 Y9.479 Z-1.053
N14685 X176.001 Y9.481 Z-1.074
N14690 X176.084 Y9.483 Z-1.096
N14695 X176.189 Y9.487 Z-1.119
N14700 X176.315 Y9.493 Z-1.141
N14705 X176.462 Y9.5 Z-1.163
N14710 X176.629 Y9.51 Z-1.184
N14715 X176.815 Y9.523 Z-1.205
N14720 X177.021 Y9.539 Z-1.226
N14725 X177.245 Y9.558 Z-1.246
N14730 X177.487 Y9.581 Z-1.266
N14735 X177.747 Y9.609 Z-1.285
N14740 X178.022 Y9.641 Z-1.303
N14745 X178.312 Y9.678 Z-1.321
N14750 X178.617 Y9.721 Z-1.338
N14755 X178.937 Y9.769 Z-1.354
N14760 X179.269 Y9.824 Z-1.369
N14765 X179.614 Y9.885 Z-1.383
N14770 X179.972 Y9.952 Z-1.396
N14775 X180.339 Y10.027 Z-1.409
N14780 X180.718 Y10.11 Z-1.42
N14785 X181.108 Y10.2 Z-1.43
N14790 X181.505 Y10.299 Z-1.439
N14795 X181.912 Y10.406 Z-1.447
N14800 X182.325 Y10.522 Z-1.454
N14805 X182.746 Y10.647 Z-1.46
N14810 X183.173 Y10.782 Z-1.465
N14815 X183.605 Y10.927 Z-1.468
N14820 X184.041 Y11.081 Z-1.471
N14825 X184.483 Y11.247 Z-1.473
N14830 X184.928 Y11.423
N14835 X185.41 Y11.627 Z-1.47
N14840 X185.873 Y11.83 Z-1.469
N14845 X185.88 Y11.833
N14850 X186.336 Y12.047 Z-1.464
N14855 X186.641 Y12.192
N14860 X186.781 Y12.263 Z-1.46
N14865 X187.211 Y12.484 Z-1.453
N14870 X187.467 Y12.618 Z-1.451
N14875 X187.63 Y12.708 Z-1.446
N14880 X188.035 Y12.934 Z-1.437
N14885 X188.272 Y13.069 Z-1.434
N14890 X188.43 Y13.162 Z-1.429
N14895 X188.929 Y13.465 Z-1.414
N14900 X189.402 Y13.767 Z-1.397
N14905 X189.845 Y14.062 Z-1.377
N14910 X190.258 Y14.348 Z-1.356
N14915 X190.641 Y14.625 Z-1.332
N14920 X190.994 Y14.889 Z-1.307
N14925 X191.316 Y15.138 Z-1.281
N14930 X191.606 Y15.37 Z-1.253
N14935 X191.981 Y15.682 Z-1.209
N14940 X192.192 Y15.863 Z-1.179
N14945 X192.37 Y16.019 Z-1.147
N14950 X192.513 Y16.148 Z-1.116
N14955 X192.622 Y16.248 Z-1.084
N14960 X192.663 Y16.285 Z-1.068
N14965 X192.695 Y16.314 Z-1.053
N14970 X192.719 Y16.336 Z-1.038
N14975 X192.732 Y16.347 Z-1.027
N14980 X192.738 Y16.374 Z-1.001
N14985 X192.732 Y16.347 Z-1.027
N14990 X192.735 Y16.349 Z-1.025
N14995 X192.759 Y16.351 Z-1.001
N15000 X192.735 Y16.349 Z-1.025
N15005 X192.754 Y16.365 Z-1.001
N15010 Z5.
N15015 X170.291 Y9.476
N15020 Z4.
N15025 Z-1.001
N15030 X170.302 Y9.48 Z-1.01
N15035 X170.303 Y9.481 Z-1.011
N15040 X170.294 Y9.486 Z-1.001
N15045 X170.303 Y9.481 Z-1.011
N15050 X170.342 Y9.489 Z-1.027
N15055 X170.425 Y9.504 Z-1.044
N15060 X170.62 Y9.542 Z-1.072
N15065 X170.797 Y9.576 Z-1.091
N15070 X171.012 Y9.62 Z-1.11
N15075 X171.262 Y9.674 Z-1.129
N15080 X171.546 Y9.738 Z-1.148
N15085 X171.864 Y9.814 Z-1.167
N15090 X172.214 Y9.902 Z-1.186
N15095 X172.595 Y10.003 Z-1.204
N15100 X173.007 Y10.117 Z-1.222
N15105 X173.448 Y10.247 Z-1.24
N15110 X173.918 Y10.391 Z-1.256
N15115 X174.415 Y10.552 Z-1.273
N15120 X174.936 Y10.729 Z-1.288
N15125 X175.484 Y10.925 Z-1.303
N15130 X176.055 Y11.141 Z-1.317
N15135 X176.645 Y11.376 Z-1.331
N15140 X177.254 Y11.632 Z-1.344
N15145 X177.88 Y11.911 Z-1.357
N15150 X178.521 Y12.211 Z-1.369
N15155 X179.176 Y12.536 Z-1.38
N15160 X179.844 Y12.884 Z-1.391
N15165 X180.523 Y13.258 Z-1.402
N15170 X181.211 Y13.659 Z-1.411
N15175 X181.907 Y14.086 Z-1.42
N15180 X182.609 Y14.541 Z-1.429
N15185 X183.316 Y15.025 Z-1.436
N15190 X184.027 Y15.539 Z-1.443
N15195 X184.739 Y16.083 Z-1.45
N15200 X185.451 Y16.659 Z-1.455
N15205 X186.027 Y17.15 Z-1.459
N15210 X186.598 Y17.659 Z-1.463
N15215 X187.163 Y18.186 Z-1.466
N15220 X187.722 Y18.732 Z-1.468
N15225 X188.273 Y19.298 Z-1.47
N15230 X188.818 Y19.882 Z-1.472
N15235 X189.353 Y20.485 Z-1.473
N15240 X189.879 Y21.107
N15245 X190.334 Y21.67
N15250 X190.772 Y22.236 Z-1.472
N15255 X191.194 Y22.805 Z-1.471
N15260 X191.599 Y23.377 Z-1.469
N15265 X191.989 Y23.951 Z-1.468
N15270 X192.362 Y24.525 Z-1.465
N15275 X192.72 Y25.102 Z-1.463
N15280 X193.063 Y25.678 Z-1.459
N15285 X193.39 Y26.255 Z-1.456
N15290 X193.703 Y26.831 Z-1.452
N15295 X194.001 Y27.407 Z-1.448
N15300 X194.285 Y27.981 Z-1.443
N15305 X194.554 Y28.553 Z-1.438
N15310 X194.809 Y29.123 Z-1.433
N15315 X195.05 Y29.69 Z-1.427
N15320 X195.278 Y30.254 Z-1.421
N15325 X195.525 Y30.9 Z-1.413
N15330 X195.754 Y31.537 Z-1.404
N15335 X195.966 Y32.162 Z-1.396
N15340 X196.161 Y32.777 Z-1.386
N15345 X196.341 Y33.379 Z-1.376
N15350 X196.505 Y33.969 Z-1.365
N15355 X196.655 Y34.545 Z-1.354
N15360 X196.79 Y35.107 Z-1.342
N15365 X196.913 Y35.655 Z-1.329
N15370 X197.022 Y36.186 Z-1.316
N15375 X197.12 Y36.701 Z-1.303
N15380 X197.206 Y37.2 Z-1.288
N15385 X197.281 Y37.681 Z-1.274
N15390 X197.346 Y38.143 Z-1.258
N15395 X197.402 Y38.587 Z-1.243
N15400 X197.45 Y39.01 Z-1.227
N15405 X197.49 Y39.413 Z-1.212
N15410 X197.522 Y39.795 Z-1.195
N15415 X197.548 Y40.155 Z-1.179
N15420 X197.568 Y40.492 Z-1.163
N15425 X197.583 Y40.806 Z-1.146
N15430 X197.593 Y41.097 Z-1.131
N15435 X197.601 Y41.376 Z-1.114
N15440 X197.607 Y41.818 Z-1.085
N15445 Y42.167 Z-1.057
N15450 Y42.404 Z-1.031
N15455 X197.609 Y42.48 Z-1.02
N15460 X197.612 Y42.525 Z-1.01
N15465 X197.604 Y42.53 Z-1.001
N15470 X197.612 Y42.525 Z-1.01
N15475 X197.619 Y42.545 Z-1.
N15480 Z5.
N15485 X194.114 Y18.475
N15490 Z4.
N15495 Z-2.903
N15500 X194.176 Y18.557 Z-3.005
N15505 X194.243 Y18.636 Z-3.107
N15510 X194.301 Y18.696 Z-3.188
N15515 X194.333 Y18.721 Z-3.224
N15520 X194.4 Y18.769 Z-3.296
N15525 X194.509 Y18.832 Z-3.403
N15530 X194.585 Y18.871 Z-3.474
N15535 X194.664 Y18.907 Z-3.545
N15540 X194.752 Y18.943 Z-3.622
N15545 X194.839 Y18.975 Z-3.695
N15550 X194.924 Y19.002 Z-3.765
N15555 X195.015 Y19.027 Z-3.838
N15560 X195.102 Y19.047 Z-3.906
N15565 X195.186 Y19.063 Z-3.97
N15570 X195.276 Y19.076 Z-4.036
N15575 X195.369 Y19.086 Z-4.103
N15580 X195.459 Y19.092 Z-4.166
N15585 X195.549 Y19.094 Z-4.228
N15590 X195.636 Y19.093 Z-4.286
N15595 X195.704 Y19.089 Z-4.331
N15600 X195.783 Y19.081 Z-4.382
N15605 X195.907 Y19.064 Z-4.46
N15610 X196.013 Y19.045 Z-4.526
N15615 X196.106 Y19.025 Z-4.584
N15620 X196.185 Y19.005 Z-4.632
N15625 X196.299 Y18.971 Z-4.701
N15630 X196.534 Y18.883 Z-4.839
N15635 X196.643 Y18.836 Z-4.905
N15640 X196.639 Y18.797 Z-4.88
N15645 X196.621 Y18.679 Z-4.803
N15650 X196.599 Y18.569 Z-4.728
N15655 X196.565 Y18.43 Z-4.631
N15660 X196.527 Y18.302 Z-4.539
N15665 X196.485 Y18.176 Z-4.446
N15670 X196.436 Y18.05 Z-4.35
N15675 X196.385 Y17.932 Z-4.257
N15680 X196.329 Y17.818 Z-4.165
N15685 X196.268 Y17.705 Z-4.069
