%
(CHARHOLE)
(T1  D=6.35 CR=0. - ZMIN=-21. - FLAT END MILL)
N10 G90 G94 G17 G91.1
N15 G21
(WHEN USING FUSION 360 FOR PERSONAL USE, THE FEEDRATE OF)
(RAPID MOVES IS REDUCED TO MATCH THE FEEDRATE OF CUTTING)
(MOVES, WHICH CAN INCREASE MACHINING TIME. UNRESTRICTED RAPID)
(MOVES ARE AVAILABLE WITH A FUSION 360 SUBSCRIPTION.)
N20 G53 G0 Z0.
(2D CONTOUR3 3)
N25 T1 M6
N30 S10000 M3
N35 G54
N40 M8
N45 G0 X-36.144 Y-5.676
N50 G43 Z16. H1
N55 G1 Z6. F2500.
N60 Z-4.715 F833.33
N65 X-36.143 Y-5.684 Z-4.814 F2500.
N70 Y-5.707 Z-4.911
N75 X-36.142 Y-5.745 Z-5.003
N80 X-36.141 Y-5.797 Z-5.088
N85 X-36.139 Y-5.862 Z-5.164
N90 X-36.137 Y-5.938 Z-5.229
N95 X-36.135 Y-6.022 Z-5.281
N100 X-36.132 Y-6.114 Z-5.319
N105 X-36.13 Y-6.211 Z-5.342
N110 X-36.127 Y-6.311 Z-5.35
N115 X-36.111 Y-6.945
N120 G3 X-35.46 Y-7.564 I0.635 J0.016
N125 G1 X-34.942 Y-7.55
N130 X-34.257 Y-7.507
N135 X-33.931 Y-7.477
N140 X-33.584 Y-7.438
N145 X-33.228 Y-7.391
N150 X-32.863 Y-7.335
N155 X-32.487 Y-7.27
N160 X-32.1 Y-7.195
N165 X-31.705 Y-7.108
N170 X-31.301 Y-7.01
N175 X-30.89 Y-6.898
N180 X-30.473 Y-6.773
N185 X-30.052 Y-6.633
N190 X-29.626 Y-6.477
N195 X-29.199 Y-6.306
N200 X-28.772 Y-6.118
N205 X-28.341 Y-5.909
N210 X-27.91 Y-5.682
N215 X-27.488 Y-5.44
N220 X-27.083 Y-5.189
N225 X-26.702 Y-4.932
N230 X-26.344 Y-4.669
N235 X-26.008 Y-4.401
N240 X-25.695 Y-4.131
N245 X-25.407 Y-3.859
N250 X-25.141 Y-3.586
N255 X-24.895 Y-3.311
N260 X-24.667 Y-3.029
N265 X-24.453 Y-2.739
N270 X-24.258 Y-2.444
N275 X-24.088 Y-2.153
N280 X-23.94 Y-1.856
N285 X-23.807 Y-1.541
N290 X-23.695 Y-1.217
N295 X-23.6 Y-0.88
N300 X-23.573 Y-0.76
N305 X-23.547 Y-0.626
N310 X-23.528 Y-0.5
N315 X-23.516 Y-0.393
N320 X-23.496 Y-0.117
N325 X-23.493 Y0.11
N330 X-23.504 Y0.323
N335 X-23.525 Y0.53
N340 X-23.559 Y0.739
N345 X-23.607 Y0.956
N350 X-23.671 Y1.182
N355 X-23.753 Y1.422
N360 X-23.856 Y1.676
N365 X-23.988 Y1.959
N370 X-24.059 Y2.098
N375 X-24.1 Y2.173
N380 X-24.152 Y2.265
N385 X-24.212 Y2.367
N390 X-24.281 Y2.479
N395 X-24.359 Y2.601
N400 X-24.449 Y2.733
N405 X-24.55 Y2.874
N410 X-24.664 Y3.025
N415 X-24.791 Y3.185
N420 X-24.933 Y3.353
N425 X-25.09 Y3.529
N430 X-25.259 Y3.709
N435 X-25.443 Y3.893
N440 X-25.649 Y4.087
N445 X-25.877 Y4.288
N450 X-26.121 Y4.492
N455 X-26.375 Y4.693
N460 X-26.634 Y4.887
N465 X-26.892 Y5.069
N470 X-27.151 Y5.239
N475 X-27.416 Y5.404
N480 X-27.686 Y5.561
N485 X-27.958 Y5.712
N490 X-28.233 Y5.855
N495 X-28.509 Y5.991
N500 X-28.785 Y6.12
N505 X-29.062 Y6.242
N510 X-29.337 Y6.356
N515 X-29.606 Y6.463
N520 X-29.857 Y6.558
N525 X-30.392 Y6.742
N530 X-30.907 Y6.9
N535 X-31.426 Y7.041
N540 X-31.95 Y7.166
N545 X-32.479 Y7.274
N550 X-33.014 Y7.366
N555 X-33.553 Y7.44
N560 X-34.098 Y7.497
N565 X-34.65 Y7.536
N570 X-35.207 Y7.558
N575 X-35.767 Y7.563
N580 X-36.333 Y7.551
N585 X-36.922 Y7.519
N590 X-37.204 Y7.497
N595 X-37.506 Y7.469
N600 X-37.814 Y7.436
N605 X-38.128 Y7.396
N610 X-38.448 Y7.35
N615 X-38.773 Y7.296
N620 X-39.103 Y7.235
N625 X-39.438 Y7.167
N630 X-39.778 Y7.09
N635 X-40.121 Y7.004
N640 X-40.467 Y6.909
N645 X-40.816 Y6.805
N650 X-41.167 Y6.691
N655 X-41.522 Y6.565
N660 X-41.881 Y6.428
N665 X-42.241 Y6.279
N670 X-42.601 Y6.12
N675 X-42.957 Y5.95
N680 X-43.308 Y5.772
N685 X-43.649 Y5.585
N690 X-43.979 Y5.392
N695 X-44.301 Y5.189
N700 X-44.617 Y4.975
N705 X-44.925 Y4.753
N710 X-45.216 Y4.529
N715 X-45.486 Y4.309
N720 X-45.728 Y4.098
N725 X-45.94 Y3.9
N730 X-46.135 Y3.704
N735 X-46.316 Y3.513
N740 X-46.473 Y3.339
N745 X-46.606 Y3.183
N750 X-46.721 Y3.039
N755 X-46.81 Y2.92
N760 X-47.012 Y2.628
N765 X-47.188 Y2.346
N770 X-47.341 Y2.07
N775 X-47.472 Y1.803
N780 X-47.583 Y1.542
N785 X-47.675 Y1.287
N790 X-47.748 Y1.043
N795 X-47.805 Y0.808
N800 X-47.845 Y0.586
N805 X-47.871 Y0.378
N810 X-47.886 Y0.181
N815 X-47.89 Y-0.011
N820 X-47.887 Y-0.2
N825 X-47.878 Y-0.367
N830 X-47.865 Y-0.507
N835 X-47.848 Y-0.63
N840 X-47.827 Y-0.747
N845 X-47.806 Y-0.846
N850 X-47.726 Y-1.142
N855 X-47.634 Y-1.42
N860 X-47.523 Y-1.695
N865 X-47.389 Y-1.978
N870 X-47.232 Y-2.267
N875 X-47.054 Y-2.558
N880 X-46.858 Y-2.843
N885 X-46.648 Y-3.119
N890 X-46.423 Y-3.387
N895 X-46.184 Y-3.648
N900 X-45.933 Y-3.902
N905 X-45.672 Y-4.146
N910 X-45.408 Y-4.378
N915 X-45.143 Y-4.596
N920 X-44.876 Y-4.8
N925 X-44.607 Y-4.994
N930 X-44.334 Y-5.178
N935 X-44.058 Y-5.352
N940 X-43.777 Y-5.52
N945 X-43.49 Y-5.681
N950 X-43.2 Y-5.834
N955 X-42.912 Y-5.978
N960 X-42.638 Y-6.107
N965 X-42.038 Y-6.364
N970 X-41.454 Y-6.585
N975 X-40.874 Y-6.78
N980 X-40.313 Y-6.946
N985 X-39.766 Y-7.087
N990 X-39.215 Y-7.209
N995 X-38.65 Y-7.316
N1000 X-38.07 Y-7.406
N1005 X-37.475 Y-7.478
N1010 X-36.865 Y-7.53
N1015 X-36.241 Y-7.56
N1020 X-35.6 Y-7.567
N1025 X-35.46 Y-7.564
N1030 G3 X-34.841 Y-6.913 I-0.016 J0.635
N1035 G1 X-34.858 Y-6.278
N1040 X-34.86 Y-6.179 Z-5.342
N1045 X-34.863 Y-6.082 Z-5.319
N1050 X-34.865 Y-5.99 Z-5.281
N1055 X-34.867 Y-5.905 Z-5.229
N1060 X-34.869 Y-5.829 Z-5.164
N1065 X-34.871 Y-5.764 Z-5.088
N1070 X-34.872 Y-5.712 Z-5.003
N1075 X-34.873 Y-5.674 Z-4.911
N1080 X-34.874 Y-5.651 Z-4.814
N1085 Y-5.643 Z-4.715
N1090 Z6.
N1095 X-36.144 Y-5.676
N1100 Z-0.35 F833.33
N1105 Z-11.065
N1110 X-36.143 Y-5.684 Z-11.164 F2500.
N1115 Y-5.707 Z-11.261
N1120 X-36.142 Y-5.745 Z-11.353
N1125 X-36.141 Y-5.797 Z-11.438
N1130 X-36.139 Y-5.862 Z-11.514
N1135 X-36.137 Y-5.938 Z-11.579
N1140 X-36.135 Y-6.022 Z-11.631
N1145 X-36.132 Y-6.114 Z-11.669
N1150 X-36.13 Y-6.211 Z-11.692
N1155 X-36.127 Y-6.311 Z-11.7
N1160 X-36.111 Y-6.945
N1165 G3 X-35.46 Y-7.564 I0.635 J0.016
N1170 G1 X-34.942 Y-7.55
N1175 X-34.257 Y-7.507
N1180 X-33.931 Y-7.477
N1185 X-33.584 Y-7.438
N1190 X-33.228 Y-7.391
N1195 X-32.863 Y-7.335
N1200 X-32.487 Y-7.27
N1205 X-32.1 Y-7.195
N1210 X-31.705 Y-7.108
N1215 X-31.301 Y-7.01
N1220 X-30.89 Y-6.898
N1225 X-30.473 Y-6.773
N1230 X-30.052 Y-6.633
N1235 X-29.626 Y-6.477
N1240 X-29.199 Y-6.306
N1245 X-28.772 Y-6.118
N1250 X-28.341 Y-5.909
N1255 X-27.91 Y-5.682
N1260 X-27.488 Y-5.44
N1265 X-27.083 Y-5.189
N1270 X-26.702 Y-4.932
N1275 X-26.344 Y-4.669
N1280 X-26.008 Y-4.401
N1285 X-25.695 Y-4.131
N1290 X-25.407 Y-3.859
N1295 X-25.141 Y-3.586
N1300 X-24.895 Y-3.311
N1305 X-24.667 Y-3.029
N1310 X-24.453 Y-2.739
N1315 X-24.258 Y-2.444
N1320 X-24.088 Y-2.153
N1325 X-23.94 Y-1.856
N1330 X-23.807 Y-1.541
N1335 X-23.695 Y-1.217
N1340 X-23.6 Y-0.88
N1345 X-23.573 Y-0.76
N1350 X-23.547 Y-0.626
N1355 X-23.528 Y-0.5
N1360 X-23.516 Y-0.393
N1365 X-23.496 Y-0.117
N1370 X-23.493 Y0.11
N1375 X-23.504 Y0.323
N1380 X-23.525 Y0.53
N1385 X-23.559 Y0.739
N1390 X-23.607 Y0.956
N1395 X-23.671 Y1.182
N1400 X-23.753 Y1.422
N1405 X-23.856 Y1.676
N1410 X-23.988 Y1.959
N1415 X-24.059 Y2.098
N1420 X-24.1 Y2.173
N1425 X-24.152 Y2.265
N1430 X-24.212 Y2.367
N1435 X-24.281 Y2.479
N1440 X-24.359 Y2.601
N1445 X-24.449 Y2.733
N1450 X-24.55 Y2.874
N1455 X-24.664 Y3.025
N1460 X-24.791 Y3.185
N1465 X-24.933 Y3.353
N1470 X-25.09 Y3.529
N1475 X-25.259 Y3.709
N1480 X-25.443 Y3.893
N1485 X-25.649 Y4.087
N1490 X-25.877 Y4.288
N1495 X-26.121 Y4.492
N1500 X-26.375 Y4.693
N1505 X-26.634 Y4.887
N1510 X-26.892 Y5.069
N1515 X-27.151 Y5.239
N1520 X-27.416 Y5.404
N1525 X-27.686 Y5.561
N1530 X-27.958 Y5.712
N1535 X-28.233 Y5.855
N1540 X-28.509 Y5.991
N1545 X-28.785 Y6.12
N1550 X-29.062 Y6.242
N1555 X-29.337 Y6.356
N1560 X-29.606 Y6.463
N1565 X-29.857 Y6.558
N1570 X-30.392 Y6.742
N1575 X-30.907 Y6.9
N1580 X-31.426 Y7.041
N1585 X-31.95 Y7.166
N1590 X-32.479 Y7.274
N1595 X-33.014 Y7.366
N1600 X-33.553 Y7.44
N1605 X-34.098 Y7.497
N1610 X-34.65 Y7.536
N1615 X-35.207 Y7.558
N1620 X-35.767 Y7.563
N1625 X-36.333 Y7.551
N1630 X-36.922 Y7.519
N1635 X-37.204 Y7.497
N1640 X-37.506 Y7.469
N1645 X-37.814 Y7.436
N1650 X-38.128 Y7.396
N1655 X-38.448 Y7.35
N1660 X-38.773 Y7.296
N1665 X-39.103 Y7.235
N1670 X-39.438 Y7.167
N1675 X-39.778 Y7.09
N1680 X-40.121 Y7.004
N1685 X-40.467 Y6.909
N1690 X-40.816 Y6.805
N1695 X-41.167 Y6.691
N1700 X-41.522 Y6.565
N1705 X-41.881 Y6.428
N1710 X-42.241 Y6.279
N1715 X-42.601 Y6.12
N1720 X-42.957 Y5.95
N1725 X-43.308 Y5.772
N1730 X-43.649 Y5.585
N1735 X-43.979 Y5.392
N1740 X-44.301 Y5.189
N1745 X-44.617 Y4.975
N1750 X-44.925 Y4.753
N1755 X-45.216 Y4.529
N1760 X-45.486 Y4.309
N1765 X-45.728 Y4.098
N1770 X-45.94 Y3.9
N1775 X-46.135 Y3.704
N1780 X-46.316 Y3.513
N1785 X-46.473 Y3.339
N1790 X-46.606 Y3.183
N1795 X-46.721 Y3.039
N1800 X-46.81 Y2.92
N1805 X-47.012 Y2.628
N1810 X-47.188 Y2.346
N1815 X-47.341 Y2.07
N1820 X-47.472 Y1.803
N1825 X-47.583 Y1.542
N1830 X-47.675 Y1.287
N1835 X-47.748 Y1.043
N1840 X-47.805 Y0.808
N1845 X-47.845 Y0.586
N1850 X-47.871 Y0.378
N1855 X-47.886 Y0.181
N1860 X-47.89 Y-0.011
N1865 X-47.887 Y-0.2
N1870 X-47.878 Y-0.367
N1875 X-47.865 Y-0.507
N1880 X-47.848 Y-0.63
N1885 X-47.827 Y-0.747
N1890 X-47.806 Y-0.846
N1895 X-47.726 Y-1.142
N1900 X-47.634 Y-1.42
N1905 X-47.523 Y-1.695
N1910 X-47.389 Y-1.978
N1915 X-47.232 Y-2.267
N1920 X-47.054 Y-2.558
N1925 X-46.858 Y-2.843
N1930 X-46.648 Y-3.119
N1935 X-46.423 Y-3.387
N1940 X-46.184 Y-3.648
N1945 X-45.933 Y-3.902
N1950 X-45.672 Y-4.146
N1955 X-45.408 Y-4.378
N1960 X-45.143 Y-4.596
N1965 X-44.876 Y-4.8
N1970 X-44.607 Y-4.994
N1975 X-44.334 Y-5.178
N1980 X-44.058 Y-5.352
N1985 X-43.777 Y-5.52
N1990 X-43.49 Y-5.681
N1995 X-43.2 Y-5.834
N2000 X-42.912 Y-5.978
N2005 X-42.638 Y-6.107
N2010 X-42.038 Y-6.364
N2015 X-41.454 Y-6.585
N2020 X-40.874 Y-6.78
N2025 X-40.313 Y-6.946
N2030 X-39.766 Y-7.087
N2035 X-39.215 Y-7.209
N2040 X-38.65 Y-7.316
N2045 X-38.07 Y-7.406
N2050 X-37.475 Y-7.478
N2055 X-36.865 Y-7.53
N2060 X-36.241 Y-7.56
N2065 X-35.6 Y-7.567
N2070 X-35.46 Y-7.564
N2075 G3 X-34.841 Y-6.913 I-0.016 J0.635
N2080 G1 X-34.858 Y-6.278
N2085 X-34.86 Y-6.179 Z-11.692
N2090 X-34.863 Y-6.082 Z-11.669
N2095 X-34.865 Y-5.99 Z-11.631
N2100 X-34.867 Y-5.905 Z-11.579
N2105 X-34.869 Y-5.829 Z-11.514
N2110 X-34.871 Y-5.764 Z-11.438
N2115 X-34.872 Y-5.712 Z-11.353
N2120 X-34.873 Y-5.674 Z-11.261
N2125 X-34.874 Y-5.651 Z-11.164
N2130 Y-5.643 Z-11.065
N2135 Z6.
N2140 X-36.144 Y-5.676
N2145 Z-6.7 F833.33
N2150 Z-17.415
N2155 X-36.143 Y-5.684 Z-17.514 F2500.
N2160 Y-5.707 Z-17.611
N2165 X-36.142 Y-5.745 Z-17.703
N2170 X-36.141 Y-5.797 Z-17.788
N2175 X-36.139 Y-5.862 Z-17.864
N2180 X-36.137 Y-5.938 Z-17.929
N2185 X-36.135 Y-6.022 Z-17.981
N2190 X-36.132 Y-6.114 Z-18.019
N2195 X-36.13 Y-6.211 Z-18.042
N2200 X-36.127 Y-6.311 Z-18.05
N2205 X-36.111 Y-6.945
N2210 G3 X-35.46 Y-7.564 I0.635 J0.016
N2215 G1 X-34.942 Y-7.55
N2220 X-34.257 Y-7.507
N2225 X-33.931 Y-7.477
N2230 X-33.584 Y-7.438
N2235 X-33.228 Y-7.391
N2240 X-32.863 Y-7.335
N2245 X-32.487 Y-7.27
N2250 X-32.1 Y-7.195
N2255 X-31.705 Y-7.108
N2260 X-31.301 Y-7.01
N2265 X-30.89 Y-6.898
N2270 X-30.473 Y-6.773
N2275 X-30.052 Y-6.633
N2280 X-29.626 Y-6.477
N2285 X-29.199 Y-6.306
N2290 X-28.772 Y-6.118
N2295 X-28.341 Y-5.909
N2300 X-27.91 Y-5.682
N2305 X-27.488 Y-5.44
N2310 X-27.083 Y-5.189
N2315 X-26.702 Y-4.932
N2320 X-26.344 Y-4.669
N2325 X-26.008 Y-4.401
N2330 X-25.695 Y-4.131
N2335 X-25.407 Y-3.859
N2340 X-25.141 Y-3.586
N2345 X-24.895 Y-3.311
N2350 X-24.667 Y-3.029
N2355 X-24.453 Y-2.739
N2360 X-24.258 Y-2.444
N2365 X-24.088 Y-2.153
N2370 X-23.94 Y-1.856
N2375 X-23.807 Y-1.541
N2380 X-23.695 Y-1.217
N2385 X-23.6 Y-0.88
N2390 X-23.573 Y-0.76
N2395 X-23.547 Y-0.626
N2400 X-23.528 Y-0.5
N2405 X-23.516 Y-0.393
N2410 X-23.496 Y-0.117
N2415 X-23.493 Y0.11
N2420 X-23.504 Y0.323
N2425 X-23.525 Y0.53
N2430 X-23.559 Y0.739
N2435 X-23.607 Y0.956
N2440 X-23.671 Y1.182
N2445 X-23.753 Y1.422
N2450 X-23.856 Y1.676
N2455 X-23.988 Y1.959
N2460 X-24.059 Y2.098
N2465 X-24.1 Y2.173
N2470 X-24.152 Y2.265
N2475 X-24.212 Y2.367
N2480 X-24.281 Y2.479
N2485 X-24.359 Y2.601
N2490 X-24.449 Y2.733
N2495 X-24.55 Y2.874
N2500 X-24.664 Y3.025
N2505 X-24.791 Y3.185
N2510 X-24.933 Y3.353
N2515 X-25.09 Y3.529
N2520 X-25.259 Y3.709
N2525 X-25.443 Y3.893
N2530 X-25.649 Y4.087
N2535 X-25.877 Y4.288
N2540 X-26.121 Y4.492
N2545 X-26.375 Y4.693
N2550 X-26.634 Y4.887
N2555 X-26.892 Y5.069
N2560 X-27.151 Y5.239
N2565 X-27.416 Y5.404
N2570 X-27.686 Y5.561
N2575 X-27.958 Y5.712
N2580 X-28.233 Y5.855
N2585 X-28.509 Y5.991
N2590 X-28.785 Y6.12
N2595 X-29.062 Y6.242
N2600 X-29.337 Y6.356
N2605 X-29.606 Y6.463
N2610 X-29.857 Y6.558
N2615 X-30.392 Y6.742
N2620 X-30.907 Y6.9
N2625 X-31.426 Y7.041
N2630 X-31.95 Y7.166
N2635 X-32.479 Y7.274
N2640 X-33.014 Y7.366
N2645 X-33.553 Y7.44
N2650 X-34.098 Y7.497
N2655 X-34.65 Y7.536
N2660 X-35.207 Y7.558
N2665 X-35.767 Y7.563
N2670 X-36.333 Y7.551
N2675 X-36.922 Y7.519
N2680 X-37.204 Y7.497
N2685 X-37.506 Y7.469
N2690 X-37.814 Y7.436
N2695 X-38.128 Y7.396
N2700 X-38.448 Y7.35
N2705 X-38.773 Y7.296
N2710 X-39.103 Y7.235
N2715 X-39.438 Y7.167
N2720 X-39.778 Y7.09
N2725 X-40.121 Y7.004
N2730 X-40.467 Y6.909
N2735 X-40.816 Y6.805
N2740 X-41.167 Y6.691
N2745 X-41.522 Y6.565
N2750 X-41.881 Y6.428
N2755 X-42.241 Y6.279
N2760 X-42.601 Y6.12
N2765 X-42.957 Y5.95
N2770 X-43.308 Y5.772
N2775 X-43.649 Y5.585
N2780 X-43.979 Y5.392
N2785 X-44.301 Y5.189
N2790 X-44.617 Y4.975
N2795 X-44.925 Y4.753
N2800 X-45.216 Y4.529
N2805 X-45.486 Y4.309
N2810 X-45.728 Y4.098
N2815 X-45.94 Y3.9
N2820 X-46.135 Y3.704
N2825 X-46.316 Y3.513
N2830 X-46.473 Y3.339
N2835 X-46.606 Y3.183
N2840 X-46.721 Y3.039
N2845 X-46.81 Y2.92
N2850 X-47.012 Y2.628
N2855 X-47.188 Y2.346
N2860 X-47.341 Y2.07
N2865 X-47.472 Y1.803
N2870 X-47.583 Y1.542
N2875 X-47.675 Y1.287
N2880 X-47.748 Y1.043
N2885 X-47.805 Y0.808
N2890 X-47.845 Y0.586
N2895 X-47.871 Y0.378
N2900 X-47.886 Y0.181
N2905 X-47.89 Y-0.011
N2910 X-47.887 Y-0.2
N2915 X-47.878 Y-0.367
N2920 X-47.865 Y-0.507
N2925 X-47.848 Y-0.63
N2930 X-47.827 Y-0.747
N2935 X-47.806 Y-0.846
N2940 X-47.726 Y-1.142
N2945 X-47.634 Y-1.42
N2950 X-47.523 Y-1.695
N2955 X-47.389 Y-1.978
N2960 X-47.232 Y-2.267
N2965 X-47.054 Y-2.558
N2970 X-46.858 Y-2.843
N2975 X-46.648 Y-3.119
N2980 X-46.423 Y-3.387
N2985 X-46.184 Y-3.648
N2990 X-45.933 Y-3.902
N2995 X-45.672 Y-4.146
N3000 X-45.408 Y-4.378
N3005 X-45.143 Y-4.596
N3010 X-44.876 Y-4.8
N3015 X-44.607 Y-4.994
N3020 X-44.334 Y-5.178
N3025 X-44.058 Y-5.352
N3030 X-43.777 Y-5.52
N3035 X-43.49 Y-5.681
N3040 X-43.2 Y-5.834
N3045 X-42.912 Y-5.978
N3050 X-42.638 Y-6.107
N3055 X-42.038 Y-6.364
N3060 X-41.454 Y-6.585
N3065 X-40.874 Y-6.78
N3070 X-40.313 Y-6.946
N3075 X-39.766 Y-7.087
N3080 X-39.215 Y-7.209
N3085 X-38.65 Y-7.316
N3090 X-38.07 Y-7.406
N3095 X-37.475 Y-7.478
N3100 X-36.865 Y-7.53
N3105 X-36.241 Y-7.56
N3110 X-35.6 Y-7.567
N3115 X-35.46 Y-7.564
N3120 G3 X-34.841 Y-6.913 I-0.016 J0.635
N3125 G1 X-34.858 Y-6.278
N3130 X-34.86 Y-6.179 Z-18.042
N3135 X-34.863 Y-6.082 Z-18.019
N3140 X-34.865 Y-5.99 Z-17.981
N3145 X-34.867 Y-5.905 Z-17.929
N3150 X-34.869 Y-5.829 Z-17.864
N3155 X-34.871 Y-5.764 Z-17.788
N3160 X-34.872 Y-5.712 Z-17.703
N3165 X-34.873 Y-5.674 Z-17.611
N3170 X-34.874 Y-5.651 Z-17.514
N3175 Y-5.643 Z-17.415
N3180 Z6.
N3185 X-36.144 Y-5.676
N3190 Z-13.05 F833.33
N3195 Z-20.365
N3200 X-36.143 Y-5.684 Z-20.464 F2500.
N3205 Y-5.707 Z-20.561
N3210 X-36.142 Y-5.745 Z-20.653
N3215 X-36.141 Y-5.797 Z-20.738
N3220 X-36.139 Y-5.862 Z-20.814
N3225 X-36.137 Y-5.938 Z-20.879
N3230 X-36.135 Y-6.022 Z-20.931
N3235 X-36.132 Y-6.114 Z-20.969
N3240 X-36.13 Y-6.211 Z-20.992
N3245 X-36.127 Y-6.311 Z-21.
N3250 X-36.111 Y-6.945
N3255 G3 X-35.46 Y-7.564 I0.635 J0.016
N3260 G1 X-34.942 Y-7.55
N3265 X-34.257 Y-7.507
N3270 X-33.931 Y-7.477
N3275 X-33.584 Y-7.438
N3280 X-33.228 Y-7.391
N3285 X-32.863 Y-7.335
N3290 X-32.487 Y-7.27
N3295 X-32.1 Y-7.195
N3300 X-31.705 Y-7.108
N3305 X-31.301 Y-7.01
N3310 X-30.89 Y-6.898
N3315 X-30.473 Y-6.773
N3320 X-30.052 Y-6.633
N3325 X-29.626 Y-6.477
N3330 X-29.199 Y-6.306
N3335 X-28.772 Y-6.118
N3340 X-28.341 Y-5.909
N3345 X-27.91 Y-5.682
N3350 X-27.488 Y-5.44
N3355 X-27.083 Y-5.189
N3360 X-26.702 Y-4.932
N3365 X-26.344 Y-4.669
N3370 X-26.008 Y-4.401
N3375 X-25.695 Y-4.131
N3380 X-25.407 Y-3.859
N3385 X-25.141 Y-3.586
N3390 X-24.895 Y-3.311
N3395 X-24.667 Y-3.029
N3400 X-24.453 Y-2.739
N3405 X-24.258 Y-2.444
N3410 X-24.088 Y-2.153
N3415 X-23.94 Y-1.856
N3420 X-23.807 Y-1.541
N3425 X-23.695 Y-1.217
N3430 X-23.6 Y-0.88
N3435 X-23.573 Y-0.76
N3440 X-23.547 Y-0.626
N3445 X-23.528 Y-0.5
N3450 X-23.516 Y-0.393
N3455 X-23.496 Y-0.117
N3460 X-23.493 Y0.11
N3465 X-23.504 Y0.323
N3470 X-23.525 Y0.53
N3475 X-23.559 Y0.739
N3480 X-23.607 Y0.956
N3485 X-23.671 Y1.182
N3490 X-23.753 Y1.422
N3495 X-23.856 Y1.676
N3500 X-23.988 Y1.959
N3505 X-24.059 Y2.098
N3510 X-24.1 Y2.173
N3515 X-24.152 Y2.265
N3520 X-24.212 Y2.367
N3525 X-24.281 Y2.479
N3530 X-24.359 Y2.601
N3535 X-24.449 Y2.733
N3540 X-24.55 Y2.874
N3545 X-24.664 Y3.025
N3550 X-24.791 Y3.185
N3555 X-24.933 Y3.353
N3560 X-25.09 Y3.529
N3565 X-25.259 Y3.709
N3570 X-25.443 Y3.893
N3575 X-25.649 Y4.087
N3580 X-25.877 Y4.288
N3585 X-26.121 Y4.492
N3590 X-26.375 Y4.693
N3595 X-26.634 Y4.887
N3600 X-26.892 Y5.069
N3605 X-27.151 Y5.239
N3610 X-27.416 Y5.404
N3615 X-27.686 Y5.561
N3620 X-27.958 Y5.712
N3625 X-28.233 Y5.855
N3630 X-28.509 Y5.991
N3635 X-28.785 Y6.12
N3640 X-29.062 Y6.242
N3645 X-29.337 Y6.356
N3650 X-29.606 Y6.463
N3655 X-29.857 Y6.558
N3660 X-30.392 Y6.742
N3665 X-30.907 Y6.9
N3670 X-31.426 Y7.041
N3675 X-31.95 Y7.166
N3680 X-32.479 Y7.274
N3685 X-33.014 Y7.366
N3690 X-33.553 Y7.44
N3695 X-34.098 Y7.497
N3700 X-34.65 Y7.536
N3705 X-35.207 Y7.558
N3710 X-35.767 Y7.563
N3715 X-36.333 Y7.551
N3720 X-36.922 Y7.519
N3725 X-37.204 Y7.497
N3730 X-37.506 Y7.469
N3735 X-37.814 Y7.436
N3740 X-38.128 Y7.396
N3745 X-38.448 Y7.35
N3750 X-38.773 Y7.296
N3755 X-39.103 Y7.235
N3760 X-39.438 Y7.167
N3765 X-39.778 Y7.09
N3770 X-40.121 Y7.004
N3775 X-40.467 Y6.909
N3780 X-40.816 Y6.805
N3785 X-40.963 Y6.757
N3790 Z-19.
N3795 X-41.167 Y6.691
N3800 X-41.522 Y6.565
N3805 X-41.881 Y6.428
N3810 X-42.241 Y6.279
N3815 X-42.601 Y6.12
N3820 X-42.957 Y5.95
N3825 X-43.308 Y5.772
N3830 X-43.649 Y5.585
N3835 X-43.979 Y5.392
N3840 X-44.301 Y5.189
N3845 X-44.617 Y4.975
N3850 X-44.925 Y4.753
N3855 X-45.216 Y4.529
N3860 X-45.486 Y4.309
N3865 X-45.728 Y4.098
N3870 X-45.94 Y3.9
N3875 X-46.135 Y3.704
N3880 X-46.316 Y3.513
N3885 X-46.473 Y3.339
N3890 X-46.606 Y3.183
N3895 X-46.721 Y3.039
N3900 X-46.81 Y2.92
N3905 X-47.012 Y2.628
N3910 X-47.188 Y2.346
N3915 X-47.341 Y2.07
N3920 X-47.472 Y1.803
N3925 X-47.583 Y1.542
N3930 X-47.675 Y1.287
N3935 X-47.748 Y1.043
N3940 X-47.805 Y0.808
N3945 X-47.845 Y0.586
N3950 X-47.871 Y0.378
N3955 X-47.886 Y0.181
N3960 X-47.89 Y-0.011
N3965 X-47.887 Y-0.2
N3970 X-47.878 Y-0.367
N3975 X-47.865 Y-0.507
N3980 X-47.848 Y-0.63
N3985 X-47.827 Y-0.747
N3990 X-47.806 Y-0.846
N3995 X-47.726 Y-1.142
N4000 X-47.634 Y-1.42
N4005 X-47.523 Y-1.695
N4010 X-47.389 Y-1.978
N4015 X-47.232 Y-2.267
N4020 X-47.054 Y-2.558
N4025 X-46.858 Y-2.843
N4030 X-46.648 Y-3.119
N4035 X-46.423 Y-3.387
N4040 X-46.184 Y-3.648
N4045 X-45.933 Y-3.902
N4050 X-45.672 Y-4.146
N4055 X-45.408 Y-4.378
N4060 X-45.143 Y-4.596
N4065 X-44.876 Y-4.8
N4070 X-44.607 Y-4.994
N4075 X-44.334 Y-5.178
N4080 X-44.058 Y-5.352
N4085 X-43.777 Y-5.52
N4090 X-43.49 Y-5.681
N4095 X-43.2 Y-5.834
N4100 X-42.912 Y-5.978
N4105 X-42.638 Y-6.107
N4110 X-42.038 Y-6.364
N4115 X-41.454 Y-6.585
N4120 X-41.357 Y-6.618
N4125 Z-21. F833.33
N4130 X-40.874 Y-6.78 F2500.
N4135 X-40.313 Y-6.946
N4140 X-39.766 Y-7.087
N4145 X-39.215 Y-7.209
N4150 X-38.65 Y-7.316
N4155 X-38.07 Y-7.406
N4160 X-37.475 Y-7.478
N4165 X-36.865 Y-7.53
N4170 X-36.241 Y-7.56
N4175 X-35.6 Y-7.567
N4180 X-35.46 Y-7.564
N4185 G3 X-34.841 Y-6.913 I-0.016 J0.635
N4190 G1 X-34.858 Y-6.278
N4195 X-34.86 Y-6.179 Z-20.992
N4200 X-34.863 Y-6.082 Z-20.969
N4205 X-34.865 Y-5.99 Z-20.931
N4210 X-34.867 Y-5.905 Z-20.879
N4215 X-34.869 Y-5.829 Z-20.814
N4220 X-34.871 Y-5.764 Z-20.738
N4225 X-34.872 Y-5.712 Z-20.653
N4230 X-34.873 Y-5.674 Z-20.561
N4235 X-34.874 Y-5.651 Z-20.464
N4240 Y-5.643 Z-20.365
N4245 Z16.
N4250 M9
N4255 G53 G0 Z0.
N4260 M30
%
