%
(FLOWERSTEM)
(T2  D=38.1 CR=0. TAPER=45DEG - ZMIN=-5.142 - CHAMFER MILL)
N10 G90 G94 G17 G91.1
N15 G21
(WHEN USING FUSION 360 FOR PERSONAL USE, THE FEEDRATE OF)
(RAPID MOVES IS REDUCED TO MATCH THE FEEDRATE OF CUTTING)
(MOVES, WHICH CAN INCREASE MACHINING TIME. UNRESTRICTED RAPID)
(MOVES ARE AVAILABLE WITH A FUSION 360 SUBSCRIPTION.)
N20 G53 G0 Z0.
(FLOWERSTEM)
N25 T2 M6
N30 S16000 M3
N35 G54
N40 G0 X75.49 Y-76.446
N45 G43 Z15. H2
N50 G1 Z4. F889.
N55 Z-1.24
N60 X75.488 Y-76.425 Z-1.26
N65 Y-76.416 Z-1.268
N70 X75.485 Y-76.375 Z-1.302
N75 X75.48 Y-76.298 Z-1.356
N80 Y-76.267 Z-1.375
N85 X75.475 Y-76.196 Z-1.416
N90 X75.473 Y-76.146 Z-1.442
N95 X75.467 Y-76.069 Z-1.479
N100 X75.465 Y-75.993 Z-1.513
N105 X75.459 Y-75.919 Z-1.543
N110 X75.455 Y-75.806 Z-1.586
N115 X75.444 Y-75.619 Z-1.649
N120 X75.433 Y-75.553 Z-1.663
N125 X75.396 Y-75.345 Z-1.697
N130 X75.363 Y-75.149 Z-1.724
N135 X75.357 Y-75.115 Z-1.728
N140 X75.315 Y-74.865 Z-1.756
N145 X75.253 Y-74.463 Z-1.79
N150 X75.212 Y-74.19 Z-1.808
N155 X75.171 Y-73.898 Z-1.824
N160 X75.13 Y-73.591 Z-1.837
N165 X75.088 Y-73.269 Z-1.847
N170 X75.047 Y-72.934 Z-1.854
N175 X75.007 Y-72.591 Z-1.858
N180 X74.965 Y-72.219 Z-1.857
N185 X74.922 Y-71.821 Z-1.853
N190 X74.875 Y-71.34 Z-1.844
N195 X74.83 Y-70.817 Z-1.831
N200 X74.792 Y-70.309 Z-1.815
N205 X74.778 Y-70.107 Z-1.809
N210 X74.734 Y-69.33 Z-1.779
N215 X74.699 Y-68.609 Z-1.757
N220 X74.676 Y-67.938 Z-1.731
N225 X74.656 Y-67.051 Z-1.706
N230 X74.654 Y-66.182 Z-1.684
N235 X74.668 Y-65.321 Z-1.666
N240 X74.697 Y-64.475 Z-1.654
N245 X74.698 Y-64.459
N250 X74.719 Y-64.038 Z-1.652
N255 X74.744 Y-63.585 Z-1.647
N260 X74.766 Y-63.253
N265 X74.825 Y-62.459 Z-1.645
N270 X74.844 Y-62.232
N275 X74.896 Y-61.654 Z-1.647
N280 X74.933 Y-61.282 Z-1.648
N285 X74.985 Y-60.79 Z-1.651
N290 X75.074 Y-60.009 Z-1.657
N295 X75.171 Y-59.227 Z-1.663
N300 X75.178 Y-59.166 Z-1.664
N305 X75.322 Y-58.1 Z-1.673
N310 X75.416 Y-57.435 Z-1.678
N315 X75.463 Y-57.123 Z-1.679
N320 X75.517 Y-56.785 Z-1.677
N325 X75.608 Y-56.261 Z-1.669
N330 X75.695 Y-55.784 Z-1.659
N335 X75.78 Y-55.335 Z-1.648
N340 X75.864 Y-54.911 Z-1.636
N345 X75.946 Y-54.512 Z-1.624
N350 X76.026 Y-54.136 Z-1.614
N355 X76.104 Y-53.783 Z-1.605
N360 X76.207 Y-53.344 Z-1.597
N365 X76.258 Y-53.138 Z-1.593
N370 X76.333 Y-52.844 Z-1.591
N375 X76.408 Y-52.566 Z-1.592
N380 X76.484 Y-52.304 Z-1.598
N385 X76.561 Y-52.055 Z-1.606
N390 X76.641 Y-51.818 Z-1.619
N395 X76.724 Y-51.59 Z-1.638
N400 X76.815 Y-51.361 Z-1.665
N405 X76.905 Y-51.156 Z-1.695
N410 X77.007 Y-50.945 Z-1.734
N415 X77.118 Y-50.737 Z-1.783
N420 X77.24 Y-50.53 Z-1.842
N425 X77.373 Y-50.323 Z-1.913
N430 X77.52 Y-50.118 Z-1.994
N435 X77.678 Y-49.914 Z-2.086
N440 X77.849 Y-49.708 Z-2.191
N445 X78.031 Y-49.504 Z-2.306
N450 X78.224 Y-49.302 Z-2.43
N455 X78.377 Y-49.149 Z-2.53
N460 X78.543 Y-49.152 Z-2.482
N465 X78.645 Y-49.15 Z-2.457
N470 X78.802 Y-49.142 Z-2.429
N475 X78.907 Y-49.132 Z-2.414
N480 X79.056 Y-49.113 Z-2.403
N485 X79.165 Y-49.094 Z-2.399
N490 X79.308 Y-49.064 Z-2.403
N495 X79.421 Y-49.034 Z-2.411
N500 X79.562 Y-48.992 Z-2.43
N505 X79.68 Y-48.951 Z-2.452
N510 X79.829 Y-48.891 Z-2.488
N515 X81.668 Y-48.1 Z-2.995
N520 X81.954 Y-47.979 Z-3.073
N525 X82.117 Y-47.911 Z-3.115
N530 X82.464 Y-47.77 Z-3.203
N535 X82.697 Y-47.679 Z-3.257
N540 X82.913 Y-47.597 Z-3.306
N545 X83.085 Y-47.534 Z-3.341
N550 X83.218 Y-47.487 Z-3.367
N555 X83.412 Y-47.419 Z-3.401
N560 X83.578 Y-47.36 Z-3.423
N565 X83.739 Y-47.302 Z-3.437
N570 X83.883 Y-47.25 Z-3.444
N575 X83.993 Y-47.211
N580 X84.053 Y-47.191 Z-3.442
N585 X84.178 Y-47.15 Z-3.434
N590 X84.206 Y-47.141 Z-3.431
N595 X84.324 Y-47.105 Z-3.416
N600 X84.386 Y-47.088 Z-3.404
N605 X84.5 Y-47.061 Z-3.378
N610 X84.614 Y-47.038 Z-3.342
N615 X84.678 Y-47.027 Z-3.32
N620 X84.816 Y-47.008 Z-3.264
N625 X84.931 Y-46.994 Z-3.211
N630 X84.97 Y-46.99 Z-3.193
N635 X85.122 Y-46.974 Z-3.114
N640 X85.272 Y-46.959 Z-3.031
N645 X85.418 Y-46.943 Z-2.945
N650 X85.509 Y-46.932 Z-2.889
N655 X85.693 Y-46.909 Z-2.77
N660 X85.821 Y-46.89 Z-2.682
N665 X85.938 Y-46.869 Z-2.598
N670 X86.046 Y-46.848 Z-2.517
N675 X86.141 Y-46.826 Z-2.442
N680 X86.221 Y-46.804 Z-2.376
N685 X86.295 Y-46.783 Z-2.312
N690 X86.332 Y-46.771 Z-2.279
N695 X86.425 Y-46.741 Z-2.19
N700 X86.451 Y-46.733 Z-2.162
N705 X86.425 Y-46.741 Z-2.19
N710 X86.332 Y-46.771 Z-2.279
N715 X86.295 Y-46.783 Z-2.312
N720 X86.221 Y-46.804 Z-2.376
N725 X86.141 Y-46.826 Z-2.442
N730 X86.046 Y-46.848 Z-2.517
N735 X85.938 Y-46.869 Z-2.598
N740 X85.821 Y-46.89 Z-2.682
N745 X85.693 Y-46.909 Z-2.77
N750 X85.509 Y-46.932 Z-2.889
N755 X85.418 Y-46.943 Z-2.945
N760 X85.272 Y-46.959 Z-3.031
N765 X85.122 Y-46.974 Z-3.114
N770 X84.97 Y-46.99 Z-3.193
N775 X84.931 Y-46.994 Z-3.211
N780 X84.816 Y-47.008 Z-3.264
N785 X84.678 Y-47.027 Z-3.32
N790 X84.614 Y-47.038 Z-3.342
N795 X84.5 Y-47.061 Z-3.378
N800 X84.386 Y-47.088 Z-3.404
N805 X84.324 Y-47.105 Z-3.416
N810 X84.206 Y-47.141 Z-3.431
N815 X84.178 Y-47.15 Z-3.434
N820 X84.053 Y-47.191 Z-3.442
N825 X83.993 Y-47.211 Z-3.444
N830 X83.883 Y-47.25
N835 X83.739 Y-47.302 Z-3.437
N840 X83.578 Y-47.36 Z-3.423
N845 X83.412 Y-47.419 Z-3.401
N850 X83.218 Y-47.487 Z-3.367
N855 X83.085 Y-47.534 Z-3.341
N860 X82.913 Y-47.597 Z-3.306
N865 X82.697 Y-47.679 Z-3.257
N870 X82.464 Y-47.77 Z-3.203
N875 X82.117 Y-47.911 Z-3.115
N880 X81.954 Y-47.979 Z-3.073
N885 X81.668 Y-48.1 Z-2.995
N890 X79.829 Y-48.891 Z-2.488
N895 X79.68 Y-48.951 Z-2.452
N900 X79.562 Y-48.992 Z-2.43
N905 X79.421 Y-49.034 Z-2.411
N910 X79.308 Y-49.064 Z-2.403
N915 X79.165 Y-49.094 Z-2.399
N920 X79.056 Y-49.113 Z-2.403
N925 X78.907 Y-49.132 Z-2.414
N930 X78.802 Y-49.142 Z-2.429
N935 X78.645 Y-49.15 Z-2.457
N940 X78.543 Y-49.152 Z-2.482
N945 X78.377 Y-49.149 Z-2.53
N950 X78.309 Y-49.003 Z-2.421
N955 X78.25 Y-48.86 Z-2.322
N960 X78.199 Y-48.72 Z-2.232
N965 X78.156 Y-48.582 Z-2.15
N970 X78.122 Y-48.447 Z-2.077
N975 X78.1 Y-48.329 Z-2.019
N980 X78.084 Y-48.214 Z-1.968
N985 X78.074 Y-48.101 Z-1.924
N990 X78.071 Y-47.99 Z-1.886
N995 X78.075 Y-47.881 Z-1.856
N1000 X78.084 Y-47.774 Z-1.832
N1005 X78.101 Y-47.669 Z-1.815
N1010 X78.124 Y-47.567 Z-1.805
N1015 X78.169 Y-47.392 Z-1.794
N1020 X78.417 Y-46.45 Z-1.725
N1025 X78.56 Y-45.931 Z-1.685
N1030 X78.61 Y-45.761 Z-1.675
N1035 X78.67 Y-45.569 Z-1.665
N1040 X78.794 Y-45.193 Z-1.65
N1045 X78.867 Y-44.982 Z-1.643
N1050 X79.025 Y-44.544 Z-1.629
N1055 X79.076 Y-44.406 Z-1.626
N1060 X79.207 Y-44.065 Z-1.616
N1065 X79.396 Y-43.595 Z-1.599
N1070 X79.453 Y-43.46 Z-1.595
N1075 X79.609 Y-43.094 Z-1.58
N1080 X79.832 Y-42.587 Z-1.561
N1085 X80.29 Y-41.572 Z-1.532
N1090 X80.619 Y-40.871 Z-1.518
N1095 X80.754 Y-40.591 Z-1.513
N1100 X80.98 Y-40.13 Z-1.508
N1105 X81.199 Y-39.698 Z-1.507
N1110 X81.408 Y-39.297 Z-1.51
N1115 X81.604 Y-38.936 Z-1.518
N1120 X82.092 Y-38.068 Z-1.543
N1125 X82.551 Y-37.267 Z-1.564
N1130 X82.98 Y-36.536 Z-1.582
N1135 X83.377 Y-35.874 Z-1.597
N1140 X83.743 Y-35.28 Z-1.61
N1145 X84.085 Y-34.742 Z-1.622
N1150 X84.376 Y-34.301 Z-1.632
N1155 X84.513 Y-34.099 Z-1.638
N1160 X84.762 Y-33.743 Z-1.651
N1165 X84.876 Y-33.588 Z-1.658
N1170 X84.983 Y-33.447 Z-1.667
N1175 X85.108 Y-33.289 Z-1.682
N1180 X85.188 Y-33.195 Z-1.692
N1185 X85.251 Y-33.125 Z-1.702
N1190 X85.302 Y-33.07 Z-1.712
N1195 X85.401 Y-32.973 Z-1.736
N1200 X85.494 Y-32.893 Z-1.764
N1205 X85.566 Y-32.837 Z-1.788
N1210 X85.642 Y-32.785 Z-1.817
N1215 X85.761 Y-32.713 Z-1.869
N1220 X85.872 Y-32.653 Z-1.922
N1225 X85.949 Y-32.617 Z-1.962
N1230 X86.027 Y-32.584 Z-2.004
N1235 X86.041 Y-32.605 Z-1.986
N1240 X86.102 Y-32.697 Z-1.909
N1245 X86.156 Y-32.789 Z-1.838
N1250 X86.237 Y-32.945 Z-1.728
N1255 X86.241 Y-32.953 Z-1.723
N1260 X86.28 Y-33.04 Z-1.669
N1265 X86.312 Y-33.126 Z-1.622
N1270 X86.338 Y-33.211 Z-1.581
N1275 X86.362 Y-33.319 Z-1.537
N1280 X86.379 Y-33.421 Z-1.503
N1285 X86.384 Y-33.482 Z-1.487
N1290 X86.386 Y-33.597 Z-1.465
N1295 X86.384 Y-33.642 Z-1.459
N1300 X86.374 Y-33.757 Z-1.449
N1305 X86.366 Y-33.825 Z-1.446
N1310 X86.349 Y-33.928 Z-1.443
N1315 X86.324 Y-34.061 Z-1.445
N1320 X86.302 Y-34.164 Z-1.448
N1325 X86.3 Y-34.197 Z-1.444
N1330 Y-34.303 Z-1.425
N1335 X86.304 Y-34.445 Z-1.395
N1340 X86.311 Y-34.577 Z-1.364
N1345 X86.317 Y-34.68 Z-1.337
N1350 X86.328 Y-34.813 Z-1.299
N1355 X86.344 Y-35.018 Z-1.239
N1360 X86.357 Y-35.167 Z-1.189
N1365 X86.367 Y-35.289 Z-1.143
N1370 X86.374 Y-35.376 Z-1.103
N1375 X86.375 Y-35.411 Z-1.082
N1380 X86.378 Y-35.429 Z-1.07
N1385 X86.377 Y-35.444 Z-1.058
N1390 X86.392 Y-35.503 Z-1.001
N1395 X86.377 Y-35.444 Z-1.058
N1400 X86.356 Y-35.499 Z-1.001
N1405 X86.377 Y-35.444 Z-1.058
N1410 X86.378 Y-35.429 Z-1.07
N1415 X86.375 Y-35.411 Z-1.082
N1420 X86.374 Y-35.376 Z-1.103
N1425 X86.367 Y-35.289 Z-1.143
N1430 X86.357 Y-35.167 Z-1.189
N1435 X86.344 Y-35.018 Z-1.239
N1440 X86.328 Y-34.813 Z-1.299
N1445 X86.317 Y-34.68 Z-1.337
N1450 X86.311 Y-34.577 Z-1.364
N1455 X86.304 Y-34.445 Z-1.395
N1460 X86.3 Y-34.303 Z-1.425
N1465 Y-34.197 Z-1.444
N1470 X86.302 Y-34.164 Z-1.448
N1475 X86.324 Y-34.061 Z-1.445
N1480 X86.349 Y-33.928 Z-1.443
N1485 X86.366 Y-33.825 Z-1.446
N1490 X86.374 Y-33.757 Z-1.449
N1495 X86.384 Y-33.642 Z-1.459
N1500 X86.386 Y-33.597 Z-1.465
N1505 X86.384 Y-33.482 Z-1.487
N1510 X86.379 Y-33.421 Z-1.503
N1515 X86.362 Y-33.319 Z-1.537
N1520 X86.338 Y-33.211 Z-1.581
N1525 X86.312 Y-33.126 Z-1.622
N1530 X86.28 Y-33.04 Z-1.669
N1535 X86.241 Y-32.953 Z-1.723
N1540 X86.237 Y-32.945 Z-1.728
N1545 X86.156 Y-32.789 Z-1.838
N1550 X86.102 Y-32.697 Z-1.909
N1555 X86.041 Y-32.605 Z-1.986
N1560 X86.027 Y-32.584 Z-2.004
N1565 X86.089 Y-32.445 Z-1.971
N1570 X86.22 Y-32.146 Z-1.907
N1575 X86.344 Y-31.854 Z-1.855
N1580 X86.455 Y-31.585 Z-1.816
N1585 X86.478 Y-31.532 Z-1.81
N1590 X86.559 Y-31.333 Z-1.79
N1595 X86.637 Y-31.142 Z-1.778
N1600 X86.708 Y-30.971 Z-1.773
N1605 X86.806 Y-30.734 Z-1.778
N1610 X86.895 Y-30.524 Z-1.794
N1615 X86.915 Y-30.478 Z-1.798
N1620 X86.982 Y-30.324 Z-1.82
N1625 X87.047 Y-30.184 Z-1.846
N1630 X87.075 Y-30.12 Z-1.859
N1635 X87.174 Y-29.914 Z-1.912
N1640 X87.28 Y-29.699 Z-1.982
N1645 X87.32 Y-29.622 Z-2.01
N1650 X87.397 Y-29.476 Z-2.07
N1655 X87.487 Y-29.312 Z-2.145
N1660 X87.526 Y-29.241 Z-2.179
N1665 X87.667 Y-28.994 Z-2.31
N1670 X87.71 Y-28.921 Z-2.352
N1675 X87.847 Y-28.691 Z-2.492
N1680 X87.759 Y-28.579 Z-2.407
N1685 X87.705 Y-28.509 Z-2.358
N1690 X87.623 Y-28.397 Z-2.284
N1695 X87.568 Y-28.315 Z-2.234
N1700 X87.481 Y-28.178 Z-2.162
N1705 X87.435 Y-28.097 Z-2.125
N1710 X87.378 Y-27.991 Z-2.081
N1715 X87.323 Y-27.878 Z-2.043
N1720 X87.294 Y-27.812 Z-2.025
N1725 X87.236 Y-27.667 Z-1.99
N1730 X87.216 Y-27.613 Z-1.982
N1735 X87.164 Y-27.453 Z-1.962
N1740 X87.131 Y-27.335 Z-1.954
N1745 X87.109 Y-27.248 Z-1.953
N1750 X87.076 Y-27.11 Z-1.954
N1755 X87.051 Y-26.991 Z-1.959
N1760 X87.04 Y-26.94 Z-1.962
N1765 X86.991 Y-26.692 Z-1.984
N1770 X86.963 Y-26.543 Z-2.
N1775 X86.912 Y-26.263 Z-2.038
N1780 X86.84 Y-25.877 Z-2.101
N1785 X86.765 Y-25.475 Z-2.177
N1790 X86.682 Y-25.058 Z-2.262
N1795 X86.635 Y-24.839 Z-2.309
N1800 X86.52 Y-24.774 Z-2.23
N1805 X86.386 Y-24.691 Z-2.143
N1810 X86.224 Y-24.579 Z-2.045
N1815 X86.149 Y-24.523 Z-2.001
N1820 X86.077 Y-24.465 Z-1.961
N1825 X85.995 Y-24.392 Z-1.918
N1830 X85.88 Y-24.278 Z-1.866
N1835 X85.814 Y-24.205 Z-1.84
N1840 X85.713 Y-24.078 Z-1.806
N1845 X85.664 Y-24.01 Z-1.793
N1850 X85.588 Y-23.9 Z-1.776
N1855 X85.511 Y-23.782 Z-1.762
N1860 X85.426 Y-23.648 Z-1.749
N1865 X85.251 Y-23.364 Z-1.73
N1870 X85.143 Y-23.184 Z-1.721
N1875 X84.914 Y-22.798 Z-1.709
N1880 X84.648 Y-22.345 Z-1.703
N1885 X84.379 Y-21.883 Z-1.705
N1890 X84.163 Y-21.501 Z-1.708
N1895 X84.143 Y-21.468 Z-1.707
N1900 X83.934 Y-21.09 Z-1.713
N1905 X83.751 Y-20.747 Z-1.717
N1910 X83.575 Y-20.405 Z-1.722
N1915 X83.417 Y-20.094 Z-1.728
N1920 X83.253 Y-19.754 Z-1.734
N1925 X83.109 Y-19.445 Z-1.741
N1930 X83.005 Y-19.216 Z-1.748
N1935 X82.852 Y-18.862 Z-1.758
N1940 X82.739 Y-18.589 Z-1.768
N1945 X82.645 Y-18.354 Z-1.778
N1950 X82.543 Y-18.081 Z-1.792
N1955 X82.49 Y-17.931 Z-1.801
N1960 X82.387 Y-17.622 Z-1.823
N1965 X82.322 Y-17.409 Z-1.842
N1970 X82.266 Y-17.204 Z-1.864
N1975 X82.218 Y-17.005 Z-1.89
N1980 X82.179 Y-16.804 Z-1.923
N1985 X82.163 Y-16.708 Z-1.942
N1990 X82.148 Y-16.592 Z-1.966
N1995 X82.141 Y-16.523 Z-1.981
N2000 X82.13 Y-16.351 Z-2.027
N2005 X82.127 Y-16.221 Z-2.066
N2010 X82.134 Y-16.043 Z-2.128
N2015 X82.143 Y-15.921 Z-2.175
N2020 X82.159 Y-15.805 Z-2.223
N2025 X82.18 Y-15.688 Z-2.277
N2030 X82.206 Y-15.56 Z-2.34
N2035 X82.135 Y-15.451 Z-2.3
N2040 X82.013 Y-15.271 Z-2.231
N2045 X81.839 Y-15.009 Z-2.126
N2050 X81.646 Y-14.714 Z-1.997
N2055 X81.531 Y-14.539 Z-1.916
N2060 X81.394 Y-14.318 Z-1.809
N2065 X81.288 Y-14.146 Z-1.718
N2070 X81.194 Y-13.982 Z-1.629
N2075 X81.107 Y-13.814 Z-1.529
N2080 X81.061 Y-13.729 Z-1.469
N2085 X81.017 Y-13.643 Z-1.401
N2090 X80.991 Y-13.592 Z-1.354
N2095 X80.988 Y-13.586 Z-1.348
N2100 X80.974 Y-13.56 Z-1.32
N2105 X80.988 Y-13.586 Z-1.348
N2110 X80.991 Y-13.592 Z-1.354
N2115 X81.017 Y-13.643 Z-1.401
N2120 X81.061 Y-13.729 Z-1.469
N2125 X81.107 Y-13.814 Z-1.529
N2130 X81.194 Y-13.982 Z-1.629
N2135 X81.288 Y-14.146 Z-1.718
N2140 X81.394 Y-14.318 Z-1.809
N2145 X81.531 Y-14.539 Z-1.916
N2150 X81.646 Y-14.714 Z-1.997
N2155 X81.839 Y-15.009 Z-2.126
N2160 X82.013 Y-15.271 Z-2.231
N2165 X82.135 Y-15.451 Z-2.3
N2170 X82.206 Y-15.56 Z-2.34
N2175 X82.335 Y-15.551 Z-2.252
N2180 X82.46 Y-15.548 Z-2.17
N2185 X82.581 Y-15.55 Z-2.095
N2190 X82.683 Y-15.557 Z-2.033
N2195 X82.872 Y-15.576 Z-1.924
N2200 X82.974 Y-15.593 Z-1.869
N2205 X83.073 Y-15.614 Z-1.82
N2210 X83.123 Y-15.628 Z-1.796
N2215 X83.273 Y-15.673 Z-1.727
N2220 X83.343 Y-15.699 Z-1.698
N2225 X83.49 Y-15.764 Z-1.646
N2230 X83.557 Y-15.798 Z-1.623
N2235 X83.699 Y-15.884 Z-1.584
N2240 X83.772 Y-15.933 Z-1.567
N2245 X83.87 Y-16.004 Z-1.548
N2250 X84.027 Y-16.133 Z-1.522
N2255 X84.182 Y-16.273 Z-1.505
N2260 X84.34 Y-16.43 Z-1.491
N2265 X84.476 Y-16.572 Z-1.483
N2270 X84.682 Y-16.804 Z-1.471
N2275 X84.868 Y-17.025 Z-1.462
N2280 X85.002 Y-17.195 Z-1.459
N2285 X85.141 Y-17.386 Z-1.458
N2290 X85.253 Y-17.55 Z-1.462
N2295 X85.415 Y-17.803 Z-1.467
N2300 X85.423 Y-17.816 Z-1.468
N2305 X85.551 Y-18.03 Z-1.474
N2310 X85.682 Y-18.259 Z-1.484
N2315 X85.875 Y-18.626 Z-1.498
N2320 X85.944 Y-18.762 Z-1.501
N2325 X86.057 Y-18.998 Z-1.511
N2330 X86.191 Y-19.291 Z-1.519
N2335 X86.386 Y-19.757 Z-1.532
N2340 X86.534 Y-20.145 Z-1.541
N2345 X86.622 Y-20.391 Z-1.543
N2350 X86.672 Y-20.538 Z-1.546
N2355 X86.799 Y-20.936 Z-1.55
N2360 X86.914 Y-21.34 Z-1.554
N2365 X86.947 Y-21.465 Z-1.553
N2370 X87.011 Y-21.724 Z-1.555
N2375 X87.066 Y-21.97 Z-1.556
N2380 X87.106 Y-22.165 Z-1.559
N2385 X87.153 Y-22.43 Z-1.562
N2390 X87.177 Y-22.586 Z-1.567
N2395 X87.209 Y-22.846 Z-1.576
N2400 X87.224 Y-23.015 Z-1.587
N2405 X87.233 Y-23.222 Z-1.603
N2410 X87.232 Y-23.406 Z-1.627
N2415 X87.231 Y-23.45 Z-1.634
N2420 X87.215 Y-23.604 Z-1.663
N2425 X87.205 Y-23.682 Z-1.681
N2430 X87.19 Y-23.76 Z-1.703
N2435 X87.16 Y-23.893 Z-1.745
N2440 X87.139 Y-23.966 Z-1.771
N2445 X87.113 Y-24.039 Z-1.8
N2450 X87.084 Y-24.112 Z-1.834
N2455 X87.019 Y-24.262 Z-1.908
N2460 X86.981 Y-24.338 Z-1.95
N2465 X86.928 Y-24.431 Z-2.006
N2470 X86.87 Y-24.524 Z-2.067
N2475 X86.805 Y-24.617 Z-2.135
N2480 X86.686 Y-24.777 Z-2.258
N2485 X86.635 Y-24.839 Z-2.309
N2490 Z5.
N2495 X87.733 Y-5.471
N2500 Z4.
N2505 Z-1.607
N2510 X87.739 Y-5.508 Z-1.643
N2515 X87.756 Y-5.6 Z-1.725
N2520 X87.771 Y-5.683 Z-1.79
N2525 X87.789 Y-5.785 Z-1.865
N2530 X87.811 Y-5.909 Z-1.946
N2535 X87.834 Y-6.036 Z-2.021
N2540 X87.859 Y-6.178 Z-2.099
N2545 X87.888 Y-6.334 Z-2.177
N2550 X87.903 Y-6.41 Z-2.213
N2555 X87.941 Y-6.622 Z-2.307
N2560 X87.984 Y-6.858 Z-2.403
N2565 X88.027 Y-7.09 Z-2.489
N2570 X88.068 Y-7.309 Z-2.565
N2575 X88.085 Y-7.399 Z-2.594
N2580 X88.158 Y-7.782 Z-2.713
N2585 X88.176 Y-7.872 Z-2.739
N2590 X88.326 Y-7.949 Z-2.64
N2595 X88.468 Y-8.03 Z-2.55
N2600 X88.619 Y-8.125 Z-2.458
N2605 X88.69 Y-8.174 Z-2.415
N2610 X88.798 Y-8.252 Z-2.35
N2615 X88.901 Y-8.334 Z-2.291
N2620 X88.998 Y-8.418 Z-2.239
N2625 X89.079 Y-8.496 Z-2.197
N2630 X89.161 Y-8.579 Z-2.155
N2635 X89.246 Y-8.67 Z-2.113
N2640 X89.35 Y-8.797 Z-2.068
N2645 X89.48 Y-8.975 Z-2.014
N2650 X89.527 Y-9.047 Z-1.998
N2655 X89.61 Y-9.181 Z-1.97
N2660 X89.663 Y-9.275 Z-1.953
N2665 X89.782 Y-9.504 Z-1.921
N2670 X89.807 Y-9.555 Z-1.915
N2675 X89.892 Y-9.742 Z-1.895
N2680 X89.999 Y-9.993 Z-1.874
N2685 X90.102 Y-10.262 Z-1.856
N2690 X90.195 Y-10.524 Z-1.841
N2695 X90.203 Y-10.549 Z-1.84
N2700 X90.306 Y-10.861 Z-1.825
N2705 X90.441 Y-11.316 Z-1.805
N2710 X90.494 Y-11.507 Z-1.795
N2715 X90.585 Y-11.856 Z-1.78
N2720 X90.679 Y-12.248 Z-1.763
N2725 X90.781 Y-12.726 Z-1.742
N2730 X90.901 Y-13.359 Z-1.71
N2735 X90.959 Y-13.708 Z-1.693
N2740 X91.034 Y-14.211 Z-1.665
N2745 X91.099 Y-14.723 Z-1.636
N2750 X91.122 Y-14.93 Z-1.623
N2755 X91.153 Y-15.244 Z-1.606
N2760 X91.198 Y-15.774 Z-1.574
N2765 X91.217 Y-16.075 Z-1.556
N2770 X91.236 Y-16.441 Z-1.535
N2775 X91.249 Y-16.862 Z-1.514
N2780 X91.252 Y-17.14 Z-1.5
N2785 X91.25 Y-17.467 Z-1.487
N2790 X91.241 Y-17.779 Z-1.477
N2795 X91.226 Y-18.075 Z-1.473
N2800 X91.204 Y-18.354
N2805 X91.174 Y-18.617 Z-1.48
N2810 X91.137 Y-18.851 Z-1.494
N2815 X91.085 Y-19.133 Z-1.518
N2820 X91.031 Y-19.375 Z-1.543
N2825 X91.003 Y-19.493 Z-1.558
N2830 X90.972 Y-19.607 Z-1.574
N2835 X90.938 Y-19.722 Z-1.595
N2840 X90.897 Y-19.842 Z-1.62
N2845 X90.874 Y-19.901 Z-1.634
N2850 X90.821 Y-20.023 Z-1.671
N2855 X90.795 Y-20.076 Z-1.689
N2860 X90.744 Y-20.171 Z-1.727
N2865 X90.712 Y-20.225 Z-1.751
N2870 X90.649 Y-20.321 Z-1.8
N2875 X90.622 Y-20.358 Z-1.821
N2880 X90.568 Y-20.429 Z-1.863
N2885 X90.51 Y-20.5 Z-1.91
N2890 X90.415 Y-20.603 Z-1.988
N2895 X90.345 Y-20.674 Z-2.047
N2900 X90.27 Y-20.745 Z-2.11
N2905 X90.19 Y-20.815 Z-2.179
N2910 X90.096 Y-20.89 Z-2.258
N2915 X89.997 Y-20.812 Z-2.191
N2920 X89.92 Y-20.747 Z-2.14
N2925 X89.847 Y-20.679 Z-2.094
N2930 X89.809 Y-20.642 Z-2.071
N2935 X89.701 Y-20.532 Z-2.008
N2940 X89.631 Y-20.451 Z-1.97
N2945 X89.541 Y-20.338 Z-1.925
N2950 X89.494 Y-20.273 Z-1.904
N2955 X89.445 Y-20.201 Z-1.883
N2960 X89.372 Y-20.085 Z-1.857
N2965 X89.297 Y-19.953 Z-1.834
N2970 X89.233 Y-19.829 Z-1.819
N2975 X89.174 Y-19.707 Z-1.809
N2980 X89.144 Y-19.643 Z-1.805
N2985 X89.061 Y-19.452 Z-1.794
N2990 X88.948 Y-19.172 Z-1.787
N2995 X88.839 Y-18.887 Z-1.784
N3000 X88.704 Y-18.503 Z-1.78
N3005 X88.572 Y-18.118 Z-1.779
N3010 X88.499 Y-17.889 Z-1.776
N3015 X88.331 Y-17.337
N3020 X88.303 Y-17.241 Z-1.774
N3025 X88.117 Y-16.554 Z-1.776
N3030 X87.948 Y-15.849 Z-1.779
N3035 X87.797 Y-15.136 Z-1.785
N3040 X87.762 Y-14.962 Z-1.788
N3045 X87.664 Y-14.424 Z-1.791
N3050 X87.621 Y-14.174 Z-1.796
N3055 X87.55 Y-13.723 Z-1.799
N3060 X87.503 Y-13.394 Z-1.805
N3065 X87.456 Y-13.041 Z-1.808
N3070 X87.416 Y-12.705 Z-1.814
N3075 X87.382 Y-12.382 Z-1.818
N3080 X87.353 Y-12.068 Z-1.825
N3085 X87.337 Y-11.877 Z-1.83
N3090 X87.31 Y-11.473 Z-1.839
N3095 X87.295 Y-11.193 Z-1.848
N3100 X87.287 Y-10.926 Z-1.858
N3105 X87.283 Y-10.672 Z-1.869
N3110 Y-10.443 Z-1.883
N3115 X87.291 Y-10.201 Z-1.899
N3120 X87.303 Y-9.982 Z-1.919
N3125 X87.321 Y-9.769 Z-1.944
N3130 X87.351 Y-9.554 Z-1.975
N3135 X87.372 Y-9.437 Z-1.996
N3140 X87.396 Y-9.323 Z-2.02
N3145 X87.417 Y-9.231 Z-2.042
N3150 X87.442 Y-9.14 Z-2.068
N3155 X87.472 Y-9.045 Z-2.096
N3160 X87.509 Y-8.937 Z-2.131
N3165 X87.552 Y-8.828 Z-2.172
N3170 X87.627 Y-8.667 Z-2.241
N3175 X87.69 Y-8.542 Z-2.3
N3180 X87.742 Y-8.452 Z-2.347
N3185 X87.798 Y-8.362 Z-2.398
N3190 X87.858 Y-8.273 Z-2.453
N3195 X87.931 Y-8.173 Z-2.519
N3200 X88.047 Y-8.022 Z-2.624
N3205 X88.11 Y-7.947 Z-2.68
N3210 X88.176 Y-7.872 Z-2.739
N3215 X88.11 Y-7.947 Z-2.68
N3220 X88.047 Y-8.022 Z-2.624
N3225 X87.931 Y-8.173 Z-2.519
N3230 X87.858 Y-8.273 Z-2.453
N3235 X87.798 Y-8.362 Z-2.398
N3240 X87.742 Y-8.452 Z-2.347
N3245 X87.69 Y-8.542 Z-2.3
N3250 X87.627 Y-8.667 Z-2.241
N3255 X87.552 Y-8.828 Z-2.172
N3260 X87.509 Y-8.937 Z-2.131
N3265 X87.472 Y-9.045 Z-2.096
N3270 X87.442 Y-9.14 Z-2.068
N3275 X87.417 Y-9.231 Z-2.042
N3280 X87.396 Y-9.323 Z-2.02
N3285 X87.372 Y-9.437 Z-1.996
N3290 X87.351 Y-9.554 Z-1.975
N3295 X87.321 Y-9.769 Z-1.944
N3300 X87.303 Y-9.982 Z-1.919
N3305 X87.291 Y-10.201 Z-1.899
N3310 X87.283 Y-10.443 Z-1.883
N3315 Y-10.672 Z-1.869
N3320 X87.287 Y-10.926 Z-1.858
N3325 X87.295 Y-11.193 Z-1.848
N3330 X87.31 Y-11.473 Z-1.839
N3335 X87.337 Y-11.877 Z-1.83
N3340 X87.353 Y-12.068 Z-1.825
N3345 X87.382 Y-12.382 Z-1.818
N3350 X87.416 Y-12.705 Z-1.814
N3355 X87.456 Y-13.041 Z-1.808
N3360 X87.503 Y-13.394 Z-1.805
N3365 X87.55 Y-13.723 Z-1.799
N3370 X87.621 Y-14.174 Z-1.796
N3375 X87.664 Y-14.424 Z-1.791
N3380 X87.762 Y-14.962 Z-1.788
N3385 X87.797 Y-15.136 Z-1.785
N3390 X87.948 Y-15.849 Z-1.779
N3395 X88.117 Y-16.554 Z-1.776
N3400 X88.303 Y-17.241 Z-1.774
N3405 X88.331 Y-17.337 Z-1.776
N3410 X88.499 Y-17.889
N3415 X88.572 Y-18.118 Z-1.779
N3420 X88.704 Y-18.503 Z-1.78
N3425 X88.839 Y-18.887 Z-1.784
N3430 X88.948 Y-19.172 Z-1.787
N3435 X89.061 Y-19.452 Z-1.794
N3440 X89.144 Y-19.643 Z-1.805
N3445 X89.174 Y-19.707 Z-1.809
N3450 X89.233 Y-19.829 Z-1.819
N3455 X89.297 Y-19.953 Z-1.834
N3460 X89.372 Y-20.085 Z-1.857
N3465 X89.445 Y-20.201 Z-1.883
N3470 X89.494 Y-20.273 Z-1.904
N3475 X89.541 Y-20.338 Z-1.925
N3480 X89.631 Y-20.451 Z-1.97
N3485 X89.701 Y-20.532 Z-2.008
N3490 X89.809 Y-20.642 Z-2.071
N3495 X89.847 Y-20.679 Z-2.094
N3500 X89.92 Y-20.747 Z-2.14
N3505 X89.997 Y-20.812 Z-2.191
N3510 X90.096 Y-20.89 Z-2.258
N3515 X90.136 Y-21.414 Z-2.131
N3520 X90.151 Y-21.671 Z-2.069
N3525 X90.163 Y-21.917 Z-2.012
N3530 X90.168 Y-22.067 Z-1.979
N3535 X90.177 Y-22.598 Z-1.865
N3540 X90.169 Y-23.024 Z-1.783
N3545 X90.148 Y-23.427 Z-1.717
N3550 X90.112 Y-23.813 Z-1.666
N3555 X90.064 Y-24.187 Z-1.631
N3560 X90.002 Y-24.553 Z-1.61
N3565 X89.926 Y-24.917 Z-1.603
N3570 X89.837 Y-25.284 Z-1.609
N3575 X89.828 Y-25.318 Z-1.61
N3580 X89.797 Y-25.437 Z-1.619
N3585 X89.784 Y-25.514 Z-1.629
N3590 X89.775 Y-25.593 Z-1.645
N3595 X89.77 Y-25.673 Z-1.666
N3600 X89.771 Y-25.806 Z-1.713
N3605 X89.779 Y-25.91 Z-1.757
N3610 X89.793 Y-26.016 Z-1.808
N3615 X89.815 Y-26.125 Z-1.867
N3620 X89.85 Y-26.269 Z-1.955
N3625 X89.884 Y-26.378 Z-2.027
N3630 X89.923 Y-26.49 Z-2.107
N3635 X90.041 Y-26.477 Z-2.048
N3640 X90.155 Y-26.459 Z-1.995
N3645 X90.217 Y-26.447 Z-1.97
N3650 X90.3 Y-26.43 Z-1.939
N3655 X90.382 Y-26.409 Z-1.912
N3660 X90.461 Y-26.385 Z-1.889
N3665 X90.588 Y-26.342 Z-1.862
N3670 X90.672 Y-26.307 Z-1.85
N3675 X90.754 Y-26.268 Z-1.842
N3680 X90.781 Y-26.254 Z-1.841
N3685 X90.893 Y-26.191 Z-1.844
N3690 X90.975 Y-26.138 Z-1.852
N3695 X91.343 Y-25.89 Z-1.908
N3700 X91.676 Y-25.673 Z-1.965
N3705 X92.037 Y-25.443 Z-2.03
N3710 X92.429 Y-25.2 Z-2.106
N3715 X92.851 Y-24.942 Z-2.191
N3720 X93.312 Y-24.666 Z-2.287
N3725 X93.355 Y-24.497 Z-2.189
N3730 X93.392 Y-24.37 Z-2.117
N3735 X93.433 Y-24.247 Z-2.053
N3740 X93.48 Y-24.131 Z-1.996
N3745 X93.574 Y-23.919 Z-1.899
N3750 X93.607 Y-23.856 Z-1.872
N3755 X93.641 Y-23.795 Z-1.849
N3760 X93.757 Y-23.603 Z-1.778
N3765 X93.797 Y-23.545 Z-1.76
N3770 X93.898 Y-23.403 Z-1.719
N3775 X93.954 Y-23.331 Z-1.7
N3780 X94.122 Y-23.13 Z-1.653
N3785 X94.305 Y-22.932 Z-1.617
N3790 X94.506 Y-22.729 Z-1.587
N3795 X94.726 Y-22.52 Z-1.562
N3800 X94.969 Y-22.302 Z-1.541
N3805 X95.231 Y-22.076 Z-1.524
N3810 X95.516 Y-21.842 Z-1.51
N3815 X95.821 Y-21.599 Z-1.499
N3820 X96.153 Y-21.341 Z-1.493
N3825 X96.49 Y-21.09 Z-1.487
N3830 X96.853 Y-20.826 Z-1.484
N3835 X97.233 Y-20.556 Z-1.485
N3840 X97.632 Y-20.283
N3845 X98.226 Y-19.885 Z-1.493
N3850 X98.475 Y-19.725 Z-1.495
N3855 X98.919 Y-19.443 Z-1.502
N3860 X99.376 Y-19.158 Z-1.511
N3865 X99.845 Y-18.875 Z-1.522
N3870 X100.338 Y-18.586 Z-1.533
N3875 X100.857 Y-18.29 Z-1.547
N3880 X101.37 Y-18.007 Z-1.561
N3885 X101.873 Y-17.739 Z-1.576
N3890 X102.364 Y-17.483 Z-1.589
N3895 X102.842 Y-17.246 Z-1.604
N3900 X103.396 Y-16.977 Z-1.617
N3905 X103.75 Y-16.812 Z-1.625
N3910 X104.175 Y-16.617 Z-1.629
N3915 X104.629 Y-16.413 Z-1.627
N3920 X104.953 Y-16.27 Z-1.621
N3925 X105.384 Y-16.087 Z-1.603
N3930 X105.628 Y-15.986 Z-1.589
N3935 X105.92 Y-15.868 Z-1.563
N3940 X106.18 Y-15.769 Z-1.531
N3945 X106.412 Y-15.685 Z-1.493
N3950 X106.507 Y-15.653 Z-1.473
N3955 X106.616 Y-15.618 Z-1.447
N3960 X106.678 Y-15.6 Z-1.43
N3965 X106.747 Y-15.581 Z-1.409
N3970 X106.847 Y-15.558 Z-1.371
N3975 X106.86 Y-15.555 Z-1.366
N3980 X107.023 Y-15.525 Z-1.289
N3985 X107.086 Y-15.514 Z-1.254
N3990 X107.099 Y-15.512 Z-1.247
N3995 X107.154 Y-15.501 Z-1.212
N4000 X107.217 Y-15.489 Z-1.164
N4005 X107.235 Y-15.486 Z-1.147
N4010 X107.237 Y-15.485 Z-1.145
N4015 X107.235 Y-15.486 Z-1.147
N4020 X107.217 Y-15.489 Z-1.164
N4025 X107.154 Y-15.501 Z-1.212
N4030 X107.099 Y-15.512 Z-1.247
N4035 X107.086 Y-15.514 Z-1.254
N4040 X107.023 Y-15.525 Z-1.289
N4045 X106.86 Y-15.555 Z-1.366
N4050 X106.847 Y-15.558 Z-1.371
N4055 X106.747 Y-15.581 Z-1.409
N4060 X106.678 Y-15.6 Z-1.43
N4065 X106.616 Y-15.618 Z-1.447
N4070 X106.507 Y-15.653 Z-1.473
N4075 X106.412 Y-15.685 Z-1.493
N4080 X106.18 Y-15.769 Z-1.531
N4085 X105.92 Y-15.868 Z-1.563
N4090 X105.628 Y-15.986 Z-1.589
N4095 X105.384 Y-16.087 Z-1.603
N4100 X104.953 Y-16.27 Z-1.621
N4105 X104.629 Y-16.413 Z-1.627
N4110 X104.175 Y-16.617 Z-1.629
N4115 X103.75 Y-16.812 Z-1.625
N4120 X103.396 Y-16.977 Z-1.617
N4125 X102.842 Y-17.246 Z-1.604
N4130 X102.364 Y-17.483 Z-1.589
N4135 X101.873 Y-17.739 Z-1.576
N4140 X101.37 Y-18.007 Z-1.561
N4145 X100.857 Y-18.29 Z-1.547
N4150 X100.338 Y-18.586 Z-1.533
N4155 X99.845 Y-18.875 Z-1.522
N4160 X99.376 Y-19.158 Z-1.511
N4165 X98.919 Y-19.443 Z-1.502
N4170 X98.475 Y-19.725 Z-1.495
N4175 X98.226 Y-19.885 Z-1.493
N4180 X97.632 Y-20.283 Z-1.485
N4185 X97.233 Y-20.556
N4190 X96.853 Y-20.826 Z-1.484
N4195 X96.49 Y-21.09 Z-1.487
N4200 X96.153 Y-21.341 Z-1.493
N4205 X95.821 Y-21.599 Z-1.499
N4210 X95.516 Y-21.842 Z-1.51
N4215 X95.231 Y-22.076 Z-1.524
N4220 X94.969 Y-22.302 Z-1.541
N4225 X94.726 Y-22.52 Z-1.562
N4230 X94.506 Y-22.729 Z-1.587
N4235 X94.305 Y-22.932 Z-1.617
N4240 X94.122 Y-23.13 Z-1.653
N4245 X93.954 Y-23.331 Z-1.7
N4250 X93.898 Y-23.403 Z-1.719
N4255 X93.797 Y-23.545 Z-1.76
N4260 X93.757 Y-23.603 Z-1.778
N4265 X93.641 Y-23.795 Z-1.849
N4270 X93.607 Y-23.856 Z-1.872
N4275 X93.574 Y-23.919 Z-1.899
N4280 X93.48 Y-24.131 Z-1.996
N4285 X93.433 Y-24.247 Z-2.053
N4290 X93.392 Y-24.37 Z-2.117
N4295 X93.355 Y-24.497 Z-2.189
N4300 X93.312 Y-24.666 Z-2.287
N4305 X93.436 Y-24.72 Z-2.194
N4310 X93.545 Y-24.763 Z-2.117
N4315 X93.723 Y-24.823 Z-2.
N4320 X93.816 Y-24.851 Z-1.942
N4325 X93.978 Y-24.891 Z-1.849
N4330 X94.049 Y-24.906 Z-1.81
N4335 X94.193 Y-24.929 Z-1.739
N4340 X94.314 Y-24.943 Z-1.684
N4345 X94.379 Y-24.947 Z-1.655
N4350 X94.462 Y-24.95 Z-1.621
N4355 X94.606 Y-24.948 Z-1.566
N4360 X94.72 Y-24.94 Z-1.524
N4365 X94.822 Y-24.932 Z-1.487
N4370 X94.93 Y-24.92 Z-1.444
N4375 X95.008 Y-24.915 Z-1.41
N4380 X95.094 Y-24.905 Z-1.369
N4385 X95.154 Y-24.902 Z-1.337
N4390 X95.217 Y-24.893 Z-1.299
N4395 X95.261 Y-24.892 Z-1.271
N4400 X95.302 Y-24.885 Z-1.24
N4405 X95.328 Z-1.219
N4410 X95.347 Y-24.882 Z-1.2
N4415 X95.552 Y-24.887 Z-1.001
N4420 X95.347 Y-24.882 Z-1.2
N4425 X95.328 Y-24.885 Z-1.219
N4430 X95.302 Z-1.24
N4435 X95.261 Y-24.892 Z-1.271
N4440 X95.217 Y-24.893 Z-1.299
N4445 X95.154 Y-24.902 Z-1.337
N4450 X95.094 Y-24.905 Z-1.369
N4455 X95.008 Y-24.915 Z-1.41
N4460 X94.93 Y-24.92 Z-1.444
N4465 X94.822 Y-24.932 Z-1.487
N4470 X94.72 Y-24.94 Z-1.524
N4475 X94.606 Y-24.948 Z-1.566
N4480 X94.462 Y-24.95 Z-1.621
N4485 X94.379 Y-24.947 Z-1.655
N4490 X94.314 Y-24.943 Z-1.684
N4495 X94.193 Y-24.929 Z-1.739
N4500 X94.049 Y-24.906 Z-1.81
N4505 X93.978 Y-24.891 Z-1.849
N4510 X93.816 Y-24.851 Z-1.942
N4515 X93.723 Y-24.823 Z-2.
N4520 X93.545 Y-24.763 Z-2.117
N4525 X93.436 Y-24.72 Z-2.194
N4530 X93.312 Y-24.666 Z-2.287
N4535 X92.851 Y-24.942 Z-2.191
N4540 X92.429 Y-25.2 Z-2.106
N4545 X92.037 Y-25.443 Z-2.03
N4550 X91.676 Y-25.673 Z-1.965
N4555 X91.343 Y-25.89 Z-1.908
N4560 X90.975 Y-26.138 Z-1.852
N4565 X90.893 Y-26.191 Z-1.844
N4570 X90.781 Y-26.254 Z-1.841
N4575 X90.754 Y-26.268 Z-1.842
N4580 X90.672 Y-26.307 Z-1.85
N4585 X90.588 Y-26.342 Z-1.862
N4590 X90.461 Y-26.385 Z-1.889
N4595 X90.382 Y-26.409 Z-1.912
N4600 X90.3 Y-26.43 Z-1.939
N4605 X90.217 Y-26.447 Z-1.97
N4610 X90.155 Y-26.459 Z-1.995
N4615 X90.041 Y-26.477 Z-2.048
N4620 X89.923 Y-26.49 Z-2.107
N4625 X89.837 Y-26.606 Z-2.072
N4630 X89.726 Y-26.756 Z-2.031
N4635 X89.633 Y-26.893 Z-2.004
N4640 X89.549 Y-27.023 Z-1.983
N4645 X89.474 Y-27.15 Z-1.973
N4650 X89.415 Y-27.255 Z-1.969
N4655 X89.361 Y-27.363 Z-1.975
N4660 X89.293 Y-27.505 Z-1.989
N4665 X89.241 Y-27.624 Z-2.012
N4670 X89.219 Y-27.68 Z-2.026
N4675 X89.192 Y-27.75 Z-2.047
N4680 X89.16 Y-27.835 Z-2.077
N4685 X89.114 Y-27.956 Z-2.124
N4690 X89.088 Y-28.025 Z-2.157
N4695 X89.032 Y-28.186 Z-2.243
N4700 X88.989 Y-28.308 Z-2.318
N4705 X88.951 Y-28.421 Z-2.394
N4710 X88.847 Y-28.46 Z-2.379
N4715 X88.772 Y-28.487 Z-2.372
N4720 X88.659 Y-28.523 Z-2.366
N4725 X88.6 Y-28.541 Z-2.365
N4730 X88.51 Y-28.567 Z-2.367
N4735 X88.419 Y-28.59 Z-2.372
N4740 X88.347 Y-28.607 Z-2.38
N4745 X88.171 Y-28.642 Z-2.407
N4750 X88.085 Y-28.658 Z-2.425
N4755 X87.998 Y-28.672 Z-2.447
N4760 X87.847 Y-28.691 Z-2.492
N4765 X87.998 Y-28.672 Z-2.447
N4770 X88.085 Y-28.658 Z-2.425
N4775 X88.171 Y-28.642 Z-2.407
N4780 X88.347 Y-28.607 Z-2.38
N4785 X88.419 Y-28.59 Z-2.372
N4790 X88.51 Y-28.567 Z-2.367
N4795 X88.6 Y-28.541 Z-2.365
N4800 X88.659 Y-28.523 Z-2.366
N4805 X88.772 Y-28.487 Z-2.372
N4810 X88.847 Y-28.46 Z-2.379
N4815 X88.951 Y-28.421 Z-2.394
N4820 X89.128 Y-28.511 Z-2.268
N4825 X89.298 Y-28.59 Z-2.158
N4830 X89.42 Y-28.639 Z-2.088
N4835 X89.535 Y-28.679 Z-2.029
N4840 X89.705 Y-28.733 Z-1.949
N4845 X89.81 Y-28.762 Z-1.906
N4850 X89.988 Y-28.799 Z-1.845
N4855 X90.086 Y-28.817 Z-1.815
N4860 X90.277 Y-28.841 Z-1.768
N4865 X90.395 Y-28.852 Z-1.744
N4870 X90.565 Y-28.862 Z-1.716
N4875 X90.826 Y-28.868 Z-1.684
N4880 X91.1 Y-28.867 Z-1.661
N4885 X91.394 Y-28.858 Z-1.643
N4890 X91.714 Y-28.841 Z-1.631
N4895 X92.061 Y-28.816 Z-1.621
N4900 X92.437 Y-28.783 Z-1.616
N4905 X92.842 Y-28.74 Z-1.612
N4910 X93.143 Y-28.705 Z-1.613
N4915 X93.747 Y-28.626
N4920 X94.246 Y-28.552 Z-1.615
N4925 X94.777 Y-28.466 Z-1.618
N4930 X95.397 Y-28.356 Z-1.621
N4935 X96.006 Y-28.237 Z-1.622
N4940 X96.562 Y-28.118 Z-1.623
N4945 X97.087 Y-27.996 Z-1.622
N4950 X97.603 Y-27.866 Z-1.62
N4955 X98.11 Y-27.728 Z-1.617
N4960 X98.32 Y-27.668 Z-1.613
N4965 X98.609 Y-27.582 Z-1.612
N4970 X98.867 Y-27.503 Z-1.607
N4975 X99.103 Y-27.428 Z-1.606
N4980 X99.402 Y-27.328 Z-1.6
N4985 X99.591 Y-27.264 Z-1.599
N4990 X99.924 Y-27.145 Z-1.592
N4995 X100.435 Y-26.954 Z-1.582
N5000 X100.932 Y-26.754 Z-1.573
N5005 X101.417 Y-26.546 Z-1.563
N5010 X101.89 Y-26.331 Z-1.553
N5015 X102.35 Y-26.109 Z-1.545
N5020 X102.799 Y-25.881 Z-1.537
N5025 X103.236 Y-25.647 Z-1.531
N5030 X103.434 Y-25.536
N5035 X103.662 Y-25.406 Z-1.528
N5040 X103.919 Y-25.255
N5045 X104.077 Y-25.16 Z-1.527
N5050 X104.407 Y-24.957 Z-1.529
N5055 X104.876 Y-24.653 Z-1.535
N5060 X105.26 Y-24.392 Z-1.543
N5065 X105.635 Y-24.125 Z-1.556
N5070 X105.887 Y-23.939 Z-1.569
N5075 X106.001 Y-23.854 Z-1.574
N5080 X106.359 Y-23.577 Z-1.596
N5085 X106.708 Y-23.295 Z-1.623
N5090 X107.049 Y-23.008 Z-1.655
N5095 X107.384 Y-22.715 Z-1.693
N5100 X107.711 Y-22.417 Z-1.735
N5105 X107.898 Y-22.24 Z-1.765
N5110 X108.036 Y-22.113 Z-1.788
N5115 X108.303 Y-21.858 Z-1.841
N5120 X108.686 Y-21.502 Z-1.937
N5125 X108.711 Y-21.478 Z-1.943
N5130 X109.02 Y-21.192 Z-2.039
N5135 X109.187 Y-21.035 Z-2.096
N5140 X109.358 Y-20.88 Z-2.158
N5145 X109.649 Y-20.608 Z-2.273
N5150 X110.057 Y-20.234 Z-2.453
N5155 X110.08 Y-20.212 Z-2.464
N5160 X110.157 Y-20.239 Z-2.409
N5165 X110.304 Y-20.286 Z-2.311
N5170 X110.477 Y-20.337 Z-2.203
N5175 X110.582 Y-20.363 Z-2.141
N5180 X110.686 Y-20.384 Z-2.084
N5185 X110.821 Y-20.408 Z-2.014
N5190 X110.89 Y-20.417 Z-1.981
N5195 X110.986 Y-20.429 Z-1.939
N5200 X111.129 Y-20.441 Z-1.883
N5205 X111.278 Y-20.446 Z-1.832
N5210 X111.381 Y-20.445 Z-1.8
N5215 X111.529 Y-20.438 Z-1.761
N5220 X111.633 Y-20.431 Z-1.739
N5225 X111.79 Y-20.417 Z-1.71
N5230 X111.947 Y-20.398 Z-1.685
N5235 X112.126 Y-20.373 Z-1.66
N5240 X112.454 Y-20.327 Z-1.629
N5245 X112.714 Y-20.287 Z-1.608
N5250 X113.295 Y-20.203 Z-1.578
N5255 X113.881 Y-20.128 Z-1.562
N5260 X114.463 Y-20.067 Z-1.555
N5265 X114.811 Y-20.038 Z-1.556
N5270 X115.044 Y-20.024 Z-1.553
N5275 X115.511 Y-20.003 Z-1.554
N5280 X115.623 Y-20.001 Z-1.553
N5285 X116.192 Y-19.998 Z-1.554
N5290 X116.771 Y-20.019 Z-1.555
N5295 X117.336 Y-20.061 Z-1.556
N5300 X117.492 Y-20.076 Z-1.558
N5305 X117.891 Y-20.125 Z-1.557
N5310 X118.11 Y-20.156 Z-1.56
N5315 X118.438 Y-20.211 Z-1.558
N5320 X118.707 Y-20.262 Z-1.562
N5325 X118.972 Y-20.32 Z-1.559
N5330 X119.283 Y-20.394 Z-1.563
N5335 X119.492 Y-20.45 Z-1.56
N5340 X119.837 Y-20.552 Z-1.563
N5345 X119.996 Y-20.603 Z-1.56
N5350 X120.37 Y-20.735 Z-1.563
N5355 X120.485 Y-20.779 Z-1.56
N5360 X120.881 Y-20.943 Z-1.563
N5365 X120.954 Y-20.976 Z-1.561
N5370 X121.371 Y-21.178 Z-1.565
N5375 X121.831 Y-21.436 Z-1.568
N5380 X122.236 Y-21.699 Z-1.574
N5385 X122.618 Y-21.984 Z-1.585
N5390 X122.655 Y-22.012 Z-1.587
N5395 X122.976 Y-22.29 Z-1.6
N5400 X123.087 Y-22.394 Z-1.61
N5405 X123.31 Y-22.618 Z-1.623
N5410 X123.448 Y-22.769 Z-1.639
N5415 X123.619 Y-22.971 Z-1.654
N5420 X123.775 Y-23.168 Z-1.677
N5425 X123.914 Y-23.364 Z-1.698
N5430 X124.075 Y-23.604 Z-1.729
N5435 X124.242 Y-23.881 Z-1.759
N5440 X124.344 Y-24.058 Z-1.782
N5445 X124.527 Y-24.408 Z-1.821
N5450 X124.587 Y-24.531 Z-1.838
N5455 X124.769 Y-24.938 Z-1.883
N5460 X124.795 Y-24.999 Z-1.891
N5465 X124.979 Y-25.493 Z-1.95
N5470 X125.15 Y-26.055 Z-2.02
N5475 X125.285 Y-26.625 Z-2.096
N5480 X125.383 Y-27.2 Z-2.178
N5485 X125.444 Y-27.784 Z-2.269
N5490 X125.461 Y-28.103 Z-2.321
N5495 X125.47 Y-28.403 Z-2.377
N5500 X125.466 Y-28.699 Z-2.431
N5505 X125.455 Y-29.004 Z-2.494
N5510 X125.433 Y-29.305 Z-2.557
N5515 X125.402 Y-29.609 Z-2.627
N5520 X125.393 Y-29.692 Z-2.647
N5525 X125.359 Y-29.923 Z-2.702
N5530 X125.306 Y-30.234 Z-2.782
N5535 X125.289 Y-30.322 Z-2.807
N5540 X125.241 Y-30.548 Z-2.868
N5545 X125.164 Y-30.868 Z-2.961
N5550 X125.104 Y-31.095 Z-3.033
N5555 X125.042 Y-31.314 Z-3.105
N5560 X124.975 Y-31.538 Z-3.184
N5565 X124.9 Y-31.779 Z-3.276
N5570 X124.823 Y-32.02 Z-3.374
N5575 X124.785 Y-32.134 Z-3.423
N5580 X124.697 Y-32.396 Z-3.541
N5585 X124.636 Y-32.57 Z-3.624
N5590 X124.558 Y-32.794 Z-3.736
N5595 X124.473 Y-33.033 Z-3.861
N5600 X124.371 Y-33.322 Z-4.018
N5605 X124.292 Y-33.557 Z-4.149
N5610 X124.217 Y-33.798 Z-4.283
N5615 X124.125 Y-34.11 Z-4.459
N5620 X124.121 Z-4.456
N5625 X123.752 Y-34.08 Z-4.187
N5630 X123.583 Y-34.07 Z-4.065
N5635 X123.417 Y-34.064 Z-3.947
N5640 X123.106 Y-34.063 Z-3.73
N5645 X122.963 Y-34.067 Z-3.63
N5650 X122.813 Y-34.073 Z-3.529
N5655 X122.563 Y-34.09 Z-3.357
N5660 X122.329 Y-34.115 Z-3.199
N5665 X122.112 Y-34.144 Z-3.051
N5670 X121.838 Y-34.191 Z-2.862
N5675 X121.748 Y-34.209 Z-2.799
N5680 X121.595 Y-34.242 Z-2.689
N5685 X121.44 Y-34.28 Z-2.574
N5690 X121.327 Y-34.308 Z-2.485
N5695 X121.234 Y-34.33 Z-2.408
N5700 X121.074 Y-34.368 Z-2.268
N5705 X120.949 Y-34.399 Z-2.146
N5710 X121.074 Y-34.368 Z-2.268
N5715 X121.234 Y-34.33 Z-2.408
N5720 X121.327 Y-34.308 Z-2.485
N5725 X121.44 Y-34.28 Z-2.574
N5730 X121.595 Y-34.242 Z-2.689
N5735 X121.748 Y-34.209 Z-2.799
N5740 X121.838 Y-34.191 Z-2.862
N5745 X122.112 Y-34.144 Z-3.051
N5750 X122.329 Y-34.115 Z-3.199
N5755 X122.563 Y-34.09 Z-3.357
N5760 X122.813 Y-34.073 Z-3.529
N5765 X122.963 Y-34.067 Z-3.63
N5770 X123.106 Y-34.063 Z-3.73
N5775 X123.417 Y-34.064 Z-3.947
N5780 X123.583 Y-34.07 Z-4.065
N5785 X123.752 Y-34.08 Z-4.187
N5790 X124.121 Y-34.11 Z-4.456
N5795 X124.125 Z-4.459
N5800 X124.215 Y-34.287 Z-4.43
N5805 X124.254 Y-34.365 Z-4.419
N5810 X124.336 Y-34.531 Z-4.403
N5815 X124.425 Y-34.713 Z-4.391
N5820 X124.473 Y-34.813 Z-4.389
N5825 X124.55 Y-34.975 Z-4.392
N5830 X124.636 Y-35.158 Z-4.403
N5835 X124.725 Y-35.349 Z-4.424
N5840 X124.787 Y-35.486 Z-4.445
N5845 X124.846 Y-35.615 Z-4.471
N5850 X124.943 Y-35.825 Z-4.522
N5855 X125.014 Y-35.981 Z-4.566
N5860 X125.08 Y-36.129 Z-4.614
N5865 X125.169 Y-36.319 Z-4.685
N5870 X125.273 Y-36.546 Z-4.779
N5875 X125.337 Y-36.687 Z-4.844
N5880 X125.395 Y-36.813 Z-4.905
N5885 X125.468 Y-36.966 Z-4.985
N5890 X125.545 Y-37.128 Z-5.075
N5895 X125.601 Y-37.245 Z-5.142
N5900 X125.563 Y-37.27 Z-5.107
N5905 X125.212 Y-37.507 Z-4.791
N5910 X124.933 Y-37.694 Z-4.549
N5915 X124.556 Y-37.945 Z-4.234
N5920 X124.262 Y-38.14 Z-3.994
N5925 X124.059 Y-38.273 Z-3.831
N5930 X123.807 Y-38.437 Z-3.623
N5935 X123.644 Y-38.542 Z-3.477
N5940 X123.504 Y-38.633 Z-3.342
N5945 X123.391 Y-38.706 Z-3.227
N5950 X123.251 Y-38.798 Z-3.072
N5955 X123.206 Y-38.827 Z-3.019
N5960 X123.251 Y-38.798 Z-3.072
N5965 X123.391 Y-38.706 Z-3.227
N5970 X123.504 Y-38.633 Z-3.342
N5975 X123.644 Y-38.542 Z-3.477
N5980 X123.807 Y-38.437 Z-3.623
N5985 X124.059 Y-38.273 Z-3.831
N5990 X124.262 Y-38.14 Z-3.994
N5995 X124.556 Y-37.945 Z-4.234
N6000 X124.933 Y-37.694 Z-4.549
N6005 X125.212 Y-37.507 Z-4.791
N6010 X125.563 Y-37.27 Z-5.107
N6015 X125.601 Y-37.245 Z-5.142
N6020 X125.609 Y-37.248 Z-5.14
N6025 X125.812 Y-37.12 Z-4.924
N6030 X126.339 Y-36.782 Z-4.371
N6035 X126.572 Y-36.629 Z-4.132
N6040 X126.882 Y-36.419 Z-3.82
N6045 X127.158 Y-36.227 Z-3.547
N6050 X127.378 Y-36.07 Z-3.335
N6055 X127.599 Y-35.902 Z-3.126
N6060 X127.835 Y-35.71 Z-2.909
N6065 X127.988 Y-35.58 Z-2.771
N6070 X128.071 Y-35.505 Z-2.697
N6075 X128.165 Y-35.416 Z-2.615
N6080 X128.344 Y-35.233 Z-2.46
N6085 X128.418 Y-35.153 Z-2.397
N6090 X128.496 Y-35.064 Z-2.333
N6095 X128.549 Y-34.998 Z-2.289
N6100 X128.657 Y-34.857 Z-2.203
N6105 X128.725 Y-34.763 Z-2.15
N6110 X128.805 Y-34.639 Z-2.089
N6115 X128.857 Y-34.554 Z-2.051
N6120 X128.912 Y-34.457 Z-2.011
N6125 X128.989 Y-34.304 Z-1.957
N6130 X129.038 Y-34.197 Z-1.923
N6135 X129.109 Y-34.028 Z-1.878
N6140 X129.168 Y-33.861 Z-1.839
N6145 X129.19 Y-33.795 Z-1.826
N6150 X129.25 Y-33.595 Z-1.79
N6155 X129.303 Y-33.387 Z-1.758
N6160 X129.353 Y-33.164 Z-1.729
N6165 X129.397 Y-32.931 Z-1.702
N6170 X129.439 Y-32.675 Z-1.675
N6175 X129.475 Y-32.409 Z-1.65
N6180 X129.512 Y-32.067 Z-1.62
N6185 X129.536 Y-31.734 Z-1.591
N6190 X129.55 Y-31.427 Z-1.562
N6195 X129.557 Y-31.115 Z-1.523
N6200 X129.56 Y-30.899 Z-1.489
N6205 Y-30.684 Z-1.445
N6210 X129.557 Y-30.542 Z-1.407
N6215 Y-30.502 Z-1.395
N6220 X129.553 Y-30.435 Z-1.372
N6225 X129.55 Y-30.346 Z-1.34
N6230 X129.545 Y-30.27 Z-1.305
N6235 X129.544 Y-30.245 Z-1.292
N6240 X129.539 Y-30.203 Z-1.268
N6245 X129.53 Y-30.141 Z-1.223
N6250 X129.522 Y-30.098 Z-1.184
N6255 X129.478 Y-29.919 Z-1.001
N6260 X129.522 Y-30.098 Z-1.184
N6265 X129.53 Y-30.141 Z-1.223
N6270 X129.539 Y-30.203 Z-1.268
N6275 X129.544 Y-30.245 Z-1.292
N6280 X129.545 Y-30.27 Z-1.305
N6285 X129.55 Y-30.346 Z-1.34
N6290 X129.553 Y-30.435 Z-1.372
N6295 X129.557 Y-30.502 Z-1.395
N6300 Y-30.542 Z-1.407
N6305 X129.56 Y-30.684 Z-1.445
N6310 Y-30.899 Z-1.489
N6315 X129.557 Y-31.115 Z-1.523
N6320 X129.55 Y-31.427 Z-1.562
N6325 X129.536 Y-31.734 Z-1.591
N6330 X129.512 Y-32.067 Z-1.62
N6335 X129.475 Y-32.409 Z-1.65
N6340 X129.439 Y-32.675 Z-1.675
N6345 X129.397 Y-32.931 Z-1.702
N6350 X129.353 Y-33.164 Z-1.729
N6355 X129.303 Y-33.387 Z-1.758
N6360 X129.25 Y-33.595 Z-1.79
N6365 X129.19 Y-33.795 Z-1.826
N6370 X129.168 Y-33.861 Z-1.839
N6375 X129.109 Y-34.028 Z-1.878
N6380 X129.038 Y-34.197 Z-1.923
N6385 X128.989 Y-34.304 Z-1.957
N6390 X128.912 Y-34.457 Z-2.011
N6395 X128.857 Y-34.554 Z-2.051
N6400 X128.805 Y-34.639 Z-2.089
N6405 X128.725 Y-34.763 Z-2.15
N6410 X128.657 Y-34.857 Z-2.203
N6415 X128.549 Y-34.998 Z-2.289
N6420 X128.496 Y-35.064 Z-2.333
N6425 X128.418 Y-35.153 Z-2.397
N6430 X128.344 Y-35.233 Z-2.46
N6435 X128.165 Y-35.416 Z-2.615
N6440 X128.071 Y-35.505 Z-2.697
N6445 X127.988 Y-35.58 Z-2.771
N6450 X127.835 Y-35.71 Z-2.909
N6455 X127.599 Y-35.902 Z-3.126
N6460 X127.378 Y-36.07 Z-3.335
N6465 X127.158 Y-36.227 Z-3.547
N6470 X126.882 Y-36.419 Z-3.82
N6475 X126.572 Y-36.629 Z-4.132
N6480 X126.339 Y-36.782 Z-4.371
N6485 X125.812 Y-37.12 Z-4.924
N6490 X125.609 Y-37.248 Z-5.14
N6495 X125.653 Y-37.3 Z-5.103
N6500 X125.853 Y-37.53 Z-4.944
N6505 X125.932 Y-37.62 Z-4.886
N6510 X126.061 Y-37.77 Z-4.794
N6515 X126.159 Y-37.884 Z-4.728
N6520 X126.249 Y-37.986 Z-4.67
N6525 X126.334 Y-38.083 Z-4.62
N6530 X126.417 Y-38.178 Z-4.574
N6535 X126.55 Y-38.329 Z-4.51
N6540 X126.633 Y-38.422 Z-4.472
N6545 X126.715 Y-38.515 Z-4.438
N6550 X126.797 Y-38.609 Z-4.407
N6555 X126.883 Y-38.706 Z-4.38
N6560 X126.972 Y-38.808 Z-4.357
N6565 X127.114 Y-38.966 Z-4.329
N6570 X127.179 Y-39.037 Z-4.32
N6575 X127.246 Y-39.111 Z-4.314
N6580 X127.386 Y-39.266 Z-4.31
N6585 X127.502 Y-39.396 Z-4.313
N6590 X127.591 Y-39.494 Z-4.32
N6595 X127.681 Y-39.593 Z-4.333
N6600 X127.775 Y-39.695 Z-4.352
N6605 X127.873 Y-39.803 Z-4.377
N6610 X127.96 Y-39.896 Z-4.404
N6615 X128.07 Y-40.012 Z-4.442
N6620 X128.187 Y-40.136 Z-4.49
N6625 X128.281 Y-40.237 Z-4.533
N6630 X128.381 Y-40.343 Z-4.582
N6635 X128.469 Y-40.435 Z-4.628
N6640 X128.562 Y-40.532 Z-4.681
N6645 X128.505 Y-40.669 Z-4.582
N6650 X128.419 Y-40.885 Z-4.434
N6655 X128.328 Y-41.11 Z-4.285
N6660 X128.184 Y-41.448 Z-4.064
N6665 X128.044 Y-41.764 Z-3.86
N6670 X127.75 Y-42.399 Z-3.456
N6675 X127.7 Y-42.501 Z-3.384
N6680 X127.668 Y-42.568 Z-3.334
N6685 X127.61 Y-42.684 Z-3.238
N6690 X127.599 Y-42.71 Z-3.216
N6695 X127.548 Y-42.818 Z-3.116
N6700 X127.496 Y-42.928 Z-3.005
N6705 X127.485 Y-42.952 Z-2.978
N6710 X127.496 Y-42.928 Z-3.005
N6715 X127.548 Y-42.818 Z-3.116
N6720 X127.599 Y-42.71 Z-3.216
N6725 X127.61 Y-42.684 Z-3.238
N6730 X127.668 Y-42.568 Z-3.334
N6735 X127.7 Y-42.501 Z-3.384
N6740 X127.75 Y-42.399 Z-3.456
N6745 X128.044 Y-41.764 Z-3.86
N6750 X128.184 Y-41.448 Z-4.064
N6755 X128.328 Y-41.11 Z-4.285
N6760 X128.419 Y-40.885 Z-4.434
N6765 X128.505 Y-40.669 Z-4.582
N6770 X128.562 Y-40.532 Z-4.681
N6775 X128.765 Y-40.527 Z-4.603
N6780 X128.96 Y-40.521 Z-4.539
N6785 X129.147 Y-40.516 Z-4.486
N6790 X129.332 Y-40.511 Z-4.443
N6795 X129.543 Y-40.508 Z-4.403
N6800 X129.637 Y-40.507 Z-4.389
N6805 X129.798 Y-40.208 Z-4.075
N6810 X129.947 Y-39.932 Z-3.79
N6815 X130.051 Y-39.733 Z-3.589
N6820 X130.174 Y-39.489 Z-3.347
N6825 X130.345 Y-39.154 Z-3.022
N6830 X130.438 Y-38.972 Z-2.851
N6835 X130.523 Y-38.791 Z-2.686
N6840 X130.674 Y-38.476 Z-2.409
N6845 X130.797 Y-38.201 Z-2.179
N6850 X130.865 Y-38.047 Z-2.053
N6855 X130.971 Y-37.789 Z-1.849
N6860 X131.042 Y-37.606 Z-1.702
N6865 X131.088 Y-37.486 Z-1.603
N6870 X131.124 Y-37.388 Z-1.518
N6875 X131.171 Y-37.262 Z-1.4
N6880 X131.183 Y-37.232 Z-1.369
N6885 X131.171 Y-37.262 Z-1.4
N6890 X131.124 Y-37.388 Z-1.518
N6895 X131.088 Y-37.486 Z-1.603
N6900 X131.042 Y-37.606 Z-1.702
N6905 X130.971 Y-37.789 Z-1.849
N6910 X130.865 Y-38.047 Z-2.053
N6915 X130.797 Y-38.201 Z-2.179
N6920 X130.674 Y-38.476 Z-2.409
N6925 X130.523 Y-38.791 Z-2.686
N6930 X130.438 Y-38.972 Z-2.851
N6935 X130.345 Y-39.154 Z-3.022
N6940 X130.174 Y-39.489 Z-3.347
N6945 X130.051 Y-39.733 Z-3.589
N6950 X129.947 Y-39.932 Z-3.79
N6955 X129.798 Y-40.208 Z-4.075
N6960 X129.637 Y-40.507 Z-4.389
N6965 X129.751 Y-40.55 Z-4.332
N6970 X129.933 Y-40.621 Z-4.245
N6975 X130.052 Y-40.669 Z-4.192
N6980 X130.172 Y-40.717 Z-4.142
N6985 X130.297 Y-40.768 Z-4.096
N6990 X130.428 Y-40.821 Z-4.052
N6995 X130.574 Y-40.882 Z-4.009
N7000 X130.71 Y-40.941 Z-3.974
N7005 X130.849 Y-41.001 Z-3.946
N7010 X130.992 Y-41.063 Z-3.924
N7015 X131.144 Y-41.129 Z-3.91
N7020 X131.265 Y-41.183 Z-3.904
N7025 X131.429 Y-41.259
N7030 X131.585 Y-41.331 Z-3.914
N7035 X131.746 Y-41.405 Z-3.935
N7040 X131.829 Y-41.443 Z-3.95
N7045 X131.914 Y-41.483 Z-3.968
N7050 X132.002 Y-41.523 Z-3.99
N7055 X132.114 Y-41.576 Z-4.021
N7060 X132.236 Y-41.635 Z-4.058
N7065 X132.358 Y-41.695 Z-4.102
N7070 X132.481 Y-41.754 Z-4.151
N7075 X132.605 Y-41.815 Z-4.206
N7080 X132.732 Y-41.877 Z-4.267
N7085 X132.862 Y-41.94 Z-4.334
N7090 X132.996 Y-42.005 Z-4.409
N7095 X133.133 Y-42.071 Z-4.49
N7100 X133.3 Y-42.154 Z-4.594
N7105 X133.297 Y-42.299 Z-4.525
N7110 X133.295 Y-42.648 Z-4.369
N7115 X133.297 Y-42.782 Z-4.311
N7120 X133.308 Y-43.085 Z-4.187
N7125 X133.317 Y-43.259 Z-4.118
N7130 X133.338 Y-43.555 Z-4.006
N7135 X133.365 Y-43.868 Z-3.891
N7140 X133.396 Y-44.163 Z-3.786
N7145 X133.411 Y-44.29 Z-3.741
N7150 X133.447 Y-44.551 Z-3.644
N7155 X133.486 Y-44.792 Z-3.55
N7160 X133.525 Y-45.015 Z-3.457
N7165 X133.561 Y-45.223 Z-3.361
N7170 X133.596 Y-45.417 Z-3.263
N7175 X133.627 Y-45.595 Z-3.165
N7180 X133.657 Y-45.76 Z-3.065
N7185 X133.683 Y-45.908 Z-2.968
N7190 X133.706 Y-46.038 Z-2.876
N7195 X133.726 Y-46.148 Z-2.792
N7200 X133.743 Y-46.241 Z-2.716
N7205 X133.765 Y-46.367 Z-2.604
N7210 X133.776 Y-46.426 Z-2.548
N7215 X133.784 Y-46.471 Z-2.502
N7220 X133.776 Y-46.426 Z-2.548
N7225 X133.765 Y-46.367 Z-2.604
N7230 X133.743 Y-46.241 Z-2.716
N7235 X133.726 Y-46.148 Z-2.792
N7240 X133.706 Y-46.038 Z-2.876
N7245 X133.683 Y-45.908 Z-2.968
N7250 X133.657 Y-45.76 Z-3.065
N7255 X133.627 Y-45.595 Z-3.165
N7260 X133.596 Y-45.417 Z-3.263
N7265 X133.561 Y-45.223 Z-3.361
N7270 X133.525 Y-45.015 Z-3.457
N7275 X133.486 Y-44.792 Z-3.55
N7280 X133.447 Y-44.551 Z-3.644
N7285 X133.411 Y-44.29 Z-3.741
N7290 X133.396 Y-44.163 Z-3.786
N7295 X133.365 Y-43.868 Z-3.891
N7300 X133.338 Y-43.555 Z-4.006
N7305 X133.317 Y-43.259 Z-4.118
N7310 X133.308 Y-43.085 Z-4.187
N7315 X133.297 Y-42.782 Z-4.311
N7320 X133.295 Y-42.648 Z-4.369
N7325 X133.297 Y-42.299 Z-4.525
N7330 X133.3 Y-42.154 Z-4.594
N7335 X133.503 Y-42.015 Z-4.492
N7340 X133.673 Y-41.898 Z-4.416
N7345 X133.852 Y-41.773 Z-4.348
N7350 X134.031 Y-41.646 Z-4.289
N7355 X134.108 Y-41.592 Z-4.267
N7360 X134.278 Y-41.472 Z-4.227
N7365 X134.352 Y-41.419 Z-4.213
N7370 X134.488 Y-41.321 Z-4.192
N7375 X134.569 Y-41.264 Z-4.184
N7380 X134.738 Y-41.143 Z-4.174
N7385 X134.8 Y-41.098 Z-4.173
N7390 X134.896 Y-41.027 Z-4.176
N7395 X135. Y-40.951 Z-4.183
N7400 X135.161 Y-40.836 Z-4.201
N7405 X135.312 Y-40.727 Z-4.225
N7410 X135.391 Y-40.67 Z-4.242
N7415 X135.563 Y-40.546 Z-4.287
N7420 X135.622 Y-40.501 Z-4.305
N7425 X135.672 Y-40.529 Z-4.261
N7430 X135.872 Y-40.657 Z-4.072
N7435 X136.059 Y-40.791 Z-3.887
N7440 X136.232 Y-40.929 Z-3.704
N7445 X136.394 Y-41.077 Z-3.521
N7450 X136.551 Y-41.237 Z-3.329
N7455 X136.654 Y-41.354 Z-3.192
N7460 X136.757 Y-41.49 Z-3.04
N7465 X136.83 Y-41.598 Z-2.92
N7470 X136.931 Y-41.769 Z-2.732
N7475 X136.83 Y-41.598 Z-2.92
N7480 X136.757 Y-41.49 Z-3.04
N7485 X136.654 Y-41.354 Z-3.192
N7490 X136.551 Y-41.237 Z-3.329
N7495 X136.394 Y-41.077 Z-3.521
N7500 X136.232 Y-40.929 Z-3.704
N7505 X136.059 Y-40.791 Z-3.887
N7510 X135.872 Y-40.657 Z-4.072
N7515 X135.672 Y-40.529 Z-4.261
N7520 X135.622 Y-40.501 Z-4.305
N7525 X135.656 Y-40.361 Z-4.247
N7530 X135.69 Y-40.191 Z-4.174
N7535 X135.711 Y-40.053 Z-4.112
N7540 X135.728 Y-39.916 Z-4.052
N7545 X135.744 Y-39.745 Z-3.98
N7550 X135.762 Y-39.483 Z-3.878
N7555 X135.772 Y-39.338 Z-3.825
N7560 X135.781 Y-39.185 Z-3.773
N7565 X135.791 Y-38.986 Z-3.715
N7570 X135.802 Y-38.775 Z-3.662
N7575 X135.809 Y-38.652 Z-3.634
N7580 X135.819 Y-38.474 Z-3.604
N7585 X135.821 Y-38.425 Z-3.597
N7590 X135.832 Y-38.26 Z-3.575
N7595 X135.84 Y-38.161 Z-3.566
N7600 X135.855 Y-37.97 Z-3.558
N7605 X135.872 Y-37.786 Z-3.556
N7610 X135.881 Y-37.699 Z-3.559
N7615 X135.904 Y-37.497 Z-3.574
N7620 X135.934 Y-37.273 Z-3.599
N7625 X135.947 Y-37.18 Z-3.614
N7630 X135.808 Y-37.058 Z-3.479
N7635 X135.544 Y-36.815 Z-3.228
N7640 X135.522 Y-36.796 Z-3.208
N7645 X135.383 Y-36.667 Z-3.082
N7650 X135.237 Y-36.522 Z-2.952
N7655 X135.109 Y-36.394 Z-2.842
N7660 X135.015 Y-36.299 Z-2.763
N7665 X134.842 Y-36.112 Z-2.623
N7670 X134.735 Y-35.997 Z-2.541
N7675 X134.602 Y-35.844 Z-2.441
N7680 X134.541 Y-35.775 Z-2.398
N7685 X134.465 Y-35.687 Z-2.345
N7690 X134.266 Y-35.449 Z-2.214
N7695 X134.055 Y-35.189 Z-2.088
N7700 X134.022 Y-35.147 Z-2.069
N7705 X133.878 Y-34.971 Z-1.993
N7710 X133.769 Y-34.833 Z-1.937
N7715 X133.677 Y-34.721 Z-1.895
N7720 X133.466 Y-34.458 Z-1.802
N7725 X133.257 Y-34.191 Z-1.715
N7730 X133.028 Y-33.893 Z-1.614
N7735 X132.837 Y-33.643 Z-1.52
N7740 X132.752 Y-33.532 Z-1.474
N7745 X132.676 Y-33.432 Z-1.429
N7750 X132.607 Y-33.343 Z-1.386
N7755 X132.548 Y-33.265 Z-1.345
N7760 X132.495 Y-33.197 Z-1.304
N7765 X132.45 Y-33.137 Z-1.264
N7770 X132.414 Y-33.091 Z-1.229
N7775 X132.387 Y-33.055 Z-1.198
N7780 X132.355 Y-33.013 Z-1.152
N7785 X132.354 Y-33.011 Z-1.151
N7790 X132.262 Y-32.891 Z-1.001
N7795 X132.354 Y-33.011 Z-1.151
N7800 X132.355 Y-33.013 Z-1.152
N7805 X132.387 Y-33.055 Z-1.198
N7810 X132.414 Y-33.091 Z-1.229
N7815 X132.45 Y-33.137 Z-1.264
N7820 X132.495 Y-33.197 Z-1.304
N7825 X132.548 Y-33.265 Z-1.345
N7830 X132.607 Y-33.343 Z-1.386
N7835 X132.676 Y-33.432 Z-1.429
N7840 X132.752 Y-33.532 Z-1.474
N7845 X132.837 Y-33.643 Z-1.52
N7850 X133.028 Y-33.893 Z-1.614
N7855 X133.257 Y-34.191 Z-1.715
N7860 X133.466 Y-34.458 Z-1.802
N7865 X133.677 Y-34.721 Z-1.895
N7870 X133.769 Y-34.833 Z-1.937
N7875 X133.878 Y-34.971 Z-1.993
N7880 X134.022 Y-35.147 Z-2.069
N7885 X134.055 Y-35.189 Z-2.088
N7890 X134.266 Y-35.449 Z-2.214
N7895 X134.465 Y-35.687 Z-2.345
N7900 X134.541 Y-35.775 Z-2.398
N7905 X134.602 Y-35.844 Z-2.441
N7910 X134.735 Y-35.997 Z-2.541
N7915 X134.842 Y-36.112 Z-2.623
N7920 X135.015 Y-36.299 Z-2.763
N7925 X135.109 Y-36.394 Z-2.842
N7930 X135.237 Y-36.522 Z-2.952
N7935 X135.383 Y-36.667 Z-3.082
N7940 X135.522 Y-36.796 Z-3.208
N7945 X135.544 Y-36.815 Z-3.228
N7950 X135.808 Y-37.058 Z-3.479
N7955 X135.947 Y-37.18 Z-3.614
N7960 X136.13 Y-37.03 Z-3.496
N7965 X136.249 Y-36.931 Z-3.425
N7970 X136.365 Y-36.838 Z-3.362
N7975 X136.47 Y-36.754 Z-3.311
N7980 X136.539 Y-36.697 Z-3.281
N7985 X136.614 Y-36.635 Z-3.251
N7990 X136.682 Y-36.578 Z-3.226
N7995 X136.792 Y-36.489 Z-3.192
N8000 X136.865 Y-36.429 Z-3.173
N8005 X136.948 Y-36.361 Z-3.154
N8010 X137.023 Y-36.298 Z-3.141
N8015 X137.102 Y-36.231 Z-3.131
N8020 X137.222 Y-36.128 Z-3.124
N8025 X137.321 Y-36.044 Z-3.121
N8030 X137.387 Y-35.986 Z-3.123
N8035 X137.532 Y-35.855 Z-3.136
N8040 X137.68 Y-35.712 Z-3.161
N8045 X137.774 Y-35.62 Z-3.18
N8050 X137.861 Y-35.527 Z-3.2
N8055 X137.915 Y-35.464 Z-3.214
N8060 X137.99 Y-35.364 Z-3.232
N8065 X138.033 Y-35.297 Z-3.239
N8070 X138.159 Y-35.31 Z-3.123
N8075 X138.192 Y-35.312 Z-3.091
N8080 X138.159 Y-35.31 Z-3.123
N8085 X138.033 Y-35.297 Z-3.239
N8090 X138.034 Y-35.263 Z-3.224
N8095 X138.03 Y-35.152 Z-3.171
N8100 X138.023 Y-35.079 Z-3.135
N8105 X138.01 Y-34.99 Z-3.09
N8110 X137.991 Y-34.886 Z-3.037
N8115 X137.959 Y-34.745 Z-2.961
N8120 X137.928 Y-34.625 Z-2.896
N8125 X137.865 Y-34.434 Z-2.791
N8130 X137.791 Y-34.241 Z-2.683
N8135 X137.749 Y-34.139 Z-2.625
N8140 X137.653 Y-33.942 Z-2.516
N8145 X137.537 Y-33.721 Z-2.393
N8150 X137.481 Y-33.626 Z-2.343
N8155 X137.332 Y-33.384 Z-2.22
N8160 X137.289 Y-33.319 Z-2.19
N8165 X137.169 Y-33.147 Z-2.109
N8170 X137.092 Y-33.042 Z-2.063
N8175 X136.96 Y-32.872 Z-1.992
N8180 X136.868 Y-32.762 Z-1.949
N8185 X136.811 Y-32.693 Z-1.925
N8190 X136.758 Y-32.622 Z-1.906
N8195 X136.713 Y-32.558 Z-1.894
N8200 X136.659 Y-32.478 Z-1.886
N8205 X136.594 Y-32.366 Z-1.884
N8210 X136.561 Y-32.304 Z-1.888
N8215 X136.525 Y-32.233 Z-1.898
N8220 X136.492 Y-32.159 Z-1.911
N8225 X136.462 Y-32.084 Z-1.927
N8230 X136.44 Y-32.024 Z-1.944
N8235 X136.411 Y-31.941 Z-1.971
N8240 X136.385 Y-31.856 Z-2.003
N8245 X136.363 Y-31.768 Z-2.038
N8250 X136.345 Y-31.693 Z-2.072
N8255 X136.324 Y-31.595 Z-2.121
N8260 X136.306 Y-31.494 Z-2.174
N8265 X136.292 Y-31.39 Z-2.232
N8270 X136.282 Y-31.304 Z-2.283
N8275 X136.271 Y-31.187 Z-2.357
N8280 X136.263 Y-31.067 Z-2.435
N8285 X136.255 Y-30.821 Z-2.603
N8290 X136.232 Y-30.336 Z-2.947
N8295 X136.178 Y-30.341 Z-2.908
N8300 X135.871 Y-30.364 Z-2.695
N8305 X135.667 Y-30.373 Z-2.56
N8310 X135.53 Y-30.377 Z-2.475
N8315 X135.277 Y-30.376 Z-2.324
N8320 X135.188 Y-30.373 Z-2.274
N8325 X135.053 Y-30.368 Z-2.203
N8330 X134.834 Y-30.352 Z-2.092
N8335 X134.763 Y-30.346 Z-2.059
N8340 X134.658 Y-30.337 Z-2.012
N8345 X134.415 Y-30.307 Z-1.909
N8350 X134.207 Y-30.275 Z-1.828
N8355 X133.983 Y-30.233 Z-1.746
N8360 X133.741 Y-30.179 Z-1.66
N8365 X133.483 Y-30.112 Z-1.569
N8370 X133.266 Y-30.052 Z-1.486
N8375 X133.086 Y-30.002 Z-1.406
N8380 X132.943 Y-29.962 Z-1.332
N8385 X132.864 Y-29.939 Z-1.282
N8390 X132.838 Y-29.933 Z-1.265
N8395 X132.787 Y-29.918 Z-1.226
N8400 X132.771 Y-29.915 Z-1.212
N8405 X132.746 Y-29.907 Z-1.188
N8410 X132.556 Y-29.884 Z-1.001
N8415 X132.746 Y-29.907 Z-1.188
N8420 X132.771 Y-29.915 Z-1.212
N8425 X132.787 Y-29.918 Z-1.226
N8430 X132.838 Y-29.933 Z-1.265
N8435 X132.864 Y-29.939 Z-1.282
N8440 X132.943 Y-29.962 Z-1.332
N8445 X133.086 Y-30.002 Z-1.406
N8450 X133.266 Y-30.052 Z-1.486
N8455 X133.483 Y-30.112 Z-1.569
N8460 X133.741 Y-30.179 Z-1.66
N8465 X133.983 Y-30.233 Z-1.746
N8470 X134.207 Y-30.275 Z-1.828
N8475 X134.415 Y-30.307 Z-1.909
N8480 X134.658 Y-30.337 Z-2.012
N8485 X134.763 Y-30.346 Z-2.059
N8490 X134.834 Y-30.352 Z-2.092
N8495 X135.053 Y-30.368 Z-2.203
N8500 X135.188 Y-30.373 Z-2.274
N8505 X135.277 Y-30.376 Z-2.324
N8510 X135.53 Y-30.377 Z-2.475
N8515 X135.667 Y-30.373 Z-2.56
N8520 X135.871 Y-30.364 Z-2.695
N8525 X136.178 Y-30.341 Z-2.908
N8530 X136.232 Y-30.336 Z-2.947
N8535 X136.391 Y-30.135 Z-2.965
N8540 X136.476 Y-30.021 Z-2.979
N8545 X136.557 Y-29.903 Z-2.998
N8550 X136.679 Y-29.708 Z-3.037
N8555 X136.715 Y-29.642 Z-3.049
N8560 X136.756 Y-29.556 Z-3.062
N8565 X136.761 Y-29.543 Z-3.064
N8570 X136.822 Y-29.53 Z-3.014
N8575 X136.886 Y-29.52 Z-2.959
N8580 X136.957 Y-29.506 Z-2.893
N8585 X136.886 Y-29.52 Z-2.959
N8590 X136.822 Y-29.53 Z-3.014
N8595 X136.761 Y-29.543 Z-3.064
N8600 X136.746 Y-29.501 Z-3.038
N8605 X136.694 Y-29.384 Z-2.961
N8610 X136.657 Y-29.309 Z-2.91
N8615 X136.607 Y-29.22 Z-2.846
N8620 X136.546 Y-29.119 Z-2.771
N8625 X136.445 Y-28.972 Z-2.659
N8630 X136.353 Y-28.848 Z-2.565
N8635 X136.286 Y-28.762 Z-2.502
N8640 X136.212 Y-28.664 Z-2.434
N8645 X136.112 Y-28.543 Z-2.354
N8650 X135.995 Y-28.4 Z-2.27
N8655 X135.949 Y-28.346 Z-2.241
N8660 X135.838 Y-28.214 Z-2.18
N8665 X135.778 Y-28.144 Z-2.151
N8670 X135.739 Y-28.098 Z-2.136
N8675 X135.664 Y-28.007 Z-2.111
N8680 X135.594 Y-27.924 Z-2.092
N8685 X135.514 Y-27.824 Z-2.08
N8690 X135.453 Y-27.746 Z-2.076
N8695 X135.377 Y-27.645 Z-2.077
N8700 X135.334 Y-27.585 Z-2.082
N8705 X135.256 Y-27.47 Z-2.099
N8710 X135.211 Y-27.404 Z-2.112
N8715 X135.166 Y-27.333 Z-2.13
N8720 X135.122 Y-27.259 Z-2.151
N8725 X135.034 Y-27.108 Z-2.202
N8730 X134.996 Y-27.037 Z-2.228
N8735 X134.972 Y-26.991 Z-2.248
N8740 X134.878 Y-26.8 Z-2.334
N8745 X134.821 Y-26.675 Z-2.396
N8750 X134.762 Y-26.535 Z-2.471
N8755 X134.694 Y-26.37 Z-2.564
N8760 X134.653 Y-26.259 Z-2.629
N8765 X134.565 Y-26.016 Z-2.779
N8770 X134.506 Y-25.836 Z-2.895
N8775 X134.424 Y-25.584 Z-3.063
N8780 X134.359 Y-25.371 Z-3.209
N8785 X134.312 Y-25.213 Z-3.319
N8790 X134.539 Y-25.044 Z-3.193
N8795 X134.854 Y-24.827 Z-3.023
N8800 X135.157 Y-24.629 Z-2.856
N8805 X135.306 Y-24.536 Z-2.771
N8810 X135.427 Y-24.455 Z-2.697
N8815 X135.561 Y-24.372 Z-2.613
N8820 X135.665 Y-24.303 Z-2.544
N8825 X135.78 Y-24.232 Z-2.464
N8830 X135.869 Y-24.172 Z-2.397
N8835 X135.965 Y-24.114 Z-2.324
N8840 X136.041 Y-24.062 Z-2.26
N8845 X136.12 Y-24.014 Z-2.193
N8850 X136.18 Y-23.973 Z-2.138
N8855 X136.243 Y-23.935 Z-2.078
N8860 X136.286 Y-23.905 Z-2.034
N8865 X136.329 Y-23.88 Z-1.989
N8870 X136.359 Y-23.858 Z-1.956
N8875 X136.4 Y-23.833 Z-1.909
N8880 X136.359 Y-23.858 Z-1.956
N8885 X136.329 Y-23.88 Z-1.989
N8890 X136.286 Y-23.905 Z-2.034
N8895 X136.243 Y-23.935 Z-2.078
N8900 X136.18 Y-23.973 Z-2.138
N8905 X136.12 Y-24.014 Z-2.193
N8910 X136.041 Y-24.062 Z-2.26
N8915 X135.965 Y-24.114 Z-2.324
N8920 X135.869 Y-24.172 Z-2.397
N8925 X135.78 Y-24.232 Z-2.464
N8930 X135.665 Y-24.303 Z-2.544
N8935 X135.561 Y-24.372 Z-2.613
N8940 X135.427 Y-24.455 Z-2.697
N8945 X135.306 Y-24.536 Z-2.771
N8950 X135.157 Y-24.629 Z-2.856
N8955 X134.854 Y-24.827 Z-3.023
N8960 X134.539 Y-25.044 Z-3.193
N8965 X134.312 Y-25.213 Z-3.319
N8970 X134.112 Y-25.177 Z-3.248
N8975 X133.848 Y-25.133 Z-3.154
N8980 X133.473 Y-25.072 Z-3.025
N8985 X133.005 Y-24.992 Z-2.879
N8990 X132.555 Y-24.911 Z-2.75
N8995 X132.122 Y-24.825 Z-2.637
N9000 X131.703 Y-24.731 Z-2.536
N9005 X131.374 Y-24.646 Z-2.462
N9010 X131.299 Y-24.625 Z-2.445
N9015 X130.907 Y-24.509 Z-2.363
N9020 X130.53 Y-24.379 Z-2.289
N9025 X130.23 Y-24.263 Z-2.232
N9030 X130.163 Y-24.235 Z-2.22
N9035 X129.984 Y-24.157 Z-2.188
N9040 X129.811 Y-24.075 Z-2.154
N9045 X129.717 Y-24.028 Z-2.138
N9050 X129.474 Y-23.899 Z-2.09
N9055 X129.198 Y-23.731 Z-2.031
N9060 X129.041 Y-23.626 Z-1.997
N9065 X128.838 Y-23.478 Z-1.946
N9070 X128.582 Y-23.268 Z-1.875
N9075 X128.548 Y-23.239 Z-1.866
N9080 X128.429 Y-23.132 Z-1.832
N9085 X128.269 Y-22.981 Z-1.782
N9090 X128.216 Y-22.929 Z-1.766
N9095 X127.993 Y-22.7 Z-1.694
N9100 X127.754 Y-22.445 Z-1.61
N9105 X127.542 Y-22.218 Z-1.529
N9110 X127.357 Y-22.02 Z-1.448
N9115 X127.204 Y-21.856 Z-1.372
N9120 X127.138 Y-21.786 Z-1.335
N9125 X127.081 Y-21.724 Z-1.299
N9130 X127.03 Y-21.67 Z-1.264
N9135 X126.989 Y-21.625 Z-1.231
N9140 X126.954 Y-21.588 Z-1.2
N9145 X126.909 Y-21.54 Z-1.152
N9150 X126.896 Y-21.526 Z-1.134
N9155 Z5.
N9160 X100.645 Y22.031
N9165 Z4.
N9170 Z-2.783
N9175 X100.691 Y21.973 Z-2.853
N9180 X100.734 Y21.918 Z-2.914
N9185 X100.768 Y21.877 Z-2.956
N9190 X100.831 Y21.797 Z-3.028
N9195 X100.892 Y21.722 Z-3.088
N9200 X100.945 Y21.657 Z-3.136
N9205 X101.004 Y21.584 Z-3.182
N9210 X101.071 Y21.502 Z-3.229
N9215 X101.171 Y21.382 Z-3.288
N9220 X101.281 Y21.256 Z-3.345
N9225 X101.398 Y21.127 Z-3.403
N9230 X101.559 Y20.952 Z-3.487
N9235 X101.731 Y20.764 Z-3.585
N9240 X101.817 Y20.67 Z-3.638
N9245 X101.936 Y20.541 Z-3.715
N9250 X102.076 Y20.388 Z-3.812
N9255 X102.192 Y20.262 Z-3.897
N9260 X102.44 Y20.293 Z-3.803
N9265 X102.59 Y20.314 Z-3.751
N9270 X102.686 Y20.326 Z-3.721
N9275 X102.798 Y20.339 Z-3.689
N9280 X102.963 Y20.361 Z-3.648
N9285 X103.06 Y20.376 Z-3.627
N9290 X103.301 Y20.407 Z-3.585
N9295 X103.457 Y20.428 Z-3.566
N9300 X103.588 Y20.447 Z-3.555
N9305 X103.73 Y20.468 Z-3.551
N9310 X103.959 Y20.502 Z-3.556
N9315 X104.042 Y20.514 Z-3.56
N9320 X104.127 Y20.527 Z-3.567
N9325 X104.215 Y20.54 Z-3.577
N9330 X104.309 Y20.554 Z-3.591
N9335 X104.522 Y20.59 Z-3.632
N9340 X104.676 Y20.615 Z-3.668
N9345 X104.827 Y20.638 Z-3.71
N9350 X105.069 Y20.679 Z-3.788
N9355 X105.154 Y20.695 Z-3.82
N9360 X105.207 Y20.964 Z-3.625
N9365 X105.243 Y21.205 Z-3.449
N9370 X105.247 Y21.238 Z-3.424
N9375 X105.268 Y21.462 Z-3.257
N9380 X105.285 Y21.655 Z-3.102
N9385 X105.297 Y21.8 Z-2.977
N9390 X105.312 Y21.982 Z-2.808
N9395 X105.315 Y22.014 Z-2.776
N9400 X105.312 Y21.982 Z-2.808
N9405 X105.297 Y21.8 Z-2.977
N9410 X105.285 Y21.655 Z-3.102
N9415 X105.268 Y21.462 Z-3.257
N9420 X105.247 Y21.238 Z-3.424
N9425 X105.243 Y21.205 Z-3.449
N9430 X105.207 Y20.964 Z-3.625
N9435 X105.154 Y20.695 Z-3.82
N9440 X105.238 Y20.637 Z-3.783
N9445 X105.468 Y20.468 Z-3.682
N9450 X105.583 Y20.382 Z-3.635
N9455 X105.757 Y20.247 Z-3.571
N9460 X105.865 Y20.162 Z-3.535
N9465 X105.958 Y20.09 Z-3.507
N9470 X106.076 Y19.995 Z-3.476
N9475 X106.222 Y19.879 Z-3.445
N9480 X106.311 Y19.809 Z-3.429
N9485 X106.454 Y19.697 Z-3.414
N9490 X106.551 Y19.623 Z-3.407
N9495 X106.676 Y19.53 Z-3.404
N9500 Y19.452 Z-3.344
N9505 X106.685 Y19.136 Z-3.104
N9510 X106.693 Y18.926 Z-2.95
N9515 X106.698 Y18.805 Z-2.866
N9520 X106.717 Y18.551 Z-2.693
N9525 X106.731 Y18.367 Z-2.576
N9530 X106.759 Y18.121 Z-2.428
N9535 X106.772 Y18.002 Z-2.362
N9540 X106.806 Y17.774 Z-2.241
N9545 X106.842 Y17.58 Z-2.143
N9550 X106.879 Y17.431 Z-2.063
N9555 X106.916 Y17.303 Z-1.989
N9560 X106.947 Y17.197 Z-1.917
N9565 X106.974 Y17.107 Z-1.849
N9570 X106.993 Y17.041 Z-1.793
N9575 X107.017 Y16.96 Z-1.715
N9580 X106.993 Y17.041 Z-1.793
N9585 X106.974 Y17.107 Z-1.849
N9590 X106.947 Y17.197 Z-1.917
N9595 X106.916 Y17.303 Z-1.989
N9600 X106.879 Y17.431 Z-2.063
N9605 X106.842 Y17.58 Z-2.143
N9610 X106.806 Y17.774 Z-2.241
N9615 X106.772 Y18.002 Z-2.362
N9620 X106.759 Y18.121 Z-2.428
N9625 X106.731 Y18.367 Z-2.576
N9630 X106.717 Y18.551 Z-2.693
N9635 X106.698 Y18.805 Z-2.866
N9640 X106.693 Y18.926 Z-2.95
N9645 X106.685 Y19.136 Z-3.104
N9650 X106.676 Y19.452 Z-3.344
N9655 Y19.53 Z-3.404
N9660 X106.799 Y19.532 Z-3.331
N9665 X106.918 Y19.534 Z-3.264
N9670 X107.123 Y19.538 Z-3.157
N9675 X107.286 Y19.543 Z-3.08
N9680 X107.447 Y19.546 Z-3.013
N9685 X107.592 Y19.549 Z-2.961
N9690 X107.677 Y19.551 Z-2.935
N9695 X107.817 Y19.556 Z-2.897
N9700 X107.942 Y19.56 Z-2.87
N9705 X108.082 Y19.564 Z-2.849
N9710 X108.238 Y19.57 Z-2.836
N9715 X108.369 Y19.576 Z-2.834
N9720 X108.444 Y19.579 Z-2.837
N9725 X108.528 Y19.582 Z-2.843
N9730 X108.612 Y19.586 Z-2.852
N9735 X108.732 Y19.593 Z-2.87
N9740 X108.865 Y19.601 Z-2.899
N9745 X108.945 Y19.605 Z-2.92
N9750 X109.113 Y19.615 Z-2.971
N9755 X109.273 Y19.626 Z-3.03
N9760 X109.467 Y19.64 Z-3.114
N9765 X109.608 Y19.651 Z-3.181
N9770 X109.763 Y19.664 Z-3.263
N9775 X109.962 Y19.682 Z-3.375
N9780 X110.077 Y19.692 Z-3.444
N9785 X110.202 Y19.703 Z-3.523
N9790 X110.355 Y19.718 Z-3.622
N9795 X110.341 Y19.786 Z-3.567
N9800 X110.317 Y19.89 Z-3.479
N9805 X110.287 Y19.995 Z-3.388
N9810 X110.256 Y20.091 Z-3.302
N9815 X110.22 Y20.183 Z-3.217
N9820 X110.174 Y20.289 Z-3.115
N9825 X110.149 Y20.343 Z-3.063
N9830 X110.087 Y20.456 Z-2.944
N9835 X110.044 Y20.525 Z-2.865
N9840 X110.087 Y20.456 Z-2.944
N9845 X110.149 Y20.343 Z-3.063
N9850 X110.174 Y20.289 Z-3.115
N9855 X110.22 Y20.183 Z-3.217
N9860 X110.256 Y20.091 Z-3.302
N9865 X110.287 Y19.995 Z-3.388
N9870 X110.317 Y19.89 Z-3.479
N9875 X110.341 Y19.786 Z-3.567
N9880 X110.355 Y19.718 Z-3.622
N9885 X110.373 Y19.708 Z-3.624
N9890 X110.429 Y19.672 Z-3.629
N9895 X110.529 Y19.6 Z-3.634
N9900 X110.543 Y19.589
N9905 X110.623 Y19.523
N9910 X110.646 Y19.503 Z-3.633
N9915 X110.692 Y19.459 Z-3.63
N9920 X110.769 Y19.376 Z-3.621
N9925 X110.816 Y19.317 Z-3.611
N9930 X110.857 Y19.256 Z-3.595
N9935 X110.864 Y19.242 Z-3.59
N9940 X110.914 Y19.114 Z-3.538
N9945 X110.966 Y18.973 Z-3.481
N9950 X111.053 Y18.734 Z-3.393
N9955 X111.11 Y18.576 Z-3.34
N9960 X111.166 Y18.423 Z-3.294
N9965 X111.202 Y18.325 Z-3.267
N9970 X111.286 Y18.106 Z-3.215
N9975 X111.362 Y17.916 Z-3.18
N9980 X111.409 Y17.805 Z-3.165
N9985 X111.497 Y17.607 Z-3.148
N9990 X111.561 Y17.472 Z-3.14
N9995 X111.628 Y17.336
N10000 X111.719 Y17.161 Z-3.15
N10005 X111.765 Y17.076 Z-3.157
N10010 X111.848 Y16.932 Z-3.175
N10015 X111.886 Y16.867 Z-3.186
N10020 X111.952 Y16.758 Z-3.21
N10025 X111.848 Y16.559 Z-3.042
N10030 X111.757 Y16.378 Z-2.893
N10035 X111.682 Y16.227 Z-2.774
N10040 X111.597 Y16.045 Z-2.639
N10045 X111.487 Y15.795 Z-2.461
N10050 X111.424 Y15.636 Z-2.356
N10055 X111.327 Y15.388 Z-2.205
N10060 X111.299 Y15.306 Z-2.159
N10065 X111.211 Y15.033 Z-2.012
N10070 X111.145 Y14.819 Z-1.913
N10075 X111.12 Y14.73 Z-1.873
N10080 X111.062 Y14.502 Z-1.779
N10085 X111.003 Y14.264 Z-1.684
N10090 X110.956 Y14.072 Z-1.599
N10095 X110.915 Y13.908 Z-1.516
N10100 X110.881 Y13.775 Z-1.439
N10105 X110.856 Y13.672 Z-1.37
N10110 X110.838 Y13.6 Z-1.313
N10115 X110.828 Y13.561 Z-1.277
N10120 X110.827 Y13.559 Z-1.275
N10125 X110.828 Y13.561 Z-1.277
N10130 X110.838 Y13.6 Z-1.313
N10135 X110.856 Y13.672 Z-1.37
N10140 X110.881 Y13.775 Z-1.439
N10145 X110.915 Y13.908 Z-1.516
N10150 X110.956 Y14.072 Z-1.599
N10155 X111.003 Y14.264 Z-1.684
N10160 X111.062 Y14.502 Z-1.779
N10165 X111.12 Y14.73 Z-1.873
N10170 X111.145 Y14.819 Z-1.913
N10175 X111.211 Y15.033 Z-2.012
N10180 X111.299 Y15.306 Z-2.159
N10185 X111.327 Y15.388 Z-2.205
N10190 X111.424 Y15.636 Z-2.356
N10195 X111.487 Y15.795 Z-2.461
N10200 X111.597 Y16.045 Z-2.639
N10205 X111.682 Y16.227 Z-2.774
N10210 X111.757 Y16.378 Z-2.893
N10215 X111.848 Y16.559 Z-3.042
N10220 X111.952 Y16.758 Z-3.21
N10225 X112.109 Y16.707 Z-3.132
N10230 X112.306 Y16.643 Z-3.046
N10235 X112.398 Y16.616 Z-3.01
N10240 X112.48 Y16.591 Z-2.982
N10245 X112.574 Y16.561 Z-2.952
N10250 X112.659 Y16.534 Z-2.928
N10255 X112.774 Y16.498 Z-2.9
N10260 X112.867 Y16.471 Z-2.881
N10265 X112.968 Y16.44 Z-2.865
N10270 X113.031 Y16.419 Z-2.857
N10275 X113.184 Y16.371 Z-2.845
N10280 X113.3 Y16.335 Z-2.841
N10285 X113.444 Y16.288 Z-2.845
N10290 X113.579 Y16.244 Z-2.855
N10295 X113.678 Y16.211 Z-2.865
N10300 X113.834 Y16.155 Z-2.889
N10305 X113.857 Y16.146 Z-2.894
N10310 X114.078 Y16.063 Z-2.94
N10315 X114.116 Y16.048 Z-2.95
N10320 X114.322 Y15.961 Z-3.007
N10325 X114.443 Y15.908 Z-3.044
N10330 X114.544 Y15.86 Z-3.079
N10335 X114.739 Y15.761 Z-3.146
N10340 X114.853 Y15.693 Z-3.185
N10345 X114.885 Y15.671 Z-3.196
N10350 X114.954 Y15.734 Z-3.115
N10355 X115.111 Y15.873 Z-2.92
N10360 X115.154 Y15.911 Z-2.864
N10365 X115.111 Y15.873 Z-2.92
N10370 X114.954 Y15.734 Z-3.115
N10375 X114.885 Y15.671 Z-3.196
N10380 X114.903 Y15.634 Z-3.186
N10385 X114.954 Y15.514 Z-3.149
N10390 X115.014 Y15.344 Z-3.097
N10395 X115.08 Y15.122 Z-3.026
N10400 X115.136 Y14.883 Z-2.951
N10405 X115.164 Y14.749 Z-2.911
N10410 X115.197 Y14.564 Z-2.858
N10415 X115.235 Y14.329 Z-2.798
N10420 X115.262 Y14.156 Z-2.758
N10425 X115.282 Y14.011 Z-2.729
N10430 X115.307 Y13.842 Z-2.699
N10435 X115.333 Y13.68 Z-2.676
N10440 X115.353 Y13.557 Z-2.663
N10445 X115.367 Y13.469 Z-2.656
N10450 X115.394 Y13.329 Z-2.65
N10455 X115.417 Y13.214
N10460 X115.443 Y13.095 Z-2.653
N10465 X115.459 Y13.026 Z-2.657
N10470 X115.48 Y12.943 Z-2.665
N10475 X115.538 Y12.737 Z-2.692
N10480 X115.571 Y12.625 Z-2.713
N10485 X115.608 Y12.514 Z-2.738
N10490 X115.635 Y12.437 Z-2.758
N10495 X115.724 Y12.206 Z-2.831
N10500 X115.754 Y12.128 Z-2.859
N10505 X115.816 Y11.981 Z-2.917
N10510 X115.674 Y11.812 Z-2.774
N10515 X115.533 Y11.635 Z-2.636
N10520 X115.433 Y11.503 Z-2.54
N10525 X115.352 Y11.397 Z-2.466
N10530 X115.199 Y11.186 Z-2.329
N10535 X115.158 Y11.128 Z-2.294
N10540 X114.984 Y10.883 Z-2.151
N10545 X114.802 Y10.625 Z-2.011
N10550 X114.61 Y10.355 Z-1.876
N10555 X114.42 Y10.091 Z-1.754
N10560 X114.121 Y9.677 Z-1.57
N10565 X113.958 Y9.452 Z-1.465
N10570 X113.824 Y9.266 Z-1.372
N10575 X113.724 Y9.129 Z-1.296
N10580 X113.674 Y9.058 Z-1.252
N10585 X113.613 Y8.974 Z-1.191
N10590 X113.585 Y8.935 Z-1.157
N10595 X113.559 Y8.899 Z-1.119
N10600 X113.585 Y8.935 Z-1.157
N10605 X113.613 Y8.974 Z-1.191
N10610 X113.674 Y9.058 Z-1.252
N10615 X113.724 Y9.129 Z-1.296
N10620 X113.824 Y9.266 Z-1.372
N10625 X113.958 Y9.452 Z-1.465
N10630 X114.121 Y9.677 Z-1.57
N10635 X114.42 Y10.091 Z-1.754
N10640 X114.61 Y10.355 Z-1.876
N10645 X114.802 Y10.625 Z-2.011
N10650 X114.984 Y10.883 Z-2.151
N10655 X115.158 Y11.128 Z-2.294
N10660 X115.199 Y11.186 Z-2.329
N10665 X115.352 Y11.397 Z-2.466
N10670 X115.433 Y11.503 Z-2.54
N10675 X115.533 Y11.635 Z-2.636
N10680 X115.674 Y11.812 Z-2.774
N10685 X115.816 Y11.981 Z-2.917
N10690 X115.936 Y11.942 Z-2.866
N10695 X116.043 Y11.907 Z-2.827
N10700 X116.163 Y11.87 Z-2.789
N10705 X116.262 Y11.837 Z-2.762
N10710 X116.341 Y11.81 Z-2.744
N10715 X116.414 Y11.785 Z-2.73
N10720 X116.483 Y11.761 Z-2.721
N10725 X116.578 Y11.728 Z-2.712
N10730 X116.706 Y11.685 Z-2.708
N10735 X116.836 Y11.638 Z-2.712
N10740 X116.963 Y11.59 Z-2.726
N10745 X117.156 Y11.515 Z-2.764
N10750 X117.245 Y11.478 Z-2.787
N10755 X117.325 Y11.445 Z-2.812
N10760 X117.438 Y11.395 Z-2.853
N10765 X117.597 Y11.321 Z-2.917
N10770 X117.697 Y11.273 Z-2.963
N10775 X117.797 Y11.221 Z-3.012
N10780 X117.981 Y11.122 Z-3.113
N10785 X118.1 Y11.052 Z-3.184
N10790 X118.275 Y10.943 Z-3.297
N10795 X118.416 Y10.849 Z-3.395
N10800 X118.568 Y10.741 Z-3.507
N10805 X118.737 Y10.77 Z-3.482
N10810 X118.855 Y10.787 Z-3.465
N10815 X118.958 Y10.796 Z-3.45
N10820 X119.052 Y10.8 Z-3.434
N10825 X119.139 Y10.799 Z-3.419
N10830 X119.249 Y10.792 Z-3.398
N10835 X119.281 Y10.709 Z-3.313
N10840 X119.486 Y10.144 Z-2.73
N10845 X119.573 Y9.874 Z-2.455
N10850 X119.646 Y9.625 Z-2.205
N10855 X119.699 Y9.406 Z-1.987
N10860 X119.745 Y9.173 Z-1.76
N10865 X119.791 Y8.856 Z-1.453
N10870 X119.801 Y8.747 Z-1.346
N10875 X119.808 Y8.635 Z-1.236
N10880 X119.801 Y8.747 Z-1.346
N10885 X119.791 Y8.856 Z-1.453
N10890 X119.745 Y9.173 Z-1.76
N10895 X119.699 Y9.406 Z-1.987
N10900 X119.646 Y9.625 Z-2.205
N10905 X119.573 Y9.874 Z-2.455
N10910 X119.486 Y10.144 Z-2.73
N10915 X119.281 Y10.709 Z-3.313
N10920 X119.249 Y10.792 Z-3.398
N10925 X119.293 Y10.799 Z-3.377
N10930 X119.404 Y10.812 Z-3.323
N10935 X119.503 Y10.821 Z-3.269
N10940 X119.629 Y10.826 Z-3.192
N10945 X119.733 Z-3.121
N10950 X119.819 Y10.824 Z-3.055
N10955 X119.885 Y10.821 Z-3.
N10960 X119.93 Y10.819 Z-2.96
N10965 X119.978 Y10.817 Z-2.914
N10970 X119.93 Y10.819 Z-2.96
N10975 X119.885 Y10.821 Z-3.
N10980 X119.819 Y10.824 Z-3.055
N10985 X119.733 Y10.826 Z-3.121
N10990 X119.629 Z-3.192
N10995 X119.503 Y10.821 Z-3.269
N11000 X119.404 Y10.812 Z-3.323
N11005 X119.293 Y10.799 Z-3.377
N11010 X119.249 Y10.792 Z-3.398
N11015 X119.139 Y10.799 Z-3.419
N11020 X119.052 Y10.8 Z-3.434
N11025 X118.958 Y10.796 Z-3.45
N11030 X118.855 Y10.787 Z-3.465
N11035 X118.737 Y10.77 Z-3.482
N11040 X118.568 Y10.741 Z-3.507
N11045 X118.462 Y10.541 Z-3.356
N11050 X118.375 Y10.375 Z-3.24
N11055 X118.284 Y10.205 Z-3.13
N11060 X118.177 Y10.014 Z-3.015
N11065 X118.122 Y9.919 Z-2.962
N11070 X118.08 Y9.843 Z-2.924
N11075 X117.98 Y9.667 Z-2.84
N11080 X117.931 Y9.581 Z-2.801
N11085 X117.854 Y9.437 Z-2.743
N11090 X117.744 Y9.231 Z-2.665
N11095 X117.631 Y9.005 Z-2.592
N11100 X117.551 Y8.838 Z-2.542
N11105 X117.446 Y8.609 Z-2.48
N11110 X117.304 Y8.276 Z-2.401
N11115 X117.173 Y7.949 Z-2.334
N11120 X117.056 Y7.638 Z-2.279
N11125 X116.939 Y7.317 Z-2.229
N11130 X116.789 Y6.881 Z-2.17
N11135 X116.666 Y6.507 Z-2.126
N11140 X116.544 Y6.12 Z-2.086
N11145 X116.422 Y5.718 Z-2.052
N11150 X116.301 Y5.304 Z-2.022
N11155 X116.181 Y4.883 Z-1.996
N11160 X116.107 Y4.613 Z-1.983
N11165 X115.942 Y4.002 Z-1.96
N11170 X115.862 Y3.697 Z-1.952
N11175 X115.727 Y3.175 Z-1.945
N11180 X115.668 Y2.945
N11185 X115.582 Y2.613 Z-1.949
N11190 X115.527 Y2.407 Z-1.956
N11195 X115.488 Y2.274 Z-1.963
N11200 X115.445 Y2.141 Z-1.975
N11205 X115.394 Y2.002 Z-1.997
N11210 X115.352 Y1.905 Z-2.019
N11215 X115.293 Y1.785 Z-2.053
N11220 X115.235 Y1.683 Z-2.089
N11225 X115.171 Y1.582 Z-2.132
N11230 X115.1 Y1.483 Z-2.181
N11235 X115.023 Y1.384 Z-2.237
N11240 X114.957 Y1.306 Z-2.286
N11245 X114.895 Y1.237 Z-2.333
N11250 X114.753 Y1.09 Z-2.448
N11255 X114.638 Y0.981 Z-2.543
N11260 X114.514 Y0.874 Z-2.647
N11265 X114.382 Y0.769 Z-2.759
N11270 X114.242 Y0.665 Z-2.879
N11275 X114.094 Y0.562 Z-3.008
N11280 X114.149 Y0.252 Z-2.903
N11285 X114.157 Y0.204 Z-2.888
N11290 X114.264 Y-0.447 Z-2.696
N11295 X114.317 Y-0.831 Z-2.594
N11300 X114.357 Y-1.096 Z-2.528
N11305 X114.44 Y-1.748 Z-2.382
N11310 X114.452 Y-1.862 Z-2.359
N11315 X114.512 Y-2.404 Z-2.255
N11320 X114.569 Y-3.067 Z-2.143
N11325 X114.609 Y-3.737 Z-2.043
N11330 X114.634 Y-4.417 Z-1.954
N11335 X114.643 Y-5.108 Z-1.875
N11340 X114.64 Y-5.361 Z-1.851
N11345 X114.634 Y-5.809 Z-1.806
N11350 X114.608 Y-6.518 Z-1.747
N11355 X114.603 Y-6.61 Z-1.741
N11360 X114.565 Y-7.239 Z-1.697
N11365 X114.502 Y-7.968 Z-1.655
N11370 X114.461 Y-8.342 Z-1.639
N11375 X114.42 Y-8.707 Z-1.622
N11380 X114.396 Y-8.885 Z-1.617
N11385 X114.317 Y-9.453 Z-1.596
N11390 X114.191 Y-10.208 Z-1.577
N11395 X114.151 Y-10.42 Z-1.574
N11400 X114.042 Y-10.969 Z-1.564
N11405 X113.951 Y-11.373 Z-1.56
N11410 X113.867 Y-11.736 Z-1.555
N11415 X113.843 Y-11.832
N11420 X113.727 Y-12.278 Z-1.554
N11425 X113.668 Y-12.498 Z-1.551
N11430 X113.57 Y-12.844 Z-1.548
N11435 X113.475 Y-13.167 Z-1.546
N11440 X113.291 Y-13.754 Z-1.537
N11445 X113.204 Y-14.022 Z-1.534
N11450 X113.037 Y-14.497 Z-1.526
N11455 X112.933 Y-14.777 Z-1.525
N11460 X112.819 Y-15.06 Z-1.524
N11465 X112.742 Y-15.238 Z-1.528
N11470 X112.673 Y-15.388 Z-1.534
N11475 X112.594 Y-15.547 Z-1.547
N11480 X112.523 Y-15.67 Z-1.561
N11485 X112.479 Y-15.74 Z-1.572
N11490 X112.426 Y-15.817 Z-1.588
N11495 X112.385 Y-15.871 Z-1.603
N11500 X112.333 Y-15.935 Z-1.623
N11505 X112.237 Y-16.038 Z-1.669
N11510 X112.176 Y-16.097 Z-1.7
N11515 X112.11 Y-16.154 Z-1.736
N11520 X112.011 Y-16.228 Z-1.795
N11525 X111.967 Y-16.258 Z-1.821
N11530 X111.866 Y-16.323 Z-1.883
N11535 X111.757 Y-16.384 Z-1.953
N11540 X111.64 Y-16.44 Z-2.032
N11545 X111.459 Y-16.516 Z-2.161
N11550 X111.335 Y-16.563 Z-2.251
N11555 X111.204 Y-16.607 Z-2.349
N11560 X111.173 Y-16.699 Z-2.336
N11565 X111.008 Y-17.141 Z-2.272
N11570 X110.837 Y-17.577 Z-2.215
N11575 X110.66 Y-18.002 Z-2.165
N11580 X110.538 Y-18.29 Z-2.139
N11585 X110.474 Y-18.446 Z-2.128
N11590 X110.415 Y-18.59 Z-2.123
N11595 X110.355 Y-18.745 Z-2.12
N11600 X110.319 Y-18.845 Z-2.121
N11605 X110.267 Y-18.998 Z-2.131
N11610 X110.216 Y-19.169 Z-2.148
N11615 X110.187 Y-19.282 Z-2.164
N11620 X110.163 Y-19.385 Z-2.184
N11625 X110.14 Y-19.498 Z-2.209
N11630 X110.114 Y-19.673 Z-2.257
N11635 X110.105 Y-19.745 Z-2.279
N11640 X110.094 Y-19.85 Z-2.315
N11645 X110.084 Y-20.015 Z-2.379
N11650 X110.081 Y-20.102 Z-2.415
N11655 X110.08 Y-20.212 Z-2.464
N11660 X110.081 Y-20.102 Z-2.415
N11665 X110.084 Y-20.015 Z-2.379
N11670 X110.094 Y-19.85 Z-2.315
N11675 X110.105 Y-19.745 Z-2.279
N11680 X110.114 Y-19.673 Z-2.257
N11685 X110.14 Y-19.498 Z-2.209
N11690 X110.163 Y-19.385 Z-2.184
N11695 X110.187 Y-19.282 Z-2.164
N11700 X110.216 Y-19.169 Z-2.148
N11705 X110.267 Y-18.998 Z-2.131
N11710 X110.319 Y-18.845 Z-2.121
N11715 X110.355 Y-18.745 Z-2.12
N11720 X110.415 Y-18.59 Z-2.123
N11725 X110.474 Y-18.446 Z-2.128
N11730 X110.538 Y-18.29 Z-2.139
N11735 X110.66 Y-18.002 Z-2.165
N11740 X110.837 Y-17.577 Z-2.215
N11745 X111.008 Y-17.141 Z-2.272
N11750 X111.173 Y-16.699 Z-2.336
N11755 X111.204 Y-16.607 Z-2.349
N11760 X111.159 Y-16.505 Z-2.285
N11765 X111.118 Y-16.404 Z-2.226
N11770 X111.061 Y-16.246 Z-2.141
N11775 X111.031 Y-16.152 Z-2.094
N11780 X111.006 Y-16.068 Z-2.056
N11785 X110.967 Y-15.914 Z-1.994
N11790 X110.949 Y-15.829 Z-1.963
N11795 X110.921 Y-15.66 Z-1.91
N11800 X110.907 Y-15.556 Z-1.883
N11805 X110.891 Y-15.4 Z-1.848
N11810 X110.877 Y-15.193 Z-1.809
N11815 X110.869 Y-15.062 Z-1.788
N11820 X110.862 Y-14.888 Z-1.765
N11825 X110.856 Y-14.691 Z-1.741
N11830 X110.847 Y-14.265 Z-1.703
N11835 X110.841 Y-14.025 Z-1.688
N11840 X110.836 Y-13.767 Z-1.674
N11845 X110.823 Y-13.283 Z-1.656
N11850 X110.796 Y-12.678 Z-1.642
N11855 X110.77 Y-12.3 Z-1.633
N11860 X110.729 Y-11.799 Z-1.625
N11865 X110.66 Y-11.174 Z-1.618
N11870 X110.608 Y-10.779 Z-1.611
N11875 X110.565 Y-10.489 Z-1.61
N11880 X110.528 Y-10.26 Z-1.605
N11885 X110.438 Y-9.748 Z-1.598
N11890 X110.435 Y-9.736
N11895 X110.327 Y-9.205 Z-1.588
N11900 X110.202 Y-8.67 Z-1.574
N11905 X110.057 Y-8.13 Z-1.553
N11910 X109.924 Y-7.691 Z-1.531
N11915 X109.89 Y-7.588 Z-1.523
N11920 X109.773 Y-7.247 Z-1.499
N11925 X109.697 Y-7.044 Z-1.478
N11930 X109.618 Y-6.838 Z-1.459
N11935 X109.459 Y-6.462 Z-1.412
N11940 X109.293 Y-6.114 Z-1.355
N11945 X109.122 Y-5.791 Z-1.289
N11950 X108.93 Y-5.466 Z-1.202
N11955 X108.796 Y-5.247 Z-1.133
N11960 X108.745 Y-5.164 Z-1.103
N11965 X108.705 Y-5.098 Z-1.076
N11970 X108.678 Y-5.052 Z-1.053
N11975 X108.665 Y-5.032 Z-1.038
N11980 X108.662 Y-5.026 Z-1.033
N11985 X108.641 Y-4.997 Z-1.001
N11990 X108.662 Y-5.026 Z-1.033
N11995 X108.665 Y-4.992 Z-1.001
N12000 X108.662 Y-5.026 Z-1.033
N12005 X108.665 Y-5.032 Z-1.038
N12010 X108.678 Y-5.052 Z-1.053
N12015 X108.705 Y-5.098 Z-1.076
N12020 X108.745 Y-5.164 Z-1.103
N12025 X108.796 Y-5.247 Z-1.133
N12030 X108.93 Y-5.466 Z-1.202
N12035 X109.122 Y-5.791 Z-1.289
N12040 X109.293 Y-6.114 Z-1.355
N12045 X109.459 Y-6.462 Z-1.412
N12050 X109.618 Y-6.838 Z-1.459
N12055 X109.697 Y-7.044 Z-1.478
N12060 X109.773 Y-7.247 Z-1.499
N12065 X109.89 Y-7.588 Z-1.523
N12070 X109.924 Y-7.691 Z-1.531
N12075 X110.057 Y-8.13 Z-1.553
N12080 X110.202 Y-8.67 Z-1.574
N12085 X110.327 Y-9.205 Z-1.588
N12090 X110.435 Y-9.736 Z-1.598
N12095 X110.438 Y-9.748
N12100 X110.528 Y-10.26 Z-1.605
N12105 X110.565 Y-10.489 Z-1.61
N12110 X110.608 Y-10.779 Z-1.611
N12115 X110.66 Y-11.174 Z-1.618
N12120 X110.729 Y-11.799 Z-1.625
N12125 X110.77 Y-12.3 Z-1.633
N12130 X110.796 Y-12.678 Z-1.642
N12135 X110.823 Y-13.283 Z-1.656
N12140 X110.836 Y-13.767 Z-1.674
N12145 X110.841 Y-14.025 Z-1.688
N12150 X110.847 Y-14.265 Z-1.703
N12155 X110.856 Y-14.691 Z-1.741
N12160 X110.862 Y-14.888 Z-1.765
N12165 X110.869 Y-15.062 Z-1.788
N12170 X110.877 Y-15.193 Z-1.809
N12175 X110.891 Y-15.4 Z-1.848
N12180 X110.907 Y-15.556 Z-1.883
N12185 X110.921 Y-15.66 Z-1.91
N12190 X110.949 Y-15.829 Z-1.963
N12195 X110.967 Y-15.914 Z-1.994
N12200 X111.006 Y-16.068 Z-2.056
N12205 X111.031 Y-16.152 Z-2.094
N12210 X111.061 Y-16.246 Z-2.141
N12215 X111.118 Y-16.404 Z-2.226
N12220 X111.159 Y-16.505 Z-2.285
N12225 X111.204 Y-16.607 Z-2.349
N12230 X111.335 Y-16.563 Z-2.251
N12235 X111.459 Y-16.516 Z-2.161
N12240 X111.64 Y-16.44 Z-2.032
N12245 X111.757 Y-16.384 Z-1.953
N12250 X111.866 Y-16.323 Z-1.883
N12255 X111.967 Y-16.258 Z-1.821
N12260 X112.011 Y-16.228 Z-1.795
N12265 X112.11 Y-16.154 Z-1.736
N12270 X112.176 Y-16.097 Z-1.7
N12275 X112.237 Y-16.038 Z-1.669
N12280 X112.333 Y-15.935 Z-1.623
N12285 X112.385 Y-15.871 Z-1.603
N12290 X112.426 Y-15.817 Z-1.588
N12295 X112.479 Y-15.74 Z-1.572
N12300 X112.523 Y-15.67 Z-1.561
N12305 X112.594 Y-15.547 Z-1.547
N12310 X112.673 Y-15.388 Z-1.534
N12315 X112.742 Y-15.238 Z-1.528
N12320 X112.819 Y-15.06 Z-1.524
N12325 X112.933 Y-14.777 Z-1.525
N12330 X113.037 Y-14.497 Z-1.526
N12335 X113.204 Y-14.022 Z-1.534
N12340 X113.291 Y-13.754 Z-1.537
N12345 X113.475 Y-13.167 Z-1.546
N12350 X113.57 Y-12.844 Z-1.548
N12355 X113.668 Y-12.498 Z-1.551
N12360 X113.727 Y-12.278 Z-1.554
N12365 X113.843 Y-11.832 Z-1.555
N12370 X113.867 Y-11.736
N12375 X113.951 Y-11.373 Z-1.56
N12380 X114.042 Y-10.969 Z-1.564
N12385 X114.151 Y-10.42 Z-1.574
N12390 X114.191 Y-10.208 Z-1.577
N12395 X114.317 Y-9.453 Z-1.596
N12400 X114.396 Y-8.885 Z-1.617
N12405 X114.42 Y-8.707 Z-1.622
N12410 X114.461 Y-8.342 Z-1.639
N12415 X114.502 Y-7.968 Z-1.655
N12420 X114.565 Y-7.239 Z-1.697
N12425 X114.603 Y-6.61 Z-1.741
N12430 X114.608 Y-6.518 Z-1.747
N12435 X114.634 Y-5.809 Z-1.806
N12440 X114.64 Y-5.361 Z-1.851
N12445 X114.643 Y-5.108 Z-1.875
N12450 X114.634 Y-4.417 Z-1.954
N12455 X114.609 Y-3.737 Z-2.043
N12460 X114.569 Y-3.067 Z-2.143
N12465 X114.512 Y-2.404 Z-2.255
N12470 X114.452 Y-1.862 Z-2.359
N12475 X114.44 Y-1.748 Z-2.382
N12480 X114.357 Y-1.096 Z-2.528
N12485 X114.317 Y-0.831 Z-2.594
N12490 X114.264 Y-0.447 Z-2.696
N12495 X114.157 Y0.204 Z-2.888
N12500 X114.149 Y0.252 Z-2.903
N12505 X114.094 Y0.562 Z-3.008
N12510 X113.969 Y0.658 Z-2.947
N12515 X113.849 Y0.757 Z-2.892
N12520 X113.701 Y0.885 Z-2.835
N12525 X113.634 Y0.945 Z-2.813
N12530 X113.512 Y1.061 Z-2.775
N12535 X113.365 Y1.207 Z-2.733
N12540 X113.246 Y1.321 Z-2.705
N12545 X112.932 Y1.624 Z-2.64
N12550 X112.82 Y1.729 Z-2.621
N12555 X112.625 Y1.907 Z-2.595
N12560 X112.452 Y2.059 Z-2.567
N12565 X112.237 Y2.231 Z-2.536
N12570 X112. Y2.41 Z-2.506
N12575 X111.763 Y2.579 Z-2.481
N12580 X111.519 Y2.742 Z-2.46
N12585 X111.279 Y2.893 Z-2.445
N12590 X111.028 Y3.042 Z-2.435
N12595 X110.78 Y3.179 Z-2.43
N12600 X110.521 Y3.312 Z-2.431
N12605 X110.263 Y3.436 Z-2.439
N12610 X109.999 Y3.558 Z-2.457
N12615 X109.842 Y3.627 Z-2.473
N12620 X109.733 Y3.676 Z-2.486
N12625 X109.528 Y3.764 Z-2.517
N12630 X109.381 Y3.828 Z-2.543
N12635 X109.178 Y3.913 Z-2.586
N12640 X108.89 Y4.035 Z-2.661
N12645 X108.604 Y4.159 Z-2.755
N12650 X108.499 Y4.205 Z-2.794
N12655 X108.243 Y4.324 Z-2.902
N12660 X108.068 Y4.407 Z-2.986
N12665 X107.945 Y4.47 Z-3.05
N12670 X107.702 Y4.594 Z-3.187
N12675 X107.607 Y4.645 Z-3.244
N12680 X107.483 Y4.713 Z-3.323
N12685 X107.323 Y4.805 Z-3.433
N12690 X107.187 Y4.885 Z-3.529
N12695 X106.955 Y5.023 Z-3.701
N12700 X106.821 Y5.107 Z-3.807
N12705 X106.705 Y5.183 Z-3.901
N12710 X106.589 Y5.262 Z-3.998
N12715 X106.545 Y5.294 Z-4.035
N12720 X106.754 Y5.464 Z-3.803
N12725 X107.123 Y5.758 Z-3.401
N12730 X107.279 Y5.879 Z-3.239
N12735 X107.433 Y5.992 Z-3.085
N12740 X107.685 Y6.165 Z-2.845
N12745 X107.922 Y6.319 Z-2.634
N12750 X108.033 Y6.388 Z-2.538
N12755 X108.201 Y6.485 Z-2.401
N12760 X108.29 Y6.533 Z-2.333
N12765 X108.516 Y6.646 Z-2.171
N12770 X108.59 Y6.681 Z-2.12
N12775 X108.678 Y6.72 Z-2.062
N12780 X108.783 Y6.762 Z-1.999
N12785 X109.008 Y6.844 Z-1.869
N12790 X109.091 Y6.868 Z-1.827
N12795 X109.262 Y6.916 Z-1.742
N12800 X109.355 Y6.938 Z-1.699
N12805 X109.604 Y6.988 Z-1.591
N12810 X109.848 Y7.024 Z-1.493
N12815 X110.045 Y7.048 Z-1.413
N12820 X110.217 Y7.068 Z-1.337
N12825 X110.355 Y7.085 Z-1.269
N12830 X110.458 Y7.097 Z-1.208
N12835 X110.516 Y7.104 Z-1.167
N12840 X110.525 Z-1.16
N12845 X110.554 Y7.109 Z-1.134
N12850 X110.681 Y7.16 Z-1.001
N12855 X110.554 Y7.109 Z-1.134
N12860 X110.69 Y7.096 Z-1.001
N12865 X110.554 Y7.109 Z-1.134
N12870 X110.525 Y7.104 Z-1.16
N12875 X110.516 Z-1.167
N12880 X110.458 Y7.097 Z-1.208
N12885 X110.355 Y7.085 Z-1.269
N12890 X110.217 Y7.068 Z-1.337
N12895 X110.045 Y7.048 Z-1.413
N12900 X109.848 Y7.024 Z-1.493
N12905 X109.604 Y6.988 Z-1.591
N12910 X109.355 Y6.938 Z-1.699
N12915 X109.262 Y6.916 Z-1.742
N12920 X109.091 Y6.868 Z-1.827
N12925 X109.008 Y6.844 Z-1.869
N12930 X108.783 Y6.762 Z-1.999
N12935 X108.678 Y6.72 Z-2.062
N12940 X108.59 Y6.681 Z-2.12
N12945 X108.516 Y6.646 Z-2.171
N12950 X108.29 Y6.533 Z-2.333
N12955 X108.201 Y6.485 Z-2.401
N12960 X108.033 Y6.388 Z-2.538
N12965 X107.922 Y6.319 Z-2.634
N12970 X107.685 Y6.165 Z-2.845
N12975 X107.433 Y5.992 Z-3.085
N12980 X107.279 Y5.879 Z-3.239
N12985 X107.123 Y5.758 Z-3.401
N12990 X106.754 Y5.464 Z-3.803
N12995 X106.545 Y5.294 Z-4.035
N13000 X106.494 Y5.301 Z-4.047
N13005 X106.361 Y5.321 Z-4.077
N13010 X106.306 Y5.332 Z-4.089
N13015 X106.188 Y5.359 Z-4.113
N13020 X106.118 Y5.377 Z-4.124
N13025 X106.013 Y5.409 Z-4.138
N13030 X105.956 Y5.431 Z-4.142
N13035 X105.892 Y5.388 Z-4.079
N13040 X105.799 Y5.329 Z-3.982
N13045 X105.741 Y5.293 Z-3.917
N13050 X105.799 Y5.329 Z-3.982
N13055 X105.892 Y5.388 Z-4.079
N13060 X105.956 Y5.431 Z-4.142
N13065 X105.931 Y5.476 Z-4.112
N13070 X105.871 Y5.601 Z-4.029
N13075 X105.726 Y5.926 Z-3.811
N13080 X105.619 Y6.174 Z-3.653
N13085 X105.506 Y6.432 Z-3.499
N13090 X105.452 Y6.553 Z-3.431
N13095 X105.388 Y6.701 Z-3.353
N13100 X105.339 Y6.812 Z-3.297
N13105 X105.278 Y6.942 Z-3.236
N13110 X105.2 Y7.11 Z-3.163
N13115 X105.161 Y7.196 Z-3.131
N13120 X105.067 Y7.392 Z-3.065
N13125 X105.007 Y7.514 Z-3.029
N13130 X104.975 Y7.58 Z-3.014
N13135 X104.908 Y7.715 Z-2.989
N13140 X104.853 Y7.821 Z-2.972
N13145 X104.796 Y7.929 Z-2.96
N13150 X104.733 Y8.048 Z-2.956
N13155 X104.681 Y8.146 Z-2.958
N13160 X104.589 Y8.31 Z-2.968
N13165 X104.551 Y8.378 Z-2.976
N13170 X104.511 Y8.449 Z-2.988
N13175 X104.445 Y8.566 Z-3.014
N13180 X104.373 Y8.689 Z-3.045
N13185 X104.304 Y8.804 Z-3.081
N13190 X104.228 Y8.931 Z-3.129
N13195 X104.181 Y9.011 Z-3.163
N13200 X104.094 Y9.156 Z-3.228
N13205 X104.049 Y9.228 Z-3.263
N13210 X103.999 Y9.307 Z-3.305
N13215 X103.904 Y9.463 Z-3.393
N13220 X103.733 Y9.734 Z-3.562
N13225 X103.678 Y9.823 Z-3.621
N13230 X103.579 Y9.982 Z-3.732
N13235 X103.836 Y10.137 Z-3.494
N13240 X104.03 Y10.255 Z-3.317
N13245 X104.351 Y10.445 Z-3.04
N13250 X104.532 Y10.555 Z-2.887
N13255 X104.724 Y10.668 Z-2.734
N13260 X104.892 Y10.761 Z-2.608
N13265 X105.085 Y10.867 Z-2.469
N13270 X105.139 Y10.896 Z-2.433
N13275 X105.337 Y10.992 Z-2.309
N13280 X105.515 Y11.078 Z-2.203
N13285 X105.64 Y11.131 Z-2.137
N13290 X105.859 Y11.221 Z-2.029
N13295 X105.949 Y11.255 Z-1.989
N13300 X106.138 Y11.323 Z-1.911
N13305 X106.234 Y11.355 Z-1.874
N13310 X106.432 Y11.417 Z-1.806
N13315 X106.502 Y11.437 Z-1.784
N13320 X106.765 Y11.509 Z-1.709
N13325 X107.027 Y11.572 Z-1.648
N13330 X107.289 Y11.627 Z-1.598
N13335 X107.552 Y11.674 Z-1.558
N13340 X107.819 Y11.713 Z-1.527
N13345 X108.08 Y11.741 Z-1.503
N13350 X108.346 Y11.758 Z-1.487
N13355 X108.61 Y11.764 Z-1.478
N13360 X108.846 Y11.758 Z-1.476
N13365 X108.948 Y11.751 Z-1.479
N13370 X109.138 Y11.731 Z-1.482
N13375 X109.282 Y11.705 Z-1.487
N13380 X109.386 Y11.685 Z-1.484
N13385 X109.402 Z-1.48
N13390 X109.416 Y11.688 Z-1.473
N13395 X109.434 Y11.697 Z-1.459
N13400 X109.497 Y11.732 Z-1.404
N13405 X109.555 Y11.763 Z-1.349
N13410 X109.588 Y11.782 Z-1.314
N13415 X109.863 Y11.936 Z-1.001
N13420 X109.588 Y11.782 Z-1.314
N13425 X109.555 Y11.763 Z-1.349
N13430 X109.497 Y11.732 Z-1.404
N13435 X109.434 Y11.697 Z-1.459
N13440 X109.416 Y11.688 Z-1.473
N13445 X109.402 Y11.685 Z-1.48
N13450 X109.386 Z-1.484
N13455 X109.282 Y11.705 Z-1.487
N13460 X109.138 Y11.731 Z-1.482
N13465 X108.948 Y11.751 Z-1.479
N13470 X108.846 Y11.758 Z-1.476
N13475 X108.61 Y11.764 Z-1.478
N13480 X108.346 Y11.758 Z-1.487
N13485 X108.08 Y11.741 Z-1.503
N13490 X107.819 Y11.713 Z-1.527
N13495 X107.552 Y11.674 Z-1.558
N13500 X107.289 Y11.627 Z-1.598
N13505 X107.027 Y11.572 Z-1.648
N13510 X106.765 Y11.509 Z-1.709
N13515 X106.502 Y11.437 Z-1.784
N13520 X106.432 Y11.417 Z-1.806
N13525 X106.234 Y11.355 Z-1.874
N13530 X106.138 Y11.323 Z-1.911
N13535 X105.949 Y11.255 Z-1.989
N13540 X105.859 Y11.221 Z-2.029
N13545 X105.64 Y11.131 Z-2.137
N13550 X105.515 Y11.078 Z-2.203
N13555 X105.337 Y10.992 Z-2.309
N13560 X105.139 Y10.896 Z-2.433
N13565 X105.085 Y10.867 Z-2.469
N13570 X104.892 Y10.761 Z-2.608
N13575 X104.724 Y10.668 Z-2.734
N13580 X104.532 Y10.555 Z-2.887
N13585 X104.351 Y10.445 Z-3.04
N13590 X104.03 Y10.255 Z-3.317
N13595 X103.836 Y10.137 Z-3.494
N13600 X103.579 Y9.982 Z-3.732
N13605 X103.515 Y10.009 Z-3.734
N13610 X103.341 Y10.08 Z-3.744
N13615 X103.179 Y10.147 Z-3.759
N13620 X103.061 Y10.199 Z-3.774
N13625 X102.915 Y10.155 Z-3.692
N13630 X102.834 Y10.124 Z-3.641
N13635 X102.776 Y10.098 Z-3.6
N13640 X102.715 Y10.065 Z-3.551
N13645 X102.656 Y10.027 Z-3.496
N13650 X102.603 Y9.988 Z-3.438
N13655 X102.585 Y9.975 Z-3.416
N13660 X102.603 Y9.988 Z-3.438
N13665 X102.656 Y10.027 Z-3.496
N13670 X102.715 Y10.065 Z-3.551
N13675 X102.776 Y10.098 Z-3.6
N13680 X102.834 Y10.124 Z-3.641
N13685 X102.915 Y10.155 Z-3.692
N13690 X103.061 Y10.199 Z-3.774
N13695 X103.051 Y10.262 Z-3.724
N13700 X103.008 Y10.565 Z-3.493
N13705 X102.989 Y10.707 Z-3.389
N13710 X102.95 Y10.99 Z-3.189
N13715 X102.935 Y11.103 Z-3.113
N13720 X102.914 Y11.268 Z-3.008
N13725 X102.896 Y11.395 Z-2.93
N13730 X102.871 Y11.595 Z-2.818
N13735 X102.858 Y11.692 Z-2.768
N13740 X102.846 Y11.776 Z-2.727
N13745 X102.835 Y11.851 Z-2.693
N13750 X102.815 Y12.007 Z-2.629
N13755 X102.803 Y12.091 Z-2.599
N13760 X102.787 Y12.199 Z-2.564
N13765 X102.773 Y12.294 Z-2.539
N13770 X102.764 Y12.358 Z-2.525
N13775 X102.743 Y12.498 Z-2.5
N13780 X102.733 Y12.564 Z-2.492
N13785 X102.714 Y12.686 Z-2.485
N13790 X102.695 Y12.8
N13795 X102.675 Y12.922 Z-2.492
N13800 X102.658 Y13.029 Z-2.507
N13805 X102.641 Y13.128 Z-2.526
N13810 X102.615 Y13.278 Z-2.562
N13815 X102.587 Y13.44 Z-2.615
N13820 X102.568 Y13.541 Z-2.653
N13825 X102.553 Y13.624 Z-2.688
N13830 X102.525 Y13.78 Z-2.759
N13835 X102.503 Y13.896 Z-2.818
N13840 X102.484 Y14.001 Z-2.875
N13845 X102.455 Y14.159 Z-2.965
N13850 X102.419 Y14.348 Z-3.082
N13855 X102.651 Y14.388 Z-2.9
N13860 X102.722 Y14.402 Z-2.845
N13865 X102.863 Y14.427 Z-2.74
N13870 X103.068 Y14.46 Z-2.589
N13875 X103.198 Y14.48 Z-2.497
N13880 X103.471 Y14.52 Z-2.311
N13885 X103.655 Y14.545 Z-2.189
N13890 X103.734 Y14.557 Z-2.139
N13895 X104.026 Y14.593 Z-1.96
N13900 X104.39 Y14.639 Z-1.748
N13905 X104.685 Y14.679 Z-1.58
N13910 X104.872 Y14.704 Z-1.47
N13915 X105.021 Y14.725 Z-1.378
N13920 X105.137 Y14.741 Z-1.302
N13925 X105.219 Y14.753 Z-1.24
N13930 X105.269 Y14.761 Z-1.197
N13935 X105.289 Y14.765 Z-1.178
N13940 X105.269 Y14.761 Z-1.197
N13945 X105.219 Y14.753 Z-1.24
N13950 X105.137 Y14.741 Z-1.302
N13955 X105.021 Y14.725 Z-1.378
N13960 X104.872 Y14.704 Z-1.47
N13965 X104.685 Y14.679 Z-1.58
N13970 X104.39 Y14.639 Z-1.748
N13975 X104.026 Y14.593 Z-1.96
N13980 X103.734 Y14.557 Z-2.139
N13985 X103.655 Y14.545 Z-2.189
N13990 X103.471 Y14.52 Z-2.311
N13995 X103.198 Y14.48 Z-2.497
N14000 X103.068 Y14.46 Z-2.589
N14005 X102.863 Y14.427 Z-2.74
N14010 X102.722 Y14.402 Z-2.845
N14015 X102.651 Y14.388 Z-2.9
N14020 X102.419 Y14.348 Z-3.082
N14025 X102.303 Y14.448 Z-3.083
N14030 X102.194 Y14.54 Z-3.09
N14035 X102.028 Y14.681 Z-3.109
N14040 X101.95 Y14.747 Z-3.121
N14045 X101.826 Y14.856 Z-3.145
N14050 X101.649 Y15.01 Z-3.185
N14055 X101.495 Y15.153 Z-3.23
N14060 X101.368 Y15.277 Z-3.267
N14065 X101.286 Y15.363 Z-3.296
N14070 X101.157 Y15.514 Z-3.338
N14075 X101.032 Y15.681 Z-3.379
N14080 X100.945 Y15.819 Z-3.409
N14085 X100.877 Y15.941 Z-3.43
N14090 X100.827 Y16.048 Z-3.443
N14095 X100.791 Y16.142 Z-3.452
N14100 X100.767 Y16.224 Z-3.457
N14105 X100.75 Y16.296 Z-3.458
N14110 X100.739 Y16.361 Z-3.455
N14115 X100.732 Y16.426 Z-3.449
N14120 X100.729 Y16.494 Z-3.44
N14125 X100.731 Y16.571 Z-3.426
N14130 X100.743 Y16.695 Z-3.399
N14135 X100.758 Y16.774 Z-3.379
N14140 X100.802 Y16.948 Z-3.329
N14145 X100.859 Y17.139 Z-3.272
N14150 X100.931 Y17.353 Z-3.22
N14155 X101.015 Y17.586 Z-3.173
N14160 X101.045 Y17.666 Z-3.16
N14165 X101.103 Y17.812 Z-3.142
N14170 X101.191 Y18.024 Z-3.129
N14175 X101.234 Y18.127 Z-3.126
N14180 X101.311 Y18.305 Z-3.133
N14185 X101.36 Y18.412 Z-3.144
N14190 X101.418 Y18.542 Z-3.162
N14195 X101.481 Y18.683 Z-3.186
N14200 X101.529 Y18.79 Z-3.211
N14205 X101.579 Y18.898 Z-3.241
N14210 X101.658 Y19.068 Z-3.296
N14215 X101.738 Y19.245 Z-3.362
N14220 X101.788 Y19.35 Z-3.406
N14225 X101.858 Y19.505 Z-3.477
N14230 X101.873 Y19.541 Z-3.494
N14235 X101.949 Y19.711 Z-3.578
N14240 X102.03 Y19.893 Z-3.678
N14245 X102.137 Y20.136 Z-3.818
N14250 X102.192 Y20.262 Z-3.897
N14255 Z5.
N14260 X135.618 Y24.347
N14265 Z4.
N14270 Z-1.997
N14275 X135.646 Y24.373 Z-2.035
N14280 X135.682 Y24.404 Z-2.08
N14285 X135.749 Y24.46 Z-2.158
N14290 X135.845 Y24.539 Z-2.261
N14295 X135.925 Y24.604 Z-2.339
N14300 X136.029 Y24.69 Z-2.434
N14305 X136.132 Y24.77 Z-2.522
N14310 X136.193 Y24.815 Z-2.573
N14315 X136.36 Y24.93 Z-2.706
N14320 X136.5 Y25.018 Z-2.813
N14325 X136.664 Y25.112 Z-2.936
N14330 X136.831 Y25.201 Z-3.059
N14335 X137.013 Y25.287 Z-3.19
N14340 X137.225 Y25.379 Z-3.343
N14345 X137.397 Y25.446 Z-3.467
N14350 X137.608 Y25.52 Z-3.617
N14355 X137.797 Y25.579 Z-3.754
N14360 X137.902 Y25.61 Z-3.83
N14365 X137.903 Y25.635 Z-3.82
N14370 X137.918 Y25.809 Z-3.742
N14375 X137.953 Y26.094 Z-3.624
N14380 X137.981 Y26.255 Z-3.557
N14385 X138.032 Y26.502 Z-3.464
N14390 X138.051 Y26.583 Z-3.435
N14395 X138.082 Y26.702 Z-3.391
N14400 X138.159 Y26.959 Z-3.304
N14405 X138.202 Y27.091 Z-3.261
N14410 X138.262 Y27.251 Z-3.212
N14415 X138.361 Y27.497 Z-3.141
N14420 X138.409 Y27.608 Z-3.112
N14425 X138.478 Y27.754 Z-3.073
N14430 X138.548 Y27.896 Z-3.037
N14435 X138.697 Y28.177 Z-2.972
N14440 X138.851 Y28.446 Z-2.914
N14445 X139.016 Y28.714 Z-2.86
N14450 X139.189 Y28.979 Z-2.81
N14455 X139.368 Y29.239 Z-2.763
N14460 X139.562 Y29.51 Z-2.715
N14465 X139.762 Y29.779 Z-2.669
N14470 X139.975 Y30.053 Z-2.622
N14475 X140.178 Y30.306 Z-2.58
N14480 X140.428 Y30.608 Z-2.53
N14485 X140.517 Y30.713 Z-2.514
N14490 X140.676 Y30.896 Z-2.482
N14495 X140.964 Y31.22 Z-2.43
N14500 X141.181 Y31.457 Z-2.387
N14505 X141.43 Y31.723 Z-2.344
N14510 X141.715 Y32.017 Z-2.29
N14515 X141.913 Y32.216 Z-2.256
N14520 X142.275 Y32.57 Z-2.19
N14525 X142.411 Y32.699 Z-2.167
N14530 X142.924 Y33.169 Z-2.077
N14535 X143.45 Y33.625 Z-1.984
N14540 X144.029 Y34.094 Z-1.885
N14545 X144.327 Y34.322 Z-1.833
N14550 X144.622 Y34.541 Z-1.785
N14555 X144.916 Y34.747 Z-1.736
N14560 X144.95 Y34.77 Z-1.731
N14565 X145.206 Y34.939 Z-1.688
N14570 X145.335 Y35.021 Z-1.667
N14575 X145.517 Y35.133 Z-1.636
N14580 X145.762 Y35.274 Z-1.593
N14585 X145.953 Y35.38 Z-1.558
N14590 X146.12 Y35.472 Z-1.521
N14595 X146.146 Y35.487 Z-1.514
N14600 X146.276 Y35.559 Z-1.479
N14605 X146.403 Y35.627 Z-1.44
N14610 X146.521 Y35.691 Z-1.398
N14615 X146.622 Y35.746 Z-1.355
N14620 X146.705 Y35.791 Z-1.313
N14625 X146.775 Y35.829 Z-1.272
N14630 X146.829 Y35.858 Z-1.233
N14635 X146.87 Y35.88 Z-1.199
N14640 X146.896 Y35.893 Z-1.173
N14645 X146.901 Y35.896 Z-1.168
N14650 X146.896 Y35.893 Z-1.173
N14655 X146.87 Y35.88 Z-1.199
N14660 X146.829 Y35.858 Z-1.233
N14665 X146.775 Y35.829 Z-1.272
N14670 X146.705 Y35.791 Z-1.313
N14675 X146.622 Y35.746 Z-1.355
N14680 X146.521 Y35.691 Z-1.398
N14685 X146.403 Y35.627 Z-1.44
N14690 X146.276 Y35.559 Z-1.479
N14695 X146.146 Y35.487 Z-1.514
N14700 X146.12 Y35.472 Z-1.521
N14705 X145.953 Y35.38 Z-1.558
N14710 X145.762 Y35.274 Z-1.593
N14715 X145.517 Y35.133 Z-1.636
N14720 X145.335 Y35.021 Z-1.667
N14725 X145.206 Y34.939 Z-1.688
N14730 X144.95 Y34.77 Z-1.731
N14735 X144.916 Y34.747 Z-1.736
N14740 X144.622 Y34.541 Z-1.785
N14745 X144.327 Y34.322 Z-1.833
N14750 X144.029 Y34.094 Z-1.885
N14755 X143.45 Y33.625 Z-1.984
N14760 X142.924 Y33.169 Z-2.077
N14765 X142.411 Y32.699 Z-2.167
N14770 X142.275 Y32.57 Z-2.19
N14775 X141.913 Y32.216 Z-2.256
N14780 X141.715 Y32.017 Z-2.29
N14785 X141.43 Y31.723 Z-2.344
N14790 X141.181 Y31.457 Z-2.387
N14795 X140.964 Y31.22 Z-2.43
N14800 X140.676 Y30.896 Z-2.482
N14805 X140.517 Y30.713 Z-2.514
N14810 X140.428 Y30.608 Z-2.53
N14815 X140.178 Y30.306 Z-2.58
N14820 X139.975 Y30.053 Z-2.622
N14825 X139.762 Y29.779 Z-2.669
N14830 X139.562 Y29.51 Z-2.715
N14835 X139.368 Y29.239 Z-2.763
N14840 X139.189 Y28.979 Z-2.81
N14845 X139.016 Y28.714 Z-2.86
N14850 X138.851 Y28.446 Z-2.914
N14855 X138.697 Y28.177 Z-2.972
N14860 X138.548 Y27.896 Z-3.037
N14865 X138.478 Y27.754 Z-3.073
N14870 X138.409 Y27.608 Z-3.112
N14875 X138.361 Y27.497 Z-3.141
N14880 X138.262 Y27.251 Z-3.212
N14885 X138.202 Y27.091 Z-3.261
N14890 X138.159 Y26.959 Z-3.304
N14895 X138.082 Y26.702 Z-3.391
N14900 X138.051 Y26.583 Z-3.435
N14905 X138.032 Y26.502 Z-3.464
N14910 X137.981 Y26.255 Z-3.557
N14915 X137.953 Y26.094 Z-3.624
N14920 X137.918 Y25.809 Z-3.742
N14925 X137.903 Y25.635 Z-3.82
N14930 X137.902 Y25.61 Z-3.83
N14935 X137.998 Y25.507 Z-3.786
N14940 X138.081 Y25.415 Z-3.751
N14945 X138.171 Y25.316 Z-3.719
N14950 X138.239 Y25.243 Z-3.699
N14955 X138.374 Y25.099 Z-3.667
N14960 X138.475 Y24.99 Z-3.65
N14965 X138.597 Y24.86 Z-3.639
N14970 X138.657 Y24.798 Z-3.638
N14975 X138.775 Y24.674 Z-3.643
N14980 X138.844 Y24.602 Z-3.65
N14985 X138.944 Y24.499 Z-3.664
N14990 X139.053 Y24.388 Z-3.688
N14995 X139.171 Y24.27 Z-3.721
N15000 X139.213 Y24.228 Z-3.734
N15005 X139.306 Y24.134 Z-3.768
N15010 X139.397 Y24.045 Z-3.804
N15015 X139.474 Y23.97 Z-3.838
N15020 X139.578 Y23.87 Z-3.889
N15025 X139.532 Y23.618 Z-3.745
N15030 X139.482 Y23.391 Z-3.614
N15035 X139.446 Y23.238 Z-3.527
N15040 X139.352 Y22.896 Z-3.331
N15045 X139.257 Y22.594 Z-3.154
N15050 X139.231 Y22.519 Z-3.107
N15055 X139.163 Y22.319 Z-2.982
N15060 X139.125 Y22.2 Z-2.899
N15065 X139.091 Y22.094 Z-2.817
N15070 X139.063 Y22.009 Z-2.746
N15075 X139.027 Y21.897 Z-2.642
N15080 X139.014 Y21.856 Z-2.6
N15085 X139.009 Y21.842 Z-2.586
N15090 X139.014 Y21.856 Z-2.6
N15095 X139.027 Y21.897 Z-2.642
N15100 X139.063 Y22.009 Z-2.746
N15105 X139.091 Y22.094 Z-2.817
N15110 X139.125 Y22.2 Z-2.899
N15115 X139.163 Y22.319 Z-2.982
N15120 X139.231 Y22.519 Z-3.107
N15125 X139.257 Y22.594 Z-3.154
N15130 X139.352 Y22.896 Z-3.331
N15135 X139.446 Y23.238 Z-3.527
N15140 X139.482 Y23.391 Z-3.614
N15145 X139.532 Y23.618 Z-3.745
N15150 X139.578 Y23.87 Z-3.889
N15155 X139.74 Y23.905 Z-3.799
N15160 X139.887 Y23.942 Z-3.716
N15165 X140.031 Y23.982 Z-3.638
N15170 X140.172 Y24.024 Z-3.563
N15175 X140.317 Y24.074 Z-3.487
N15180 X140.467 Y24.128 Z-3.41
N15185 X140.613 Y24.186 Z-3.339
N15190 X140.766 Y24.253 Z-3.265
N15195 X140.903 Y24.317 Z-3.201
N15200 X141.106 Y24.422 Z-3.111
N15205 X141.246 Y24.5 Z-3.051
N15210 X141.38 Y24.583 Z-2.997
N15215 X141.53 Y24.679 Z-2.939
N15220 X141.646 Y24.758 Z-2.895
N15225 X141.759 Y24.84 Z-2.855
N15230 X141.99 Y25.018 Z-2.777
N15235 X142.058 Y25.075 Z-2.756
N15240 X142.275 Y25.26 Z-2.691
N15245 X142.327 Y25.307 Z-2.676
N15250 X142.584 Y25.549 Z-2.605
N15255 X142.787 Y25.752 Z-2.553
N15260 X142.837 Y25.804 Z-2.541
N15265 X143.085 Y26.067 Z-2.482
N15270 X143.363 Y26.377 Z-2.419
N15275 X143.594 Y26.648 Z-2.366
N15280 X143.852 Y26.961 Z-2.31
N15285 X144.112 Y27.285 Z-2.257
N15290 X144.37 Y27.625 Z-2.201
N15295 X144.685 Y28.048 Z-2.139
N15300 X144.895 Y28.344 Z-2.095
N15305 X144.982 Y28.47 Z-2.079
N15310 X145.376 Y29.056 Z-1.994
N15315 X145.397 Y29.089 Z-1.989
N15320 X145.545 Y29.323 Z-1.96
N15325 X145.869 Y29.846 Z-1.887
N15330 X146.091 Y30.23 Z-1.837
N15335 X146.305 Y30.616 Z-1.787
N15340 X146.504 Y30.999 Z-1.738
N15345 X146.688 Y31.377 Z-1.69
N15350 X146.857 Y31.751 Z-1.643
N15355 X147.006 Y32.118 Z-1.596
N15360 X147.134 Y32.475 Z-1.551
N15365 X147.213 Y32.73 Z-1.52
N15370 X147.239 Y32.824 Z-1.506
N15375 X147.29 Y33.025 Z-1.481
N15380 X147.318 Y33.158 Z-1.461
N15385 X147.343 Y33.296 Z-1.444
N15390 X147.366 Y33.458 Z-1.417
N15395 X147.382 Y33.617 Z-1.386
N15400 X147.394 Y33.744 Z-1.35
N15405 X147.404 Y33.848 Z-1.309
N15410 X147.412 Y33.929 Z-1.267
N15415 X147.417 Y33.988 Z-1.229
N15420 X147.42 Y34.015 Z-1.207
N15425 Y34.024 Z-1.199
N15430 X147.422 Y34.037 Z-1.187
N15435 Z5.
N15440 X148.988 Y32.254
N15445 Z4.
N15450 Z-1.128
N15455 Y32.253
N15460 X148.984 Y32.237 Z-1.143
N15465 X148.969 Y32.174 Z-1.19
N15470 X148.957 Y32.125 Z-1.22
N15475 X148.943 Y32.065 Z-1.252
N15480 X148.926 Y31.993 Z-1.285
N15485 X148.906 Y31.91 Z-1.318
N15490 X148.884 Y31.816 Z-1.353
N15495 X148.859 Y31.71 Z-1.387
N15500 X148.828 Y31.575 Z-1.427
N15505 X148.769 Y31.324 Z-1.491
N15510 X148.734 Y31.175 Z-1.525
N15515 X148.658 Y30.846 Z-1.592
N15520 X148.583 Y30.518 Z-1.648
N15525 X148.515 Y30.187 Z-1.697
N15530 X148.469 Y29.943 Z-1.729
N15535 X148.399 Y29.511 Z-1.784
N15540 X148.354 Y29.166 Z-1.824
N15545 X148.315 Y28.816 Z-1.861
N15550 X148.281 Y28.464 Z-1.893
N15555 X148.257 Y28.108 Z-1.923
N15560 X148.244 Y27.84 Z-1.943
N15565 X148.229 Y27.384 Z-1.975
N15570 X148.227 Y27.02 Z-1.998
N15575 X148.23 Y26.792 Z-2.009
N15580 X148.243 Y26.319 Z-2.033
N15585 X148.265 Y25.911 Z-2.051
N15590 X148.294 Y25.54 Z-2.066
N15595 X148.307 Y25.399 Z-2.07
