%
(CLAMP)
(MACHINE)
(  VENDOR AUTODESK)
(  DESCRIPTION GENERIC 3-AXIS)
(T1  D=3.175 CR=0. - ZMIN=0. - FLAT END MILL)
N10 G90 G94 G17 G91.1
N15 G21
(WHEN USING FUSION 360 FOR PERSONAL USE, THE FEEDRATE OF)
(RAPID MOVES IS REDUCED TO MATCH THE FEEDRATE OF CUTTING)
(MOVES, WHICH CAN INCREASE MACHINING TIME. UNRESTRICTED RAPID)
(MOVES ARE AVAILABLE WITH A FUSION 360 SUBSCRIPTION.)
N20 G53 G0 Z0.
(2D POCKET1)
N25 T1 M6
N30 S5000 M3
N35 G54
N40 M8
N45 G0 X0.273 Y128.562
N50 G43 Z35.05 H1
N55 G1 Z25.05 F1000.
N60 Z16.368
N65 G18 G2 X0.591 Z16.05 I0.318 K0.
N70 G1 X6.482
N75 X35.612
N80 G17 G3 Y129.833 I0. J0.636
N85 G1 X21.047
N90 X6.482 Y129.197
N95 G3 X6.065 Y129.017 I0.028 J-0.635
N100 G1 X4.136 Y127.131
N105 G3 X4.581 Y126.041 I0.444 J-0.454
N110 G1 X37.506 Y126.064
N115 G3 X37.505 Y127.335 I0. J0.636
N120 G1 X21.042 Y127.323
N125 X4.58 Y126.676
N130 G3 X4.017 Y126.282 I0.025 J-0.635
N135 G1 X3.235 Y124.376
N140 G3 X3.823 Y123.499 I0.588 J-0.241
N145 G1 X37.983 Y123.522
N150 X38.278
N155 G3 X38.914 Y124.157 I0.001 J0.636
N160 X38.278 Y124.793 I-0.636 J0.
N165 G1 X21.05 Y124.782
N170 X3.823 Y124.134
N175 G3 X3.228 Y123.644 I0.024 J-0.635
N180 G1 X2.776 Y121.715
N185 G3 X3.395 Y120.935 I0.619 J-0.145
N190 G1 X38.712
N195 G3 Y122.206 I0. J0.636
N200 G1 X21.053
N205 X3.395 Y121.57
N210 G3 X2.799 Y121.08 I0.023 J-0.635
N215 G1 X2.353 Y119.167
N220 G3 X2.972 Y118.387 I0.619 J-0.144
N225 G1 X37.983
N230 X39.127
N235 G3 X39.181 Y118.78 I0. J0.2
N240 G1 X5.78 Y128.169
N245 G2 X5.834 Y128.562 I0.054 J0.193
N250 G18 G3 X6.152 Z15.733 I0. K-0.317
N255 G1 Z13.517
N260 G2 X6.469 Z13.2 I0.318 K0.
N265 G1 X6.482
N270 X35.612
N275 G17 G3 Y129.833 I0. J0.636
N280 G1 X21.047
N285 X6.482 Y129.197
N290 G3 X6.065 Y129.017 I0.028 J-0.635
N295 G1 X4.136 Y127.131
N300 G3 X4.581 Y126.041 I0.444 J-0.454
N305 G1 X37.506 Y126.064
N310 G3 X37.505 Y127.335 I0. J0.636
N315 G1 X21.042 Y127.323
N320 X4.58 Y126.676
N325 G3 X4.017 Y126.282 I0.025 J-0.635
N330 G1 X3.235 Y124.376
N335 G3 X3.823 Y123.499 I0.588 J-0.241
N340 G1 X37.983 Y123.522
N345 X38.278
N350 G3 X38.914 Y124.157 I0.001 J0.636
N355 X38.278 Y124.793 I-0.636 J0.
N360 G1 X21.05 Y124.782
N365 X3.823 Y124.134
N370 G3 X3.228 Y123.644 I0.024 J-0.635
N375 G1 X2.776 Y121.715
N380 G3 X3.395 Y120.935 I0.619 J-0.145
N385 G1 X38.712
N390 G3 Y122.206 I0. J0.636
N395 G1 X21.053
N400 X3.395 Y121.57
N405 G3 X2.799 Y121.08 I0.023 J-0.635
N410 G1 X2.353 Y119.167
N415 G3 X2.972 Y118.387 I0.619 J-0.144
N420 G1 X37.983
N425 X39.127
N430 X39.177 Y118.391
N435 X40.745 Y118.64
N440 X40.814 Y118.651 Z13.208
N445 X40.881 Y118.661 Z13.231
N450 X40.94 Y118.671 Z13.269
N455 X40.99 Y118.679 Z13.32
N460 X41.027 Y118.684 Z13.38
N465 X41.05 Y118.688 Z13.447
N470 X41.058 Y118.689 Z13.517
N475 Z35.05
(WHEN USING FUSION 360 FOR PERSONAL USE, THE FEEDRATE OF)
(RAPID MOVES IS REDUCED TO MATCH THE FEEDRATE OF CUTTING)
(MOVES, WHICH CAN INCREASE MACHINING TIME. UNRESTRICTED RAPID)
(MOVES ARE AVAILABLE WITH A FUSION 360 SUBSCRIPTION.)
(2D POCKET2)
N480 G0 X20.191 Y22.289
N485 G1 Z35.05 F1000.
N490 Z25.05
N495 Z22.867
N500 X20.179 Y22.281 Z22.773 F333.33
N505 X20.145 Y22.257 Z22.687
N510 X20.06 Y22.188 Z22.589
N515 X19.958 Y22.09 Z22.55
N520 G3 X22.142 Y20.01 Z22.385 I1.092 J-1.04
N525 X19.958 Y22.09 Z22.219 I-1.092 J1.04
N530 X22.142 Y20.01 Z22.054 I1.092 J-1.04
N535 X19.958 Y22.09 Z21.888 I-1.092 J1.04
N540 X22.142 Y20.01 Z21.723 I1.092 J-1.04
N545 X19.958 Y22.09 Z21.557 I-1.092 J1.04
N550 X22.142 Y20.01 Z21.392 I1.092 J-1.04
N555 X19.958 Y22.09 Z21.226 I-1.092 J1.04
N560 X22.142 Y20.01 Z21.061 I1.092 J-1.04
N565 X19.958 Y22.09 Z20.895 I-1.092 J1.04
N570 X22.142 Y20.01 Z20.73 I1.092 J-1.04
N575 X19.958 Y22.09 Z20.565 I-1.092 J1.04
N580 X22.142 Y20.01 Z20.399 I1.092 J-1.04
N585 X19.958 Y22.09 Z20.234 I-1.092 J1.04
N590 X22.142 Y20.01 Z20.068 I1.092 J-1.04
N595 X19.958 Y22.09 Z19.903 I-1.092 J1.04
N600 X22.142 Y20.01 Z19.737 I1.092 J-1.04
N605 X19.958 Y22.09 Z19.572 I-1.092 J1.04
N610 X22.142 Y20.01 Z19.406 I1.092 J-1.04
N615 X19.958 Y22.09 Z19.241 I-1.092 J1.04
N620 X22.142 Y20.01 Z19.076 I1.092 J-1.04
N625 X19.958 Y22.09 Z18.91 I-1.092 J1.04
N630 X22.142 Y20.01 Z18.745 I1.092 J-1.04
N635 X19.958 Y22.09 Z18.579 I-1.092 J1.04
N640 X22.142 Y20.01 Z18.414 I1.092 J-1.04
N645 X19.958 Y22.09 Z18.248 I-1.092 J1.04
N650 X22.142 Y20.01 Z18.083 I1.092 J-1.04
N655 X19.958 Y22.09 Z17.917 I-1.092 J1.04
N660 X22.142 Y20.01 Z17.752 I1.092 J-1.04
N665 X19.958 Y22.09 Z17.586 I-1.092 J1.04
N670 X22.142 Y20.01 Z17.421 I1.092 J-1.04
N675 X19.958 Y22.09 Z17.256 I-1.092 J1.04
N680 X22.142 Y20.01 Z17.09 I1.092 J-1.04
N685 X22.558 Y21.05 Z17.05 I-1.092 J1.04
N690 G1 X22.551 Y21.073
N695 X22.531 Y21.088
N700 X22.506
N705 X22.486 Y21.073
N710 X22.479 Y21.05
N715 X22.487 Y21.016 F1000.
N720 X22.509 Y20.988
N725 X22.54 Y20.973
N730 X22.576
N735 X22.608 Y20.988
N740 X22.63 Y21.016
N745 X22.638 Y21.05
N750 G3 X19.462 I-1.588 J0.
N755 X22.638 I1.588 J0.
N760 X22.325 Y21.104 I-0.161 J0.
N765 G1 X22.131 Y20.56
N770 G3 X22.43 Y20.442 I0.151 J-0.054
N775 X19.67 Y21.658 Z16.885 I-1.38 J0.608 F333.33
N780 X22.43 Y20.442 Z16.719 I1.38 J-0.608
N785 X19.67 Y21.658 Z16.554 I-1.38 J0.608
N790 X22.43 Y20.442 Z16.388 I1.38 J-0.608
N795 X19.67 Y21.658 Z16.223 I-1.38 J0.608
N800 X22.43 Y20.442 Z16.057 I1.38 J-0.608
N805 X19.67 Y21.658 Z15.892 I-1.38 J0.608
N810 X22.43 Y20.442 Z15.726 I1.38 J-0.608
N815 X19.67 Y21.658 Z15.561 I-1.38 J0.608
N820 X22.43 Y20.442 Z15.395 I1.38 J-0.608
N825 X19.67 Y21.658 Z15.23 I-1.38 J0.608
N830 X22.43 Y20.442 Z15.065 I1.38 J-0.608
N835 X19.67 Y21.658 Z14.899 I-1.38 J0.608
N840 X22.43 Y20.442 Z14.734 I1.38 J-0.608
N845 X19.67 Y21.658 Z14.568 I-1.38 J0.608
N850 X22.43 Y20.442 Z14.403 I1.38 J-0.608
N855 X19.67 Y21.658 Z14.237 I-1.38 J0.608
N860 X22.43 Y20.442 Z14.072 I1.38 J-0.608
N865 X22.558 Y21.05 Z14.05 I-1.38 J0.608
N870 G1 X22.551 Y21.073
N875 X22.531 Y21.088
N880 X22.506
N885 X22.486 Y21.073
N890 X22.479 Y21.05
N895 X22.487 Y21.016 F1000.
N900 X22.509 Y20.988
N905 X22.54 Y20.973
N910 X22.576
N915 X22.608 Y20.988
N920 X22.63 Y21.016
N925 X22.638 Y21.05
N930 G3 X19.462 I-1.588 J0.
N935 X22.638 I1.588 J0.
N940 X22.325 Y21.104 I-0.161 J0.
N945 G1 X22.131 Y20.56
N950 G3 X22.43 Y20.442 I0.151 J-0.054
N955 X19.67 Y21.658 Z13.885 I-1.38 J0.608 F333.33
N960 X22.43 Y20.442 Z13.719 I1.38 J-0.608
N965 X19.67 Y21.658 Z13.554 I-1.38 J0.608
N970 X22.43 Y20.442 Z13.388 I1.38 J-0.608
N975 X19.67 Y21.658 Z13.223 I-1.38 J0.608
N980 X22.43 Y20.442 Z13.057 I1.38 J-0.608
N985 X19.67 Y21.658 Z12.892 I-1.38 J0.608
N990 X22.43 Y20.442 Z12.726 I1.38 J-0.608
N995 X19.67 Y21.658 Z12.561 I-1.38 J0.608
N1000 X22.43 Y20.442 Z12.395 I1.38 J-0.608
N1005 X19.67 Y21.658 Z12.23 I-1.38 J0.608
N1010 X22.43 Y20.442 Z12.065 I1.38 J-0.608
N1015 X19.67 Y21.658 Z11.899 I-1.38 J0.608
N1020 X22.43 Y20.442 Z11.734 I1.38 J-0.608
N1025 X19.67 Y21.658 Z11.568 I-1.38 J0.608
N1030 X22.43 Y20.442 Z11.403 I1.38 J-0.608
N1035 X19.67 Y21.658 Z11.237 I-1.38 J0.608
N1040 X22.43 Y20.442 Z11.072 I1.38 J-0.608
N1045 X22.558 Y21.05 Z11.05 I-1.38 J0.608
N1050 G1 X22.551 Y21.073
N1055 X22.531 Y21.088
N1060 X22.506
N1065 X22.486 Y21.073
N1070 X22.479 Y21.05
N1075 X22.487 Y21.016 F1000.
N1080 X22.509 Y20.988
N1085 X22.54 Y20.973
N1090 X22.576
N1095 X22.608 Y20.988
N1100 X22.63 Y21.016
N1105 X22.638 Y21.05
N1110 G3 X19.462 I-1.588 J0.
N1115 X22.638 I1.588 J0.
N1120 X22.325 Y21.104 I-0.161 J0.
N1125 G1 X22.131 Y20.56
N1130 G3 X22.43 Y20.442 I0.151 J-0.054
N1135 X19.67 Y21.658 Z10.885 I-1.38 J0.608 F333.33
N1140 X22.43 Y20.442 Z10.719 I1.38 J-0.608
N1145 X19.67 Y21.658 Z10.554 I-1.38 J0.608
N1150 X22.43 Y20.442 Z10.388 I1.38 J-0.608
N1155 X19.67 Y21.658 Z10.223 I-1.38 J0.608
N1160 X22.43 Y20.442 Z10.057 I1.38 J-0.608
N1165 X19.67 Y21.658 Z9.892 I-1.38 J0.608
N1170 X22.43 Y20.442 Z9.726 I1.38 J-0.608
N1175 X19.67 Y21.658 Z9.561 I-1.38 J0.608
N1180 X22.43 Y20.442 Z9.395 I1.38 J-0.608
N1185 X19.67 Y21.658 Z9.23 I-1.38 J0.608
N1190 X22.43 Y20.442 Z9.065 I1.38 J-0.608
N1195 X19.67 Y21.658 Z8.899 I-1.38 J0.608
N1200 X22.43 Y20.442 Z8.734 I1.38 J-0.608
N1205 X19.67 Y21.658 Z8.568 I-1.38 J0.608
N1210 X22.43 Y20.442 Z8.403 I1.38 J-0.608
N1215 X19.67 Y21.658 Z8.237 I-1.38 J0.608
N1220 X22.43 Y20.442 Z8.072 I1.38 J-0.608
N1225 X22.558 Y21.05 Z8.05 I-1.38 J0.608
N1230 G1 X22.551 Y21.073
N1235 X22.531 Y21.088
N1240 X22.506
N1245 X22.486 Y21.073
N1250 X22.479 Y21.05
N1255 X22.487 Y21.016 F1000.
N1260 X22.509 Y20.988
N1265 X22.54 Y20.973
N1270 X22.576
N1275 X22.608 Y20.988
N1280 X22.63 Y21.016
N1285 X22.638 Y21.05
N1290 G3 X19.462 I-1.588 J0.
N1295 X22.638 I1.588 J0.
N1300 X22.325 Y21.104 I-0.161 J0.
N1305 G1 X22.131 Y20.56
N1310 G3 X22.43 Y20.442 I0.151 J-0.054
N1315 X19.67 Y21.658 Z7.885 I-1.38 J0.608 F333.33
N1320 X22.43 Y20.442 Z7.719 I1.38 J-0.608
N1325 X19.67 Y21.658 Z7.554 I-1.38 J0.608
N1330 X22.43 Y20.442 Z7.388 I1.38 J-0.608
N1335 X19.67 Y21.658 Z7.223 I-1.38 J0.608
N1340 X22.43 Y20.442 Z7.057 I1.38 J-0.608
N1345 X19.67 Y21.658 Z6.892 I-1.38 J0.608
N1350 X22.43 Y20.442 Z6.726 I1.38 J-0.608
N1355 X19.67 Y21.658 Z6.561 I-1.38 J0.608
N1360 X22.43 Y20.442 Z6.395 I1.38 J-0.608
N1365 X19.67 Y21.658 Z6.23 I-1.38 J0.608
N1370 X22.43 Y20.442 Z6.065 I1.38 J-0.608
N1375 X19.67 Y21.658 Z5.899 I-1.38 J0.608
N1380 X22.43 Y20.442 Z5.734 I1.38 J-0.608
N1385 X19.67 Y21.658 Z5.568 I-1.38 J0.608
N1390 X22.43 Y20.442 Z5.403 I1.38 J-0.608
N1395 X19.67 Y21.658 Z5.237 I-1.38 J0.608
N1400 X22.43 Y20.442 Z5.072 I1.38 J-0.608
N1405 X22.558 Y21.05 Z5.05 I-1.38 J0.608
N1410 G1 X22.551 Y21.073
N1415 X22.531 Y21.088
N1420 X22.506
N1425 X22.486 Y21.073
N1430 X22.479 Y21.05
N1435 X22.487 Y21.016 F1000.
N1440 X22.509 Y20.988
N1445 X22.54 Y20.973
N1450 X22.576
N1455 X22.608 Y20.988
N1460 X22.63 Y21.016
N1465 X22.638 Y21.05
N1470 G3 X19.462 I-1.588 J0.
N1475 X22.638 I1.588 J0.
N1480 X22.325 Y21.104 I-0.161 J0.
N1485 G1 X22.131 Y20.56
N1490 G3 X22.43 Y20.442 I0.151 J-0.054
N1495 X19.67 Y21.658 Z4.885 I-1.38 J0.608 F333.33
N1500 X22.43 Y20.442 Z4.719 I1.38 J-0.608
N1505 X19.67 Y21.658 Z4.554 I-1.38 J0.608
N1510 X22.43 Y20.442 Z4.388 I1.38 J-0.608
N1515 X19.67 Y21.658 Z4.223 I-1.38 J0.608
N1520 X22.43 Y20.442 Z4.057 I1.38 J-0.608
N1525 X19.67 Y21.658 Z3.892 I-1.38 J0.608
N1530 X22.43 Y20.442 Z3.726 I1.38 J-0.608
N1535 X19.67 Y21.658 Z3.561 I-1.38 J0.608
N1540 X22.43 Y20.442 Z3.395 I1.38 J-0.608
N1545 X19.67 Y21.658 Z3.23 I-1.38 J0.608
N1550 X22.43 Y20.442 Z3.065 I1.38 J-0.608
N1555 X19.67 Y21.658 Z2.899 I-1.38 J0.608
N1560 X22.43 Y20.442 Z2.734 I1.38 J-0.608
N1565 X19.67 Y21.658 Z2.568 I-1.38 J0.608
N1570 X22.43 Y20.442 Z2.403 I1.38 J-0.608
N1575 X19.67 Y21.658 Z2.237 I-1.38 J0.608
N1580 X22.43 Y20.442 Z2.072 I1.38 J-0.608
N1585 X22.558 Y21.05 Z2.05 I-1.38 J0.608
N1590 G1 X22.551 Y21.073
N1595 X22.531 Y21.088
N1600 X22.506
N1605 X22.486 Y21.073
N1610 X22.479 Y21.05
N1615 X22.487 Y21.016 F1000.
N1620 X22.509 Y20.988
N1625 X22.54 Y20.973
N1630 X22.576
N1635 X22.608 Y20.988
N1640 X22.63 Y21.016
N1645 X22.638 Y21.05
N1650 G3 X19.462 I-1.588 J0.
N1655 X22.638 I1.588 J0.
N1660 X22.279 Y21.172 I-0.2 J0.
N1665 G1 X21.333 Y19.941
N1670 G3 X21.559 Y19.631 I0.159 J-0.122
N1675 X20.541 Y22.469 Z1.885 I-0.509 J1.419 F333.33
N1680 X21.559 Y19.631 Z1.719 I0.509 J-1.419
N1685 X20.541 Y22.469 Z1.554 I-0.509 J1.419
N1690 X21.559 Y19.631 Z1.388 I0.509 J-1.419
N1695 X20.541 Y22.469 Z1.223 I-0.509 J1.419
N1700 X21.559 Y19.631 Z1.057 I0.509 J-1.419
N1705 X20.541 Y22.469 Z0.892 I-0.509 J1.419
N1710 X21.559 Y19.631 Z0.726 I0.509 J-1.419
N1715 X20.541 Y22.469 Z0.561 I-0.509 J1.419
N1720 X21.559 Y19.631 Z0.395 I0.509 J-1.419
N1725 X20.541 Y22.469 Z0.23 I-0.509 J1.419
N1730 X21.559 Y19.631 Z0.065 I0.509 J-1.419
N1735 X22.558 Y21.05 Z0. I-0.509 J1.419
N1740 G1 X22.551 Y21.073
N1745 X22.531 Y21.088
N1750 X22.506
N1755 X22.486 Y21.073
N1760 X22.479 Y21.05
N1765 X22.487 Y21.016 F1000.
N1770 X22.509 Y20.988
N1775 X22.54 Y20.973
N1780 X22.576
N1785 X22.608 Y20.988
N1790 X22.63 Y21.016
N1795 X22.638 Y21.05
N1800 G3 X19.462 I-1.588 J0.
N1805 X22.638 I1.588 J0.
N1810 G1 X22.632 Y21.11 Z0.012
N1815 X22.615 Y21.169 Z0.024
N1820 X22.592 Y21.215 Z0.059
N1825 X22.561 Y21.256 Z0.093
N1830 X22.511 Y21.303 Z0.196
N1835 X22.492 Y21.317 Z0.317
N1840 Z35.05
(WHEN USING FUSION 360 FOR PERSONAL USE, THE FEEDRATE OF)
(RAPID MOVES IS REDUCED TO MATCH THE FEEDRATE OF CUTTING)
(MOVES, WHICH CAN INCREASE MACHINING TIME. UNRESTRICTED RAPID)
(MOVES ARE AVAILABLE WITH A FUSION 360 SUBSCRIPTION.)
(2D POCKET3)
N1845 G0 X20.255 Y104.839
N1850 G1 Z35.05 F1000.
N1855 Z25.05
N1860 Z22.867
N1865 X20.244 Y104.831 Z22.773 F333.33
N1870 X20.21 Y104.807 Z22.687
N1875 X20.125 Y104.738 Z22.589
N1880 X20.023 Y104.64 Z22.55
N1885 G3 X22.206 Y102.56 Z22.385 I1.092 J-1.04
N1890 X20.023 Y104.64 Z22.219 I-1.092 J1.04
N1895 X22.206 Y102.56 Z22.054 I1.092 J-1.04
N1900 X20.023 Y104.64 Z21.888 I-1.092 J1.04
N1905 X22.206 Y102.56 Z21.723 I1.092 J-1.04
N1910 X20.023 Y104.64 Z21.557 I-1.092 J1.04
N1915 X22.206 Y102.56 Z21.392 I1.092 J-1.04
N1920 X20.023 Y104.64 Z21.226 I-1.092 J1.04
N1925 X22.206 Y102.56 Z21.061 I1.092 J-1.04
N1930 X20.023 Y104.64 Z20.895 I-1.092 J1.04
N1935 X22.206 Y102.56 Z20.73 I1.092 J-1.04
N1940 X20.023 Y104.64 Z20.565 I-1.092 J1.04
N1945 X22.206 Y102.56 Z20.399 I1.092 J-1.04
N1950 X20.023 Y104.64 Z20.234 I-1.092 J1.04
N1955 X22.206 Y102.56 Z20.068 I1.092 J-1.04
N1960 X20.023 Y104.64 Z19.903 I-1.092 J1.04
N1965 X22.206 Y102.56 Z19.737 I1.092 J-1.04
N1970 X20.023 Y104.64 Z19.572 I-1.092 J1.04
N1975 X22.206 Y102.56 Z19.406 I1.092 J-1.04
N1980 X20.023 Y104.64 Z19.241 I-1.092 J1.04
N1985 X22.206 Y102.56 Z19.076 I1.092 J-1.04
N1990 X20.023 Y104.64 Z18.91 I-1.092 J1.04
N1995 X22.206 Y102.56 Z18.745 I1.092 J-1.04
N2000 X20.023 Y104.64 Z18.579 I-1.092 J1.04
N2005 X22.206 Y102.56 Z18.414 I1.092 J-1.04
N2010 X20.023 Y104.64 Z18.248 I-1.092 J1.04
N2015 X22.206 Y102.56 Z18.083 I1.092 J-1.04
N2020 X20.023 Y104.64 Z17.917 I-1.092 J1.04
N2025 X22.206 Y102.56 Z17.752 I1.092 J-1.04
N2030 X20.023 Y104.64 Z17.586 I-1.092 J1.04
N2035 X22.206 Y102.56 Z17.421 I1.092 J-1.04
N2040 X20.023 Y104.64 Z17.256 I-1.092 J1.04
N2045 X22.206 Y102.56 Z17.09 I1.092 J-1.04
N2050 X22.623 Y103.6 Z17.05 I-1.092 J1.04
N2055 X20.576 I-1.023 J0.
N2060 G1 Y40.1 F1000.
N2065 G3 X21.524 I0.474 J0.
N2070 G1 Y103.6
N2075 G3 X20.576 I-0.474 J0.
N2080 G2 X20.019 Y102.765 I-0.905 J0.
N2085 G3 X19.462 Y101.93 I0.348 J-0.835
N2090 G1 Y40.1
N2095 G3 X22.638 I1.587 J0.
N2100 G1 Y103.6
N2105 G3 X19.462 I-1.588 J0.
N2110 G1 Y101.93
N2115 X19.468 Y101.902
N2120 X19.484 Y101.878
N2125 X19.508 Y101.863
N2130 X19.536 Y101.859
N2135 X19.564 Y101.866
N2140 X19.869 Y102.014
N2145 X22.126 Y102.993
N2150 X22.422 Y102.953
N2155 X22.451 Y102.954
N2160 X22.477 Y102.968
N2165 X22.495 Y102.992
N2170 G3 X19.735 Y104.208 Z16.885 I-1.38 J0.608 F333.33
N2175 X22.495 Y102.992 Z16.719 I1.38 J-0.608
N2180 X19.735 Y104.208 Z16.554 I-1.38 J0.608
N2185 X22.495 Y102.992 Z16.388 I1.38 J-0.608
N2190 X19.735 Y104.208 Z16.223 I-1.38 J0.608
N2195 X22.495 Y102.992 Z16.057 I1.38 J-0.608
N2200 X19.735 Y104.208 Z15.892 I-1.38 J0.608
N2205 X22.495 Y102.992 Z15.726 I1.38 J-0.608
N2210 X19.735 Y104.208 Z15.561 I-1.38 J0.608
N2215 X22.495 Y102.992 Z15.395 I1.38 J-0.608
N2220 X19.735 Y104.208 Z15.23 I-1.38 J0.608
N2225 X22.495 Y102.992 Z15.065 I1.38 J-0.608
N2230 X19.735 Y104.208 Z14.899 I-1.38 J0.608
N2235 X22.495 Y102.992 Z14.734 I1.38 J-0.608
N2240 X19.735 Y104.208 Z14.568 I-1.38 J0.608
N2245 X22.495 Y102.992 Z14.403 I1.38 J-0.608
N2250 X19.735 Y104.208 Z14.237 I-1.38 J0.608
N2255 X22.495 Y102.992 Z14.072 I1.38 J-0.608
N2260 X22.623 Y103.6 Z14.05 I-1.38 J0.608
N2265 X20.576 I-1.023 J0.
N2270 G1 Y40.1 F1000.
N2275 G3 X21.524 I0.474 J0.
N2280 G1 Y103.6
N2285 G3 X20.576 I-0.474 J0.
N2290 G2 X20.019 Y102.765 I-0.905 J0.
N2295 G3 X19.462 Y101.93 I0.348 J-0.835
N2300 G1 Y40.1
N2305 G3 X22.638 I1.587 J0.
N2310 G1 Y103.6
N2315 G3 X19.462 I-1.588 J0.
N2320 G1 Y101.93
N2325 X19.468 Y101.902
N2330 X19.484 Y101.878
N2335 X19.508 Y101.863
N2340 X19.536 Y101.859
N2345 X19.564 Y101.866
N2350 X19.869 Y102.014
N2355 X22.126 Y102.993
N2360 X22.422 Y102.953
N2365 X22.451 Y102.954
N2370 X22.477 Y102.968
N2375 X22.495 Y102.992
N2380 G3 X19.735 Y104.208 Z13.885 I-1.38 J0.608 F333.33
N2385 X22.495 Y102.992 Z13.719 I1.38 J-0.608
N2390 X19.735 Y104.208 Z13.554 I-1.38 J0.608
N2395 X22.495 Y102.992 Z13.388 I1.38 J-0.608
N2400 X19.735 Y104.208 Z13.223 I-1.38 J0.608
N2405 X22.495 Y102.992 Z13.057 I1.38 J-0.608
N2410 X19.735 Y104.208 Z12.892 I-1.38 J0.608
N2415 X22.495 Y102.992 Z12.726 I1.38 J-0.608
N2420 X19.735 Y104.208 Z12.561 I-1.38 J0.608
N2425 X22.495 Y102.992 Z12.395 I1.38 J-0.608
N2430 X19.735 Y104.208 Z12.23 I-1.38 J0.608
N2435 X22.495 Y102.992 Z12.065 I1.38 J-0.608
N2440 X19.735 Y104.208 Z11.899 I-1.38 J0.608
N2445 X22.495 Y102.992 Z11.734 I1.38 J-0.608
N2450 X19.735 Y104.208 Z11.568 I-1.38 J0.608
N2455 X22.495 Y102.992 Z11.403 I1.38 J-0.608
N2460 X19.735 Y104.208 Z11.237 I-1.38 J0.608
N2465 X22.495 Y102.992 Z11.072 I1.38 J-0.608
N2470 X22.623 Y103.6 Z11.05 I-1.38 J0.608
N2475 X20.576 I-1.023 J0.
N2480 G1 Y40.1 F1000.
N2485 G3 X21.524 I0.474 J0.
N2490 G1 Y103.6
N2495 G3 X20.576 I-0.474 J0.
N2500 G2 X20.019 Y102.765 I-0.905 J0.
N2505 G3 X19.462 Y101.93 I0.348 J-0.835
N2510 G1 Y40.1
N2515 G3 X22.638 I1.587 J0.
N2520 G1 Y103.6
N2525 G3 X19.462 I-1.588 J0.
N2530 G1 Y101.93
N2535 X19.468 Y101.902
N2540 X19.484 Y101.878
N2545 X19.508 Y101.863
N2550 X19.536 Y101.859
N2555 X19.564 Y101.866
N2560 X19.869 Y102.014
N2565 X22.126 Y102.993
N2570 X22.422 Y102.953
N2575 X22.451 Y102.954
N2580 X22.477 Y102.968
N2585 X22.495 Y102.992
N2590 G3 X19.735 Y104.208 Z10.885 I-1.38 J0.608 F333.33
N2595 X22.495 Y102.992 Z10.719 I1.38 J-0.608
N2600 X19.735 Y104.208 Z10.554 I-1.38 J0.608
N2605 X22.495 Y102.992 Z10.388 I1.38 J-0.608
N2610 X19.735 Y104.208 Z10.223 I-1.38 J0.608
N2615 X22.495 Y102.992 Z10.057 I1.38 J-0.608
N2620 X19.735 Y104.208 Z9.892 I-1.38 J0.608
N2625 X22.495 Y102.992 Z9.726 I1.38 J-0.608
N2630 X19.735 Y104.208 Z9.561 I-1.38 J0.608
N2635 X22.495 Y102.992 Z9.395 I1.38 J-0.608
N2640 X19.735 Y104.208 Z9.23 I-1.38 J0.608
N2645 X22.495 Y102.992 Z9.065 I1.38 J-0.608
N2650 X19.735 Y104.208 Z8.899 I-1.38 J0.608
N2655 X22.495 Y102.992 Z8.734 I1.38 J-0.608
N2660 X19.735 Y104.208 Z8.568 I-1.38 J0.608
N2665 X22.495 Y102.992 Z8.403 I1.38 J-0.608
N2670 X19.735 Y104.208 Z8.237 I-1.38 J0.608
N2675 X22.495 Y102.992 Z8.072 I1.38 J-0.608
N2680 X22.623 Y103.6 Z8.05 I-1.38 J0.608
N2685 X20.576 I-1.023 J0.
N2690 G1 Y40.1 F1000.
N2695 G3 X21.524 I0.474 J0.
N2700 G1 Y103.6
N2705 G3 X20.576 I-0.474 J0.
N2710 G2 X20.019 Y102.765 I-0.905 J0.
N2715 G3 X19.462 Y101.93 I0.348 J-0.835
N2720 G1 Y40.1
N2725 G3 X22.638 I1.587 J0.
N2730 G1 Y103.6
N2735 G3 X19.462 I-1.588 J0.
N2740 G1 Y101.93
N2745 X19.468 Y101.902
N2750 X19.484 Y101.878
N2755 X19.508 Y101.863
N2760 X19.536 Y101.859
N2765 X19.564 Y101.866
N2770 X19.869 Y102.014
N2775 X22.126 Y102.993
N2780 X22.422 Y102.953
N2785 X22.451 Y102.954
N2790 X22.477 Y102.968
N2795 X22.495 Y102.992
N2800 G3 X19.735 Y104.208 Z7.885 I-1.38 J0.608 F333.33
N2805 X22.495 Y102.992 Z7.719 I1.38 J-0.608
N2810 X19.735 Y104.208 Z7.554 I-1.38 J0.608
N2815 X22.495 Y102.992 Z7.388 I1.38 J-0.608
N2820 X19.735 Y104.208 Z7.223 I-1.38 J0.608
N2825 X22.495 Y102.992 Z7.057 I1.38 J-0.608
N2830 X19.735 Y104.208 Z6.892 I-1.38 J0.608
N2835 X22.495 Y102.992 Z6.726 I1.38 J-0.608
N2840 X19.735 Y104.208 Z6.561 I-1.38 J0.608
N2845 X22.495 Y102.992 Z6.395 I1.38 J-0.608
N2850 X19.735 Y104.208 Z6.23 I-1.38 J0.608
N2855 X22.495 Y102.992 Z6.065 I1.38 J-0.608
N2860 X19.735 Y104.208 Z5.899 I-1.38 J0.608
N2865 X22.495 Y102.992 Z5.734 I1.38 J-0.608
N2870 X19.735 Y104.208 Z5.568 I-1.38 J0.608
N2875 X22.495 Y102.992 Z5.403 I1.38 J-0.608
N2880 X19.735 Y104.208 Z5.237 I-1.38 J0.608
N2885 X22.495 Y102.992 Z5.072 I1.38 J-0.608
N2890 X22.623 Y103.6 Z5.05 I-1.38 J0.608
N2895 X20.576 I-1.023 J0.
N2900 G1 Y40.1 F1000.
N2905 G3 X21.524 I0.474 J0.
N2910 G1 Y103.6
N2915 G3 X20.576 I-0.474 J0.
N2920 G2 X20.019 Y102.765 I-0.905 J0.
N2925 G3 X19.462 Y101.93 I0.348 J-0.835
N2930 G1 Y40.1
N2935 G3 X22.638 I1.587 J0.
N2940 G1 Y103.6
N2945 G3 X19.462 I-1.588 J0.
N2950 G1 Y101.93
N2955 X19.468 Y101.902
N2960 X19.484 Y101.878
N2965 X19.508 Y101.863
N2970 X19.536 Y101.859
N2975 X19.564 Y101.866
N2980 X19.869 Y102.014
N2985 X22.126 Y102.993
N2990 X22.422 Y102.953
N2995 X22.451 Y102.954
N3000 X22.477 Y102.968
N3005 X22.495 Y102.992
N3010 G3 X19.735 Y104.208 Z4.885 I-1.38 J0.608 F333.33
N3015 X22.495 Y102.992 Z4.719 I1.38 J-0.608
N3020 X19.735 Y104.208 Z4.554 I-1.38 J0.608
N3025 X22.495 Y102.992 Z4.388 I1.38 J-0.608
N3030 X19.735 Y104.208 Z4.223 I-1.38 J0.608
N3035 X22.495 Y102.992 Z4.057 I1.38 J-0.608
N3040 X19.735 Y104.208 Z3.892 I-1.38 J0.608
N3045 X22.495 Y102.992 Z3.726 I1.38 J-0.608
N3050 X19.735 Y104.208 Z3.561 I-1.38 J0.608
N3055 X22.495 Y102.992 Z3.395 I1.38 J-0.608
N3060 X19.735 Y104.208 Z3.23 I-1.38 J0.608
N3065 X22.495 Y102.992 Z3.065 I1.38 J-0.608
N3070 X19.735 Y104.208 Z2.899 I-1.38 J0.608
N3075 X22.495 Y102.992 Z2.734 I1.38 J-0.608
N3080 X19.735 Y104.208 Z2.568 I-1.38 J0.608
N3085 X22.495 Y102.992 Z2.403 I1.38 J-0.608
N3090 X19.735 Y104.208 Z2.237 I-1.38 J0.608
N3095 X22.495 Y102.992 Z2.072 I1.38 J-0.608
N3100 X22.623 Y103.6 Z2.05 I-1.38 J0.608
N3105 X20.576 I-1.023 J0.
N3110 G1 Y40.1 F1000.
N3115 G3 X21.524 I0.474 J0.
N3120 G1 Y103.6
N3125 G3 X20.576 I-0.474 J0.
N3130 G2 X20.019 Y102.765 I-0.905 J0.
N3135 G3 X19.462 Y101.93 I0.348 J-0.835
N3140 G1 Y40.1
N3145 G3 X22.638 I1.587 J0.
N3150 G1 Y103.6
N3155 G3 X19.462 I-1.588 J0.
N3160 G1 Y101.93
N3165 X19.468 Y101.903
N3170 X19.482 Y101.881
N3175 X19.504 Y101.865
N3180 X19.53 Y101.859
N3185 X19.557 Y101.863
N3190 X19.881 Y101.978
N3195 X21.36 Y102.324
N3200 X21.391
N3205 X21.419 Y102.31
N3210 X21.558 Y102.192
N3215 X21.578 Y102.181
N3220 X21.601 Y102.177
N3225 X21.624 Y102.181
N3230 G3 X20.605 Y105.019 Z1.885 I-0.509 J1.419 F333.33
N3235 X21.624 Y102.181 Z1.719 I0.509 J-1.419
N3240 X20.605 Y105.019 Z1.554 I-0.509 J1.419
N3245 X21.624 Y102.181 Z1.388 I0.509 J-1.419
N3250 X20.605 Y105.019 Z1.223 I-0.509 J1.419
N3255 X21.624 Y102.181 Z1.057 I0.509 J-1.419
N3260 X20.605 Y105.019 Z0.892 I-0.509 J1.419
N3265 X21.624 Y102.181 Z0.726 I0.509 J-1.419
N3270 X20.605 Y105.019 Z0.561 I-0.509 J1.419
N3275 X21.624 Y102.181 Z0.395 I0.509 J-1.419
N3280 X20.605 Y105.019 Z0.23 I-0.509 J1.419
N3285 X21.624 Y102.181 Z0.065 I0.509 J-1.419
N3290 X22.623 Y103.6 Z0. I-0.509 J1.419
N3295 X20.576 I-1.023 J0.
N3300 G1 Y40.1 F1000.
N3305 G3 X21.524 I0.474 J0.
N3310 G1 Y103.6
N3315 G3 X20.576 I-0.474 J0.
N3320 G2 X20.019 Y102.765 I-0.905 J0.
N3325 G3 X19.462 Y101.93 I0.348 J-0.835
N3330 G1 Y40.1
N3335 G3 X22.638 I1.587 J0.
N3340 G1 Y103.6
N3345 G3 X19.462 I-1.588 J0.
N3350 G1 Y101.93
N3355 X19.468 Y101.869 Z0.012
N3360 X19.485 Y101.811 Z0.024
N3365 X19.508 Y101.765 Z0.059
N3370 X19.539 Y101.723 Z0.093
N3375 X19.589 Y101.676 Z0.196
N3380 X19.608 Y101.662 Z0.317
N3385 Z35.05
(WHEN USING FUSION 360 FOR PERSONAL USE, THE FEEDRATE OF)
(RAPID MOVES IS REDUCED TO MATCH THE FEEDRATE OF CUTTING)
(MOVES, WHICH CAN INCREASE MACHINING TIME. UNRESTRICTED RAPID)
(MOVES ARE AVAILABLE WITH A FUSION 360 SUBSCRIPTION.)
(2D CONTOUR1)
N3390 G0 X21.867 Y-0.54
N3395 G1 Z35.05 F1000.
N3400 Z25.05
N3405 Z17.367 F333.33
N3410 G19 G3 Y-0.222 Z17.05 J0.318 K0. F1000.
N3415 G1 Y0.095
N3420 G17 G3 X21.549 Y0.412 I-0.317 J0.
N3425 G1 X17.875
N3430 G2 X0.412 Y17.875 I0. J17.463
N3435 G1 Y103.6
N3440 G2 X0.434 Y103.861 I1.588 J0.
N3445 G1 X3.783 Y123.955
N3450 G2 X11.613 Y130.587 I7.829 J-1.305
N3455 G1 X30.487
N3460 G2 X38.317 Y123.955 I0. J-7.938
N3465 G1 X41.666 Y103.861
N3470 G2 X41.688 Y103.6 I-1.566 J-0.261
N3475 G1 Y17.875
N3480 G2 X24.225 Y0.412 I-17.462 J0.
N3485 G1 X21.549
N3490 G3 X21.232 Y0.095 I0. J-0.317
N3495 G1 Y-0.222
N3500 G19 G2 Y-0.54 Z17.367 J0. K0.318
N3505 G1 Z25.05
N3510 X21.867
N3515 Z22.05 F333.33
N3520 Z14.367
N3525 G3 Y-0.222 Z14.05 J0.318 K0. F1000.
N3530 G1 Y0.095
N3535 G17 G3 X21.549 Y0.412 I-0.317 J0.
N3540 G1 X17.875
N3545 G2 X0.412 Y17.875 I0. J17.463
N3550 G1 Y103.6
N3555 G2 X0.434 Y103.861 I1.588 J0.
N3560 G1 X3.783 Y123.955
N3565 G2 X11.613 Y130.587 I7.829 J-1.305
N3570 G1 X30.487
N3575 G2 X38.317 Y123.955 I0. J-7.938
N3580 G1 X41.666 Y103.861
N3585 G2 X41.688 Y103.6 I-1.566 J-0.261
N3590 G1 Y17.875
N3595 G2 X24.225 Y0.412 I-17.462 J0.
N3600 G1 X21.549
N3605 G3 X21.232 Y0.095 I0. J-0.317
N3610 G1 Y-0.222
N3615 G19 G2 Y-0.54 Z14.367 J0. K0.318
N3620 G1 Z25.05
N3625 X21.867
N3630 Z19.05 F333.33
N3635 Z11.367
N3640 G3 Y-0.222 Z11.05 J0.318 K0. F1000.
N3645 G1 Y0.095
N3650 G17 G3 X21.549 Y0.412 I-0.317 J0.
N3655 G1 X17.875
N3660 G2 X0.412 Y17.875 I0. J17.463
N3665 G1 Y103.6
N3670 G2 X0.434 Y103.861 I1.588 J0.
N3675 G1 X3.783 Y123.955
N3680 G2 X11.613 Y130.587 I7.829 J-1.305
N3685 G1 X30.487
N3690 G2 X38.317 Y123.955 I0. J-7.938
N3695 G1 X41.666 Y103.861
N3700 G2 X41.688 Y103.6 I-1.566 J-0.261
N3705 G1 Y17.875
N3710 G2 X24.225 Y0.412 I-17.462 J0.
N3715 G1 X21.549
N3720 G3 X21.232 Y0.095 I0. J-0.317
N3725 G1 Y-0.222
N3730 G19 G2 Y-0.54 Z11.367 J0. K0.318
N3735 G1 Z25.05
N3740 X21.867
N3745 Z16.05 F333.33
N3750 Z8.367
N3755 G3 Y-0.222 Z8.05 J0.318 K0. F1000.
N3760 G1 Y0.095
N3765 G17 G3 X21.549 Y0.412 I-0.317 J0.
N3770 G1 X17.875
N3775 G2 X0.412 Y17.875 I0. J17.463
N3780 G1 Y103.6
N3785 G2 X0.434 Y103.861 I1.588 J0.
N3790 G1 X3.783 Y123.955
N3795 G2 X11.613 Y130.587 I7.829 J-1.305
N3800 G1 X30.487
N3805 G2 X38.317 Y123.955 I0. J-7.938
N3810 G1 X41.666 Y103.861
N3815 G2 X41.688 Y103.6 I-1.566 J-0.261
N3820 G1 Y17.875
N3825 G2 X24.225 Y0.412 I-17.462 J0.
N3830 G1 X21.549
N3835 G3 X21.232 Y0.095 I0. J-0.317
N3840 G1 Y-0.222
N3845 G19 G2 Y-0.54 Z8.367 J0. K0.318
N3850 G1 Z25.05
N3855 X21.867
N3860 Z13.05 F333.33
N3865 Z5.367
N3870 G3 Y-0.222 Z5.05 J0.318 K0. F1000.
N3875 G1 Y0.095
N3880 G17 G3 X21.549 Y0.412 I-0.317 J0.
N3885 G1 X17.875
N3890 G2 X0.412 Y17.875 I0. J17.463
N3895 G1 Y103.6
N3900 G2 X0.434 Y103.861 I1.588 J0.
N3905 G1 X3.783 Y123.955
N3910 G2 X11.613 Y130.587 I7.829 J-1.305
N3915 G1 X30.487
N3920 G2 X38.317 Y123.955 I0. J-7.938
N3925 G1 X41.666 Y103.861
N3930 G2 X41.688 Y103.6 I-1.566 J-0.261
N3935 G1 Y17.875
N3940 G2 X24.225 Y0.412 I-17.462 J0.
N3945 G1 X21.549
N3950 G3 X21.232 Y0.095 I0. J-0.317
N3955 G1 Y-0.222
N3960 G19 G2 Y-0.54 Z5.367 J0. K0.317
N3965 G1 Z25.05
N3970 X21.867
N3975 Z10.05 F333.33
N3980 Z2.367
N3985 G3 Y-0.222 Z2.05 J0.318 K0. F1000.
N3990 G1 Y0.095
N3995 G17 G3 X21.549 Y0.412 I-0.317 J0.
N4000 G1 X17.875
N4005 G2 X0.412 Y17.875 I0. J17.463
N4010 G1 Y103.6
N4015 G2 X0.434 Y103.861 I1.588 J0.
N4020 G1 X3.783 Y123.955
N4025 G2 X11.613 Y130.587 I7.829 J-1.305
N4030 G1 X30.487
N4035 G2 X38.317 Y123.955 I0. J-7.938
N4040 G1 X41.666 Y103.861
N4045 G2 X41.688 Y103.6 I-1.566 J-0.261
N4050 G1 Y17.875
N4055 G2 X24.225 Y0.412 I-17.462 J0.
N4060 G1 X21.549
N4065 G3 X21.232 Y0.095 I0. J-0.317
N4070 G1 Y-0.222
N4075 G19 G2 Y-0.54 Z2.367 J0. K0.318
N4080 G1 Z25.05
N4085 X21.867
N4090 Z7.05 F333.33
N4095 Z0.317
N4100 G3 Y-0.222 Z0. J0.318 K0. F1000.
N4105 G1 Y0.095
N4110 G17 G3 X21.549 Y0.412 I-0.317 J0.
N4115 G1 X17.875
N4120 G2 X0.412 Y17.875 I0. J17.463
N4125 G1 Y35.219
N4130 Z2.
N4135 Y43.394
N4140 Z0. F333.33
N4145 Y78.081 F1000.
N4150 Z2.
N4155 Y86.256
N4160 Z0. F333.33
N4165 Y103.6 F1000.
N4170 G2 X0.434 Y103.861 I1.588 J0.
N4175 G1 X3.783 Y123.955
N4180 G2 X11.613 Y130.587 I7.829 J-1.305
N4185 G1 X30.487
N4190 G2 X38.317 Y123.955 I0. J-7.938
N4195 G1 X41.666 Y103.861
N4200 G2 X41.688 Y103.6 I-1.566 J-0.261
N4205 G1 Y86.256
N4210 Z2.
N4215 Y78.081
N4220 Z0. F333.33
N4225 Y43.394 F1000.
N4230 Z2.
N4235 Y35.219
N4240 Z0. F333.33
N4245 Y17.875 F1000.
N4250 G2 X24.225 Y0.412 I-17.462 J0.
N4255 G1 X21.549
N4260 G3 X21.232 Y0.095 I0. J-0.317
N4265 G1 Y-0.222
N4270 G19 G2 Y-0.54 Z0.317 J0. K0.317
N4275 G1 Z35.05
N4280 G17
N4285 M9
N4290 G53 G0 Z0.
N4295 M30
%
