%
(CLAMPTHINPLY)
(MACHINE)
(  VENDOR AUTODESK)
(  DESCRIPTION GENERIC 3-AXIS)
(T1  D=6.35 CR=0. - ZMIN=0. - FLAT END MILL)
N10 G90 G94 G17 G91.1
N15 G21
(WHEN USING FUSION 360 FOR PERSONAL USE, THE FEEDRATE OF)
(RAPID MOVES IS REDUCED TO MATCH THE FEEDRATE OF CUTTING)
(MOVES, WHICH CAN INCREASE MACHINING TIME. UNRESTRICTED RAPID)
(MOVES ARE AVAILABLE WITH A FUSION 360 SUBSCRIPTION.)
N20 G53 G0 Z0.
(2D POCKET1)
N25 T1 M6
N30 S7500 M3
N35 G54
N40 M8
N45 G0 X183.834 Y40.442
N50 G43 Z27.25 H1
N55 G1 Z17.25 F3500.
N60 Z10.885
N65 G19 G2 Y39.807 Z10.25 J-0.635 K0.
N70 G1 Y34.626
N75 Y3.472
N80 G17 G3 X186.426 I1.296 J0.
N85 G1 X186.43 Y18.941
N90 X186.426 Y19.049
N95 X185.13 Y34.626
N100 G3 X184.501 Y35.632 I-1.292 J-0.107
N105 G1 X180.608 Y37.947
N110 G3 X178.649 Y36.833 I-0.663 J-1.114
N115 G1 Y1.258
N120 G3 X181.241 I1.296 J0.
N125 G1 X181.245 Y18.951
N130 X181.241 Y19.046
N135 X179.945 Y36.833
N140 G3 X178.962 Y37.998 I-1.293 J-0.094
N145 G1 X175.07 Y38.953
N150 G3 X173.465 Y37.695 I-0.309 J-1.259
N155 G1 Y0.402
N160 G3 X176.057 I1.296 J0.
N165 G1 X176.06 Y18.958
N170 X176.057 Y19.048
N175 X174.761 Y37.695
N180 G3 X173.78 Y38.863 I-1.293 J-0.09
N185 G1 X169.883 Y39.829
N190 G3 X168.275 Y38.571 I-0.312 J-1.258
N195 G1 Y2.117
N200 Y-0.465
N205 G3 X168.888 Y-0.581 I0.318 J0.
N210 G1 X183.221 Y36.036
N215 G2 X183.834 Y35.921 I0.296 J-0.116
N220 G19 G3 Y35.286 Z9.615 J0. K-0.635
N225 G1 Z8.885
N230 G2 Y34.651 Z8.25 J-0.635 K0.
N235 G1 Y34.626
N240 Y3.472
N245 G17 G3 X186.426 I1.296 J0.
N250 G1 X186.43 Y18.941
N255 X186.426 Y19.049
N260 X185.13 Y34.626
N265 G3 X184.501 Y35.632 I-1.292 J-0.107
N270 G1 X180.608 Y37.947
N275 G3 X178.649 Y36.833 I-0.663 J-1.114
N280 G1 Y1.258
N285 G3 X181.241 I1.296 J0.
N290 G1 X181.245 Y18.951
N295 X181.241 Y19.046
N300 X179.945 Y36.833
N305 G3 X178.962 Y37.998 I-1.293 J-0.094
N310 G1 X175.07 Y38.953
N315 G3 X173.465 Y37.695 I-0.309 J-1.259
N320 G1 Y0.402
N325 G3 X176.057 I1.296 J0.
N330 G1 X176.06 Y18.958
N335 X176.057 Y19.048
N340 X174.761 Y37.695
N345 G3 X173.78 Y38.863 I-1.293 J-0.09
N350 G1 X169.883 Y39.829
N355 G3 X168.275 Y38.571 I-0.312 J-1.258
N360 G1 Y2.117
N365 Y-0.465
N370 G3 X168.888 Y-0.581 I0.318 J0.
N375 G1 X183.221 Y36.019
N380 G2 X183.834 Y35.904 I0.296 J-0.116
N385 G19 G3 Y35.277 Z7.719 J0. K-0.635
N390 G2 Y34.651 Z7.188 J-0.626 K0.104
N395 G1 Y34.626
N400 Y3.472
N405 G17 G3 X186.426 I1.296 J0.
N410 G1 X186.43 Y18.941
N415 X186.426 Y19.049
N420 X185.13 Y34.626
N425 G3 X184.501 Y35.632 I-1.292 J-0.107
N430 G1 X180.608 Y37.947
N435 G3 X178.649 Y36.833 I-0.663 J-1.114
N440 G1 Y1.258
N445 G3 X181.241 I1.296 J0.
N450 G1 X181.245 Y18.951
N455 X181.241 Y19.046
N460 X179.945 Y36.833
N465 G3 X178.962 Y37.998 I-1.293 J-0.094
N470 G1 X175.07 Y38.953
N475 G3 X173.465 Y37.695 I-0.309 J-1.259
N480 G1 Y0.402
N485 G3 X176.057 I1.296 J0.
N490 G1 X176.06 Y18.958
N495 X176.057 Y19.048
N500 X174.761 Y37.695
N505 G3 X173.78 Y38.863 I-1.293 J-0.09
N510 G1 X169.883 Y39.829
N515 G3 X168.275 Y38.571 I-0.312 J-1.258
N520 G1 Y2.117
N525 Y-0.465
N530 G3 X168.888 Y-0.581 I0.318 J0.
N535 G1 X183.221 Y36.019
N540 G2 X183.834 Y35.904 I0.296 J-0.116
N545 G19 G3 Y35.277 Z6.656 J0. K-0.635
N550 G2 Y34.651 Z6.125 J-0.626 K0.104
N555 G1 Y34.626
N560 Y3.472
N565 G17 G3 X186.426 I1.296 J0.
N570 G1 X186.43 Y18.941
N575 X186.426 Y19.049
N580 X185.13 Y34.626
N585 G3 X184.501 Y35.632 I-1.292 J-0.107
N590 G1 X180.608 Y37.947
N595 G3 X178.649 Y36.833 I-0.663 J-1.114
N600 G1 Y1.258
N605 G3 X181.241 I1.296 J0.
N610 G1 X181.245 Y18.951
N615 X181.241 Y19.046
N620 X179.945 Y36.833
N625 G3 X178.962 Y37.998 I-1.293 J-0.094
N630 G1 X175.07 Y38.953
N635 G3 X173.465 Y37.695 I-0.309 J-1.259
N640 G1 Y0.402
N645 G3 X176.057 I1.296 J0.
N650 G1 X176.06 Y18.958
N655 X176.057 Y19.048
N660 X174.761 Y37.695
N665 G3 X173.78 Y38.863 I-1.293 J-0.09
N670 G1 X169.883 Y39.829
N675 G3 X168.275 Y38.571 I-0.312 J-1.258
N680 G1 Y2.117
N685 Y-0.465
N690 X168.283 Y-0.564
N695 X168.779 Y-3.7
N700 X168.795 Y-3.798 Z6.133
N705 X168.81 Y-3.894 Z6.156
N710 X168.825 Y-3.985 Z6.194
N715 X168.838 Y-4.069 Z6.246
N720 X168.85 Y-4.144 Z6.311
N725 X168.86 Y-4.208 Z6.387
N730 X168.868 Y-4.259 Z6.472
N735 X168.874 Y-4.297 Z6.564
N740 X168.878 Y-4.32 Z6.661
N745 X168.879 Y-4.327 Z6.76
N750 Z27.25
(WHEN USING FUSION 360 FOR PERSONAL USE, THE FEEDRATE OF)
(RAPID MOVES IS REDUCED TO MATCH THE FEEDRATE OF CUTTING)
(MOVES, WHICH CAN INCREASE MACHINING TIME. UNRESTRICTED RAPID)
(MOVES ARE AVAILABLE WITH A FUSION 360 SUBSCRIPTION.)
(2D POCKET2)
N755 S5000 M3
N760 G0 X19.157 Y19.797
N765 G1 Z27.25 F1000.
N770 Z17.25
N775 Z14.75
N780 Z10.885 F333.33
N785 X19.128 Y19.808 Z10.689
N790 X19.04 Y19.829 Z10.512
N795 X18.971 Y19.836 Z10.442
N800 X18.9 Z10.371
N805 X18.813 Y19.825 Z10.326
N810 X18.727 Y19.802 Z10.281
N815 X18.637 Y19.763 Z10.266
N820 X18.555 Y19.71 Z10.25
N825 G3 X19.545 Y18.39 I0.495 J-0.66 F1000.
N830 X18.555 Y19.71 I-0.495 J0.66
N835 X18.668 Y19.438 I0.091 J-0.122
N840 G1 X19.126 Y19.504
N845 G3 X19.157 Y19.797 I-0.022 J0.151
N850 G1 Z8.885 F333.33
N855 X19.128 Y19.808 Z8.689
N860 X19.04 Y19.829 Z8.512
N865 X18.971 Y19.836 Z8.442
N870 X18.9 Z8.371
N875 X18.813 Y19.825 Z8.326
N880 X18.727 Y19.802 Z8.281
N885 X18.637 Y19.763 Z8.266
N890 X18.555 Y19.71 Z8.25
N895 G3 X19.545 Y18.39 I0.495 J-0.66 F1000.
N900 X18.555 Y19.71 I-0.495 J0.66
N905 X18.668 Y19.438 I0.091 J-0.122
N910 G1 X19.126 Y19.504
N915 G3 X19.157 Y19.797 I-0.022 J0.151
N920 G1 Z6.885 F333.33
N925 X19.128 Y19.808 Z6.689
N930 X19.04 Y19.829 Z6.512
N935 X18.971 Y19.836 Z6.442
N940 X18.9 Z6.371
N945 X18.813 Y19.825 Z6.326
N950 X18.727 Y19.802 Z6.281
N955 X18.637 Y19.763 Z6.266
N960 X18.555 Y19.71 Z6.25
N965 G3 X19.545 Y18.39 I0.495 J-0.66 F1000.
N970 X18.555 Y19.71 I-0.495 J0.66
N975 X18.668 Y19.438 I0.091 J-0.122
N980 G1 X19.126 Y19.504
N985 G3 X19.157 Y19.797 I-0.022 J0.151
N990 G1 Z4.885 F333.33
N995 X19.128 Y19.808 Z4.689
N1000 X19.04 Y19.829 Z4.512
N1005 X18.971 Y19.836 Z4.442
N1010 X18.9 Z4.371
N1015 X18.813 Y19.825 Z4.326
N1020 X18.727 Y19.802 Z4.281
N1025 X18.637 Y19.763 Z4.266
N1030 X18.555 Y19.71 Z4.25
N1035 G3 X19.545 Y18.39 I0.495 J-0.66 F1000.
N1040 X18.555 Y19.71 I-0.495 J0.66
N1045 X18.668 Y19.438 I0.091 J-0.122
N1050 G1 X19.126 Y19.504
N1055 G3 X19.157 Y19.797 I-0.022 J0.151
N1060 G1 Z2.885 F333.33
N1065 X19.128 Y19.808 Z2.689
N1070 X19.04 Y19.829 Z2.512
N1075 X18.971 Y19.836 Z2.442
N1080 X18.9 Z2.371
N1085 X18.813 Y19.825 Z2.326
N1090 X18.727 Y19.802 Z2.281
N1095 X18.637 Y19.763 Z2.266
N1100 X18.555 Y19.71 Z2.25
N1105 G3 X19.545 Y18.39 I0.495 J-0.66 F1000.
N1110 X18.555 Y19.71 I-0.495 J0.66
N1115 X18.668 Y19.438 I0.091 J-0.122
N1120 G1 X19.126 Y19.504
N1125 G3 X19.157 Y19.797 I-0.022 J0.151
N1130 G1 Z1.76 F333.33
N1135 X19.128 Y19.808 Z1.564
N1140 X19.04 Y19.829 Z1.387
N1145 X18.971 Y19.836 Z1.317
N1150 X18.9 Z1.246
N1155 X18.813 Y19.825 Z1.201
N1160 X18.727 Y19.802 Z1.156
N1165 X18.637 Y19.763 Z1.141
N1170 X18.555 Y19.71 Z1.125
N1175 G3 X19.545 Y18.39 I0.495 J-0.66 F1000.
N1180 X18.555 Y19.71 I-0.495 J0.66
N1185 X18.668 Y19.438 I0.091 J-0.122
N1190 G1 X19.126 Y19.504
N1195 G3 X19.157 Y19.797 I-0.022 J0.151
N1200 G1 Z0.635 F333.33
N1205 X19.128 Y19.808 Z0.439
N1210 X19.04 Y19.829 Z0.262
N1215 X18.971 Y19.836 Z0.192
N1220 X18.9 Z0.121
N1225 X18.813 Y19.825 Z0.076
N1230 X18.727 Y19.802 Z0.031
N1235 X18.637 Y19.763 Z0.016
N1240 X18.555 Y19.71 Z0.
N1245 G3 X19.545 Y18.39 I0.495 J-0.66 F1000.
N1250 X18.555 Y19.71 I-0.495 J0.66
N1255 G1 X18.481 Y19.646 Z0.016
N1260 X18.418 Y19.57 Z0.031
N1265 X18.372 Y19.495 Z0.076
N1270 X18.337 Y19.414 Z0.121
N1275 X18.317 Y19.346 Z0.192
N1280 X18.305 Y19.277 Z0.262
N1285 X18.301 Y19.187 Z0.439
N1290 X18.302 Y19.156 Z0.635
N1295 Z27.25
(WHEN USING FUSION 360 FOR PERSONAL USE, THE FEEDRATE OF)
(RAPID MOVES IS REDUCED TO MATCH THE FEEDRATE OF CUTTING)
(MOVES, WHICH CAN INCREASE MACHINING TIME. UNRESTRICTED RAPID)
(MOVES ARE AVAILABLE WITH A FUSION 360 SUBSCRIPTION.)
(2D POCKET3)
N1300 G0 Z29.25
N1305 X38.1 Y19.685
N1310 G1 Z19.25 F1000.
N1315 Z15.25
N1320 Z10.25 F333.33
N1325 G3 Y18.415 I0. J-0.635 F1000.
N1330 G1 X152.4
N1335 G3 Y19.685 I0. J0.635
N1340 G1 X38.1
N1345 Z8.25 F333.33
N1350 G3 Y18.415 I0. J-0.635 F1000.
N1355 G1 X152.4
N1360 G3 Y19.685 I0. J0.635
N1365 G1 X38.1
N1370 Z6.25 F333.33
N1375 G3 Y18.415 I0. J-0.635 F1000.
N1380 G1 X152.4
N1385 G3 Y19.685 I0. J0.635
N1390 G1 X38.1
N1395 Z4.25 F333.33
N1400 G3 Y18.415 I0. J-0.635 F1000.
N1405 G1 X152.4
N1410 G3 Y19.685 I0. J0.635
N1415 G1 X38.1
N1420 Z2.25 F333.33
N1425 G3 Y18.415 I0. J-0.635 F1000.
N1430 G1 X152.4
N1435 G3 Y19.685 I0. J0.635
N1440 G1 X38.1
N1445 Z1.125 F333.33
N1450 G3 Y18.415 I0. J-0.635 F1000.
N1455 G1 X152.4
N1460 G3 Y19.685 I0. J0.635
N1465 G1 X38.1
N1470 Z0. F333.33
N1475 G3 Y18.415 I0. J-0.635 F1000.
N1480 G1 X152.4
N1485 G3 Y19.685 I0. J0.635
N1490 G1 X38.1
N1495 X38.002 Y19.677 Z0.016
N1500 X37.907 Y19.655 Z0.031
N1505 X37.825 Y19.622 Z0.076
N1510 X37.748 Y19.578 Z0.121
N1515 X37.692 Y19.536 Z0.192
N1520 X37.641 Y19.488 Z0.262
N1525 X37.583 Y19.419 Z0.439
N1530 X37.566 Y19.393 Z0.635
N1535 Z29.25
(WHEN USING FUSION 360 FOR PERSONAL USE, THE FEEDRATE OF)
(RAPID MOVES IS REDUCED TO MATCH THE FEEDRATE OF CUTTING)
(MOVES, WHICH CAN INCREASE MACHINING TIME. UNRESTRICTED RAPID)
(MOVES ARE AVAILABLE WITH A FUSION 360 SUBSCRIPTION.)
(2D CONTOUR1)
N1540 G0 X-5.08 Y17.916
N1545 G1 Z27.25 F1000.
N1550 Z17.25
N1555 Z10.885 F333.33
N1560 G18 G2 X-4.445 Z10.25 I0.635 K0. F1000.
N1565 G1 X-3.81
N1570 G17 G3 X-3.175 Y18.551 I0. J0.635
N1575 G1 Y22.225
N1580 G2 X15.875 Y41.275 I19.05 J0.
N1585 G1 X152.4
N1590 G2 X152.922 Y41.232 I0. J-3.175
N1595 G1 X179.366 Y36.825
N1600 G2 X187.325 Y27.429 I-1.566 J-9.395
N1605 G1 Y10.671
N1610 G2 X179.366 Y1.276 I-9.525 J0.
N1615 G1 X152.922 Y-3.132
N1620 G2 X152.4 Y-3.175 I-0.522 J3.132
N1625 G1 X15.875
N1630 G2 X-3.175 Y15.875 I0. J19.05
N1635 G1 Y18.551
N1640 G3 X-3.81 Y19.186 I-0.635 J0.
N1645 G1 X-4.445
N1650 G18 G3 X-5.08 Z10.885 I0. K0.635
N1655 G1 Z17.25
N1660 Y17.916
N1665 Z15.25 F333.33
N1670 Z8.885
N1675 G2 X-4.445 Z8.25 I0.635 K0. F1000.
N1680 G1 X-3.81
N1685 G17 G3 X-3.175 Y18.551 I0. J0.635
N1690 G1 Y22.225
N1695 G2 X15.875 Y41.275 I19.05 J0.
N1700 G1 X152.4
N1705 G2 X152.922 Y41.232 I0. J-3.175
N1710 G1 X179.366 Y36.825
N1715 G2 X187.325 Y27.429 I-1.566 J-9.395
N1720 G1 Y10.671
N1725 G2 X179.366 Y1.276 I-9.525 J0.
N1730 G1 X152.922 Y-3.132
N1735 G2 X152.4 Y-3.175 I-0.522 J3.132
N1740 G1 X15.875
N1745 G2 X-3.175 Y15.875 I0. J19.05
N1750 G1 Y18.551
N1755 G3 X-3.81 Y19.186 I-0.635 J0.
N1760 G1 X-4.445
N1765 G18 G3 X-5.08 Z8.885 I0. K0.635
N1770 G1 Z17.25
N1775 Y17.916
N1780 Z13.25 F333.33
N1785 Z6.885
N1790 G2 X-4.445 Z6.25 I0.635 K0. F1000.
N1795 G1 X-3.81
N1800 G17 G3 X-3.175 Y18.551 I0. J0.635
N1805 G1 Y22.225
N1810 G2 X15.875 Y41.275 I19.05 J0.
N1815 G1 X152.4
N1820 G2 X152.922 Y41.232 I0. J-3.175
N1825 G1 X179.366 Y36.825
N1830 G2 X187.325 Y27.429 I-1.566 J-9.395
N1835 G1 Y10.671
N1840 G2 X179.366 Y1.276 I-9.525 J0.
N1845 G1 X152.922 Y-3.132
N1850 G2 X152.4 Y-3.175 I-0.522 J3.132
N1855 G1 X15.875
N1860 G2 X-3.175 Y15.875 I0. J19.05
N1865 G1 Y18.551
N1870 G3 X-3.81 Y19.186 I-0.635 J0.
N1875 G1 X-4.445
N1880 G18 G3 X-5.08 Z6.885 I0. K0.635
N1885 G1 Z17.25
N1890 Y17.916
N1895 Z11.25 F333.33
N1900 Z4.885
N1905 G2 X-4.445 Z4.25 I0.635 K0. F1000.
N1910 G1 X-3.81
N1915 G17 G3 X-3.175 Y18.551 I0. J0.635
N1920 G1 Y22.225
N1925 G2 X15.875 Y41.275 I19.05 J0.
N1930 G1 X152.4
N1935 G2 X152.922 Y41.232 I0. J-3.175
N1940 G1 X179.366 Y36.825
N1945 G2 X187.325 Y27.429 I-1.566 J-9.395
N1950 G1 Y10.671
N1955 G2 X179.366 Y1.276 I-9.525 J0.
N1960 G1 X152.922 Y-3.132
N1965 G2 X152.4 Y-3.175 I-0.522 J3.132
N1970 G1 X15.875
N1975 G2 X-3.175 Y15.875 I0. J19.05
N1980 G1 Y18.551
N1985 G3 X-3.81 Y19.186 I-0.635 J0.
N1990 G1 X-4.445
N1995 G18 G3 X-5.08 Z4.885 I0. K0.635
N2000 G1 Z17.25
N2005 Y17.916
N2010 Z9.25 F333.33
N2015 Z2.885
N2020 G2 X-4.445 Z2.25 I0.635 K0. F1000.
N2025 G1 X-3.81
N2030 G17 G3 X-3.175 Y18.551 I0. J0.635
N2035 G1 Y22.225
N2040 G2 X15.875 Y41.275 I19.05 J0.
N2045 G1 X27.762
N2050 Z2.9
N2055 X44.112
N2060 Z2.25 F333.33
N2065 X104.926 F1000.
N2070 Z2.9
N2075 X121.276
N2080 Z2.25 F333.33
N2085 X152.4 F1000.
N2090 G2 X152.922 Y41.232 I0. J-3.175
N2095 G1 X179.366 Y36.825
N2100 G2 X187.325 Y27.429 I-1.566 J-9.395
N2105 G1 Y10.671
N2110 G2 X179.366 Y1.276 I-9.525 J0.
N2115 G1 X152.922 Y-3.132
N2120 G2 X152.4 Y-3.175 I-0.522 J3.132
N2125 G1 X126.165
N2130 Z2.9
N2135 X109.815
N2140 Z2.25 F333.33
N2145 X49.569 F1000.
N2150 Z2.9
N2155 X33.22
N2160 Z2.25 F333.33
N2165 X15.875 F1000.
N2170 G2 X-3.175 Y15.875 I0. J19.05
N2175 G1 Y18.551
N2180 G3 X-3.81 Y19.186 I-0.635 J0.
N2185 G1 X-4.445
N2190 G18 G3 X-5.08 Z2.885 I0. K0.635
N2195 G1 Z17.25
N2200 Y17.916
N2205 Z7.25 F333.33
N2210 Z1.76
N2215 G2 X-4.445 Z1.125 I0.635 K0. F1000.
N2220 G1 X-3.81
N2225 G17 G3 X-3.175 Y18.551 I0. J0.635
N2230 G1 Y22.225
N2235 G2 X15.875 Y41.275 I19.05 J0.
N2240 G1 X27.762
N2245 Z2.9
N2250 X44.112
N2255 Z1.125 F333.33
N2260 X104.926 F1000.
N2265 Z2.9
N2270 X121.276
N2275 Z1.125 F333.33
N2280 X152.4 F1000.
N2285 G2 X152.922 Y41.232 I0. J-3.175
N2290 G1 X179.366 Y36.825
N2295 G2 X187.325 Y27.429 I-1.566 J-9.395
N2300 G1 Y10.671
N2305 G2 X179.366 Y1.276 I-9.525 J0.
N2310 G1 X152.922 Y-3.132
N2315 G2 X152.4 Y-3.175 I-0.522 J3.132
N2320 G1 X126.165
N2325 Z2.9
N2330 X109.815
N2335 Z1.125 F333.33
N2340 X49.569 F1000.
N2345 Z2.9
N2350 X33.22
N2355 Z1.125 F333.33
N2360 X15.875 F1000.
N2365 G2 X-3.175 Y15.875 I0. J19.05
N2370 G1 Y18.551
N2375 G3 X-3.81 Y19.186 I-0.635 J0.
N2380 G1 X-4.445
N2385 G18 G3 X-5.08 Z1.76 I0. K0.635
N2390 G1 Z17.25
N2395 Y17.916
N2400 Z6.125 F333.33
N2405 Z0.635
N2410 G2 X-4.445 Z0. I0.635 K0. F1000.
N2415 G1 X-3.81
N2420 G17 G3 X-3.175 Y18.551 I0. J0.635
N2425 G1 Y22.225
N2430 G2 X15.875 Y41.275 I19.05 J0.
N2435 G1 X27.762
N2440 Z2.9
N2445 X44.112
N2450 Z0. F333.33
N2455 X104.926 F1000.
N2460 Z2.9
N2465 X121.276
N2470 Z0. F333.33
N2475 X152.4 F1000.
N2480 G2 X152.922 Y41.232 I0. J-3.175
N2485 G1 X179.366 Y36.825
N2490 G2 X187.325 Y27.429 I-1.566 J-9.395
N2495 G1 Y10.671
N2500 G2 X179.366 Y1.276 I-9.525 J0.
N2505 G1 X152.922 Y-3.132
N2510 G2 X152.4 Y-3.175 I-0.522 J3.132
N2515 G1 X126.165
N2520 Z2.9
N2525 X109.815
N2530 Z0. F333.33
N2535 X49.569 F1000.
N2540 Z2.9
N2545 X33.22
N2550 Z0. F333.33
N2555 X15.875 F1000.
N2560 G2 X-3.175 Y15.875 I0. J19.05
N2565 G1 Y18.551
N2570 G3 X-3.81 Y19.186 I-0.635 J0.
N2575 G1 X-4.445
N2580 G18 G3 X-5.08 Z0.635 I0. K0.635
N2585 G1 Z27.25
N2590 G17
N2595 M9
N2600 G53 G0 Z0.
N2605 M30
%
