%
(CLAMPLGBIT)
(MACHINE)
(  VENDOR AUTODESK)
(  DESCRIPTION GENERIC 3-AXIS)
(T3  D=0.639 CR=0. - ZMIN=0. - FLAT END MILL)
N10 G90 G94 G17 G91.1
N15 G21
(WHEN USING FUSION 360 FOR PERSONAL USE, THE FEEDRATE OF)
(RAPID MOVES IS REDUCED TO MATCH THE FEEDRATE OF CUTTING)
(MOVES, WHICH CAN INCREASE MACHINING TIME. UNRESTRICTED RAPID)
(MOVES ARE AVAILABLE WITH A FUSION 360 SUBSCRIPTION.)
N20 G53 G0 Z0.
(2D POCKET1)
N25 T3 M6
N30 S5000 M3
N35 G54
N40 M8
N45 G0 X2.969 Y128.91
N50 G43 Z35.05 H3
N55 G1 Z25.05 F1000.
N60 Z13.264 F2000.
N65 X2.974 Z13.239
N70 X2.987 Z13.219
N75 X3.008 Z13.205
N80 X3.033 Z13.2
N85 X10.793
N90 X31.301 F1000.
N95 X31.338 Y128.916
N100 X31.37 Y128.935
N105 X31.394 Y128.963
N110 X31.407 Y128.999
N115 Y129.036
N120 X31.394 Y129.071
N125 X31.37 Y129.1
N130 X31.338 Y129.119
N135 X31.301 Y129.125
N140 X21.047
N145 X10.793 Y129.017
N150 X9.633 Y128.689
N155 X9.598 Y128.672
N160 X9.572 Y128.645
N165 X9.557 Y128.609
N170 X9.555 Y128.571
N175 X9.567 Y128.534
N180 X9.591 Y128.504
N185 X9.624 Y128.485
N190 X9.662 Y128.478
N195 X32.447
N200 X32.484 Y128.484
N205 X32.516 Y128.503
N210 X32.54 Y128.532
N215 X32.553 Y128.567
N220 Y128.604
N225 X32.54 Y128.64
N230 X32.516 Y128.668
N235 X32.484 Y128.687
N240 X32.447 Y128.694
N245 X21.054
N250 X9.662 Y128.586
N255 X8.963 Y128.251
N260 X8.93 Y128.226
N265 X8.909 Y128.19
N270 X8.903 Y128.15
N275 X8.912 Y128.11
N280 X8.936 Y128.076
N285 X8.97 Y128.054
N290 X9.011 Y128.046
N295 X33.093
N300 X33.13 Y128.052
N305 X33.163 Y128.071
N310 X33.187 Y128.1
N315 X33.199 Y128.135
N320 Y128.173
N325 X33.187 Y128.208
N330 X33.163 Y128.237
N335 X33.13 Y128.255
N340 X33.093 Y128.262
N345 X21.052
N350 X9.011 Y128.154
N355 X8.33 Y127.818
N360 X8.298 Y127.793
N365 X8.277 Y127.758
N370 X8.272 Y127.717
N375 X8.281 Y127.677
N380 X8.305 Y127.644
N385 X8.339 Y127.622
N390 X8.379 Y127.614
N395 X33.72
N400 X33.757 Y127.621
N405 X33.789 Y127.639
N410 X33.813 Y127.668
N415 X33.826 Y127.703
N420 Y127.741
N425 X33.813 Y127.776
N430 X33.789 Y127.805
N435 X33.757 Y127.824
N440 X33.72 Y127.83
N445 X21.05
N450 X8.379 Y127.722
N455 X8.343 Y127.716
N460 X8.312 Y127.697
N465 X7.919 Y127.374
N470 X7.894 Y127.345
N475 X7.881 Y127.31
N480 Y127.272
N485 X7.894 Y127.237
N490 X7.918 Y127.208
N495 X7.95 Y127.189
N500 X7.988 Y127.182
N505 X34.107
N510 X34.144 Y127.189
N515 X34.176 Y127.208
N520 X34.2 Y127.236
N525 X34.213 Y127.272
N530 Y127.309
N535 X34.2 Y127.344
N540 X34.176 Y127.373
N545 X34.144 Y127.392
N550 X34.107 Y127.398
N555 X21.047
N560 X7.988 Y127.29
N565 X7.953 Y127.284
N570 X7.922 Y127.267
N575 X7.509 Y126.943
N580 X7.484 Y126.915
N585 X7.47 Y126.88
N590 X7.469 Y126.842
N595 X7.481 Y126.806
N600 X7.506 Y126.776
N605 X7.538 Y126.757
N610 X7.576 Y126.751
N615 X34.514
N620 X34.55 Y126.757
N625 X34.583 Y126.776
N630 X34.607 Y126.805
N635 X34.62 Y126.84
N640 Y126.877
N645 X34.607 Y126.913
N650 X34.583 Y126.941
N655 X34.55 Y126.96
N660 X34.514 Y126.966
N665 X21.045
N670 X7.576 Y126.859
N675 X7.547 Y126.855
N680 X7.521 Y126.843
N685 X7.499 Y126.826
N690 X7.186 Y126.502
N695 X7.166 Y126.472
N700 X7.156 Y126.438
N705 X7.159 Y126.402
N710 X7.173 Y126.369
N715 X7.197 Y126.342
N720 X7.228 Y126.325
N725 X7.264 Y126.319
N730 X34.841
N735 X34.877 Y126.325
N740 X34.91 Y126.344
N745 X34.934 Y126.373
N750 X34.947 Y126.408
N755 Y126.445
N760 X34.934 Y126.481
N765 X34.91 Y126.509
N770 X34.877 Y126.528
N775 X34.841 Y126.535
N780 X21.052
N785 X7.264 Y126.427
N790 X7.232 Y126.422
N795 X7.203 Y126.407
N800 X7.179 Y126.385
N805 X6.946 Y126.083
N810 X6.928 Y126.047
N815 X6.924 Y126.008
N820 X6.935 Y125.969
N825 X6.959 Y125.937
N830 X6.992 Y125.916
N835 X7.032 Y125.909
N840 X35.068 Y125.93
N845 X35.105 Y125.936
N850 X35.137 Y125.955
N855 X35.161 Y125.984
N860 X35.174 Y126.019
N865 Y126.057
N870 X35.161 Y126.092
N875 X35.137 Y126.121
N880 X35.104 Y126.139
N885 X35.068 Y126.146
N890 X21.05 Y126.135
N895 X7.032 Y126.017
N900 X7. Y126.012
N905 X6.971 Y125.998
N910 X6.948 Y125.976
N915 X6.675 Y125.63
N920 X6.656 Y125.595
N925 X6.652 Y125.555
N930 X6.662 Y125.516
N935 X6.686 Y125.484
N940 X6.72 Y125.463
N945 X6.76 Y125.455
N950 X35.335
N955 X35.372 Y125.462
N960 X35.404 Y125.48
N965 X35.428 Y125.509
N970 X35.441 Y125.544
N975 Y125.582
N980 X35.428 Y125.617
N985 X35.404 Y125.646
N990 X35.372 Y125.665
N995 X35.335 Y125.671
N1000 X21.047
N1005 X6.76 Y125.563
N1010 X6.723 Y125.557
N1015 X6.692 Y125.538
N1020 X6.668 Y125.51
N1025 X6.475 Y125.187
N1030 X6.461 Y125.151
N1035 Y125.114
N1040 X6.474 Y125.078
N1045 X6.498 Y125.049
N1050 X6.53 Y125.03
N1055 X6.567 Y125.023
N1060 X35.522
N1065 X35.559 Y125.03
N1070 X35.591 Y125.049
N1075 X35.616 Y125.077
N1080 X35.628 Y125.113
N1085 Y125.15
N1090 X35.616 Y125.185
N1095 X35.591 Y125.214
N1100 X35.559 Y125.233
N1105 X35.522 Y125.239
N1110 X21.045
N1115 X6.567 Y125.131
N1120 X6.535 Y125.126
N1125 X6.505 Y125.111
N1130 X6.482 Y125.088
N1135 X6.466 Y125.059
N1140 X6.353 Y124.735
N1145 X6.347 Y124.695
N1150 X6.357 Y124.655
N1155 X6.381 Y124.622
N1160 X6.415 Y124.599
N1165 X6.455 Y124.592
N1170 X35.649
N1175 X35.686 Y124.598
N1180 X35.719 Y124.617
N1185 X35.743 Y124.646
N1190 X35.756 Y124.681
N1195 Y124.718
N1200 X35.743 Y124.754
N1205 X35.719 Y124.782
N1210 X35.686 Y124.801
N1215 X35.649 Y124.808
N1220 X21.052
N1225 X6.455 Y124.7
N1230 X6.424 Y124.695
N1235 X6.395 Y124.681
N1240 X6.372 Y124.66
N1245 X6.356 Y124.633
N1250 X6.223 Y124.309
N1255 X6.215 Y124.275
N1260 X6.219 Y124.24
N1265 X6.233 Y124.208
N1270 X6.257 Y124.182
N1275 X6.288 Y124.166
N1280 X6.323 Y124.16
N1285 X35.777
N1290 X35.814 Y124.166
N1295 X35.846 Y124.185
N1300 X35.87 Y124.214
N1305 X35.883 Y124.249
N1310 Y124.287
N1315 X35.87 Y124.322
N1320 X35.846 Y124.351
N1325 X35.814 Y124.369
N1330 X35.777 Y124.376
N1335 X21.05
N1340 X6.323 Y124.268
N1345 X6.292 Y124.263
N1350 X6.263 Y124.249
N1355 X6.24 Y124.228
N1360 X6.224 Y124.201
N1365 X6.091 Y123.877
N1370 X6.083 Y123.843
N1375 X6.086 Y123.808
N1380 X6.101 Y123.776
N1385 X6.125 Y123.75
N1390 X6.156 Y123.734
N1395 X6.191 Y123.728
N1400 X35.904
N1405 X35.941 Y123.735
N1410 X35.974 Y123.753
N1415 X35.998 Y123.782
N1420 X36.01 Y123.817
N1425 Y123.855
N1430 X35.998 Y123.89
N1435 X35.974 Y123.919
N1440 X35.941 Y123.937
N1445 X35.904 Y123.944
N1450 X21.047
N1455 X6.191 Y123.836
N1460 X6.154 Y123.829
N1465 X6.121 Y123.81
N1470 X6.097 Y123.781
N1475 X6.085 Y123.746
N1480 X6.032 Y123.422
N1485 Y123.384
N1490 X6.045 Y123.35
N1495 X6.069 Y123.321
N1500 X6.102 Y123.303
N1505 X6.138 Y123.296
N1510 X35.972
N1515 X36.008 Y123.303
N1520 X36.041 Y123.322
N1525 X36.065 Y123.35
N1530 X36.078 Y123.385
N1535 Y123.423
N1540 X36.065 Y123.458
N1545 X36.041 Y123.487
N1550 X36.008 Y123.506
N1555 X35.972 Y123.512
N1560 X21.055
N1565 X6.138 Y123.404
N1570 X6.103 Y123.398
N1575 X6.071 Y123.38
N1580 X6.047 Y123.353
N1585 X6.034 Y123.32
N1590 X5.961 Y122.996
N1595 X5.959 Y122.958
N1600 X5.971 Y122.921
N1605 X5.995 Y122.891
N1610 X6.028 Y122.871
N1615 X6.066 Y122.865
N1620 X36.039
N1625 X36.076 Y122.871
N1630 X36.108 Y122.89
N1635 X36.132 Y122.918
N1640 X36.145 Y122.954
N1645 Y122.991
N1650 X36.132 Y123.026
N1655 X36.108 Y123.055
N1660 X36.076 Y123.074
N1665 X36.039 Y123.08
N1670 X21.052
N1675 X6.066 Y122.972
N1680 X6.03 Y122.966
N1685 X5.999 Y122.949
N1690 X5.975 Y122.922
N1695 X5.961 Y122.888
N1700 X5.888 Y122.564
N1705 X5.887 Y122.526
N1710 X5.899 Y122.489
N1715 X5.923 Y122.459
N1720 X5.956 Y122.44
N1725 X5.994 Y122.433
N1730 X36.106
N1735 X36.143 Y122.439
N1740 X36.176 Y122.458
N1745 X36.2 Y122.487
N1750 X36.213 Y122.522
N1755 Y122.559
N1760 X36.2 Y122.595
N1765 X36.176 Y122.623
N1770 X36.143 Y122.642
N1775 X36.106 Y122.649
N1780 X21.05
N1785 X5.994 Y122.541
N1790 X5.958 Y122.534
N1795 X5.927 Y122.517
N1800 X5.903 Y122.49
N1805 X5.889 Y122.456
N1810 X5.816 Y122.133
N1815 X5.814 Y122.094
N1820 X5.826 Y122.058
N1825 X5.85 Y122.028
N1830 X5.883 Y122.008
N1835 X5.921 Y122.001
N1840 X36.194
N1845 X36.231 Y122.007
N1850 X36.263 Y122.026
N1855 X36.287 Y122.055
N1860 X36.3 Y122.09
N1865 Y122.128
N1870 X36.287 Y122.163
N1875 X36.263 Y122.192
N1880 X36.231 Y122.21
N1885 X36.194 Y122.217
N1890 X21.058
N1895 X5.921 Y122.109
N1900 X5.886 Y122.103
N1905 X5.854 Y122.085
N1910 X5.83 Y122.058
N1915 X5.817 Y122.025
N1920 X5.744 Y121.701
N1925 X5.742 Y121.662
N1930 X5.754 Y121.626
N1935 X5.778 Y121.596
N1940 X5.811 Y121.576
N1945 X5.849 Y121.569
N1950 X36.261
N1955 X36.298 Y121.576
N1960 X36.331 Y121.594
N1965 X36.355 Y121.623
N1970 X36.368 Y121.658
N1975 Y121.696
N1980 X36.355 Y121.731
N1985 X36.331 Y121.76
N1990 X36.298 Y121.779
N1995 X36.261 Y121.785
N2000 X21.055
N2005 X5.849 Y121.677
N2010 X5.813 Y121.671
N2015 X5.782 Y121.653
N2020 X5.758 Y121.626
N2025 X5.744 Y121.593
N2030 X5.671 Y121.269
N2035 X5.67 Y121.231
N2040 X5.682 Y121.194
N2045 X5.706 Y121.164
N2050 X5.739 Y121.144
N2055 X5.777 Y121.137
N2060 X36.329
N2065 X36.366 Y121.144
N2070 X36.398 Y121.163
N2075 X36.422 Y121.191
N2080 X36.435 Y121.227
N2085 Y121.264
N2090 X36.422 Y121.299
N2095 X36.398 Y121.328
N2100 X36.366 Y121.347
N2105 X36.329 Y121.353
N2110 X21.053
N2115 X5.777 Y121.245
N2120 X5.741 Y121.239
N2125 X5.71 Y121.221
N2130 X5.686 Y121.194
N2135 X5.672 Y121.161
N2140 X5.599 Y120.837
N2145 X5.597 Y120.799
N2150 X5.609 Y120.762
N2155 X5.633 Y120.732
N2160 X5.666 Y120.712
N2165 X5.704 Y120.706
N2170 X36.396
N2175 X36.433 Y120.712
N2180 X36.466 Y120.731
N2185 X36.49 Y120.76
N2190 X36.502 Y120.795
N2195 Y120.832
N2200 X36.49 Y120.867
N2205 X36.466 Y120.896
N2210 X36.433 Y120.915
N2215 X36.396 Y120.921
N2220 X21.05
N2225 X5.704 Y120.814
N2230 X5.669 Y120.807
N2235 X5.637 Y120.79
N2240 X5.613 Y120.763
N2245 X5.6 Y120.729
N2250 X5.527 Y120.406
N2255 X5.525 Y120.367
N2260 X5.537 Y120.33
N2265 X5.561 Y120.3
N2270 X5.594 Y120.281
N2275 X5.632 Y120.274
N2280 X36.484
N2285 X36.52 Y120.28
N2290 X36.553 Y120.299
N2295 X36.577 Y120.328
N2300 X36.59 Y120.363
N2305 Y120.4
N2310 X36.577 Y120.436
N2315 X36.553 Y120.464
N2320 X36.52 Y120.483
N2325 X36.484 Y120.49
N2330 X21.058
N2335 X5.632 Y120.382
N2340 X5.596 Y120.375
N2345 X5.565 Y120.358
N2350 X5.541 Y120.331
N2355 X5.527 Y120.298
N2360 X5.454 Y119.974
N2365 X5.453 Y119.935
N2370 X5.464 Y119.899
N2375 X5.489 Y119.869
N2380 X5.522 Y119.849
N2385 X5.559 Y119.842
N2390 X36.551
N2395 X36.588 Y119.849
N2400 X36.62 Y119.867
N2405 X36.644 Y119.896
N2410 X36.657 Y119.931
N2415 Y119.969
N2420 X36.644 Y120.004
N2425 X36.62 Y120.033
N2430 X36.588 Y120.051
N2435 X36.551 Y120.058
N2440 X21.055
N2445 X5.559 Y119.95
N2450 X5.524 Y119.944
N2455 X5.493 Y119.926
N2460 X5.469 Y119.899
N2465 X5.455 Y119.866
N2470 X5.382 Y119.542
N2475 X5.38 Y119.503
N2480 X5.392 Y119.467
N2485 X5.416 Y119.437
N2490 X5.449 Y119.417
N2495 X5.487 Y119.41
N2500 X36.618
N2505 X36.655 Y119.417
N2510 X36.688 Y119.435
N2515 X36.712 Y119.464
N2520 X36.725 Y119.499
N2525 Y119.537
N2530 X36.712 Y119.572
N2535 X36.688 Y119.601
N2540 X36.655 Y119.62
N2545 X36.618 Y119.626
N2550 X21.053
N2555 X5.487 Y119.518
N2560 X5.452 Y119.512
N2565 X5.42 Y119.494
N2570 X5.396 Y119.467
N2575 X5.383 Y119.434
N2580 X5.309 Y119.11
N2585 X5.308 Y119.072
N2590 X5.32 Y119.035
N2595 X5.344 Y119.005
N2600 X5.377 Y118.985
N2605 X5.415 Y118.978
N2610 X36.686
N2615 X36.723 Y118.985
N2620 X36.755 Y119.004
N2625 X36.779 Y119.032
N2630 X36.792 Y119.068
N2635 Y119.105
N2640 X36.779 Y119.14
N2645 X36.755 Y119.169
N2650 X36.723 Y119.188
N2655 X36.686 Y119.194
N2660 X21.05
N2665 X5.415 Y119.086
N2670 X5.379 Y119.08
N2675 X5.348 Y119.063
N2680 X5.324 Y119.036
N2685 X5.31 Y119.002
N2690 X5.237 Y118.678
N2695 X5.235 Y118.64
N2700 X5.247 Y118.603
N2705 X5.271 Y118.573
N2710 X5.305 Y118.554
N2715 X5.342 Y118.547
N2720 X36.753
N2725 X36.79 Y118.553
N2730 X36.823 Y118.572
N2735 X36.847 Y118.601
N2740 X36.86 Y118.636
N2745 Y118.673
N2750 X36.847 Y118.709
N2755 X36.823 Y118.737
N2760 X36.79 Y118.756
N2765 X36.753 Y118.763
N2770 X21.048
N2775 X5.342 Y118.655
N2780 X5.307 Y118.648
N2785 X5.275 Y118.631
N2790 X5.252 Y118.604
N2795 X5.238 Y118.57
N2800 X5.165 Y118.247
N2805 X5.163 Y118.208
N2810 X5.175 Y118.172
N2815 X5.199 Y118.141
N2820 X5.232 Y118.122
N2825 X5.27 Y118.115
N2830 X36.841
N2835 X36.878 Y118.121
N2840 X36.91 Y118.14
N2845 X36.934 Y118.169
N2850 X36.947 Y118.204
N2855 Y118.242
N2860 X36.934 Y118.277
N2865 X36.91 Y118.306
N2870 X36.878 Y118.324
N2875 X36.841 Y118.331
N2880 X21.055
N2885 X5.27 Y118.223
N2890 X5.235 Y118.217
N2895 X5.203 Y118.199
N2900 X5.179 Y118.172
N2905 X5.166 Y118.139
N2910 X5.092 Y117.815
N2915 X5.091 Y117.776
N2920 X5.103 Y117.74
N2925 X5.127 Y117.71
N2930 X5.16 Y117.69
N2935 X5.198 Y117.683
N2940 X36.908
N2945 X36.945 Y117.69
N2950 X36.977 Y117.708
N2955 X37.002 Y117.737
N2960 X37.014 Y117.772
N2965 Y117.81
N2970 X37.002 Y117.845
N2975 X36.977 Y117.874
N2980 X36.945 Y117.892
N2985 X36.908 Y117.899
N2990 X21.053
N2995 X5.198 Y117.791
N3000 X5.162 Y117.785
N3005 X5.131 Y117.767
N3010 X5.107 Y117.74
N3015 X5.093 Y117.707
N3020 X5.02 Y117.383
N3025 X5.018 Y117.345
N3030 X5.03 Y117.308
N3035 X5.054 Y117.278
N3040 X5.087 Y117.258
N3045 X5.125 Y117.251
N3050 X36.976
N3055 X37.012 Y117.258
N3060 X37.045 Y117.277
N3065 X37.069 Y117.305
N3070 X37.082 Y117.34
N3075 Y117.378
N3080 X37.069 Y117.413
N3085 X37.045 Y117.442
N3090 X37.012 Y117.461
N3095 X36.976 Y117.467
N3100 X21.05
N3105 X5.125 Y117.359
N3110 X5.09 Y117.353
N3115 X5.058 Y117.335
N3120 X5.034 Y117.308
N3125 X5.021 Y117.275
N3130 X4.948 Y116.951
N3135 X4.946 Y116.913
N3140 X4.958 Y116.876
N3145 X4.982 Y116.846
N3150 X5.015 Y116.826
N3155 X5.053 Y116.82
N3160 X37.043
N3165 X37.08 Y116.826
N3170 X37.112 Y116.845
N3175 X37.136 Y116.873
N3180 X37.149 Y116.909
N3185 Y116.946
N3190 X37.136 Y116.981
N3195 X37.112 Y117.01
N3200 X37.08 Y117.029
N3205 X37.043 Y117.035
N3210 X21.048
N3215 X5.053 Y116.927
N3220 X5.018 Y116.921
N3225 X4.986 Y116.904
N3230 X4.962 Y116.877
N3235 X4.948 Y116.843
N3240 X4.875 Y116.519
N3245 X4.874 Y116.481
N3250 X4.886 Y116.444
N3255 X4.91 Y116.414
N3260 X4.943 Y116.395
N3265 X4.981 Y116.388
N3270 X37.13
N3275 X37.167 Y116.394
N3280 X37.2 Y116.413
N3285 X37.224 Y116.442
N3290 X37.237 Y116.477
N3295 Y116.514
N3300 X37.224 Y116.55
N3305 X37.2 Y116.578
N3310 X37.167 Y116.597
N3315 X37.13 Y116.604
N3320 X21.056
N3325 X4.981 Y116.496
N3330 X4.945 Y116.489
N3335 X4.914 Y116.472
N3340 X4.89 Y116.445
N3345 X4.876 Y116.411
N3350 X4.803 Y116.088
N3355 X4.801 Y116.049
N3360 X4.813 Y116.013
N3365 X4.837 Y115.983
N3370 X4.87 Y115.963
N3375 X4.908 Y115.956
N3380 X37.198
N3385 X37.235 Y115.962
N3390 X37.267 Y115.981
N3395 X37.291 Y116.01
N3400 X37.304 Y116.045
N3405 Y116.083
N3410 X37.291 Y116.118
N3415 X37.267 Y116.147
N3420 X37.235 Y116.165
N3425 X37.198 Y116.172
N3430 X21.053
N3435 X4.908 Y116.064
N3440 X4.873 Y116.058
N3445 X4.842 Y116.041
N3450 X4.818 Y116.014
N3455 X4.804 Y115.982
N3460 X4.731 Y115.682
N3465 X4.729 Y115.643
N3470 X4.74 Y115.606
N3475 X4.764 Y115.575
N3480 X4.798 Y115.555
N3485 X4.836 Y115.548
N3490 X37.265 Y115.569
N3495 X37.302 Y115.575
N3500 X37.335 Y115.594
N3505 X37.359 Y115.623
N3510 X37.371 Y115.658
N3515 Y115.695
N3520 X37.359 Y115.731
N3525 X37.334 Y115.759
N3530 X37.302 Y115.778
N3535 X37.265 Y115.785
N3540 X21.05 Y115.774
N3545 X4.836 Y115.656
N3550 X4.8 Y115.65
N3555 X4.768 Y115.632
N3560 X4.744 Y115.604
N3565 X4.731 Y115.57
N3570 X4.658 Y115.223
N3575 X4.657 Y115.184
N3580 X4.669 Y115.148
N3585 X4.693 Y115.119
N3590 X4.726 Y115.099
N3595 X4.764 Y115.092
N3600 X37.333
N3605 X37.37 Y115.099
N3610 X37.402 Y115.118
N3615 X37.426 Y115.146
N3620 X37.439 Y115.182
N3625 Y115.219
N3630 X37.426 Y115.254
N3635 X37.402 Y115.283
N3640 X37.37 Y115.302
N3645 X37.333 Y115.308
N3650 X21.048
N3655 X4.764 Y115.2
N3660 X4.728 Y115.194
N3665 X4.697 Y115.176
N3670 X4.673 Y115.149
N3675 X4.659 Y115.116
N3680 X4.586 Y114.792
N3685 X4.584 Y114.754
N3690 X4.596 Y114.717
N3695 X4.62 Y114.687
N3700 X4.653 Y114.667
N3705 X4.691 Y114.661
N3710 X37.42
N3715 X37.457 Y114.667
N3720 X37.489 Y114.686
N3725 X37.514 Y114.715
N3730 X37.526 Y114.75
N3735 Y114.787
N3740 X37.514 Y114.822
N3745 X37.489 Y114.851
N3750 X37.457 Y114.87
N3755 X37.42 Y114.876
N3760 X21.056
N3765 X4.691 Y114.769
N3770 X4.656 Y114.762
N3775 X4.624 Y114.745
N3780 X4.6 Y114.718
N3785 X4.587 Y114.684
N3790 X4.514 Y114.36
N3795 X4.512 Y114.322
N3800 X4.524 Y114.285
N3805 X4.548 Y114.255
N3810 X4.581 Y114.236
N3815 X4.619 Y114.229
N3820 X37.487
N3825 X37.524 Y114.235
N3830 X37.557 Y114.254
N3835 X37.581 Y114.283
N3840 X37.594 Y114.318
N3845 Y114.355
N3850 X37.581 Y114.391
N3855 X37.557 Y114.419
N3860 X37.524 Y114.438
N3865 X37.487 Y114.445
N3870 X21.053
N3875 X4.619 Y114.337
N3880 X4.583 Y114.33
N3885 X4.552 Y114.313
N3890 X4.528 Y114.286
N3895 X4.514 Y114.253
N3900 X4.441 Y113.929
N3905 X4.44 Y113.89
N3910 X4.452 Y113.854
N3915 X4.476 Y113.824
N3920 X4.509 Y113.804
N3925 X4.547 Y113.797
N3930 X37.555
N3935 X37.592 Y113.804
N3940 X37.624 Y113.822
N3945 X37.648 Y113.851
N3950 X37.661 Y113.886
N3955 Y113.924
N3960 X37.648 Y113.959
N3965 X37.624 Y113.988
N3970 X37.592 Y114.006
N3975 X37.555 Y114.013
N3980 X21.051
N3985 X4.547 Y113.905
N3990 X4.511 Y113.899
N3995 X4.48 Y113.881
N4000 X4.456 Y113.854
N4005 X4.442 Y113.821
N4010 X4.369 Y113.497
N4015 X4.367 Y113.458
N4020 X4.379 Y113.422
N4025 X4.403 Y113.392
N4030 X4.436 Y113.372
N4035 X4.474 Y113.365
N4040 X37.622
N4045 X37.659 Y113.372
N4050 X37.692 Y113.39
N4055 X37.716 Y113.419
N4060 X37.729 Y113.454
N4065 Y113.492
N4070 X37.716 Y113.527
N4075 X37.692 Y113.556
N4080 X37.659 Y113.575
N4085 X37.622 Y113.581
N4090 X21.048
N4095 X4.474 Y113.473
N4100 X4.439 Y113.467
N4105 X4.407 Y113.449
N4110 X4.383 Y113.422
N4115 X4.37 Y113.389
N4120 X4.297 Y113.065
N4125 X4.295 Y113.027
N4130 X4.307 Y112.99
N4135 X4.331 Y112.96
N4140 X4.364 Y112.94
N4145 X4.402 Y112.933
N4150 X37.69
N4155 X37.727 Y112.94
N4160 X37.759 Y112.959
N4165 X37.783 Y112.987
N4170 X37.796 Y113.023
N4175 Y113.06
N4180 X37.783 Y113.095
N4185 X37.759 Y113.124
N4190 X37.727 Y113.143
N4195 X37.69 Y113.149
N4200 X21.046
N4205 X4.402 Y113.041
N4210 X4.366 Y113.035
N4215 X4.335 Y113.018
N4220 X4.311 Y112.991
N4225 X4.297 Y112.957
N4230 X4.224 Y112.633
N4235 X4.223 Y112.595
N4240 X4.235 Y112.558
N4245 X4.259 Y112.528
N4250 X4.292 Y112.509
N4255 X4.33 Y112.502
N4260 X37.777
N4265 X37.814 Y112.508
N4270 X37.847 Y112.527
N4275 X37.871 Y112.556
N4280 X37.883 Y112.591
N4285 Y112.628
N4290 X37.871 Y112.664
N4295 X37.847 Y112.692
N4300 X37.814 Y112.711
N4305 X37.777 Y112.718
N4310 X21.053
N4315 X4.33 Y112.61
N4320 X4.294 Y112.603
N4325 X4.263 Y112.586
N4330 X4.239 Y112.559
N4335 X4.225 Y112.525
N4340 X4.152 Y112.202
N4345 X4.15 Y112.163
N4350 X4.162 Y112.127
N4355 X4.186 Y112.096
N4360 X4.219 Y112.077
N4365 X4.257 Y112.07
N4370 X37.845
N4375 X37.882 Y112.076
N4380 X37.914 Y112.095
N4385 X37.938 Y112.124
N4390 X37.951 Y112.159
N4395 Y112.197
N4400 X37.938 Y112.232
N4405 X37.914 Y112.26
N4410 X37.882 Y112.279
N4415 X37.845 Y112.286
N4420 X21.051
N4425 X4.257 Y112.178
N4430 X4.222 Y112.172
N4435 X4.19 Y112.154
N4440 X4.166 Y112.127
N4445 X4.153 Y112.094
N4450 X4.08 Y111.77
N4455 X4.078 Y111.731
N4460 X4.09 Y111.695
N4465 X4.114 Y111.665
N4470 X4.147 Y111.645
N4475 X4.185 Y111.638
N4480 X37.912
N4485 X37.949 Y111.645
N4490 X37.981 Y111.663
N4495 X38.006 Y111.692
N4500 X38.018 Y111.727
N4505 Y111.765
N4510 X38.006 Y111.8
N4515 X37.981 Y111.829
N4520 X37.949 Y111.847
N4525 X37.912 Y111.854
N4530 X21.048
N4535 X4.185 Y111.746
N4540 X4.149 Y111.74
N4545 X4.118 Y111.722
N4550 X4.094 Y111.695
N4555 X4.08 Y111.662
N4560 X4.007 Y111.338
N4565 X4.006 Y111.3
N4570 X4.018 Y111.263
N4575 X4.042 Y111.233
N4580 X4.075 Y111.213
N4585 X4.112 Y111.206
N4590 X37.979
N4595 X38.016 Y111.213
N4600 X38.049 Y111.232
N4605 X38.073 Y111.26
N4610 X38.086 Y111.295
N4615 Y111.333
N4620 X38.073 Y111.368
N4625 X38.049 Y111.397
N4630 X38.016 Y111.416
N4635 X37.979 Y111.422
N4640 X21.046
N4645 X4.112 Y111.314
N4650 X4.079 Y111.309
N4655 X4.049 Y111.293
N4660 X4.025 Y111.269
N4665 X4.01 Y111.239
N4670 X4.005 Y111.205
N4675 X4.009 Y110.876
N4680 X4.014 Y110.843
N4685 X4.03 Y110.813
N4690 X4.054 Y110.79
N4695 X4.084 Y110.775
N4700 X4.117 Y110.77
N4705 X37.983
N4710 X38.063
N4715 X38.073 F2000.
N4720 X38.389 Y110.82
N4725 X38.413 Y110.824 Z13.205
N4730 X38.433 Y110.827 Z13.219
N4735 X38.447 Y110.83 Z13.239
N4740 X38.452 Z13.264
N4745 Z35.05 F1000.
(WHEN USING FUSION 360 FOR PERSONAL USE, THE FEEDRATE OF)
(RAPID MOVES IS REDUCED TO MATCH THE FEEDRATE OF CUTTING)
(MOVES, WHICH CAN INCREASE MACHINING TIME. UNRESTRICTED RAPID)
(MOVES ARE AVAILABLE WITH A FUSION 360 SUBSCRIPTION.)
(2D POCKET2)
N4750 G0 X21.1 Y21.114
N4755 G1 Z35.05 F1000.
N4760 Z25.05
N4765 Z21.55 F2000.
N4770 Z13.114 F333.33
N4775 Y21.109 Z13.089
N4780 Y21.095 Z13.069
N4785 Y21.074 Z13.055
N4790 Y21.05 Z13.05
N4795 G3 X21.607 I0.253 J0. F1000.
N4800 X20.493 I-0.557 J0.
N4805 X22.214 I0.86 J0.
N4810 X19.886 I-1.164 J0.
N4815 X22.821 I1.467 J0.
N4820 X19.279 I-1.771 J0.
N4825 X23.428 I2.074 J0.
N4830 X18.672 I-2.378 J0.
N4835 X24.035 I2.682 J0.
N4840 X18.065 I-2.985 J0.
N4845 X24.642 I3.289 J0.
N4850 X17.458 I-3.592 J0.
N4855 X24.642 I3.592 J0.
N4860 G1 X21.489 Y21.116
N4865 X21.469 Y21.109
N4870 X21.458 Y21.09
N4875 X21.461 Y21.069
N4880 X21.477 Y21.054
N4885 X21.498 Y21.053
N4890 X21.515 Y21.066
N4895 X21.521 Y21.087
N4900 X21.511 Y21.106
N4905 X21.492 Y21.115
N4910 X21.1 Y21.114
N4915 Z7.114 F333.33
N4920 Y21.109 Z7.089
N4925 Y21.095 Z7.069
N4930 Y21.074 Z7.055
N4935 Y21.05 Z7.05
N4940 G3 X21.607 I0.253 J0. F1000.
N4945 X20.493 I-0.557 J0.
N4950 X22.214 I0.86 J0.
N4955 X19.886 I-1.164 J0.
N4960 X22.821 I1.467 J0.
N4965 X19.279 I-1.771 J0.
N4970 X23.428 I2.074 J0.
N4975 X18.672 I-2.378 J0.
N4980 X24.035 I2.682 J0.
N4985 X18.065 I-2.985 J0.
N4990 X24.642 I3.289 J0.
N4995 X17.458 I-3.592 J0.
N5000 X24.642 I3.592 J0.
N5005 G1 X21.489 Y21.116
N5010 X21.469 Y21.109
N5015 X21.458 Y21.09
N5020 X21.461 Y21.069
N5025 X21.477 Y21.054
N5030 X21.498 Y21.053
N5035 X21.515 Y21.066
N5040 X21.521 Y21.087
N5045 X21.511 Y21.106
N5050 X21.492 Y21.115
N5055 X21.1 Y21.114
N5060 Z3.589 F333.33
N5065 Y21.109 Z3.564
N5070 Y21.095 Z3.544
N5075 Y21.074 Z3.53
N5080 Y21.05 Z3.525
N5085 G3 X21.607 I0.253 J0. F1000.
N5090 X20.493 I-0.557 J0.
N5095 X22.214 I0.86 J0.
N5100 X19.886 I-1.164 J0.
N5105 X22.821 I1.467 J0.
N5110 X19.279 I-1.771 J0.
N5115 X23.428 I2.074 J0.
N5120 X18.672 I-2.378 J0.
N5125 X24.035 I2.682 J0.
N5130 X18.065 I-2.985 J0.
N5135 X24.642 I3.289 J0.
N5140 X17.458 I-3.592 J0.
N5145 X24.642 I3.592 J0.
N5150 G1 X21.489 Y21.116
N5155 X21.469 Y21.109
N5160 X21.458 Y21.09
N5165 X21.461 Y21.069
N5170 X21.477 Y21.054
N5175 X21.498 Y21.053
N5180 X21.515 Y21.066
N5185 X21.521 Y21.087
N5190 X21.511 Y21.106
N5195 X21.492 Y21.115
N5200 X21.1 Y21.114
N5205 Z0.064 F333.33
N5210 Y21.109 Z0.039
N5215 Y21.095 Z0.019
N5220 Y21.074 Z0.005
N5225 Y21.05 Z0.
N5230 G3 X21.607 I0.253 J0. F1000.
N5235 X20.493 I-0.557 J0.
N5240 X22.214 I0.86 J0.
N5245 X19.886 I-1.164 J0.
N5250 X22.821 I1.467 J0.
N5255 X19.279 I-1.771 J0.
N5260 X23.428 I2.074 J0.
N5265 X18.672 I-2.378 J0.
N5270 X24.035 I2.682 J0.
N5275 X18.065 I-2.985 J0.
N5280 X24.642 I3.289 J0.
N5285 X17.458 I-3.592 J0.
N5290 X24.642 I3.592 J0.
N5295 G1 X24.638 Y21.072 Z0.009 F2000.
N5300 X24.627 Y21.092 Z0.019
N5305 X24.613 Y21.104 Z0.064
N5310 Z35.05 F1000.
N5315 M9
(WHEN USING FUSION 360 FOR PERSONAL USE, THE FEEDRATE OF)
(RAPID MOVES IS REDUCED TO MATCH THE FEEDRATE OF CUTTING)
(MOVES, WHICH CAN INCREASE MACHINING TIME. UNRESTRICTED RAPID)
(MOVES ARE AVAILABLE WITH A FUSION 360 SUBSCRIPTION.)
(2D POCKET3)
N5320 G0 Z37.05
N5325 X21.188 Y97.196
N5330 G1 Z27.05 F1000.
N5335 Z14.114 F333.33
N5340 X21.202 Y97.208 Z14.069
N5345 X21.214 Y97.228 Z14.059
N5350 X21.218 Y97.25 Z14.05
N5355 G3 X20.882 I-0.168 J0. F1000.
N5360 G1 Y40.1
N5365 G3 X21.218 I0.168 J0.
N5370 G1 Y97.25
N5375 X21.224 Y97.303
N5380 X21.244 Y97.354
N5385 X21.275 Y97.398
N5390 X21.316 Y97.433
N5395 X21.346 Y97.46
N5400 X21.365 Y97.496
N5405 X21.372 Y97.536
N5410 X21.366 Y97.576
N5415 X21.347 Y97.612
N5420 X21.318 Y97.64
N5425 G3 X20.577 Y97.25 I-0.268 J-0.39
N5430 G1 Y40.1
N5435 G3 X21.523 I0.473 J0.
N5440 G1 Y97.25
N5445 G3 X21.318 Y97.64 I-0.473 J0.
N5450 G2 X21.156 Y97.971 I0.213 J0.309
N5455 G3 X20.881 Y98.216 I-0.235 J0.013
N5460 X20.069 Y97.25 I0.169 J-0.966
N5465 G1 Y40.1
N5470 G3 X22.031 I0.98 J0.
N5475 G1 Y97.25
N5480 G3 X20.881 Y98.216 I-0.981 J0.
N5485 G2 X20.507 Y98.359 I-0.067 J0.384
N5490 G3 X20.109 Y98.402 I-0.22 J-0.174
N5495 X19.562 Y97.25 I0.941 J-1.152
N5500 G1 Y40.1
N5505 G3 X22.538 I1.488 J0.
N5510 G1 Y97.25
N5515 G3 X20.109 Y98.402 I-1.488 J0.
N5520 G2 X19.698 Y98.347 I-0.251 J0.307
N5525 G3 X19.304 Y98.215 I-0.125 J-0.281
N5530 X19.055 Y97.25 I1.746 J-0.965
N5535 G1 Y40.1
N5540 G3 X23.045 I1.995 J0.
N5545 G1 Y97.25
N5550 G3 X19.304 Y98.215 I-1.995 J0.
N5555 G2 X18.934 Y98.008 I-0.35 J0.193
N5560 G3 X18.599 Y97.749 I-0.017 J-0.325
N5565 X18.548 Y97.25 I2.451 J-0.499
N5570 G1 Y40.1
N5575 G3 X23.552 I2.502 J0.
N5580 G1 Y97.25
N5585 G3 X18.599 Y97.749 I-2.502 J0.
N5590 G2 X18.277 Y97.404 I-0.442 J0.09
N5595 G3 X17.991 Y97.028 I0.104 J-0.375
N5600 G1 Y40.1
N5605 G3 X24.109 I3.059 J0.
N5610 G1 Y97.25
N5615 G3 X17.991 I-3.059 J0.
N5620 G1 Y97.028
N5625 X17.997 Y97.01
N5630 X18.013 Y96.998
N5635 X18.032
N5640 X19.815 Y97.524
N5645 X21.188 Y97.196
N5650 Z8.114 F333.33
N5655 X21.202 Y97.208 Z8.069
N5660 X21.214 Y97.228 Z8.059
N5665 X21.218 Y97.25 Z8.05
N5670 G3 X20.882 I-0.168 J0. F1000.
N5675 G1 Y40.1
N5680 G3 X21.218 I0.168 J0.
N5685 G1 Y97.25
N5690 X21.224 Y97.303
N5695 X21.244 Y97.354
N5700 X21.275 Y97.398
N5705 X21.316 Y97.433
N5710 X21.346 Y97.46
N5715 X21.365 Y97.496
N5720 X21.372 Y97.536
N5725 X21.366 Y97.576
N5730 X21.347 Y97.612
N5735 X21.318 Y97.64
N5740 G3 X20.577 Y97.25 I-0.268 J-0.39
N5745 G1 Y40.1
N5750 G3 X21.523 I0.473 J0.
N5755 G1 Y97.25
N5760 G3 X21.318 Y97.64 I-0.473 J0.
N5765 G2 X21.156 Y97.971 I0.213 J0.309
N5770 G3 X20.881 Y98.216 I-0.235 J0.013
N5775 X20.069 Y97.25 I0.169 J-0.966
N5780 G1 Y40.1
N5785 G3 X22.031 I0.98 J0.
N5790 G1 Y97.25
N5795 G3 X20.881 Y98.216 I-0.981 J0.
N5800 G2 X20.507 Y98.359 I-0.067 J0.384
N5805 G3 X20.109 Y98.402 I-0.22 J-0.174
N5810 X19.562 Y97.25 I0.941 J-1.152
N5815 G1 Y40.1
N5820 G3 X22.538 I1.488 J0.
N5825 G1 Y97.25
N5830 G3 X20.109 Y98.402 I-1.488 J0.
N5835 G2 X19.698 Y98.347 I-0.251 J0.307
N5840 G3 X19.304 Y98.215 I-0.125 J-0.281
N5845 X19.055 Y97.25 I1.746 J-0.965
N5850 G1 Y40.1
N5855 G3 X23.045 I1.995 J0.
N5860 G1 Y97.25
N5865 G3 X19.304 Y98.215 I-1.995 J0.
N5870 G2 X18.934 Y98.008 I-0.35 J0.193
N5875 G3 X18.599 Y97.749 I-0.017 J-0.325
N5880 X18.548 Y97.25 I2.451 J-0.499
N5885 G1 Y40.1
N5890 G3 X23.552 I2.502 J0.
N5895 G1 Y97.25
N5900 G3 X18.599 Y97.749 I-2.502 J0.
N5905 G2 X18.277 Y97.404 I-0.442 J0.09
N5910 G3 X17.991 Y97.028 I0.104 J-0.375
N5915 G1 Y40.1
N5920 G3 X24.109 I3.059 J0.
N5925 G1 Y97.25
N5930 G3 X17.991 I-3.059 J0.
N5935 G1 Y97.028
N5940 X17.997 Y97.01
N5945 X18.013 Y96.998
N5950 X18.032
N5955 X19.815 Y97.524
N5960 X21.188 Y97.196
N5965 Z2.114 F333.33
N5970 X21.202 Y97.208 Z2.069
N5975 X21.214 Y97.228 Z2.059
N5980 X21.218 Y97.25 Z2.05
N5985 G3 X20.882 I-0.168 J0. F1000.
N5990 G1 Y40.1
N5995 G3 X21.218 I0.168 J0.
N6000 G1 Y97.25
N6005 X21.224 Y97.303
N6010 X21.244 Y97.354
N6015 X21.275 Y97.398
N6020 X21.316 Y97.433
N6025 X21.346 Y97.46
N6030 X21.365 Y97.496
N6035 X21.372 Y97.536
N6040 X21.366 Y97.576
N6045 X21.347 Y97.612
N6050 X21.318 Y97.64
N6055 G3 X20.577 Y97.25 I-0.268 J-0.39
N6060 G1 Y40.1
N6065 G3 X21.523 I0.473 J0.
N6070 G1 Y97.25
N6075 G3 X21.318 Y97.64 I-0.473 J0.
N6080 G2 X21.156 Y97.971 I0.213 J0.309
N6085 G3 X20.881 Y98.216 I-0.235 J0.013
N6090 X20.069 Y97.25 I0.169 J-0.966
N6095 G1 Y40.1
N6100 G3 X22.031 I0.98 J0.
N6105 G1 Y97.25
N6110 G3 X20.881 Y98.216 I-0.981 J0.
N6115 G2 X20.507 Y98.359 I-0.067 J0.384
N6120 G3 X20.109 Y98.402 I-0.22 J-0.174
N6125 X19.562 Y97.25 I0.941 J-1.152
N6130 G1 Y40.1
N6135 G3 X22.538 I1.488 J0.
N6140 G1 Y97.25
N6145 G3 X20.109 Y98.402 I-1.488 J0.
N6150 G2 X19.698 Y98.347 I-0.251 J0.307
N6155 G3 X19.304 Y98.215 I-0.125 J-0.281
N6160 X19.055 Y97.25 I1.746 J-0.965
N6165 G1 Y40.1
N6170 G3 X23.045 I1.995 J0.
N6175 G1 Y97.25
N6180 G3 X19.304 Y98.215 I-1.995 J0.
N6185 G2 X18.934 Y98.008 I-0.35 J0.193
N6190 G3 X18.599 Y97.749 I-0.017 J-0.325
N6195 X18.548 Y97.25 I2.451 J-0.499
N6200 G1 Y40.1
N6205 G3 X23.552 I2.502 J0.
N6210 G1 Y97.25
N6215 G3 X18.599 Y97.749 I-2.502 J0.
N6220 G2 X18.277 Y97.404 I-0.442 J0.09
N6225 G3 X17.991 Y97.028 I0.104 J-0.375
N6230 G1 Y40.1
N6235 G3 X24.109 I3.059 J0.
N6240 G1 Y97.25
N6245 G3 X17.991 I-3.059 J0.
N6250 G1 Y97.028
N6255 X17.997 Y97.01
N6260 X18.013 Y96.998
N6265 X18.032
N6270 X19.815 Y97.524
N6275 X21.188 Y97.196
N6280 Z0.064 F333.33
N6285 X21.202 Y97.208 Z0.019
N6290 X21.214 Y97.228 Z0.009
N6295 X21.218 Y97.25 Z0.
N6300 G3 X20.882 I-0.168 J0. F1000.
N6305 G1 Y40.1
N6310 G3 X21.218 I0.168 J0.
N6315 G1 Y97.25
N6320 X21.224 Y97.303
N6325 X21.244 Y97.354
N6330 X21.275 Y97.398
N6335 X21.316 Y97.433
N6340 X21.346 Y97.46
N6345 X21.365 Y97.496
N6350 X21.372 Y97.536
N6355 X21.366 Y97.576
N6360 X21.347 Y97.612
N6365 X21.318 Y97.64
N6370 G3 X20.577 Y97.25 I-0.268 J-0.39
N6375 G1 Y40.1
N6380 G3 X21.523 I0.473 J0.
N6385 G1 Y97.25
N6390 G3 X21.318 Y97.64 I-0.473 J0.
N6395 G2 X21.156 Y97.971 I0.213 J0.309
N6400 G3 X20.881 Y98.216 I-0.235 J0.013
N6405 X20.069 Y97.25 I0.169 J-0.966
N6410 G1 Y40.1
N6415 G3 X22.031 I0.98 J0.
N6420 G1 Y97.25
N6425 G3 X20.881 Y98.216 I-0.981 J0.
N6430 G2 X20.507 Y98.359 I-0.067 J0.384
N6435 G3 X20.109 Y98.402 I-0.22 J-0.174
N6440 X19.562 Y97.25 I0.941 J-1.152
N6445 G1 Y40.1
N6450 G3 X22.538 I1.488 J0.
N6455 G1 Y97.25
N6460 G3 X20.109 Y98.402 I-1.488 J0.
N6465 G2 X19.698 Y98.347 I-0.251 J0.307
N6470 G3 X19.304 Y98.215 I-0.125 J-0.281
N6475 X19.055 Y97.25 I1.746 J-0.965
N6480 G1 Y40.1
N6485 G3 X23.045 I1.995 J0.
N6490 G1 Y97.25
N6495 G3 X19.304 Y98.215 I-1.995 J0.
N6500 G2 X18.934 Y98.008 I-0.35 J0.193
N6505 G3 X18.599 Y97.749 I-0.017 J-0.325
N6510 X18.548 Y97.25 I2.451 J-0.499
N6515 G1 Y40.1
N6520 G3 X23.552 I2.502 J0.
N6525 G1 Y97.25
N6530 G3 X18.599 Y97.749 I-2.502 J0.
N6535 G2 X18.277 Y97.404 I-0.442 J0.09
N6540 G3 X17.991 Y97.028 I0.104 J-0.375
N6545 G1 Y40.1
N6550 G3 X24.109 I3.059 J0.
N6555 G1 Y97.25
N6560 G3 X17.991 I-3.059 J0.
N6565 G1 Y97.028
N6570 X17.995 Y97.006 Z0.009 F2000.
N6575 X18.007 Y96.987 Z0.019
N6580 X18.021 Y96.974 Z0.064
N6585 Z37.05 F1000.
(WHEN USING FUSION 360 FOR PERSONAL USE, THE FEEDRATE OF)
(RAPID MOVES IS REDUCED TO MATCH THE FEEDRATE OF CUTTING)
(MOVES, WHICH CAN INCREASE MACHINING TIME. UNRESTRICTED RAPID)
(MOVES ARE AVAILABLE WITH A FUSION 360 SUBSCRIPTION.)
(2D CONTOUR1)
N6590 M8
N6595 G0 X21.613 Y1.489
N6600 G1 Z35.05 F1000.
N6605 Z25.05
N6610 Z14.114 F333.33
N6615 Y1.494 Z14.089 F2000.
N6620 Y1.508 Z14.069
N6625 Y1.528 Z14.055
N6630 Y1.553 Z14.05
N6635 Y1.617
N6640 X21.608 Y1.641
N6645 X21.595 Y1.662
N6650 X21.574 Y1.676
N6655 X21.549 Y1.681
N6660 X17.875 F1000.
N6665 G2 X1.681 Y17.875 I0. J16.194
N6670 G1 Y97.25
N6675 X1.685 Y97.303
N6680 X6.092 Y123.747
N6685 G2 X12.671 Y129.32 I6.579 J-1.097
N6690 G1 X29.429
N6695 G2 X36.008 Y123.747 I0. J-6.67
N6700 G1 X40.415 Y97.303
N6705 X40.419 Y97.25
N6710 Y17.875
N6715 G2 X24.225 Y1.681 I-16.194 J0.
N6720 G1 X21.549
N6725 X21.525 Y1.676 F2000.
N6730 X21.504 Y1.662
N6735 X21.49 Y1.641
N6740 X21.486 Y1.617
N6745 Y1.553
N6750 Y1.528 Z14.055
N6755 Y1.508 Z14.069
N6760 Y1.494 Z14.089
N6765 Y1.489 Z14.114
N6770 Z25.05 F1000.
N6775 X21.613
N6780 Z19.05 F333.33
N6785 Z8.114
N6790 Y1.494 Z8.089 F2000.
N6795 Y1.508 Z8.069
N6800 Y1.528 Z8.055
N6805 Y1.553 Z8.05
N6810 Y1.617
N6815 X21.608 Y1.641
N6820 X21.595 Y1.662
N6825 X21.574 Y1.676
N6830 X21.549 Y1.681
N6835 X17.875 F1000.
N6840 G2 X1.681 Y17.875 I0. J16.194
N6845 G1 Y97.25
N6850 X1.685 Y97.303
N6855 X6.092 Y123.747
N6860 G2 X12.671 Y129.32 I6.579 J-1.097
N6865 G1 X29.429
N6870 G2 X36.008 Y123.747 I0. J-6.67
N6875 G1 X40.415 Y97.303
N6880 X40.419 Y97.25
N6885 Y17.875
N6890 G2 X24.225 Y1.681 I-16.194 J0.
N6895 G1 X21.549
N6900 X21.525 Y1.676 F2000.
N6905 X21.504 Y1.662
N6910 X21.49 Y1.641
N6915 X21.486 Y1.617
N6920 Y1.553
N6925 Y1.528 Z8.055
N6930 Y1.508 Z8.069
N6935 Y1.494 Z8.089
N6940 Y1.489 Z8.114
N6945 Z25.05 F1000.
N6950 X21.613
N6955 Z13.05 F333.33
N6960 Z2.114
N6965 Y1.494 Z2.089 F2000.
N6970 Y1.508 Z2.069
N6975 Y1.528 Z2.055
N6980 Y1.553 Z2.05
N6985 Y1.617
N6990 X21.608 Y1.641
N6995 X21.595 Y1.662
N7000 X21.574 Y1.676
N7005 X21.549 Y1.681
N7010 X17.875 F1000.
N7015 G2 X1.681 Y17.875 I0. J16.194
N7020 G1 Y34.399
N7025 Z2.5
N7030 Y41.038
N7035 Z2.05 F333.33
N7040 Y74.087 F1000.
N7045 Z2.5
N7050 Y80.726
N7055 Z2.05 F333.33
N7060 Y97.25 F1000.
N7065 X1.685 Y97.303
N7070 X6.092 Y123.747
N7075 G2 X12.671 Y129.32 I6.579 J-1.097
N7080 G1 X29.429
N7085 G2 X36.008 Y123.747 I0. J-6.67
N7090 G1 X40.415 Y97.303
N7095 X40.419 Y97.25
N7100 Y80.726
N7105 Z2.5
N7110 Y74.087
N7115 Z2.05 F333.33
N7120 Y41.038 F1000.
N7125 Z2.5
N7130 Y34.399
N7135 Z2.05 F333.33
N7140 Y17.875 F1000.
N7145 G2 X24.225 Y1.681 I-16.194 J0.
N7150 G1 X21.549
N7155 X21.525 Y1.676 F2000.
N7160 X21.504 Y1.662
N7165 X21.49 Y1.641
N7170 X21.486 Y1.617
N7175 Y1.553
N7180 Y1.528 Z2.055
N7185 Y1.508 Z2.069
N7190 Y1.494 Z2.089
N7195 Y1.489 Z2.114
N7200 Z25.05 F1000.
N7205 X21.613
N7210 Z7.05 F333.33
N7215 Z0.064
N7220 Y1.494 Z0.039 F2000.
N7225 Y1.508 Z0.019
N7230 Y1.528 Z0.005
N7235 Y1.553 Z0.
N7240 Y1.617
N7245 X21.608 Y1.641
N7250 X21.595 Y1.662
N7255 X21.574 Y1.676
N7260 X21.549 Y1.681
N7265 X17.875 F1000.
N7270 G2 X1.681 Y17.875 I0. J16.194
N7275 G1 Y34.399
N7280 Z2.5
N7285 Y41.038
N7290 Z0. F333.33
N7295 Y74.087 F1000.
N7300 Z2.5
N7305 Y80.726
N7310 Z0. F333.33
N7315 Y97.25 F1000.
N7320 X1.685 Y97.303
N7325 X6.092 Y123.747
N7330 G2 X12.671 Y129.32 I6.579 J-1.097
N7335 G1 X29.429
N7340 G2 X36.008 Y123.747 I0. J-6.67
N7345 G1 X40.415 Y97.303
N7350 X40.419 Y97.25
N7355 Y80.726
N7360 Z2.5
N7365 Y74.087
N7370 Z0. F333.33
N7375 Y41.038 F1000.
N7380 Z2.5
N7385 Y34.399
N7390 Z0. F333.33
N7395 Y17.875 F1000.
N7400 G2 X24.225 Y1.681 I-16.194 J0.
N7405 G1 X21.549
N7410 X21.525 Y1.676 F2000.
N7415 X21.504 Y1.662
N7420 X21.49 Y1.641
N7425 X21.486 Y1.617
N7430 Y1.553
N7435 Y1.528 Z0.005
N7440 Y1.508 Z0.019
N7445 Y1.494 Z0.039
N7450 Y1.489 Z0.064
N7455 Z35.05 F1000.
N7460 M9
N7465 G53 G0 Z0.
N7470 M30
%
