%
(CLAMPTHINPLYTRY3)
(MACHINE)
(  VENDOR AUTODESK)
(  DESCRIPTION GENERIC 3-AXIS)
(T1  D=6.35 CR=0. - ZMIN=0. - FLAT END MILL)
N10 G90 G94 G17 G91.1
N15 G21
(WHEN USING FUSION 360 FOR PERSONAL USE, THE FEEDRATE OF)
(RAPID MOVES IS REDUCED TO MATCH THE FEEDRATE OF CUTTING)
(MOVES, WHICH CAN INCREASE MACHINING TIME. UNRESTRICTED RAPID)
(MOVES ARE AVAILABLE WITH A FUSION 360 SUBSCRIPTION.)
N20 G53 G0 Z0.
(2D CONTOUR1 2)
N25 T1 M6
N30 S7500 M3
N35 G54
N40 M8
N45 G0 X-5.08 Y17.916
N50 G43 Z27.25 H1
N55 G1 Z17.25 F3500.
N60 Z12.135 F1166.67
N65 G18 G2 X-4.445 Z11.5 I0.635 K0. F3500.
N70 G1 X-3.81
N75 G17 G3 X-3.175 Y18.551 I0. J0.635
N80 G1 Y22.225
N85 G2 X15.875 Y41.275 I19.05 J0.
N90 G1 X152.4
N95 G2 X152.922 Y41.232 I0. J-3.175
N100 G1 X165.622 Y39.115
N105 G2 X168.275 Y35.983 I-0.522 J-3.132
N110 G1 Y2.117
N115 G2 X165.622 Y-1.015 I-3.175 J0.
N120 G1 X152.922 Y-3.132
N125 G2 X152.4 Y-3.175 I-0.522 J3.132
N130 G1 X15.875
N135 G2 X-3.175 Y15.875 I0. J19.05
N140 G1 Y18.551
N145 G3 X-3.81 Y19.186 I-0.635 J0.
N150 G1 X-4.445
N155 G18 G3 X-5.08 Z12.135 I0. K0.635
N160 G1 Z27.25
N165 G17
(WHEN USING FUSION 360 FOR PERSONAL USE, THE FEEDRATE OF)
(RAPID MOVES IS REDUCED TO MATCH THE FEEDRATE OF CUTTING)
(MOVES, WHICH CAN INCREASE MACHINING TIME. UNRESTRICTED RAPID)
(MOVES ARE AVAILABLE WITH A FUSION 360 SUBSCRIPTION.)
(2D POCKET3 2)
N170 S5000 M3
N175 G0 Z29.25
N180 X38.1 Y19.685
N185 G1 Z19.25 F1000.
N190 Z15.25
N195 Z11.5 F333.33
N200 G3 Y18.415 I0. J-0.635 F1000.
N205 G1 X152.4
N210 G3 Y19.685 I0. J0.635
N215 G1 X38.1
N220 X38.002 Y19.677 Z11.516
N225 X37.907 Y19.655 Z11.531
N230 X37.825 Y19.622 Z11.576
N235 X37.748 Y19.578 Z11.621
N240 X37.692 Y19.536 Z11.692
N245 X37.641 Y19.488 Z11.762
N250 X37.583 Y19.419 Z11.939
N255 X37.566 Y19.393 Z12.135
N260 Z29.25
(WHEN USING FUSION 360 FOR PERSONAL USE, THE FEEDRATE OF)
(RAPID MOVES IS REDUCED TO MATCH THE FEEDRATE OF CUTTING)
(MOVES, WHICH CAN INCREASE MACHINING TIME. UNRESTRICTED RAPID)
(MOVES ARE AVAILABLE WITH A FUSION 360 SUBSCRIPTION.)
(2D POCKET3)
N265 G0 X38.1 Y19.685
N270 G1 Z29.25 F1000.
N275 Z19.25
N280 Z15.25
N285 Z10.25 F333.33
N290 G3 Y18.415 I0. J-0.635 F1000.
N295 G1 X152.4
N300 G3 Y19.685 I0. J0.635
N305 G1 X38.1
N310 Z8.25 F333.33
N315 G3 Y18.415 I0. J-0.635 F1000.
N320 G1 X152.4
N325 G3 Y19.685 I0. J0.635
N330 G1 X38.1
N335 Z6.25 F333.33
N340 G3 Y18.415 I0. J-0.635 F1000.
N345 G1 X152.4
N350 G3 Y19.685 I0. J0.635
N355 G1 X38.1
N360 Z4.25 F333.33
N365 G3 Y18.415 I0. J-0.635 F1000.
N370 G1 X152.4
N375 G3 Y19.685 I0. J0.635
N380 G1 X38.1
N385 Z2.25 F333.33
N390 G3 Y18.415 I0. J-0.635 F1000.
N395 G1 X152.4
N400 G3 Y19.685 I0. J0.635
N405 G1 X38.1
N410 Z1.125 F333.33
N415 G3 Y18.415 I0. J-0.635 F1000.
N420 G1 X152.4
N425 G3 Y19.685 I0. J0.635
N430 G1 X38.1
N435 Z0. F333.33
N440 G3 Y18.415 I0. J-0.635 F1000.
N445 G1 X152.4
N450 G3 Y19.685 I0. J0.635
N455 G1 X38.1
N460 X38.002 Y19.677 Z0.016
N465 X37.907 Y19.655 Z0.031
N470 X37.825 Y19.622 Z0.076
N475 X37.748 Y19.578 Z0.121
N480 X37.692 Y19.536 Z0.192
N485 X37.641 Y19.488 Z0.262
N490 X37.583 Y19.419 Z0.439
N495 X37.566 Y19.393 Z0.635
N500 Z29.25
(WHEN USING FUSION 360 FOR PERSONAL USE, THE FEEDRATE OF)
(RAPID MOVES IS REDUCED TO MATCH THE FEEDRATE OF CUTTING)
(MOVES, WHICH CAN INCREASE MACHINING TIME. UNRESTRICTED RAPID)
(MOVES ARE AVAILABLE WITH A FUSION 360 SUBSCRIPTION.)
(2D POCKET1)
N505 S7500 M3
N510 G0 X183.834 Y40.442
N515 G1 Z27.25 F3500.
N520 Z17.25
N525 Z10.885
N530 G19 G2 Y39.807 Z10.25 J-0.635 K0.
N535 G1 Y34.626
N540 Y3.472
N545 G17 G3 X186.426 I1.296 J0.
N550 G1 X186.43 Y18.941
N555 X186.426 Y19.049
N560 X185.13 Y34.626
N565 G3 X184.501 Y35.632 I-1.292 J-0.107
N570 G1 X180.608 Y37.947
N575 G3 X178.649 Y36.833 I-0.663 J-1.114
N580 G1 Y1.258
N585 G3 X181.241 I1.296 J0.
N590 G1 X181.245 Y18.951
N595 X181.241 Y19.046
N600 X179.945 Y36.833
N605 G3 X178.962 Y37.998 I-1.293 J-0.094
N610 G1 X175.07 Y38.953
N615 G3 X173.465 Y37.695 I-0.309 J-1.259
N620 G1 Y0.402
N625 G3 X176.057 I1.296 J0.
N630 G1 X176.06 Y18.958
N635 X176.057 Y19.048
N640 X174.761 Y37.695
N645 G3 X173.78 Y38.863 I-1.293 J-0.09
N650 G1 X169.883 Y39.829
N655 G3 X168.275 Y38.571 I-0.312 J-1.258
N660 G1 Y2.117
N665 Y-0.465
N670 G3 X168.888 Y-0.581 I0.318 J0.
N675 G1 X183.221 Y36.036
N680 G2 X183.834 Y35.921 I0.296 J-0.116
N685 G19 G3 Y35.286 Z9.615 J0. K-0.635
N690 G1 Z8.885
N695 G2 Y34.651 Z8.25 J-0.635 K0.
N700 G1 Y34.626
N705 Y3.472
N710 G17 G3 X186.426 I1.296 J0.
N715 G1 X186.43 Y18.941
N720 X186.426 Y19.049
N725 X185.13 Y34.626
N730 G3 X184.501 Y35.632 I-1.292 J-0.107
N735 G1 X180.608 Y37.947
N740 G3 X178.649 Y36.833 I-0.663 J-1.114
N745 G1 Y1.258
N750 G3 X181.241 I1.296 J0.
N755 G1 X181.245 Y18.951
N760 X181.241 Y19.046
N765 X179.945 Y36.833
N770 G3 X178.962 Y37.998 I-1.293 J-0.094
N775 G1 X175.07 Y38.953
N780 G3 X173.465 Y37.695 I-0.309 J-1.259
N785 G1 Y0.402
N790 G3 X176.057 I1.296 J0.
N795 G1 X176.06 Y18.958
N800 X176.057 Y19.048
N805 X174.761 Y37.695
N810 G3 X173.78 Y38.863 I-1.293 J-0.09
N815 G1 X169.883 Y39.829
N820 G3 X168.275 Y38.571 I-0.312 J-1.258
N825 G1 Y2.117
N830 Y-0.465
N835 G3 X168.888 Y-0.581 I0.318 J0.
N840 G1 X183.221 Y36.019
N845 G2 X183.834 Y35.904 I0.296 J-0.116
N850 G19 G3 Y35.277 Z7.719 J0. K-0.635
N855 G2 Y34.651 Z7.188 J-0.626 K0.104
N860 G1 Y34.626
N865 Y3.472
N870 G17 G3 X186.426 I1.296 J0.
N875 G1 X186.43 Y18.941
N880 X186.426 Y19.049
N885 X185.13 Y34.626
N890 G3 X184.501 Y35.632 I-1.292 J-0.107
N895 G1 X180.608 Y37.947
N900 G3 X178.649 Y36.833 I-0.663 J-1.114
N905 G1 Y1.258
N910 G3 X181.241 I1.296 J0.
N915 G1 X181.245 Y18.951
N920 X181.241 Y19.046
N925 X179.945 Y36.833
N930 G3 X178.962 Y37.998 I-1.293 J-0.094
N935 G1 X175.07 Y38.953
N940 G3 X173.465 Y37.695 I-0.309 J-1.259
N945 G1 Y0.402
N950 G3 X176.057 I1.296 J0.
N955 G1 X176.06 Y18.958
N960 X176.057 Y19.048
N965 X174.761 Y37.695
N970 G3 X173.78 Y38.863 I-1.293 J-0.09
N975 G1 X169.883 Y39.829
N980 G3 X168.275 Y38.571 I-0.312 J-1.258
N985 G1 Y2.117
N990 Y-0.465
N995 G3 X168.888 Y-0.581 I0.318 J0.
N1000 G1 X183.221 Y36.019
N1005 G2 X183.834 Y35.904 I0.296 J-0.116
N1010 G19 G3 Y35.277 Z6.656 J0. K-0.635
N1015 G2 Y34.651 Z6.125 J-0.626 K0.104
N1020 G1 Y34.626
N1025 Y3.472
N1030 G17 G3 X186.426 I1.296 J0.
N1035 G1 X186.43 Y18.941
N1040 X186.426 Y19.049
N1045 X185.13 Y34.626
N1050 G3 X184.501 Y35.632 I-1.292 J-0.107
N1055 G1 X180.608 Y37.947
N1060 G3 X178.649 Y36.833 I-0.663 J-1.114
N1065 G1 Y1.258
N1070 G3 X181.241 I1.296 J0.
N1075 G1 X181.245 Y18.951
N1080 X181.241 Y19.046
N1085 X179.945 Y36.833
N1090 G3 X178.962 Y37.998 I-1.293 J-0.094
N1095 G1 X175.07 Y38.953
N1100 G3 X173.465 Y37.695 I-0.309 J-1.259
N1105 G1 Y0.402
N1110 G3 X176.057 I1.296 J0.
N1115 G1 X176.06 Y18.958
N1120 X176.057 Y19.048
N1125 X174.761 Y37.695
N1130 G3 X173.78 Y38.863 I-1.293 J-0.09
N1135 G1 X169.883 Y39.829
N1140 G3 X168.275 Y38.571 I-0.312 J-1.258
N1145 G1 Y2.117
N1150 Y-0.465
N1155 X168.283 Y-0.564
N1160 X168.779 Y-3.7
N1165 X168.795 Y-3.798 Z6.133
N1170 X168.81 Y-3.894 Z6.156
N1175 X168.825 Y-3.985 Z6.194
N1180 X168.838 Y-4.069 Z6.246
N1185 X168.85 Y-4.144 Z6.311
N1190 X168.86 Y-4.208 Z6.387
N1195 X168.868 Y-4.259 Z6.472
N1200 X168.874 Y-4.297 Z6.564
N1205 X168.878 Y-4.32 Z6.661
N1210 X168.879 Y-4.327 Z6.76
N1215 Z27.25
(WHEN USING FUSION 360 FOR PERSONAL USE, THE FEEDRATE OF)
(RAPID MOVES IS REDUCED TO MATCH THE FEEDRATE OF CUTTING)
(MOVES, WHICH CAN INCREASE MACHINING TIME. UNRESTRICTED RAPID)
(MOVES ARE AVAILABLE WITH A FUSION 360 SUBSCRIPTION.)
(2D POCKET2)
N1220 S5000 M3
N1225 G0 X19.157 Y19.797
N1230 G1 Z27.25 F1000.
N1235 Z17.25
N1240 Z14.75
N1245 Z10.885 F333.33
N1250 X19.128 Y19.808 Z10.689
N1255 X19.04 Y19.829 Z10.512
N1260 X18.971 Y19.836 Z10.442
N1265 X18.9 Z10.371
N1270 X18.813 Y19.825 Z10.326
N1275 X18.727 Y19.802 Z10.281
N1280 X18.637 Y19.763 Z10.266
N1285 X18.555 Y19.71 Z10.25
N1290 G3 X19.545 Y18.39 I0.495 J-0.66 F1000.
N1295 X18.555 Y19.71 I-0.495 J0.66
N1300 X18.668 Y19.438 I0.091 J-0.122
N1305 G1 X19.126 Y19.504
N1310 G3 X19.157 Y19.797 I-0.022 J0.151
N1315 G1 Z8.885 F333.33
N1320 X19.128 Y19.808 Z8.689
N1325 X19.04 Y19.829 Z8.512
N1330 X18.971 Y19.836 Z8.442
N1335 X18.9 Z8.371
N1340 X18.813 Y19.825 Z8.326
N1345 X18.727 Y19.802 Z8.281
N1350 X18.637 Y19.763 Z8.266
N1355 X18.555 Y19.71 Z8.25
N1360 G3 X19.545 Y18.39 I0.495 J-0.66 F1000.
N1365 X18.555 Y19.71 I-0.495 J0.66
N1370 X18.668 Y19.438 I0.091 J-0.122
N1375 G1 X19.126 Y19.504
N1380 G3 X19.157 Y19.797 I-0.022 J0.151
N1385 G1 Z6.885 F333.33
N1390 X19.128 Y19.808 Z6.689
N1395 X19.04 Y19.829 Z6.512
N1400 X18.971 Y19.836 Z6.442
N1405 X18.9 Z6.371
N1410 X18.813 Y19.825 Z6.326
N1415 X18.727 Y19.802 Z6.281
N1420 X18.637 Y19.763 Z6.266
N1425 X18.555 Y19.71 Z6.25
N1430 G3 X19.545 Y18.39 I0.495 J-0.66 F1000.
N1435 X18.555 Y19.71 I-0.495 J0.66
N1440 X18.668 Y19.438 I0.091 J-0.122
N1445 G1 X19.126 Y19.504
N1450 G3 X19.157 Y19.797 I-0.022 J0.151
N1455 G1 Z4.885 F333.33
N1460 X19.128 Y19.808 Z4.689
N1465 X19.04 Y19.829 Z4.512
N1470 X18.971 Y19.836 Z4.442
N1475 X18.9 Z4.371
N1480 X18.813 Y19.825 Z4.326
N1485 X18.727 Y19.802 Z4.281
N1490 X18.637 Y19.763 Z4.266
N1495 X18.555 Y19.71 Z4.25
N1500 G3 X19.545 Y18.39 I0.495 J-0.66 F1000.
N1505 X18.555 Y19.71 I-0.495 J0.66
N1510 X18.668 Y19.438 I0.091 J-0.122
N1515 G1 X19.126 Y19.504
N1520 G3 X19.157 Y19.797 I-0.022 J0.151
N1525 G1 Z2.885 F333.33
N1530 X19.128 Y19.808 Z2.689
N1535 X19.04 Y19.829 Z2.512
N1540 X18.971 Y19.836 Z2.442
N1545 X18.9 Z2.371
N1550 X18.813 Y19.825 Z2.326
N1555 X18.727 Y19.802 Z2.281
N1560 X18.637 Y19.763 Z2.266
N1565 X18.555 Y19.71 Z2.25
N1570 G3 X19.545 Y18.39 I0.495 J-0.66 F1000.
N1575 X18.555 Y19.71 I-0.495 J0.66
N1580 X18.668 Y19.438 I0.091 J-0.122
N1585 G1 X19.126 Y19.504
N1590 G3 X19.157 Y19.797 I-0.022 J0.151
N1595 G1 Z1.76 F333.33
N1600 X19.128 Y19.808 Z1.564
N1605 X19.04 Y19.829 Z1.387
N1610 X18.971 Y19.836 Z1.317
N1615 X18.9 Z1.246
N1620 X18.813 Y19.825 Z1.201
N1625 X18.727 Y19.802 Z1.156
N1630 X18.637 Y19.763 Z1.141
N1635 X18.555 Y19.71 Z1.125
N1640 G3 X19.545 Y18.39 I0.495 J-0.66 F1000.
N1645 X18.555 Y19.71 I-0.495 J0.66
N1650 X18.668 Y19.438 I0.091 J-0.122
N1655 G1 X19.126 Y19.504
N1660 G3 X19.157 Y19.797 I-0.022 J0.151
N1665 G1 Z0.635 F333.33
N1670 X19.128 Y19.808 Z0.439
N1675 X19.04 Y19.829 Z0.262
N1680 X18.971 Y19.836 Z0.192
N1685 X18.9 Z0.121
N1690 X18.813 Y19.825 Z0.076
N1695 X18.727 Y19.802 Z0.031
N1700 X18.637 Y19.763 Z0.016
N1705 X18.555 Y19.71 Z0.
N1710 G3 X19.545 Y18.39 I0.495 J-0.66 F1000.
N1715 X18.555 Y19.71 I-0.495 J0.66
N1720 G1 X18.481 Y19.646 Z0.016
N1725 X18.418 Y19.57 Z0.031
N1730 X18.372 Y19.495 Z0.076
N1735 X18.337 Y19.414 Z0.121
N1740 X18.317 Y19.346 Z0.192
N1745 X18.305 Y19.277 Z0.262
N1750 X18.301 Y19.187 Z0.439
N1755 X18.302 Y19.156 Z0.635
N1760 Z27.25
(WHEN USING FUSION 360 FOR PERSONAL USE, THE FEEDRATE OF)
(RAPID MOVES IS REDUCED TO MATCH THE FEEDRATE OF CUTTING)
(MOVES, WHICH CAN INCREASE MACHINING TIME. UNRESTRICTED RAPID)
(MOVES ARE AVAILABLE WITH A FUSION 360 SUBSCRIPTION.)
(2D CONTOUR1)
N1765 G0 X-5.08 Y17.916
N1770 G1 Z27.25 F1000.
N1775 Z17.25
N1780 Z10.885 F333.33
N1785 G18 G2 X-4.445 Z10.25 I0.635 K0. F1000.
N1790 G1 X-3.81
N1795 G17 G3 X-3.175 Y18.551 I0. J0.635
N1800 G1 Y22.225
N1805 G2 X15.875 Y41.275 I19.05 J0.
N1810 G1 X152.4
N1815 G2 X152.922 Y41.232 I0. J-3.175
N1820 G1 X179.366 Y36.825
N1825 G2 X187.325 Y27.429 I-1.566 J-9.395
N1830 G1 Y10.671
N1835 G2 X179.366 Y1.276 I-9.525 J0.
N1840 G1 X152.922 Y-3.132
N1845 G2 X152.4 Y-3.175 I-0.522 J3.132
N1850 G1 X15.875
N1855 G2 X-3.175 Y15.875 I0. J19.05
N1860 G1 Y18.551
N1865 G3 X-3.81 Y19.186 I-0.635 J0.
N1870 G1 X-4.445
N1875 G18 G3 X-5.08 Z10.885 I0. K0.635
N1880 G1 Z17.25
N1885 Y17.916
N1890 Z15.25 F333.33
N1895 Z8.885
N1900 G2 X-4.445 Z8.25 I0.635 K0. F1000.
N1905 G1 X-3.81
N1910 G17 G3 X-3.175 Y18.551 I0. J0.635
N1915 G1 Y22.225
N1920 G2 X15.875 Y41.275 I19.05 J0.
N1925 G1 X152.4
N1930 G2 X152.922 Y41.232 I0. J-3.175
N1935 G1 X179.366 Y36.825
N1940 G2 X187.325 Y27.429 I-1.566 J-9.395
N1945 G1 Y10.671
N1950 G2 X179.366 Y1.276 I-9.525 J0.
N1955 G1 X152.922 Y-3.132
N1960 G2 X152.4 Y-3.175 I-0.522 J3.132
N1965 G1 X15.875
N1970 G2 X-3.175 Y15.875 I0. J19.05
N1975 G1 Y18.551
N1980 G3 X-3.81 Y19.186 I-0.635 J0.
N1985 G1 X-4.445
N1990 G18 G3 X-5.08 Z8.885 I0. K0.635
N1995 G1 Z17.25
N2000 Y17.916
N2005 Z13.25 F333.33
N2010 Z6.885
N2015 G2 X-4.445 Z6.25 I0.635 K0. F1000.
N2020 G1 X-3.81
N2025 G17 G3 X-3.175 Y18.551 I0. J0.635
N2030 G1 Y22.225
N2035 G2 X15.875 Y41.275 I19.05 J0.
N2040 G1 X152.4
N2045 G2 X152.922 Y41.232 I0. J-3.175
N2050 G1 X179.366 Y36.825
N2055 G2 X187.325 Y27.429 I-1.566 J-9.395
N2060 G1 Y10.671
N2065 G2 X179.366 Y1.276 I-9.525 J0.
N2070 G1 X152.922 Y-3.132
N2075 G2 X152.4 Y-3.175 I-0.522 J3.132
N2080 G1 X15.875
N2085 G2 X-3.175 Y15.875 I0. J19.05
N2090 G1 Y18.551
N2095 G3 X-3.81 Y19.186 I-0.635 J0.
N2100 G1 X-4.445
N2105 G18 G3 X-5.08 Z6.885 I0. K0.635
N2110 G1 Z17.25
N2115 Y17.916
N2120 Z11.25 F333.33
N2125 Z4.885
N2130 G2 X-4.445 Z4.25 I0.635 K0. F1000.
N2135 G1 X-3.81
N2140 G17 G3 X-3.175 Y18.551 I0. J0.635
N2145 G1 Y22.225
N2150 G2 X15.875 Y41.275 I19.05 J0.
N2155 G1 X152.4
N2160 G2 X152.922 Y41.232 I0. J-3.175
N2165 G1 X179.366 Y36.825
N2170 G2 X187.325 Y27.429 I-1.566 J-9.395
N2175 G1 Y10.671
N2180 G2 X179.366 Y1.276 I-9.525 J0.
N2185 G1 X152.922 Y-3.132
N2190 G2 X152.4 Y-3.175 I-0.522 J3.132
N2195 G1 X15.875
N2200 G2 X-3.175 Y15.875 I0. J19.05
N2205 G1 Y18.551
N2210 G3 X-3.81 Y19.186 I-0.635 J0.
N2215 G1 X-4.445
N2220 G18 G3 X-5.08 Z4.885 I0. K0.635
N2225 G1 Z17.25
N2230 Y17.916
N2235 Z9.25 F333.33
N2240 Z2.885
N2245 G2 X-4.445 Z2.25 I0.635 K0. F1000.
N2250 G1 X-3.81
N2255 G17 G3 X-3.175 Y18.551 I0. J0.635
N2260 G1 Y22.225
N2265 G2 X15.875 Y41.275 I19.05 J0.
N2270 G1 X27.762
N2275 Z2.9
N2280 X44.112
N2285 Z2.25 F333.33
N2290 X104.926 F1000.
N2295 Z2.9
N2300 X121.276
N2305 Z2.25 F333.33
N2310 X152.4 F1000.
N2315 G2 X152.922 Y41.232 I0. J-3.175
N2320 G1 X179.366 Y36.825
N2325 G2 X187.325 Y27.429 I-1.566 J-9.395
N2330 G1 Y10.671
N2335 G2 X179.366 Y1.276 I-9.525 J0.
N2340 G1 X152.922 Y-3.132
N2345 G2 X152.4 Y-3.175 I-0.522 J3.132
N2350 G1 X126.165
N2355 Z2.9
N2360 X109.815
N2365 Z2.25 F333.33
N2370 X49.569 F1000.
N2375 Z2.9
N2380 X33.22
N2385 Z2.25 F333.33
N2390 X15.875 F1000.
N2395 G2 X-3.175 Y15.875 I0. J19.05
N2400 G1 Y18.551
N2405 G3 X-3.81 Y19.186 I-0.635 J0.
N2410 G1 X-4.445
N2415 G18 G3 X-5.08 Z2.885 I0. K0.635
N2420 G1 Z17.25
N2425 Y17.916
N2430 Z7.25 F333.33
N2435 Z1.76
N2440 G2 X-4.445 Z1.125 I0.635 K0. F1000.
N2445 G1 X-3.81
N2450 G17 G3 X-3.175 Y18.551 I0. J0.635
N2455 G1 Y22.225
N2460 G2 X15.875 Y41.275 I19.05 J0.
N2465 G1 X27.762
N2470 Z2.9
N2475 X44.112
N2480 Z1.125 F333.33
N2485 X104.926 F1000.
N2490 Z2.9
N2495 X121.276
N2500 Z1.125 F333.33
N2505 X152.4 F1000.
N2510 G2 X152.922 Y41.232 I0. J-3.175
N2515 G1 X179.366 Y36.825
N2520 G2 X187.325 Y27.429 I-1.566 J-9.395
N2525 G1 Y10.671
N2530 G2 X179.366 Y1.276 I-9.525 J0.
N2535 G1 X152.922 Y-3.132
N2540 G2 X152.4 Y-3.175 I-0.522 J3.132
N2545 G1 X126.165
N2550 Z2.9
N2555 X109.815
N2560 Z1.125 F333.33
N2565 X49.569 F1000.
N2570 Z2.9
N2575 X33.22
N2580 Z1.125 F333.33
N2585 X15.875 F1000.
N2590 G2 X-3.175 Y15.875 I0. J19.05
N2595 G1 Y18.551
N2600 G3 X-3.81 Y19.186 I-0.635 J0.
N2605 G1 X-4.445
N2610 G18 G3 X-5.08 Z1.76 I0. K0.635
N2615 G1 Z17.25
N2620 Y17.916
N2625 Z6.125 F333.33
N2630 Z0.635
N2635 G2 X-4.445 Z0. I0.635 K0. F1000.
N2640 G1 X-3.81
N2645 G17 G3 X-3.175 Y18.551 I0. J0.635
N2650 G1 Y22.225
N2655 G2 X15.875 Y41.275 I19.05 J0.
N2660 G1 X27.762
N2665 Z2.9
N2670 X44.112
N2675 Z0. F333.33
N2680 X104.926 F1000.
N2685 Z2.9
N2690 X121.276
N2695 Z0. F333.33
N2700 X152.4 F1000.
N2705 G2 X152.922 Y41.232 I0. J-3.175
N2710 G1 X179.366 Y36.825
N2715 G2 X187.325 Y27.429 I-1.566 J-9.395
N2720 G1 Y10.671
N2725 G2 X179.366 Y1.276 I-9.525 J0.
N2730 G1 X152.922 Y-3.132
N2735 G2 X152.4 Y-3.175 I-0.522 J3.132
N2740 G1 X126.165
N2745 Z2.9
N2750 X109.815
N2755 Z0. F333.33
N2760 X49.569 F1000.
N2765 Z2.9
N2770 X33.22
N2775 Z0. F333.33
N2780 X15.875 F1000.
N2785 G2 X-3.175 Y15.875 I0. J19.05
N2790 G1 Y18.551
N2795 G3 X-3.81 Y19.186 I-0.635 J0.
N2800 G1 X-4.445
N2805 G18 G3 X-5.08 Z0.635 I0. K0.635
N2810 G1 Z27.25
N2815 G17
N2820 M9
N2825 G53 G0 Z0.
N2830 M30
%
