%
(CLAMPTHINPLYTRY2)
(MACHINE)
(  VENDOR AUTODESK)
(  DESCRIPTION GENERIC 3-AXIS)
(T1  D=6.35 CR=0. - ZMIN=11.5 - FLAT END MILL)
N10 G90 G94 G17 G91.1
N15 G21
(WHEN USING FUSION 360 FOR PERSONAL USE, THE FEEDRATE OF)
(RAPID MOVES IS REDUCED TO MATCH THE FEEDRATE OF CUTTING)
(MOVES, WHICH CAN INCREASE MACHINING TIME. UNRESTRICTED RAPID)
(MOVES ARE AVAILABLE WITH A FUSION 360 SUBSCRIPTION.)
N20 G53 G0 Z0.
(2D POCKET3 2)
N25 T1 M6
N30 S5000 M3
N35 G54
N40 M8
N45 G0 X38.1 Y19.685
N50 G43 Z29.25 H1
N55 G1 Z19.25 F1000.
N60 Z15.25
N65 Z11.5 F333.33
N70 G3 Y18.415 I0. J-0.635 F1000.
N75 G1 X152.4
N80 G3 Y19.685 I0. J0.635
N85 G1 X38.1
N90 X38.002 Y19.677 Z11.516
N95 X37.907 Y19.655 Z11.531
N100 X37.825 Y19.622 Z11.576
N105 X37.748 Y19.578 Z11.621
N110 X37.692 Y19.536 Z11.692
N115 X37.641 Y19.488 Z11.762
N120 X37.583 Y19.419 Z11.939
N125 X37.566 Y19.393 Z12.135
N130 Z29.25
N135 M9
N140 G53 G0 Z0.
N145 M30
%
