%
(CLAMP)
(MACHINE)
(  VENDOR AUTODESK)
(  DESCRIPTION GENERIC 3-AXIS)
(T2  D=6. CR=0. - ZMIN=0. - FLAT END MILL)
N10 G90 G94 G17 G91.1
N15 G21
(WHEN USING FUSION 360 FOR PERSONAL USE, THE FEEDRATE OF)
(RAPID MOVES IS REDUCED TO MATCH THE FEEDRATE OF CUTTING)
(MOVES, WHICH CAN INCREASE MACHINING TIME. UNRESTRICTED RAPID)
(MOVES ARE AVAILABLE WITH A FUSION 360 SUBSCRIPTION.)
N20 G53 G0 Z0.
(SLOT1)
N25 T2 M6
N30 S5000 M3
N35 G54
N40 M8
N45 G0 X40.1 Y21.05
N50 G43 Z35.05 H2
N55 G1 Z25.05 F3000.
N60 Z22.55
N65 X103.6 Z20.44 F1000.
N70 X40.1 Z18.33
N75 X103.6 Z16.22
N80 X40.1 Z14.11
N85 X103.6 Z12.
N90 X40.1 F3000.
N95 X103.6 Z10. F1000.
N100 X40.1 Z8.
N105 X103.6 Z6.
N110 X40.1 Z4.
N115 X103.6 Z2.
N120 X40.1 Z0.
N125 X103.6 F3000.
N130 Z35.05
(WHEN USING FUSION 360 FOR PERSONAL USE, THE FEEDRATE OF)
(RAPID MOVES IS REDUCED TO MATCH THE FEEDRATE OF CUTTING)
(MOVES, WHICH CAN INCREASE MACHINING TIME. UNRESTRICTED RAPID)
(MOVES ARE AVAILABLE WITH A FUSION 360 SUBSCRIPTION.)
(2D POCKET1)
N135 G0 X129.592 Y42.838
N140 G1 Z35.05 F3000.
N145 Z25.05
N150 Z17.225
N155 G19 G2 Y42.238 Z16.625 J-0.6 K0.
N160 G1 Y36.582
N165 Y5.521
N170 G17 G3 X132.038 I1.223 J0.
N175 G1 X132.042 Y20.955
N180 X132.038 Y21.052
N185 X130.815 Y36.582
N190 G3 X130.367 Y37.435 I-1.22 J-0.096
N195 G1 X126.693 Y40.42
N200 G3 X124.698 Y39.471 I-0.771 J-0.949
N205 G1 Y2.626
N210 G3 X127.145 Y2.625 I1.223 J0.
N215 G1 X127.148 Y20.967
N220 X127.145 Y21.048
N225 X125.922 Y39.471
N230 G3 X125.005 Y40.575 I-1.221 J-0.081
N235 G1 X121.327 Y41.517
N240 G3 X119.8 Y40.332 I-0.304 J-1.185
N245 G1 Y1.764
N250 G3 X120.392 Y1.695 I0.3 J0.
N255 G1 X129. Y37.875
N260 G2 X129.592 Y37.805 I0.292 J-0.069
N265 G19 G3 Y37.205 Z16.025 J0. K-0.6
N270 G1 Z13.8
N275 G2 Y36.605 Z13.2 J-0.6 K0.
N280 G1 Y36.582
N285 Y5.521
N290 G17 G3 X132.038 I1.223 J0.
N295 G1 X132.042 Y20.955
N300 X132.038 Y21.052
N305 X130.815 Y36.582
N310 G3 X130.367 Y37.435 I-1.22 J-0.096
N315 G1 X126.693 Y40.42
N320 G3 X124.698 Y39.471 I-0.771 J-0.949
N325 G1 Y2.626
N330 G3 X127.145 Y2.625 I1.223 J0.
N335 G1 X127.148 Y20.967
N340 X127.145 Y21.048
N345 X125.922 Y39.471
N350 G3 X125.005 Y40.575 I-1.221 J-0.081
N355 G1 X121.327 Y41.517
N360 G3 X119.8 Y40.332 I-0.304 J-1.185
N365 G1 Y1.764
N370 X119.807 Y1.67
N375 X120.277 Y-1.293
N380 X120.291 Y-1.385 Z13.207
N385 X120.306 Y-1.476 Z13.229
N390 X120.319 Y-1.562 Z13.265
N395 X120.332 Y-1.641 Z13.315
N400 X120.343 Y-1.712 Z13.376
N405 X120.353 Y-1.772 Z13.447
N410 X120.36 Y-1.821 Z13.528
N415 X120.366 Y-1.856 Z13.615
N420 X120.369 Y-1.878 Z13.706
N425 X120.371 Y-1.885 Z13.8
N430 Z35.05
(WHEN USING FUSION 360 FOR PERSONAL USE, THE FEEDRATE OF)
(RAPID MOVES IS REDUCED TO MATCH THE FEEDRATE OF CUTTING)
(MOVES, WHICH CAN INCREASE MACHINING TIME. UNRESTRICTED RAPID)
(MOVES ARE AVAILABLE WITH A FUSION 360 SUBSCRIPTION.)
(2D CONTOUR1)
N435 G0 X125.075 Y0.713
N440 G1 Z35.05 F3000.
N445 Z25.05
N450 Z14.65 F1000.
N455 X125.074 Y0.72 Z14.556 F3000.
N460 X125.07 Y0.742 Z14.465
N465 X125.064 Y0.777 Z14.378
N470 X125.056 Y0.826 Z14.297
N475 X125.046 Y0.886 Z14.226
N480 X125.034 Y0.957 Z14.165
N485 X125.021 Y1.036 Z14.115
N490 X125.007 Y1.122 Z14.079
N495 X124.992 Y1.212 Z14.057
N500 X124.976 Y1.305 Z14.05
N505 X124.878 Y1.897
N510 G3 X124.187 Y2.39 I-0.592 J-0.099
N515 G1 X104.093 Y-0.959
N520 G2 X103.6 Y-1. I-0.493 J2.959
N525 G1 X17.875
N530 G2 X-1. Y17.875 I0. J18.875
N535 G1 Y24.225
N540 G2 X17.875 Y43.1 I18.875 J0.
N545 G1 X103.6
N550 G2 X104.093 Y43.059 I0. J-3.
N555 G1 X124.187 Y39.71
N560 G2 X132. Y30.487 I-1.537 J-9.223
N565 G1 Y11.613
N570 G2 X124.187 Y2.39 I-9.35 J0.
N575 G3 X123.694 Y1.699 I0.099 J-0.592
N580 G1 X123.793 Y1.107
N585 X123.808 Y1.015 Z14.057
N590 X123.823 Y0.925 Z14.079
N595 X123.837 Y0.839 Z14.115
N600 X123.851 Y0.76 Z14.165
N605 X123.862 Y0.689 Z14.226
N610 X123.872 Y0.629 Z14.297
N615 X123.881 Y0.58 Z14.378
N620 X123.887 Y0.545 Z14.465
N625 X123.89 Y0.523 Z14.556
N630 X123.891 Y0.516 Z14.65
N635 Z25.05
N640 X125.075 Y0.713
N645 Z19.05 F1000.
N650 Z8.65
N655 X125.074 Y0.72 Z8.556 F3000.
N660 X125.07 Y0.742 Z8.465
N665 X125.064 Y0.777 Z8.378
N670 X125.056 Y0.826 Z8.297
N675 X125.046 Y0.886 Z8.226
N680 X125.034 Y0.957 Z8.165
N685 X125.021 Y1.036 Z8.115
N690 X125.007 Y1.122 Z8.079
N695 X124.992 Y1.212 Z8.057
N700 X124.976 Y1.305 Z8.05
N705 X124.878 Y1.897
N710 G3 X124.187 Y2.39 I-0.592 J-0.099
N715 G1 X104.093 Y-0.959
N720 G2 X103.6 Y-1. I-0.493 J2.959
N725 G1 X17.875
N730 G2 X-1. Y17.875 I0. J18.875
N735 G1 Y24.225
N740 G2 X17.875 Y43.1 I18.875 J0.
N745 G1 X103.6
N750 G2 X104.093 Y43.059 I0. J-3.
N755 G1 X124.187 Y39.71
N760 G2 X132. Y30.487 I-1.537 J-9.223
N765 G1 Y11.613
N770 G2 X124.187 Y2.39 I-9.35 J0.
N775 G3 X123.694 Y1.699 I0.099 J-0.592
N780 G1 X123.793 Y1.107
N785 X123.808 Y1.015 Z8.057
N790 X123.823 Y0.925 Z8.079
N795 X123.837 Y0.839 Z8.115
N800 X123.851 Y0.76 Z8.165
N805 X123.862 Y0.689 Z8.226
N810 X123.872 Y0.629 Z8.297
N815 X123.881 Y0.58 Z8.378
N820 X123.887 Y0.545 Z8.465
N825 X123.89 Y0.523 Z8.556
N830 X123.891 Y0.516 Z8.65
N835 Z25.05
N840 X125.075 Y0.713
N845 Z13.05 F1000.
N850 Z2.65
N855 X125.074 Y0.72 Z2.556 F3000.
N860 X125.07 Y0.742 Z2.465
N865 X125.064 Y0.777 Z2.378
N870 X125.056 Y0.826 Z2.297
N875 X125.046 Y0.886 Z2.226
N880 X125.034 Y0.957 Z2.165
N885 X125.021 Y1.036 Z2.115
N890 X125.007 Y1.122 Z2.079
N895 X124.992 Y1.212 Z2.057
N900 X124.976 Y1.305 Z2.05
N905 X124.878 Y1.897
N910 G3 X124.187 Y2.39 I-0.592 J-0.099
N915 G1 X104.093 Y-0.959
N920 G2 X103.6 Y-1. I-0.493 J2.959
N925 G1 X17.875
N930 G2 X-1. Y17.875 I0. J18.875
N935 G1 Y24.225
N940 G2 X17.875 Y43.1 I18.875 J0.
N945 G1 X103.6
N950 G2 X104.093 Y43.059 I0. J-3.
N955 G1 X124.187 Y39.71
N960 G2 X132. Y30.487 I-1.537 J-9.223
N965 G1 Y11.613
N970 G2 X124.187 Y2.39 I-9.35 J0.
N975 G3 X123.694 Y1.699 I0.099 J-0.592
N980 G1 X123.793 Y1.107
N985 X123.808 Y1.015 Z2.057
N990 X123.823 Y0.925 Z2.079
N995 X123.837 Y0.839 Z2.115
N1000 X123.851 Y0.76 Z2.165
N1005 X123.862 Y0.689 Z2.226
N1010 X123.872 Y0.629 Z2.297
N1015 X123.881 Y0.58 Z2.378
N1020 X123.887 Y0.545 Z2.465
N1025 X123.89 Y0.523 Z2.556
N1030 X123.891 Y0.516 Z2.65
N1035 Z25.05
N1040 X125.075 Y0.713
N1045 Z7.05 F1000.
N1050 Z0.6
N1055 X125.074 Y0.72 Z0.506 F3000.
N1060 X125.07 Y0.742 Z0.415
N1065 X125.064 Y0.777 Z0.328
N1070 X125.056 Y0.826 Z0.247
N1075 X125.046 Y0.886 Z0.176
N1080 X125.034 Y0.957 Z0.115
N1085 X125.021 Y1.036 Z0.065
N1090 X125.007 Y1.122 Z0.029
N1095 X124.992 Y1.212 Z0.007
N1100 X124.976 Y1.305 Z0.
N1105 X124.878 Y1.897
N1110 G3 X124.187 Y2.39 I-0.592 J-0.099
N1115 G1 X104.093 Y-0.959
N1120 G2 X103.6 Y-1. I-0.493 J2.959
N1125 G1 X88.169
N1130 Z2.
N1135 X76.169
N1140 Z0. F1000.
N1145 X45.306 F3000.
N1150 Z2.
N1155 X33.306
N1160 Z0. F1000.
N1165 X17.875 F3000.
N1170 G2 X-1. Y17.875 I0. J18.875
N1175 G1 Y24.225
N1180 G2 X17.875 Y43.1 I18.875 J0.
N1185 G1 X33.306
N1190 Z2.
N1195 X45.306
N1200 Z0. F1000.
N1205 X76.169 F3000.
N1210 Z2.
N1215 X88.169
N1220 Z0. F1000.
N1225 X103.6 F3000.
N1230 G2 X104.093 Y43.059 I0. J-3.
N1235 G1 X124.187 Y39.71
N1240 G2 X132. Y30.487 I-1.537 J-9.223
N1245 G1 Y11.613
N1250 G2 X124.187 Y2.39 I-9.35 J0.
N1255 G3 X123.694 Y1.699 I0.099 J-0.592
N1260 G1 X123.793 Y1.107
N1265 X123.808 Y1.015 Z0.007
N1270 X123.823 Y0.925 Z0.029
N1275 X123.837 Y0.839 Z0.065
N1280 X123.851 Y0.76 Z0.115
N1285 X123.862 Y0.689 Z0.176
N1290 X123.872 Y0.629 Z0.247
N1295 X123.881 Y0.58 Z0.328
N1300 X123.887 Y0.545 Z0.415
N1305 X123.89 Y0.523 Z0.506
N1310 X123.891 Y0.516 Z0.6
N1315 Z35.05
N1320 M9
N1325 G53 G0 Z0.
N1330 M30
%
