%
(CLAMPSET)
(T1  D=6.35 CR=0. - ZMIN=-0.5 - FLAT END MILL)
N10 G90 G94 G17 G91.1
N15 G21
(WHEN USING FUSION 360 FOR PERSONAL USE, THE FEEDRATE OF)
(RAPID MOVES IS REDUCED TO MATCH THE FEEDRATE OF CUTTING)
(MOVES, WHICH CAN INCREASE MACHINING TIME. UNRESTRICTED RAPID)
(MOVES ARE AVAILABLE WITH A FUSION 360 SUBSCRIPTION.)
N20 G53 G0 Z0.
(2D POCKET2)
N25 T1 M6
N30 S10000 M3
N35 G54
N40 M8
N45 G0 X-0.849 Y44.853
N50 G43 Z33.535 H1
N55 G1 Z23.535 F2500.
N60 Z13.17
N65 G19 G3 Y45.488 Z12.535 J0.635 K0.
N70 G1 Y51.245
N75 Y88.76
N80 Y88.785
N85 G3 Y89.42 Z13.17 J0. K0.635
N90 G1 X4.335 Y43.106
N95 G3 Y43.741 Z12.535 J0.635 K0.
N100 G1 Y48.111
N105 Y91.901
N110 Y91.926
N115 G3 Y92.561 Z13.17 J0. K0.635
N120 G1 X8.739 Y42.875
N125 Z13.107 F833.33
N130 X8.74 Y42.882 Z13.017 F2500.
N135 X8.743 Y42.903 Z12.93
N140 X8.749 Y42.937 Z12.847
N145 X8.756 Y42.983 Z12.771
N150 X8.765 Y43.04 Z12.703
N155 X8.776 Y43.108 Z12.645
N160 X8.788 Y43.183 Z12.598
N165 X8.801 Y43.265 Z12.563
N170 X8.814 Y43.351 Z12.542
N175 X8.828 Y43.44 Z12.535
N180 X9.517 Y47.79
N185 X9.525 Y47.889
N190 Y89.055
N195 Y92.119
N200 G17 G3 X8.897 Y92.186 I-0.317 J0.
N205 G1 X-0.221 Y49.883
N210 G2 X-0.849 Y49.95 I-0.31 J0.067
N215 G19 G2 Y50.585 Z11.9 J0. K-0.635
N220 G1 Z9.905
N225 G3 Y51.22 Z9.27 J0.635 K0.
N230 G1 Y51.245
N235 Y88.76
N240 Y88.785
N245 G3 Y89.42 Z9.905 J0. K0.635
N250 G1 X4.335 Y43.106
N255 G3 Y43.741 Z9.27 J0.635 K0.
N260 G1 Y48.111
N265 Y91.901
N270 Y91.926
N275 G3 Y92.561 Z9.905 J0. K0.635
N280 G1 X8.739 Y42.875
N285 Z9.842 F833.33
N290 X8.74 Y42.882 Z9.752 F2500.
N295 X8.743 Y42.903 Z9.665
N300 X8.749 Y42.937 Z9.582
N305 X8.756 Y42.983 Z9.506
N310 X8.765 Y43.04 Z9.438
N315 X8.776 Y43.108 Z9.38
N320 X8.788 Y43.183 Z9.333
N325 X8.801 Y43.265 Z9.298
N330 X8.814 Y43.351 Z9.277
N335 X8.828 Y43.44 Z9.27
N340 X9.517 Y47.79
N345 X9.525 Y47.889
N350 Y89.055
N355 Y92.119
N360 X9.517 Y92.218
N365 X9.021 Y95.354
N370 X9.005 Y95.452 Z9.278
N375 X8.99 Y95.548 Z9.301
N380 X8.975 Y95.639 Z9.34
N385 X8.962 Y95.723 Z9.392
N390 X8.95 Y95.797 Z9.456
N395 X8.94 Y95.861 Z9.532
N400 X8.932 Y95.913 Z9.617
N405 X8.926 Y95.95 Z9.709
N410 X8.922 Y95.973 Z9.806
N415 X8.921 Y95.981 Z9.905
N420 Z33.535
N425 X115.149 Y89.811
N430 Z23.535
N435 Z13.17
N440 G2 Y89.176 Z12.535 J-0.635 K0.
N445 G1 Y83.429
N450 Y56.587
N455 G17 G3 X117.741 Y56.586 I1.296 J0.
N460 G1 X117.747 Y69.882
N465 X117.741 Y70.008
N470 X116.445 Y83.429
N475 G3 X115.991 Y84.295 I-1.29 J-0.125
N480 G1 X112.096 Y87.579
N485 G3 X109.965 Y86.588 I-0.835 J-0.991
N490 G1 Y53.421
N495 G3 X112.557 Y53.42 I1.296 J0.
N500 G1 X112.561 Y69.903
N505 X112.557 Y70.004
N510 X111.261 Y86.588
N515 G3 X110.433 Y87.697 I-1.292 J-0.101
N520 G1 X106.536 Y89.193
N525 G3 X104.775 Y87.983 I-0.465 J-1.21
N530 G1 Y54.358
N535 Y52.036
N540 G3 X105.398 Y51.951 I0.317 J0.
N545 G1 X114.526 Y84.809
N550 G2 X115.149 Y84.724 I0.306 J-0.085
N555 G19 G3 Y84.089 Z11.9 J0. K-0.635
N560 G1 Z9.905
N565 G2 Y83.454 Z9.27 J-0.635 K0.
N570 G1 Y83.429
N575 Y56.587
N580 G17 G3 X117.741 Y56.586 I1.296 J0.
N585 G1 X117.747 Y69.882
N590 X117.741 Y70.008
N595 X116.445 Y83.429
N600 G3 X115.991 Y84.295 I-1.29 J-0.125
N605 G1 X112.096 Y87.579
N610 G3 X109.965 Y86.588 I-0.835 J-0.991
N615 G1 Y53.421
N620 G3 X112.557 Y53.42 I1.296 J0.
N625 G1 X112.561 Y69.903
N630 X112.557 Y70.004
N635 X111.261 Y86.588
N640 G3 X110.433 Y87.697 I-1.292 J-0.101
N645 G1 X106.536 Y89.193
N650 G3 X104.775 Y87.983 I-0.465 J-1.21
N655 G1 Y54.358
N660 Y52.036
N665 X104.783 Y51.937
N670 X105.279 Y48.801
N675 X105.295 Y48.703 Z9.278
N680 X105.31 Y48.607 Z9.301
N685 X105.325 Y48.516 Z9.34
N690 X105.338 Y48.432 Z9.392
N695 X105.35 Y48.357 Z9.456
N700 X105.36 Y48.293 Z9.532
N705 X105.368 Y48.242 Z9.617
N710 X105.374 Y48.204 Z9.709
N715 X105.378 Y48.181 Z9.806
N720 X105.379 Y48.173 Z9.905
N725 Z33.535
N730 X126.151 Y44.853
N735 Z23.535
N740 Z13.17
N745 G19 G3 Y45.488 Z12.535 J0.635 K0.
N750 G1 Y51.245
N755 Y88.76
N760 Y88.785
N765 G3 Y89.42 Z13.17 J0. K0.635
N770 G1 X131.335 Y43.106
N775 G3 Y43.741 Z12.535 J0.635 K0.
N780 G1 Y48.111
N785 Y91.901
N790 Y91.926
N795 G3 Y92.561 Z13.17 J0. K0.635
N800 G1 X135.739 Y42.875
N805 Z13.107 F833.33
N810 X135.74 Y42.882 Z13.017 F2500.
N815 X135.743 Y42.903 Z12.93
N820 X135.749 Y42.937 Z12.847
N825 X135.756 Y42.983 Z12.771
N830 X135.765 Y43.04 Z12.703
N835 X135.776 Y43.108 Z12.645
N840 X135.788 Y43.183 Z12.598
N845 X135.801 Y43.265 Z12.563
N850 X135.814 Y43.351 Z12.542
N855 X135.828 Y43.44 Z12.535
N860 X136.517 Y47.79
N865 X136.525 Y47.889
N870 Y89.055
N875 Y92.119
N880 G17 G3 X135.897 Y92.186 I-0.317 J0.
N885 G1 X126.779 Y49.883
N890 G2 X126.151 Y49.95 I-0.31 J0.067
N895 G19 G2 Y50.585 Z11.9 J0. K-0.635
N900 G1 Z9.905
N905 G3 Y51.22 Z9.27 J0.635 K0.
N910 G1 Y51.245
N915 Y88.76
N920 Y88.785
N925 G3 Y89.42 Z9.905 J0. K0.635
N930 G1 X131.335 Y43.106
N935 G3 Y43.741 Z9.27 J0.635 K0.
N940 G1 Y48.111
N945 Y91.901
N950 Y91.926
N955 G3 Y92.561 Z9.905 J0. K0.635
N960 G1 X135.739 Y42.875
N965 Z9.842 F833.33
N970 X135.74 Y42.882 Z9.752 F2500.
N975 X135.743 Y42.903 Z9.665
N980 X135.749 Y42.937 Z9.582
N985 X135.756 Y42.983 Z9.506
N990 X135.765 Y43.04 Z9.438
N995 X135.776 Y43.108 Z9.38
N1000 X135.788 Y43.183 Z9.333
N1005 X135.801 Y43.265 Z9.298
N1010 X135.814 Y43.351 Z9.277
N1015 X135.828 Y43.44 Z9.27
N1020 X136.517 Y47.79
N1025 X136.525 Y47.889
N1030 Y89.055
N1035 Y92.119
N1040 X136.517 Y92.218
N1045 X136.021 Y95.354
N1050 X136.005 Y95.452 Z9.278
N1055 X135.99 Y95.548 Z9.301
N1060 X135.975 Y95.639 Z9.34
N1065 X135.962 Y95.723 Z9.392
N1070 X135.95 Y95.797 Z9.456
N1075 X135.94 Y95.861 Z9.532
N1080 X135.932 Y95.913 Z9.617
N1085 X135.926 Y95.95 Z9.709
N1090 X135.922 Y95.973 Z9.806
N1095 X135.921 Y95.981 Z9.905
N1100 Z33.535
N1105 X204.049 Y89.811
N1110 Z23.535
N1115 Z13.17
N1120 G2 Y89.176 Z12.535 J-0.635 K0.
N1125 G1 Y83.429
N1130 Y56.587
N1135 G17 G3 X206.641 Y56.586 I1.296 J0.
N1140 G1 X206.647 Y69.882
N1145 X206.641 Y70.008
N1150 X205.345 Y83.429
N1155 G3 X204.891 Y84.295 I-1.29 J-0.125
N1160 G1 X200.996 Y87.579
N1165 G3 X198.865 Y86.588 I-0.835 J-0.991
N1170 G1 Y53.421
N1175 G3 X201.457 Y53.42 I1.296 J0.
N1180 G1 X201.461 Y69.903
N1185 X201.457 Y70.004
N1190 X200.161 Y86.588
N1195 G3 X199.333 Y87.697 I-1.292 J-0.101
N1200 G1 X195.436 Y89.193
N1205 G3 X193.675 Y87.983 I-0.465 J-1.21
N1210 G1 Y54.358
N1215 Y52.036
N1220 G3 X194.298 Y51.951 I0.317 J0.
N1225 G1 X203.426 Y84.809
N1230 G2 X204.049 Y84.724 I0.306 J-0.085
N1235 G19 G3 Y84.089 Z11.9 J0. K-0.635
N1240 G1 Z9.905
N1245 G2 Y83.454 Z9.27 J-0.635 K0.
N1250 G1 Y83.429
N1255 Y56.587
N1260 G17 G3 X206.641 Y56.586 I1.296 J0.
N1265 G1 X206.647 Y69.882
N1270 X206.641 Y70.008
N1275 X205.345 Y83.429
N1280 G3 X204.891 Y84.295 I-1.29 J-0.125
N1285 G1 X200.996 Y87.579
N1290 G3 X198.865 Y86.588 I-0.835 J-0.991
N1295 G1 Y53.421
N1300 G3 X201.457 Y53.42 I1.296 J0.
N1305 G1 X201.461 Y69.903
N1310 X201.457 Y70.004
N1315 X200.161 Y86.588
N1320 G3 X199.333 Y87.697 I-1.292 J-0.101
N1325 G1 X195.436 Y89.193
N1330 G3 X193.675 Y87.983 I-0.465 J-1.21
N1335 G1 Y54.358
N1340 Y52.036
N1345 X193.683 Y51.937
N1350 X194.18 Y48.801
N1355 X194.195 Y48.703 Z9.278
N1360 X194.21 Y48.607 Z9.301
N1365 X194.225 Y48.516 Z9.34
N1370 X194.238 Y48.432 Z9.392
N1375 X194.25 Y48.357 Z9.456
N1380 X194.26 Y48.293 Z9.532
N1385 X194.268 Y48.242 Z9.617
N1390 X194.274 Y48.204 Z9.709
N1395 X194.278 Y48.181 Z9.806
N1400 X194.279 Y48.173 Z9.905
N1405 Z33.535
N1410 X343.749 Y44.369
N1415 Z23.535
N1420 Z13.17
N1425 G19 G2 Y43.734 Z12.535 J-0.635 K0.
N1430 G1 Y37.996
N1435 Y0.481
N1440 Y0.456
N1445 G2 Y-0.179 Z13.17 J0. K0.635
N1450 G1 X338.565 Y46.155
N1455 G2 Y45.52 Z12.535 J-0.635 K0.
N1460 G1 Y41.13
N1465 Y-2.66
N1470 Y-2.685
N1475 G2 Y-3.32 Z13.17 J0. K0.635
N1480 G1 X334.161 Y46.366
N1485 Z13.107 F833.33
N1490 X334.16 Y46.359 Z13.017 F2500.
N1495 X334.157 Y46.339 Z12.93
N1500 X334.151 Y46.305 Z12.847
N1505 X334.144 Y46.258 Z12.771
N1510 X334.135 Y46.201 Z12.703
N1515 X334.124 Y46.134 Z12.645
N1520 X334.112 Y46.058 Z12.598
N1525 X334.099 Y45.976 Z12.563
N1530 X334.086 Y45.89 Z12.542
N1535 X334.072 Y45.802 Z12.535
N1540 X333.383 Y41.452
N1545 X333.375 Y41.352
N1550 Y0.186
N1555 Y-2.877
N1560 G17 G3 X334.003 Y-2.944 I0.318 J0.
N1565 G1 X343.121 Y39.358
N1570 G2 X343.749 Y39.291 I0.31 J-0.067
N1575 G19 G3 Y38.656 Z11.9 J0. K-0.635
N1580 G1 Z9.905
N1585 G2 Y38.021 Z9.27 J-0.635 K0.
N1590 G1 Y37.996
N1595 Y0.481
N1600 Y0.456
N1605 G2 Y-0.179 Z9.905 J0. K0.635
N1610 G1 X338.565 Y46.155
N1615 G2 Y45.52 Z9.27 J-0.635 K0.
N1620 G1 Y41.13
N1625 Y-2.66
N1630 Y-2.685
N1635 G2 Y-3.32 Z9.905 J0. K0.635
N1640 G1 X334.161 Y46.366
N1645 Z9.842 F833.33
N1650 X334.16 Y46.359 Z9.752 F2500.
N1655 X334.157 Y46.339 Z9.665
N1660 X334.151 Y46.305 Z9.582
N1665 X334.144 Y46.258 Z9.506
N1670 X334.135 Y46.201 Z9.438
N1675 X334.124 Y46.134 Z9.38
N1680 X334.112 Y46.058 Z9.333
N1685 X334.099 Y45.976 Z9.298
N1690 X334.086 Y45.89 Z9.277
N1695 X334.072 Y45.802 Z9.27
N1700 X333.383 Y41.452
N1705 X333.375 Y41.352
N1710 Y0.186
N1715 Y-2.877
N1720 X333.383 Y-2.977
N1725 X333.879 Y-6.113
N1730 X333.895 Y-6.211 Z9.278
N1735 X333.91 Y-6.306 Z9.301
N1740 X333.925 Y-6.397 Z9.34
N1745 X333.938 Y-6.481 Z9.392
N1750 X333.95 Y-6.556 Z9.456
N1755 X333.96 Y-6.62 Z9.532
N1760 X333.968 Y-6.671 Z9.617
N1765 X333.974 Y-6.709 Z9.709
N1770 X333.978 Y-6.732 Z9.806
N1775 X333.979 Y-6.74 Z9.905
N1780 Z33.535
N1785 X292.949 Y46.022
N1790 Z23.535
N1795 Z13.17
N1800 G2 Y45.387 Z12.535 J-0.635 K0.
N1805 G1 Y40.997
N1810 Y-2.904
N1815 Y-2.929
N1820 G2 Y-3.564 Z13.17 J0. K0.635
N1825 G1 Z23.535
N1830 X287.765 Y46.182
N1835 Z13.17
N1840 G2 Y45.547 Z12.535 J-0.635 K0.
N1845 G1 Y41.167
N1850 Y-3.068
N1855 Y-3.093
N1860 G2 Y-3.728 Z13.17 J0. K0.635
N1865 G1 Z23.535
N1870 X283.361 Y46.18
N1875 Z13.107
N1880 X283.36 Y46.173 Z13.017
N1885 X283.357 Y46.153 Z12.93
N1890 X283.351 Y46.119 Z12.847
N1895 X283.344 Y46.072 Z12.771
N1900 X283.335 Y46.015 Z12.703
N1905 X283.324 Y45.948 Z12.645
N1910 X283.312 Y45.872 Z12.598
N1915 X283.299 Y45.79 Z12.563
N1920 X283.286 Y45.704 Z12.542
N1925 X283.272 Y45.616 Z12.535
N1930 X282.583 Y41.266
N1935 X282.575 Y41.166
N1940 Y0.
N1945 Y-3.063
N1950 G17 G3 X283.204 Y-3.126 I0.317 J0.
N1955 G1 X292.32 Y42.354
N1960 G2 X292.949 Y42.292 I0.311 J-0.062
N1965 G19 G3 Y41.657 Z11.9 J0. K-0.635
N1970 G1 Z9.905
N1975 G2 Y41.022 Z9.27 J-0.635 K0.
N1980 G1 Y40.997
N1985 Y-2.904
N1990 Y-2.929
N1995 G2 Y-3.564 Z9.905 J0. K0.635
N2000 G1 Z23.535
N2005 X287.765 Y46.182
N2010 Z9.905
N2015 G2 Y45.547 Z9.27 J-0.635 K0.
N2020 G1 Y41.167
N2025 Y-3.068
N2030 Y-3.093
N2035 G2 Y-3.728 Z9.905 J0. K0.635
N2040 G1 Z23.535
N2045 X283.361 Y46.18
N2050 Z9.842
N2055 X283.36 Y46.173 Z9.752
N2060 X283.357 Y46.153 Z9.665
N2065 X283.351 Y46.119 Z9.582
N2070 X283.344 Y46.072 Z9.506
N2075 X283.335 Y46.015 Z9.438
N2080 X283.324 Y45.948 Z9.38
N2085 X283.312 Y45.872 Z9.333
N2090 X283.299 Y45.79 Z9.298
N2095 X283.286 Y45.704 Z9.277
N2100 X283.272 Y45.616 Z9.27
N2105 X282.583 Y41.266
N2110 X282.575 Y41.166
N2115 Y0.
N2120 Y-3.063
N2125 X282.583 Y-3.163
N2130 X283.079 Y-6.299
N2135 X283.095 Y-6.397 Z9.278
N2140 X283.11 Y-6.493 Z9.301
N2145 X283.125 Y-6.583 Z9.34
N2150 X283.138 Y-6.667 Z9.392
N2155 X283.15 Y-6.742 Z9.456
N2160 X283.16 Y-6.806 Z9.532
N2165 X283.168 Y-6.858 Z9.617
N2170 X283.174 Y-6.895 Z9.709
N2175 X283.178 Y-6.918 Z9.806
N2180 X283.179 Y-6.926 Z9.905
N2185 Z33.535
N2190 X254.849 Y39.011
N2195 Z23.535
N2200 Z13.17
N2205 G2 Y38.376 Z12.535 J-0.635 K0.
N2210 G1 Y32.629
N2215 Y5.787
N2220 G17 G3 X257.441 Y5.786 I1.296 J0.
N2225 G1 X257.447 Y19.083
N2230 X257.441 Y19.208
N2235 X256.145 Y32.629
N2240 G3 X255.691 Y33.495 I-1.29 J-0.125
N2245 G1 X251.796 Y36.779
N2250 G3 X249.665 Y35.788 I-0.835 J-0.991
N2255 G1 Y2.621
N2260 G3 X252.257 Y2.62 I1.296 J0.
N2265 G1 X252.261 Y19.103
N2270 X252.257 Y19.204
N2275 X250.961 Y35.788
N2280 G3 X250.133 Y36.897 I-1.292 J-0.101
N2285 G1 X246.236 Y38.393
N2290 G3 X244.475 Y37.183 I-0.465 J-1.21
N2295 G1 Y3.558
N2300 Y1.236
N2305 G3 X245.098 Y1.151 I0.317 J0.
N2310 G1 X254.226 Y34.009
N2315 G2 X254.849 Y33.924 I0.306 J-0.085
N2320 G19 G3 Y33.289 Z11.9 J0. K-0.635
N2325 G1 Z9.905
N2330 G2 Y32.654 Z9.27 J-0.635 K0.
N2335 G1 Y32.629
N2340 Y5.787
N2345 G17 G3 X257.441 Y5.786 I1.296 J0.
N2350 G1 X257.447 Y19.083
N2355 X257.441 Y19.208
N2360 X256.145 Y32.629
N2365 G3 X255.691 Y33.495 I-1.29 J-0.125
N2370 G1 X251.796 Y36.779
N2375 G3 X249.665 Y35.788 I-0.835 J-0.991
N2380 G1 Y2.621
N2385 G3 X252.257 Y2.62 I1.296 J0.
N2390 G1 X252.261 Y19.103
N2395 X252.257 Y19.204
N2400 X250.961 Y35.788
N2405 G3 X250.133 Y36.897 I-1.292 J-0.101
N2410 G1 X246.236 Y38.393
N2415 G3 X244.475 Y37.183 I-0.465 J-1.21
N2420 G1 Y3.558
N2425 Y1.236
N2430 X244.483 Y1.137
N2435 X244.979 Y-1.999
N2440 X244.995 Y-2.097 Z9.278
N2445 X245.01 Y-2.193 Z9.301
N2450 X245.025 Y-2.284 Z9.34
N2455 X245.038 Y-2.368 Z9.392
N2460 X245.05 Y-2.443 Z9.456
N2465 X245.06 Y-2.507 Z9.532
N2470 X245.068 Y-2.558 Z9.617
N2475 X245.074 Y-2.596 Z9.709
N2480 X245.078 Y-2.619 Z9.806
N2485 X245.079 Y-2.627 Z9.905
N2490 Z33.535
N2495 X88.051 Y-5.947
N2500 Z23.535
N2505 Z13.17
N2510 G19 G3 Y-5.312 Z12.535 J0.635 K0.
N2515 G1 Y0.445
N2520 Y37.96
N2525 Y37.985
N2530 G3 Y38.62 Z13.17 J0. K0.635
N2535 G1 X93.235 Y-7.694
N2540 G3 Y-7.059 Z12.535 J0.635 K0.
N2545 G1 Y-2.689
N2550 Y41.101
N2555 Y41.126
N2560 G3 Y41.761 Z13.17 J0. K0.635
N2565 G1 X97.639 Y-7.925
N2570 Z13.107 F833.33
N2575 X97.64 Y-7.918 Z13.017 F2500.
N2580 X97.643 Y-7.897 Z12.93
N2585 X97.649 Y-7.863 Z12.847
N2590 X97.656 Y-7.817 Z12.771
N2595 X97.665 Y-7.76 Z12.703
N2600 X97.676 Y-7.692 Z12.645
N2605 X97.688 Y-7.617 Z12.598
N2610 X97.701 Y-7.535 Z12.563
N2615 X97.714 Y-7.449 Z12.542
N2620 X97.728 Y-7.36 Z12.535
N2625 X98.417 Y-3.01
N2630 X98.425 Y-2.911
N2635 Y38.255
N2640 Y41.319
N2645 G17 G3 X97.797 Y41.386 I-0.318 J0.
N2650 G1 X88.679 Y-0.917
N2655 G2 X88.051 Y-0.85 I-0.31 J0.067
N2660 G19 G2 Y-0.215 Z11.9 J0. K-0.635
N2665 G1 Z9.905
N2670 G3 Y0.42 Z9.27 J0.635 K0.
N2675 G1 Y0.445
N2680 Y37.96
N2685 Y37.985
N2690 G3 Y38.62 Z9.905 J0. K0.635
N2695 G1 X93.235 Y-7.694
N2700 G3 Y-7.059 Z9.27 J0.635 K0.
N2705 G1 Y-2.689
N2710 Y41.101
N2715 Y41.126
N2720 G3 Y41.761 Z9.905 J0. K0.635
N2725 G1 X97.639 Y-7.925
N2730 Z9.842 F833.33
N2735 X97.64 Y-7.918 Z9.752 F2500.
N2740 X97.643 Y-7.897 Z9.665
N2745 X97.649 Y-7.863 Z9.582
N2750 X97.656 Y-7.817 Z9.506
N2755 X97.665 Y-7.76 Z9.438
N2760 X97.676 Y-7.692 Z9.38
N2765 X97.688 Y-7.617 Z9.333
N2770 X97.701 Y-7.535 Z9.298
N2775 X97.714 Y-7.449 Z9.277
N2780 X97.728 Y-7.36 Z9.27
N2785 X98.417 Y-3.01
N2790 X98.425 Y-2.911
N2795 Y38.255
N2800 Y41.319
N2805 X98.417 Y41.418
N2810 X97.921 Y44.554
N2815 X97.905 Y44.652 Z9.278
N2820 X97.89 Y44.748 Z9.301
N2825 X97.875 Y44.839 Z9.34
N2830 X97.862 Y44.923 Z9.392
N2835 X97.85 Y44.997 Z9.456
N2840 X97.84 Y45.061 Z9.532
N2845 X97.832 Y45.113 Z9.617
N2850 X97.826 Y45.15 Z9.709
N2855 X97.822 Y45.173 Z9.806
N2860 X97.821 Y45.181 Z9.905
N2865 Z33.535
N2870 X77.049 Y44.369
N2875 Z23.535
N2880 Z13.17
N2885 G2 Y43.734 Z12.535 J-0.635 K0.
N2890 G1 Y37.996
N2895 Y0.481
N2900 Y0.456
N2905 G2 Y-0.179 Z13.17 J0. K0.635
N2910 G1 X71.865 Y46.155
N2915 G2 Y45.52 Z12.535 J-0.635 K0.
N2920 G1 Y41.13
N2925 Y-2.66
N2930 Y-2.685
N2935 G2 Y-3.32 Z13.17 J0. K0.635
N2940 G1 X67.461 Y46.366
N2945 Z13.107 F833.33
N2950 X67.46 Y46.359 Z13.017 F2500.
N2955 X67.457 Y46.339 Z12.93
N2960 X67.451 Y46.305 Z12.847
N2965 X67.444 Y46.258 Z12.771
N2970 X67.435 Y46.201 Z12.703
N2975 X67.424 Y46.134 Z12.645
N2980 X67.412 Y46.058 Z12.598
N2985 X67.399 Y45.976 Z12.563
N2990 X67.386 Y45.89 Z12.542
N2995 X67.372 Y45.802 Z12.535
N3000 X66.683 Y41.452
N3005 X66.675 Y41.352
N3010 Y0.186
N3015 Y-2.877
N3020 G17 G3 X67.303 Y-2.944 I0.317 J0.
N3025 G1 X76.421 Y39.358
N3030 G2 X77.049 Y39.291 I0.31 J-0.067
N3035 G19 G3 Y38.656 Z11.9 J0. K-0.635
N3040 G1 Z9.905
N3045 G2 Y38.021 Z9.27 J-0.635 K0.
N3050 G1 Y37.996
N3055 Y0.481
N3060 Y0.456
N3065 G2 Y-0.179 Z9.905 J0. K0.635
N3070 G1 X71.865 Y46.155
N3075 G2 Y45.52 Z9.27 J-0.635 K0.
N3080 G1 Y41.13
N3085 Y-2.66
N3090 Y-2.685
N3095 G2 Y-3.32 Z9.905 J0. K0.635
N3100 G1 X67.461 Y46.366
N3105 Z9.842 F833.33
N3110 X67.46 Y46.359 Z9.752 F2500.
N3115 X67.457 Y46.339 Z9.665
N3120 X67.451 Y46.305 Z9.582
N3125 X67.444 Y46.258 Z9.506
N3130 X67.435 Y46.201 Z9.438
N3135 X67.424 Y46.134 Z9.38
N3140 X67.412 Y46.058 Z9.333
N3145 X67.399 Y45.976 Z9.298
N3150 X67.386 Y45.89 Z9.277
N3155 X67.372 Y45.802 Z9.27
N3160 X66.683 Y41.452
N3165 X66.675 Y41.352
N3170 Y0.186
N3175 Y-2.877
N3180 X66.683 Y-2.977
N3185 X67.179 Y-6.113
N3190 X67.195 Y-6.211 Z9.278
N3195 X67.21 Y-6.306 Z9.301
N3200 X67.225 Y-6.397 Z9.34
N3205 X67.238 Y-6.481 Z9.392
N3210 X67.25 Y-6.556 Z9.456
N3215 X67.26 Y-6.62 Z9.532
N3220 X67.268 Y-6.671 Z9.617
N3225 X67.274 Y-6.709 Z9.709
N3230 X67.278 Y-6.732 Z9.806
N3235 X67.279 Y-6.74 Z9.905
N3240 Z33.535
N3245 X26.264 Y46.022
N3250 Z23.535
N3255 Z13.17
N3260 Y46.014 Z13.071
N3265 Y45.991 Z12.974
N3270 Y45.953 Z12.882
N3275 Y45.901 Z12.797
N3280 Y45.836 Z12.721
N3285 Y45.76 Z12.657
N3290 Y45.675 Z12.605
N3295 Y45.583 Z12.566
N3300 Y45.486 Z12.543
N3305 Y45.387 Z12.535
N3310 X26.267 Y40.997
N3315 X26.294 Y0.
N3320 X26.29 Y-2.891
N3325 Y-2.915
N3330 Y-3.015 Z12.543
N3335 X26.289 Y-3.112 Z12.566
N3340 Y-3.204 Z12.605
N3345 Y-3.289 Z12.657
N3350 Y-3.364 Z12.721
N3355 Y-3.429 Z12.797
N3360 Y-3.481 Z12.882
N3365 Y-3.519 Z12.974
N3370 Y-3.543 Z13.071
N3375 Y-3.55 Z13.17
N3380 Z23.535
N3385 X21.065 Y46.182
N3390 Z13.17
N3395 G2 Y45.547 Z12.535 J-0.635 K0.
N3400 G1 Y41.167
N3405 Y-3.068
N3410 Y-3.093
N3415 G2 Y-3.728 Z13.17 J0. K0.635
N3420 G1 Z23.535
N3425 X16.661 Y46.18
N3430 Z13.107
N3435 X16.66 Y46.173 Z13.017
N3440 X16.657 Y46.153 Z12.93
N3445 X16.651 Y46.119 Z12.847
N3450 X16.644 Y46.072 Z12.771
N3455 X16.635 Y46.015 Z12.703
N3460 X16.624 Y45.948 Z12.645
N3465 X16.612 Y45.872 Z12.598
N3470 X16.599 Y45.79 Z12.563
N3475 X16.586 Y45.704 Z12.542
N3480 X16.572 Y45.616 Z12.535
N3485 X15.883 Y41.266
N3490 X15.875 Y41.166
N3495 Y0.
N3500 Y-3.063
N3505 G17 G3 X16.504 Y-3.126 I0.317 J0.
N3510 G1 X25.637 Y42.354
N3515 G2 X26.266 Y42.292 I0.311 J-0.063
N3520 G1 Y42.193 Z12.528
N3525 Y42.096 Z12.504
N3530 Y42.004 Z12.466
N3535 Y41.919 Z12.414
N3540 Y41.843 Z12.349
N3545 Y41.778 Z12.274
N3550 X26.267 Y41.726 Z12.189
N3555 Y41.688 Z12.097
N3560 Y41.665 Z12.
N3565 Y41.657 Z11.9
N3570 Z9.905
N3575 Y41.649 Z9.806
N3580 Y41.626 Z9.709
N3585 Y41.588 Z9.617
N3590 Y41.536 Z9.532
N3595 Y41.471 Z9.456
N3600 Y41.395 Z9.392
N3605 Y41.31 Z9.34
N3610 Y41.218 Z9.301
N3615 Y41.121 Z9.278
N3620 Y41.022 Z9.27
N3625 Y40.997
N3630 X26.294 Y0.
N3635 X26.29 Y-2.891
N3640 Y-2.915
N3645 Y-3.015 Z9.278
N3650 X26.289 Y-3.112 Z9.301
N3655 Y-3.204 Z9.34
N3660 Y-3.289 Z9.392
N3665 Y-3.364 Z9.456
N3670 Y-3.429 Z9.532
N3675 Y-3.481 Z9.617
N3680 Y-3.519 Z9.709
N3685 Y-3.543 Z9.806
N3690 Y-3.55 Z9.905
N3695 Z23.535
N3700 X21.065 Y46.182
N3705 Z9.905
N3710 G19 G2 Y45.547 Z9.27 J-0.635 K0.
N3715 G1 Y41.167
N3720 Y-3.068
N3725 Y-3.093
N3730 G2 Y-3.728 Z9.905 J0. K0.635
N3735 G1 Z23.535
N3740 X16.661 Y46.18
N3745 Z9.842
N3750 X16.66 Y46.173 Z9.752
N3755 X16.657 Y46.153 Z9.665
N3760 X16.651 Y46.119 Z9.582
N3765 X16.644 Y46.072 Z9.506
N3770 X16.635 Y46.015 Z9.438
N3775 X16.624 Y45.948 Z9.38
N3780 X16.612 Y45.872 Z9.333
N3785 X16.599 Y45.79 Z9.298
N3790 X16.586 Y45.704 Z9.277
N3795 X16.572 Y45.616 Z9.27
N3800 X15.883 Y41.266
N3805 X15.875 Y41.166
N3810 Y0.
N3815 Y-3.063
N3820 X15.883 Y-3.163
N3825 X16.379 Y-6.299
N3830 X16.395 Y-6.397 Z9.278
N3835 X16.41 Y-6.493 Z9.301
N3840 X16.425 Y-6.583 Z9.34
N3845 X16.438 Y-6.667 Z9.392
N3850 X16.45 Y-6.742 Z9.456
N3855 X16.46 Y-6.806 Z9.532
N3860 X16.468 Y-6.858 Z9.617
N3865 X16.474 Y-6.895 Z9.709
N3870 X16.478 Y-6.918 Z9.806
N3875 X16.479 Y-6.926 Z9.905
N3880 Z33.535
N3885 G17
(WHEN USING FUSION 360 FOR PERSONAL USE, THE FEEDRATE OF)
(RAPID MOVES IS REDUCED TO MATCH THE FEEDRATE OF CUTTING)
(MOVES, WHICH CAN INCREASE MACHINING TIME. UNRESTRICTED RAPID)
(MOVES ARE AVAILABLE WITH A FUSION 360 SUBSCRIPTION.)
(2D CONTOUR3)
N3890 G0 X248.856 Y76.355
N3895 G1 Z33.535 F2500.
N3900 Z23.535
N3905 Z12.185 F833.33
N3910 G3 X245.554 I-1.651 J0. F2500.
N3915 X248.856 I1.651 J0.
N3920 G1 Z6.592 F833.33
N3925 G3 X245.554 I-1.651 J0. F2500.
N3930 X248.856 I1.651 J0.
N3935 G1 Z23.535
N3940 X312.356
N3945 Z12.185 F833.33
N3950 G3 X309.054 I-1.651 J0. F2500.
N3955 X312.356 I1.651 J0.
N3960 G1 Z6.592 F833.33
N3965 G3 X309.054 I-1.651 J0. F2500.
N3970 X312.356 I1.651 J0.
N3975 G1 Z33.535
N3980 X118.356 Y41.43
N3985 Z23.535
N3990 Z12.185 F833.33
N3995 X228.6 F2500.
N4000 G2 X229.422 Y41.322 I0. J-3.175
N4005 G1 X250.116 Y35.777
N4010 G2 X257.175 Y26.577 I-2.466 J-9.2
N4015 G1 Y11.834
N4020 G2 X250.116 Y2.633 I-9.525 J0.
N4025 G1 X229.422 Y-2.912
N4030 G2 X228.6 Y-3.02 I-0.822 J3.067
N4035 G1 X95.25
N4040 G2 X85.725 Y6.505 I0. J9.525
N4045 G1 Y31.905
N4050 G2 X95.25 Y41.43 I9.525 J0.
N4055 G1 X118.356
N4060 Z23.535
N4065 X125.01 Y52.703
N4070 Z12.185 F833.33
N4075 G2 X123.825 Y57.305 I8.34 J4.602 F2500.
N4080 G1 Y82.705
N4085 G2 X133.35 Y92.23 I9.525 J0.
N4090 G1 X177.8
N4095 G2 X178.622 Y92.122 I0. J-3.175
N4100 G1 X199.316 Y86.577
N4105 G2 X206.375 Y77.377 I-2.466 J-9.2
N4110 G1 Y62.634
N4115 G2 X199.316 Y53.433 I-9.525 J0.
N4120 G1 X178.622 Y47.888
N4125 G2 X177.8 Y47.78 I-0.822 J3.067
N4130 G1 X133.35
N4135 G2 X125.01 Y52.703 I0. J9.525
N4140 G1 Z23.535
N4145 X113.737 Y55.068
N4150 Z12.185 F833.33
N4155 G2 X110.416 Y53.433 I-5.787 J7.565 F2500.
N4160 G1 X89.722 Y47.888
N4165 G2 X88.9 Y47.78 I-0.822 J3.067
N4170 G1 X6.35
N4175 G2 X-3.175 Y57.305 I0. J9.525
N4180 G1 Y82.705
N4185 G2 X6.35 Y92.23 I9.525 J0.
N4190 G1 X88.9
N4195 G2 X89.722 Y92.122 I0. J-3.175
N4200 G1 X110.416 Y86.577
N4205 G2 X117.475 Y77.377 I-2.466 J-9.2
N4210 G1 Y62.634
N4215 G2 X113.737 Y55.068 I-9.525 J0.
N4220 G1 Z23.535
N4225 X125.01 Y52.703
N4230 Z17.185 F833.33
N4235 Z5.835
N4240 G2 X123.825 Y57.305 I8.34 J4.602 F2500.
N4245 G1 Y82.705
N4250 G2 X133.35 Y92.23 I9.525 J0.
N4255 G1 X177.8
N4260 G2 X178.622 Y92.122 I0. J-3.175
N4265 G1 X199.316 Y86.577
N4270 G2 X206.375 Y77.377 I-2.466 J-9.2
N4275 G1 Y62.634
N4280 G2 X199.316 Y53.433 I-9.525 J0.
N4285 G1 X178.622 Y47.888
N4290 G2 X177.8 Y47.78 I-0.822 J3.067
N4295 G1 X133.35
N4300 G2 X125.01 Y52.703 I0. J9.525
N4305 G1 Z23.535
N4310 X152.4 Y69.802
N4315 Z12.185 F833.33
N4320 X177.8 F2500.
N4325 G3 Y70.209 I0. J0.203
N4330 G1 X152.4
N4335 G3 Y69.802 I0. J-0.203
N4340 G1 Z5.835 F833.33
N4345 X177.8 F2500.
N4350 G3 Y70.209 I0. J0.203
N4355 G1 X152.4
N4360 G3 Y69.802 I0. J-0.203
N4365 G1 Z-0.495 F833.33
N4370 X177.8 F2500.
N4375 G3 Y70.209 I0. J0.203
N4380 G1 X152.4
N4385 G3 Y69.802 I0. J-0.203
N4390 G1 Z23.535
N4395 X114.3 Y19.002
N4400 Z12.185 F833.33
N4405 X228.6 F2500.
N4410 G3 Y19.409 I0. J0.203
N4415 G1 X114.3
N4420 G3 Y19.002 I0. J-0.203
N4425 G1 Z5.835 F833.33
N4430 X228.6 F2500.
N4435 G3 Y19.409 I0. J0.203
N4440 G1 X114.3
N4445 G3 Y19.002 I0. J-0.203
N4450 G1 Z-0.495 F833.33
N4455 X228.6 F2500.
N4460 G3 Y19.409 I0. J0.203
N4465 G1 X114.3
N4470 G3 Y19.002 I0. J-0.203
N4475 G1 Z23.535
N4480 X79.375 Y6.536
N4485 Z12.185 F833.33
N4490 G2 X69.85 Y-2.989 I-9.525 J0. F2500.
N4495 G1 X44.45
N4500 G2 X34.925 Y6.536 I0. J9.525
N4505 G1 Y31.936
N4510 G2 X44.45 Y41.461 I9.525 J0.
N4515 G1 X69.85
N4520 G2 X79.375 Y31.936 I0. J-9.525
N4525 G1 Y6.536
N4530 Z23.535
N4535 X28.575 Y0.
N4540 Z12.185 F833.33
N4545 G2 X25.4 Y-3.175 I-3.175 J0. F2500.
N4550 G1 X6.35
N4555 G2 X-3.175 Y6.35 I0. J9.525
N4560 G1 Y31.75
N4565 G2 X6.35 Y41.275 I9.525 J0.
N4570 G1 X25.4
N4575 G2 X28.575 Y38.1 I0. J-3.175
N4580 G1 Y0.
N4585 Z5.835 F833.33
N4590 G2 X25.4 Y-3.175 I-3.175 J0. F2500.
N4595 G1 X6.35
N4600 G2 X-3.175 Y6.35 I0. J9.525
N4605 G1 Y31.75
N4610 G2 X6.35 Y41.275 I9.525 J0.
N4615 G1 X25.4
N4620 G2 X28.575 Y38.1 I0. J-3.175
N4625 G1 Y0.
N4630 Z23.535
N4635 X34.925 Y6.476
N4640 Z17.185 F833.33
N4645 Z5.835
N4650 Y6.536 F2500.
N4655 Y31.936
N4660 G2 X44.45 Y41.461 I9.525 J0.
N4665 G1 X69.85
N4670 G2 X79.375 Y31.936 I0. J-9.525
N4675 G1 Y6.536
N4680 G2 X69.85 Y-2.989 I-9.525 J0.
N4685 G1 X44.45
N4690 G2 X34.925 Y6.476 I0. J9.525
N4695 G1 Z23.535
N4700 X33.233 Y47.78
N4705 Z17.185 F833.33
N4710 Z5.835
N4715 X6.35 F2500.
N4720 G2 X-3.175 Y57.305 I0. J9.525
N4725 G1 Y82.705
N4730 G2 X6.35 Y92.23 I9.525 J0.
N4735 G1 X88.9
N4740 G2 X89.722 Y92.122 I0. J-3.175
N4745 G1 X110.416 Y86.577
N4750 G2 X117.475 Y77.377 I-2.466 J-9.2
N4755 G1 Y62.634
N4760 G2 X110.416 Y53.433 I-9.525 J0.
N4765 G1 X89.722 Y47.888
N4770 G2 X88.9 Y47.78 I-0.822 J3.067
N4775 G1 X33.233
N4780 Z-0.495 F833.33
N4785 X6.35 F2500.
N4790 G2 X-3.175 Y57.305 I0. J9.525
N4795 G1 Y65.014
N4800 Z1.505
N4805 Y77.714
N4810 Z-0.495 F833.33
N4815 Y82.705 F2500.
N4820 G2 X6.35 Y92.23 I9.525 J0.
N4825 G1 X88.9
N4830 G2 X89.722 Y92.122 I0. J-3.175
N4835 G1 X110.416 Y86.577
N4840 G2 X117.475 Y77.377 I-2.466 J-9.2
N4845 G1 Y75.594
N4850 Z1.505
N4855 Y62.894
N4860 Z-0.495 F833.33
N4865 Y62.634 F2500.
N4870 G2 X110.416 Y53.433 I-9.525 J0.
N4875 G1 X89.722 Y47.888
N4880 G2 X88.9 Y47.78 I-0.822 J3.067
N4885 G1 X33.233
N4890 Z23.535
N4895 X28.222 Y39.556
N4900 Z10.835 F833.33
N4905 Z-0.495
N4910 G2 X28.575 Y38.1 I-2.822 J-1.456 F2500.
N4915 G1 Y26.917
N4920 Z1.505
N4925 Y14.217
N4930 Z-0.495 F833.33
N4935 Y0. F2500.
N4940 G2 X25.4 Y-3.175 I-3.175 J0.
N4945 G1 X19.491
N4950 Z1.505
N4955 X6.791
N4960 Z-0.495 F833.33
N4965 X6.35 F2500.
N4970 G2 X-3.175 Y6.35 I0. J9.525
N4975 G1 Y14.25
N4980 Z1.505
N4985 Y26.95
N4990 Z-0.495 F833.33
N4995 Y31.75 F2500.
N5000 G2 X6.35 Y41.275 I9.525 J0.
N5005 G1 X7.851
N5010 Z1.505
N5015 X20.551
N5020 Z-0.495 F833.33
N5025 X25.4 F2500.
N5030 G2 X28.222 Y39.556 I0. J-3.175
N5035 G1 Z23.535
N5040 X25.4 Y70.209
N5045 Z12.185 F833.33
N5050 G3 Y69.802 I0. J-0.203 F2500.
N5055 G1 X88.9
N5060 G3 Y70.209 I0. J0.203
N5065 G1 X25.4
N5070 Z5.835 F833.33
N5075 G3 Y69.802 I0. J-0.203 F2500.
N5080 G1 X88.9
N5085 G3 Y70.209 I0. J0.203
N5090 G1 X25.4
N5095 Z-0.495 F833.33
N5100 G3 Y69.802 I0. J-0.203 F2500.
N5105 G1 X88.9
N5110 G3 Y70.209 I0. J0.203
N5115 G1 X25.4
N5120 Z23.535
N5125 X263.525 Y31.75
N5130 Z12.185 F833.33
N5135 G2 X273.05 Y41.275 I9.525 J0. F2500.
N5140 G1 X292.1
N5145 G2 X295.275 Y38.1 I0. J-3.175
N5150 G1 Y0.
N5155 G2 X292.1 Y-3.175 I-3.175 J0.
N5160 G1 X273.05
N5165 G2 X263.525 Y6.35 I0. J9.525
N5170 G1 Y31.75
N5175 Z23.535
N5180 X228.6 Y41.43
N5185 Z17.185 F833.33
N5190 Z5.835
N5195 G2 X229.422 Y41.322 I0. J-3.175 F2500.
N5200 G1 X250.116 Y35.777
N5205 G2 X257.175 Y26.577 I-2.466 J-9.2
N5210 G1 Y11.834
N5215 G2 X250.116 Y2.633 I-9.525 J0.
N5220 G1 X229.422 Y-2.912
N5225 G2 X228.6 Y-3.02 I-0.822 J3.067
N5230 G1 X95.25
N5235 G2 X85.725 Y6.505 I0. J9.525
N5240 G1 Y31.905
N5245 G2 X95.25 Y41.43 I9.525 J0.
N5250 G1 X228.6
N5255 Z23.535
N5260 X125.01 Y52.703
N5265 Z10.835 F833.33
N5270 Z-0.495
N5275 G2 X123.825 Y57.305 I8.34 J4.602 F2500.
N5280 G1 Y62.426
N5285 Z1.505
N5290 Y75.126
N5295 Z-0.495 F833.33
N5300 Y82.705 F2500.
N5305 G2 X133.35 Y92.23 I9.525 J0.
N5310 G1 X177.8
N5315 G2 X178.622 Y92.122 I0. J-3.175
N5320 G1 X199.316 Y86.577
N5325 G2 X206.375 Y77.377 I-2.466 J-9.2
N5330 G1 Y74.685
N5335 Z1.505
N5340 Y62.634
N5345 G2 X206.353 Y61.985 I-9.525 J0.
N5350 G1 Z-0.495 F833.33
N5355 G2 X199.316 Y53.433 I-9.503 J0.649 F2500.
N5360 G1 X178.622 Y47.888
N5365 G2 X177.8 Y47.78 I-0.822 J3.067
N5370 G1 X133.35
N5375 G2 X125.01 Y52.703 I0. J9.525
N5380 G1 Z23.535
N5385 X77.48 Y37.638
N5390 Z10.835 F833.33
N5395 Z-0.495
N5400 G2 X79.375 Y31.936 I-7.63 J-5.702 F2500.
N5405 G1 Y26.309
N5410 Z1.505
N5415 Y13.609
N5420 Z-0.495 F833.33
N5425 Y6.536 F2500.
N5430 G2 X69.85 Y-2.989 I-9.525 J0.
N5435 G1 X62.871
N5440 Z1.505
N5445 X50.171
N5450 Z-0.495 F833.33
N5455 X44.45 F2500.
N5460 G2 X34.925 Y6.536 I0. J9.525
N5465 G1 Y10.965
N5470 Z1.505
N5475 Y23.665
N5480 Z-0.495 F833.33
N5485 Y31.936 F2500.
N5490 G2 X44.45 Y41.461 I9.525 J0.
N5495 G1 X49.651
N5500 Z1.505
N5505 X62.351
N5510 Z-0.495 F833.33
N5515 X69.85 F2500.
N5520 G2 X77.48 Y37.638 I0. J-9.525
N5525 G1 Z23.535
N5530 X301.625 Y6.476
N5535 Z12.185 F833.33
N5540 Y6.536 F2500.
N5545 Y31.936
N5550 G2 X311.15 Y41.461 I9.525 J0.
N5555 G1 X336.55
N5560 G2 X346.075 Y31.936 I0. J-9.525
N5565 G1 Y6.536
N5570 G2 X336.55 Y-2.989 I-9.525 J0.
N5575 G1 X311.15
N5580 G2 X301.625 Y6.476 I0. J9.525
N5585 G1 Z5.835 F833.33
N5590 Y6.536 F2500.
N5595 Y31.936
N5600 G2 X311.15 Y41.461 I9.525 J0.
N5605 G1 X336.55
N5610 G2 X346.075 Y31.936 I0. J-9.525
N5615 G1 Y6.536
N5620 G2 X336.55 Y-2.989 I-9.525 J0.
N5625 G1 X311.15
N5630 G2 X301.625 Y6.476 I0. J9.525
N5635 G1 Z23.535
N5640 X295.275 Y6.456
N5645 Z17.185 F833.33
N5650 Z5.835
N5655 Y0. F2500.
N5660 G2 X292.1 Y-3.175 I-3.175 J0.
N5665 G1 X273.05
N5670 G2 X263.525 Y6.35 I0. J9.525
N5675 G1 Y31.75
N5680 G2 X273.05 Y41.275 I9.525 J0.
N5685 G1 X292.1
N5690 G2 X295.275 Y38.1 I0. J-3.175
N5695 G1 Y6.456
N5700 Z-0.495 F833.33
N5705 Y0. F2500.
N5710 G2 X292.1 Y-3.175 I-3.175 J0.
N5715 G1 X286.754
N5720 Z1.505
N5725 X274.054
N5730 Z-0.495 F833.33
N5735 X273.05 F2500.
N5740 G2 X263.525 Y6.35 I0. J9.525
N5745 G1 Y31.75
N5750 G2 X273.05 Y41.275 I9.525 J0.
N5755 G1 X275.81
N5760 Z1.505
N5765 X288.51
N5770 Z-0.495 F833.33
N5775 X292.1 F2500.
N5780 G2 X295.275 Y38.1 I0. J-3.175
N5785 G1 Y23.489
N5790 Z1.505
N5795 Y10.789
N5800 Z-0.495 F833.33
N5805 Y6.456 F2500.
N5810 Z23.535
N5815 X301.625 Y6.476
N5820 Z10.835 F833.33
N5825 Z-0.495
N5830 Y6.536 F2500.
N5835 Y10.452
N5840 Z1.505
N5845 Y23.152
N5850 Z-0.495 F833.33
N5855 Y31.936 F2500.
N5860 G2 X311.15 Y41.461 I9.525 J0.
N5865 G1 X315.35
N5870 Z1.505
N5875 X328.05
N5880 Z-0.495 F833.33
N5885 X336.55 F2500.
N5890 G2 X346.075 Y31.936 I0. J-9.525
N5895 G1 Y24.139
N5900 Z1.505
N5905 Y11.439
N5910 Z-0.495 F833.33
N5915 Y6.536 F2500.
N5920 G2 X336.55 Y-2.989 I-9.525 J0.
N5925 G1 X331.189
N5930 Z1.505
N5935 X318.489
N5940 Z-0.495 F833.33
N5945 X311.15 F2500.
N5950 G2 X301.625 Y6.476 I0. J9.525
N5955 G1 Z23.535
N5960 X250.116 Y2.633
N5965 Z10.835 F833.33
N5970 Z-0.495
N5975 X229.422 Y-2.912 F2500.
N5980 G2 X228.6 Y-3.02 I-0.822 J3.067
N5985 G1 X228.229
N5990 Z1.505
N5995 X215.529
N6000 Z-0.495 F833.33
N6005 X201.904 F2500.
N6010 Z1.505
N6015 X189.204
N6020 Z-0.495 F833.33
N6025 X169.992 F2500.
N6030 Z1.505
N6035 X157.292
N6040 Z-0.495 F833.33
N6045 X141.523 F2500.
N6050 Z1.505
N6055 X128.823
N6060 Z-0.495 F833.33
N6065 X114.532 F2500.
N6070 Z1.505
N6075 X101.832
N6080 Z-0.495 F833.33
N6085 X95.25 F2500.
N6090 G2 X85.725 Y6.505 I0. J9.525
N6095 G1 Y12.487
N6100 Z1.505
N6105 Y25.187
N6110 Z-0.495 F833.33
N6115 Y31.905 F2500.
N6120 G2 X95.25 Y41.43 I9.525 J0.
N6125 G1 X99.412
N6130 Z1.505
N6135 X112.112
N6140 Z-0.495 F833.33
N6145 X125.192 F2500.
N6150 Z1.505
N6155 X137.892
N6160 Z-0.495 F833.33
N6165 X154.802 F2500.
N6170 Z1.505
N6175 X167.502
N6180 Z-0.495 F833.33
N6185 X184.694 F2500.
N6190 Z1.505
N6195 X197.394
N6200 Z-0.495 F833.33
N6205 X213.093 F2500.
N6210 Z1.505
N6215 X225.793
N6220 Z-0.495 F833.33
N6225 X228.6 F2500.
N6230 G2 X229.422 Y41.322 I0. J-3.175
N6235 G1 X250.116 Y35.777
N6240 G2 X257.175 Y26.577 I-2.466 J-9.2
N6245 G1 Y26.306
N6250 Z1.505
N6255 Y13.606
N6260 Z-0.495 F833.33
N6265 Y11.834 F2500.
N6270 G2 X250.116 Y2.633 I-9.525 J0.
N6275 G1 Z33.535
N6280 X287.775 Y61.702
N6285 Z23.535
N6290 Z12.185 F833.33
N6295 X287.804 Y61.762 F2500.
N6300 X287.998 Y62.158
N6305 X288.055 Y62.268
N6310 X288.116 Y62.377
N6315 X288.342 Y62.758
N6320 X288.401 Y62.855
N6325 X288.464 Y62.949
N6330 X288.721 Y63.32
N6335 X288.833 Y63.472
N6340 X289.117 Y63.834
N6345 X289.22 Y63.958
N6350 X289.528 Y64.312
N6355 X289.616 Y64.409
N6360 X289.944 Y64.756
N6365 X290.019 Y64.833
N6370 X290.364 Y65.174
N6375 X290.424 Y65.232
N6380 X290.784 Y65.57
N6385 X290.832 Y65.613
N6390 X291.205 Y65.949
N6395 X291.247 Y65.987
N6400 X292.019 Y66.657
N6405 X292.034 Y66.669
N6410 X292.802 Y67.328
N6415 X293.531 Y67.975
N6420 X293.854 Y68.276
N6425 X294.161 Y68.576
N6430 X294.439 Y68.866
N6435 X294.693 Y69.151
N6440 X294.917 Y69.424
N6445 X295.11 Y69.686
N6450 X295.273 Y69.937
N6455 X295.421 Y70.202
N6460 X295.461 Y70.284
N6465 X295.507 Y70.391
N6470 X295.549 Y70.5
N6475 X295.582 Y70.595
N6480 X295.608 Y70.688
N6485 X295.628 Y70.774
N6490 X295.641 Y70.84
N6495 X295.65 Y70.908
N6500 X295.656 Y70.979
N6505 X295.66 Y71.047
N6510 Y71.096
N6515 Y71.116
N6520 X295.647 Y71.251
N6525 X295.63 Y71.348
N6530 X295.606 Y71.445
N6535 X295.575 Y71.536
N6540 X295.535 Y71.63
N6545 X295.485 Y71.726
N6550 X295.428 Y71.819
N6555 X295.365 Y71.907
N6560 X295.289 Y71.997
N6565 X295.204 Y72.085
N6570 X295.105 Y72.174
N6575 X294.994 Y72.261
N6580 X294.875 Y72.343
N6585 X294.736 Y72.426
N6590 X294.582 Y72.508
N6595 X294.415 Y72.586
N6600 X294.233 Y72.66
N6605 X294.035 Y72.73
N6610 X293.823 Y72.795
N6615 X293.598 Y72.854
N6620 X293.36 Y72.908
N6625 X293.129 Y72.953
N6630 X292.572 Y73.037
N6635 X292.003 Y73.096
N6640 X291.405 Y73.136
N6645 X290.776 Y73.162
N6650 X290.123 Y73.179
N6655 X289.451 Y73.191
N6660 X289.441
N6665 X288.771 Y73.206
N6670 X288.728 Y73.207
N6675 X288.073 Y73.23
N6680 X287.994 Y73.234
N6685 X287.358 Y73.272
N6690 X287.238 Y73.282
N6695 X286.625 Y73.342
N6700 X286.508 Y73.356
N6705 X286.211 Y73.396
N6710 X286.116 Y73.41
N6715 X285.826 Y73.459
N6720 X285.718 Y73.479
N6725 X285.436 Y73.536
N6730 X285.318 Y73.562
N6735 X285.043 Y73.629
N6740 X284.906 Y73.666
N6745 X284.64 Y73.743
N6750 X284.495 Y73.789
N6755 X284.237 Y73.878
N6760 X284.078 Y73.937
N6765 X283.829 Y74.038
N6770 X283.65 Y74.116
N6775 X283.412 Y74.23
N6780 X283.233 Y74.323
N6785 X283.005 Y74.45
N6790 X282.824 Y74.559
N6795 X282.606 Y74.7
N6800 X282.506 Y74.768
N6805 X282.409 Y74.839
N6810 X282.204 Y74.996
N6815 X282.109 Y75.071
N6820 X282.017 Y75.15
N6825 X281.824 Y75.322
N6830 X281.734 Y75.406
N6835 X281.647 Y75.492
N6840 X281.466 Y75.681
N6845 G2 X281.299 Y75.87 I2.29 J2.2
N6850 G1 X281.133 Y76.073
N6855 X281.057 Y76.169
N6860 X280.986 Y76.267
N6865 X280.837 Y76.481
N6870 G2 X280.701 Y76.693 I2.604 J1.816
N6875 G1 X280.57 Y76.916
N6880 X280.468 Y77.106
N6885 X280.352 Y77.339
N6890 X280.26 Y77.54
N6895 X280.16 Y77.781
N6900 X280.093 Y77.959
N6905 X280.007 Y78.208
N6910 X279.947 Y78.402
N6915 X279.877 Y78.656
N6920 X279.84 Y78.803
N6925 X279.782 Y79.062
N6930 X279.751 Y79.218
N6935 X279.706 Y79.48
N6940 X279.685 Y79.624
N6945 X279.652 Y79.887
N6950 X279.638 Y80.018
N6955 X279.616 Y80.282
N6960 X279.606 Y80.45
N6965 X279.59 Y80.977
N6970 X279.591 Y81.174
N6975 X279.608 Y81.709
N6980 X279.618 Y81.889
N6985 X279.666 Y82.429
N6990 X279.683 Y82.578
N6995 X279.757 Y83.12
N7000 X279.778 Y83.254
N7005 X279.875 Y83.792
N7010 X279.899 Y83.908
N7015 X280.015 Y84.437
N7020 X280.042 Y84.55
N7025 X280.175 Y85.066
N7030 X280.198 Y85.151
N7035 G2 X280.508 Y86.164 I30.513 J-8.776
N7040 G1 X280.538 Y86.254
N7045 X280.728 Y86.785
N7050 X280.767 Y86.888
N7055 X280.978 Y87.42
N7060 X281.019 Y87.519
N7065 X281.249 Y88.046
N7070 X281.301 Y88.158
N7075 X281.551 Y88.675
N7080 X281.611 Y88.792
N7085 X281.88 Y89.294
N7090 X281.952 Y89.423
N7095 X282.24 Y89.905
N7100 X282.325 Y90.038
N7105 X282.63 Y90.495
N7110 X282.734 Y90.643
N7115 X283.056 Y91.071
N7120 X283.19 Y91.236
N7125 X283.539 Y91.64
N7130 X283.665 Y91.778
N7135 X283.852 Y91.971
N7140 X283.949 Y92.067
N7145 X284.144 Y92.251
N7150 X284.262 Y92.356
N7155 X284.466 Y92.531
N7160 X284.587 Y92.629
N7165 X284.798 Y92.792
N7170 X284.949 Y92.902
N7175 X285.169 Y93.052
N7180 X285.329 Y93.155
N7185 X285.556 Y93.29
N7190 X285.748 Y93.396
N7195 X285.983 Y93.516
N7200 X286.184 Y93.609
N7205 X286.424 Y93.711
N7210 X286.533 Y93.755
N7215 X286.643 Y93.794
N7220 X286.89 Y93.878
N7225 X287.008 Y93.915
N7230 X287.126 Y93.948
N7235 X287.38 Y94.012
N7240 G2 X287.626 Y94.065 I0.783 J-3.077
N7245 G1 X287.886 Y94.109
N7250 G2 X288.138 Y94.142 I0.537 J-3.129
N7255 G1 X288.401 Y94.166
N7260 X288.523 Y94.175
N7265 X288.646 Y94.178
N7270 X288.908 Y94.182
N7275 X289.026 Y94.181
N7280 X289.145 Y94.176
N7285 X289.406 Y94.16
N7290 X289.626 Y94.138
N7295 X289.887 Y94.104
N7300 X290.092 Y94.07
N7305 X290.352 Y94.018
N7310 X290.533 Y93.976
N7315 X290.793 Y93.908
N7320 X290.962 Y93.859
N7325 X291.22 Y93.776
N7330 X291.365 Y93.725
N7335 X291.623 Y93.628
N7340 X291.753 Y93.576
N7345 X292.01 Y93.466
N7350 X292.124 Y93.415
N7355 X292.38 Y93.293
N7360 X292.474 Y93.247
N7365 X292.73 Y93.115
N7370 X292.848 Y93.051
N7375 X293.361 Y92.758
N7380 X293.482 Y92.685
N7385 X293.998 Y92.36
N7390 X294.08 Y92.306
N7395 X294.601 Y91.955
N7400 X294.648 Y91.922
N7405 X295.176 Y91.552
N7410 X295.194 Y91.539
N7415 X295.728 Y91.16
N7420 X296.256 Y90.786
N7425 X296.768 Y90.433
N7430 X297.27 Y90.103
N7435 X297.763 Y89.802
N7440 X298.26 Y89.528
N7445 X298.473 Y89.421
N7450 X298.7 Y89.315
N7455 X298.921 Y89.221
N7460 X299.131 Y89.14
N7465 X299.334 Y89.072
N7470 X299.534 Y89.014
N7475 X299.738 Y88.965
N7480 X299.941 Y88.929
N7485 X300.141 Y88.906
N7490 X300.37 Y88.897
N7495 X300.436 Y88.898
N7500 X300.531 Y88.904
N7505 X300.624 Y88.914
N7510 X300.712 Y88.927
N7515 X300.794 Y88.944
N7520 X300.877 Y88.964
N7525 X300.954 Y88.987
N7530 X301.026 Y89.013
N7535 X301.097 Y89.042
N7540 X301.168 Y89.075
N7545 X301.237 Y89.111
N7550 X301.296 Y89.147
N7555 X301.356 Y89.187
N7560 X301.415 Y89.231
N7565 X301.474 Y89.28
N7570 X301.526 Y89.327
N7575 X301.574 Y89.376
N7580 X301.619 Y89.426
N7585 X301.664 Y89.483
N7590 X301.708 Y89.544
N7595 X301.749 Y89.607
N7600 X301.787 Y89.673
N7605 X301.822 Y89.741
N7610 X301.858 Y89.82
N7615 X301.889 Y89.897
N7620 X301.907 Y89.95
N7625 X301.972 Y90.184
N7630 X302.015 Y90.406
N7635 X302.043 Y90.654
N7640 X302.057 Y90.929
N7645 X302.055 Y91.227
N7650 X302.036 Y91.553
N7655 X302. Y91.901
N7660 X301.948 Y92.265
N7665 X301.88 Y92.65
N7670 X301.797 Y93.057
N7675 X301.705 Y93.463
N7680 X301.481 Y94.346
N7685 X301.235 Y95.255
N7690 Y95.258
N7695 X300.987 Y96.177
N7700 X300.975 Y96.221
N7705 X300.86 Y96.674
N7710 X300.849 Y96.717
N7715 X300.742 Y97.163
N7720 X300.726 Y97.234
N7725 X300.631 Y97.674
N7730 X300.615 Y97.754
N7735 X300.533 Y98.188
N7740 X300.515 Y98.292
N7745 X300.449 Y98.719
N7750 X300.432 Y98.85
N7755 X300.385 Y99.269
N7760 X300.371 Y99.422
N7765 X300.345 Y99.832
N7770 X300.339 Y100.009
N7775 X300.336 Y100.413
N7780 X300.342 Y100.635
N7785 X300.367 Y101.036
N7790 X300.377 Y101.155
N7795 X300.391 Y101.274
N7800 X300.446 Y101.671
N7805 G2 X300.499 Y101.955 I3.145 J-0.436
N7810 G1 X300.59 Y102.346
N7815 X300.647 Y102.559
N7820 X300.706 Y102.751
N7825 X300.764 Y102.921
N7830 X300.834 Y103.11
N7835 X300.902 Y103.279
N7840 X300.982 Y103.462
N7845 X301.054 Y103.616
N7850 X301.143 Y103.793
N7855 X301.225 Y103.946
N7860 X301.323 Y104.117
N7865 X301.417 Y104.269
N7870 X301.525 Y104.435
N7875 X301.623 Y104.578
N7880 X301.74 Y104.738
N7885 X301.853 Y104.884
N7890 X301.98 Y105.038
N7895 X302.092 Y105.166
N7900 X302.228 Y105.314
N7905 X302.345 Y105.435
N7910 X302.489 Y105.576
N7915 X302.575 Y105.657
N7920 X302.663 Y105.734
N7925 X302.969 Y105.992
N7930 G2 X303.206 Y106.173 I2.047 J-2.427
N7935 G1 X303.536 Y106.402
N7940 G2 X303.752 Y106.54 I1.81 J-2.608
N7945 G1 X304.1 Y106.742
N7950 X304.203 Y106.799
N7955 X304.309 Y106.853
N7960 X304.672 Y107.029
N7965 X304.856 Y107.111
N7970 X305.233 Y107.265
N7975 X305.409 Y107.331
N7980 X305.796 Y107.463
N7985 X305.942 Y107.509
N7990 X306.334 Y107.622
N7995 X306.476 Y107.659
N8000 X306.87 Y107.753
N8005 X306.998 Y107.781
N8010 X307.392 Y107.858
N8015 X307.501 Y107.877
N8020 X307.89 Y107.939
N8025 X307.992 Y107.954
N8030 X308.372 Y108.002
N8035 X308.469 Y108.013
N8040 X308.837 Y108.048
N8045 X308.964 Y108.057
N8050 G2 X310.705 Y108.105 I1.741 J-31.702
N8055 G1 X310.829 Y108.103
N8060 X311.263 Y108.086
N8065 X311.356 Y108.081
N8070 X311.794 Y108.051
N8075 X311.885 Y108.043
N8080 X312.326 Y108.
N8085 X312.419 Y107.99
N8090 X312.859 Y107.934
N8095 X312.966 Y107.918
N8100 X313.404 Y107.847
N8105 X313.515 Y107.827
N8110 X313.948 Y107.741
N8115 X314.056 Y107.718
N8120 X314.481 Y107.618
N8125 X314.6 Y107.587
N8130 X315.016 Y107.472
N8135 X315.156 Y107.43
N8140 X315.56 Y107.298
N8145 X315.701 Y107.248
N8150 X316.09 Y107.1
N8155 X316.244 Y107.037
N8160 X316.623 Y106.87
N8165 X316.799 Y106.786
N8170 X317.169 Y106.595
N8175 X317.36 Y106.488
N8180 X317.716 Y106.272
N8185 G2 X317.925 Y106.134 I-1.647 J-2.714
N8190 G1 X318.261 Y105.892
N8195 G2 X318.483 Y105.716 I-1.856 J-2.576
N8200 G1 X318.796 Y105.445
N8205 X318.885 Y105.365
N8210 X318.971 Y105.282
N8215 X319.116 Y105.136
N8220 X319.221 Y105.025
N8225 X319.358 Y104.873
N8230 X319.467 Y104.746
N8235 X319.595 Y104.588
N8240 X319.711 Y104.436
N8245 X319.829 Y104.271
N8250 X319.921 Y104.135
N8255 X320.031 Y103.963
N8260 X320.131 Y103.795
N8265 X320.23 Y103.617
N8270 X320.31 Y103.463
N8275 X320.4 Y103.278
N8280 X320.474 Y103.116
N8285 X320.553 Y102.925
N8290 X320.62 Y102.753
N8295 X320.688 Y102.56
N8300 X320.743 Y102.387
N8305 X320.8 Y102.19
N8310 X320.84 Y102.038
N8315 X320.887 Y101.839
N8320 X320.92 Y101.684
N8325 X320.957 Y101.483
N8330 X320.988 Y101.27
N8335 X321.035 Y100.861
N8340 G2 X321.054 Y100.597 I-3.154 J-0.362
N8345 G1 X321.067 Y100.178
N8350 X321.066 Y99.954
N8355 X321.049 Y99.527
N8360 X321.037 Y99.348
N8365 X320.995 Y98.913
N8370 X320.975 Y98.749
N8375 X320.909 Y98.307
N8380 X320.889 Y98.185
N8385 X320.804 Y97.736
N8390 X320.784 Y97.641
N8395 X320.683 Y97.184
N8400 X320.667 Y97.114
N8405 X320.553 Y96.649
N8410 X320.54 Y96.599
N8415 X320.416 Y96.126
N8420 X320.405 Y96.086
N8425 X320.139 Y95.123
N8430 X319.88 Y94.175
N8435 X319.654 Y93.256
N8440 X319.566 Y92.839
N8445 X319.49 Y92.423
N8450 X319.431 Y92.022
N8455 X319.391 Y91.64
N8460 X319.371 Y91.277
N8465 X319.37 Y90.939
N8470 X319.39 Y90.631
N8475 X319.432 Y90.315
N8480 X319.451 Y90.218
N8485 X319.476 Y90.109
N8490 X319.503 Y90.012
N8495 X319.532 Y89.921
N8500 X319.559 Y89.847
N8505 X319.588 Y89.776
N8510 X319.622 Y89.701
N8515 X319.636 Y89.673
N8520 X319.707 Y89.551
N8525 X319.769 Y89.461
N8530 X319.828 Y89.386
N8535 X319.889 Y89.322
N8540 X319.953 Y89.265
N8545 X320.024 Y89.21
N8550 X320.097 Y89.164
N8555 X320.171 Y89.125
N8560 X320.255 Y89.088
N8565 X320.349 Y89.057
N8570 X320.452 Y89.03
N8575 X320.566 Y89.01
N8580 X320.693 Y88.997
N8585 X320.831 Y88.992
N8590 X320.985 Y88.996
N8595 X321.152 Y89.011
N8600 X321.332 Y89.036
N8605 X321.525 Y89.074
N8610 X321.728 Y89.123
N8615 X321.941 Y89.185
N8620 X322.165 Y89.26
N8625 X322.396 Y89.346
N8630 X322.632 Y89.442
N8635 X322.858 Y89.542
N8640 X323.381 Y89.798
N8645 X323.904 Y90.08
N8650 X324.447 Y90.395
N8655 X325.008 Y90.736
N8660 X325.586 Y91.096
N8665 X326.17 Y91.46
N8670 X326.194 Y91.474
N8675 X326.77 Y91.827
N8680 X326.827 Y91.861
N8685 X327.396 Y92.192
N8690 X327.485 Y92.243
N8695 X328.051 Y92.549
N8700 X328.18 Y92.615
N8705 X328.744 Y92.887
N8710 X328.874 Y92.946
N8715 X329.156 Y93.067
N8720 X329.26 Y93.11
N8725 X329.542 Y93.219
N8730 X329.661 Y93.262
N8735 X329.943 Y93.359
N8740 X330.078 Y93.401
N8745 X330.36 Y93.484
N8750 X330.51 Y93.524
N8755 X330.792 Y93.592
N8760 X330.961 Y93.628
N8765 X331.244 Y93.68
N8770 X331.433 Y93.709
N8775 X331.718 Y93.744
N8780 X331.922 Y93.762
N8785 X332.208 Y93.778
N8790 X332.428 Y93.783
N8795 X332.714 Y93.78
N8800 X332.829 Y93.776
N8805 X332.944 Y93.768
N8810 X333.232 Y93.744
N8815 X333.353 Y93.731
N8820 X333.473 Y93.714
N8825 X333.758 Y93.668
N8830 X333.876 Y93.646
N8835 X333.994 Y93.62
N8840 X334.273 Y93.553
N8845 X334.39 Y93.522
N8850 X334.507 Y93.487
N8855 X334.778 Y93.399
N8860 X334.886 Y93.361
N8865 X334.993 Y93.32
N8870 X335.258 Y93.212
N8875 X335.362 Y93.168
N8880 X335.464 Y93.12
N8885 X335.722 Y92.993
N8890 X335.912 Y92.892
N8895 X336.163 Y92.747
N8900 X336.336 Y92.638
N8905 X336.577 Y92.477
N8910 X336.726 Y92.372
N8915 X336.958 Y92.197
N8920 X337.096 Y92.087
N8925 X337.318 Y91.899
N8930 X337.439 Y91.79
N8935 X337.651 Y91.591
N8940 X337.753 Y91.491
N8945 X337.956 Y91.283
N8950 X338.047 Y91.186
N8955 X338.241 Y90.97
N8960 X338.324 Y90.873
N8965 X338.51 Y90.648
N8970 X338.579 Y90.56
N8975 X338.759 Y90.326
N8980 X338.855 Y90.195
N8985 X339.195 Y89.703
N8990 X339.298 Y89.544
N8995 X339.612 Y89.025
N9000 X339.697 Y88.876
N9005 X339.984 Y88.338
N9010 X340.051 Y88.205
N9015 X340.312 Y87.655
N9020 X340.371 Y87.523
N9025 X340.604 Y86.968
N9030 X340.656 Y86.837
N9035 X340.86 Y86.284
N9040 X340.901 Y86.166
N9045 G2 X341.245 Y85.034 I-30.197 J-9.808
N9050 G1 X341.272 Y84.936
N9055 X341.359 Y84.587
N9060 X341.381 Y84.49
N9065 X341.458 Y84.135
N9070 X341.475 Y84.051
N9075 X341.543 Y83.69
N9080 X341.561 Y83.584
N9085 X341.617 Y83.22
N9090 X341.632 Y83.107
N9095 X341.675 Y82.741
N9100 X341.687 Y82.621
N9105 X341.716 Y82.254
N9110 X341.723 Y82.134
N9115 X341.738 Y81.768
N9120 X341.741 Y81.621
N9125 X341.739 Y81.257
N9130 X341.734 Y81.098
N9135 X341.714 Y80.739
N9140 X341.7 Y80.569
N9145 X341.661 Y80.214
N9150 X341.635 Y80.026
N9155 X341.575 Y79.675
N9160 X341.534 Y79.477
N9165 X341.452 Y79.132
N9170 X341.422 Y79.015
N9175 X341.388 Y78.899
N9180 X341.28 Y78.561
N9185 X341.24 Y78.443
N9190 X341.195 Y78.328
N9195 X341.061 Y77.999
N9200 G2 X340.948 Y77.751 I-2.94 J1.198
N9205 G1 X340.786 Y77.435
N9210 G2 X340.638 Y77.177 I-2.827 J1.446
N9215 G1 X340.449 Y76.88
N9220 G2 X340.282 Y76.642 I-2.679 J1.703
N9225 G1 X340.068 Y76.365
N9230 G2 X339.873 Y76.136 I-2.512 J1.942
N9235 G1 X339.633 Y75.88
N9240 G2 X339.421 Y75.673 I-2.317 J2.171
N9245 G1 X339.155 Y75.438
N9250 G2 X338.934 Y75.259 I-2.105 J2.377
N9255 G1 X338.648 Y75.048
N9260 G2 X338.428 Y74.9 I-1.884 J2.556
N9265 G1 X338.126 Y74.714
N9270 X338.025 Y74.654
N9275 X337.921 Y74.598
N9280 X337.606 Y74.435
N9285 X337.415 Y74.344
N9290 X337.089 Y74.202
N9295 X336.911 Y74.131
N9300 X336.573 Y74.007
N9305 X336.419 Y73.956
N9310 X336.07 Y73.848
N9315 X335.932 Y73.809
N9320 X335.572 Y73.715
N9325 X335.448 Y73.686
N9330 X335.077 Y73.605
N9335 X334.974 Y73.584
N9340 X334.595 Y73.515
N9345 X334.508 Y73.5
N9350 X334.122 Y73.441
N9355 X334.047 Y73.43
N9360 X333.653 Y73.379
N9365 X333.573 Y73.37
N9370 X332.765 Y73.285
N9375 X332.698 Y73.279
N9380 X331.865 Y73.21
N9385 X331.844 Y73.209
N9390 X331.004 Y73.145
N9395 X330.189 Y73.077
N9400 X329.418 Y72.997
N9405 X328.679 Y72.895
N9410 X328.36 Y72.84
N9415 X328.044 Y72.776
N9420 X327.747 Y72.705
N9425 X327.47 Y72.629
N9430 X327.218 Y72.547
N9435 X326.988 Y72.461
N9440 X326.778 Y72.369
N9445 X326.594 Y72.276
N9450 X326.434 Y72.182
N9455 X326.297 Y72.088
N9460 X326.181 Y71.995
N9465 X326.084 Y71.903
N9470 X326.006 Y71.815
N9475 X325.94 Y71.727
N9480 X325.889 Y71.643
N9485 X325.846 Y71.555
N9490 X325.809 Y71.457
N9495 X325.782 Y71.36
N9500 X325.763 Y71.253
N9505 X325.753 Y71.136
N9510 Y71.011
N9515 X325.764 Y70.877
N9520 X325.788 Y70.735
N9525 X325.826 Y70.579
N9530 X325.881 Y70.411
N9535 X325.952 Y70.235
N9540 X326.039 Y70.052
N9545 X326.146 Y69.86
N9550 X326.272 Y69.657
N9555 X326.413 Y69.454
N9560 X326.574 Y69.245
N9565 X326.754 Y69.029
N9570 X326.947 Y68.815
N9575 X327.157 Y68.595
N9580 X327.384 Y68.373
N9585 X327.611 Y68.161
N9590 X328.139 Y67.7
N9595 X328.694 Y67.247
N9600 X329.277 Y66.788
N9605 X329.872 Y66.326
N9610 X329.892 Y66.311
N9615 X330.475 Y65.849
N9620 X330.53 Y65.805
N9625 X331.086 Y65.346
N9630 X331.15 Y65.292
N9635 X331.415 Y65.061
N9640 X331.473 Y65.009
N9645 X331.727 Y64.776
N9650 X331.795 Y64.712
N9655 X332.037 Y64.477
N9660 X332.109 Y64.405
N9665 X332.339 Y64.167
N9670 X332.427 Y64.072
N9675 X332.643 Y63.829
N9680 X332.739 Y63.716
N9685 X332.94 Y63.467
N9690 X333.036 Y63.343
N9695 X333.222 Y63.088
N9700 X333.33 Y62.931
N9705 X333.498 Y62.67
N9710 X333.608 Y62.484
N9715 X333.756 Y62.215
N9720 X333.856 Y62.016
N9725 X333.984 Y61.739
N9730 G2 X334.082 Y61.504 I-2.882 J-1.331
N9735 G1 X334.186 Y61.222
N9740 G2 X334.265 Y60.976 I-2.98 J-1.097
N9745 G1 X334.345 Y60.688
N9750 G2 X334.407 Y60.423 I-3.059 J-0.851
N9755 G1 X334.462 Y60.13
N9760 G2 X334.5 Y59.861 I-3.121 J-0.585
N9765 G1 X334.53 Y59.562
N9770 G2 X334.546 Y59.287 I-3.159 J-0.317
N9775 G1 X334.55 Y58.983
N9780 G2 X334.542 Y58.711 I-3.175 J-0.042
N9785 G1 X334.52 Y58.409
N9790 X334.509 Y58.293
N9795 X334.494 Y58.177
N9800 X334.45 Y57.878
N9805 X334.43 Y57.758
N9810 X334.405 Y57.638
N9815 X334.338 Y57.343
N9820 X334.287 Y57.146
N9825 X334.201 Y56.856
N9830 X334.137 Y56.663
N9835 X334.032 Y56.377
N9840 X333.968 Y56.217
N9845 X333.847 Y55.935
N9850 X333.779 Y55.787
N9855 X333.643 Y55.51
N9860 X333.576 Y55.381
N9865 X333.426 Y55.11
N9870 X333.357 Y54.989
N9875 X333.196 Y54.725
N9880 X333.133 Y54.627
N9885 X332.963 Y54.37
N9890 X332.9 Y54.277
N9895 X332.722 Y54.027
N9900 X332.636 Y53.913
N9905 X332.259 Y53.431
N9910 X332.147 Y53.296
N9915 X331.737 Y52.828
N9920 X331.632 Y52.713
N9925 X331.195 Y52.261
N9930 X331.093 Y52.16
N9935 X330.635 Y51.727
N9940 X330.539 Y51.641
N9945 X330.067 Y51.229
N9950 X329.969 Y51.148
N9955 X329.488 Y50.762
N9960 X329.367 Y50.669
N9965 G2 X327.598 Y49.473 I-18.66 J25.688
N9970 G1 X327.439 Y49.379
N9975 X326.857 Y49.059
N9980 X326.736 Y48.996
N9985 X326.433 Y48.846
N9990 X326.348 Y48.805
N9995 X326.04 Y48.664
N10000 X325.942 Y48.621
N10005 X325.629 Y48.49
N10010 X325.522 Y48.447
N10015 X325.206 Y48.328
N10020 X325.08 Y48.284
N10025 X324.76 Y48.178
N10030 X324.627 Y48.138
N10035 X324.306 Y48.047
N10040 X324.15 Y48.008
N10045 X323.827 Y47.934
N10050 X323.661 Y47.901
N10055 X323.338 Y47.846
N10060 X323.145 Y47.818
N10065 X322.819 Y47.783
N10070 X322.607 Y47.767
N10075 X322.281 Y47.753
N10080 X322.163 Y47.75
N10085 X322.045 Y47.752
N10090 X321.718 Y47.763
N10095 G2 X321.461 Y47.781 I0.103 J3.173
N10100 G1 X321.136 Y47.819
N10105 G2 X320.86 Y47.862 I0.36 J3.155
N10110 G1 X320.54 Y47.928
N10115 G2 X320.257 Y47.999 I0.636 J3.111
N10120 G1 X319.947 Y48.093
N10125 G2 X319.665 Y48.193 I0.919 J3.039
N10130 G1 X319.367 Y48.315
N10135 G2 X319.092 Y48.443 I1.201 J2.939
N10140 G1 X318.806 Y48.593
N10145 G2 X318.555 Y48.74 I1.476 J2.811
N10150 G1 X318.28 Y48.918
N10155 G2 X318.049 Y49.083 I1.727 J2.664
N10160 G1 X317.792 Y49.285
N10165 G2 X317.598 Y49.45 I1.958 J2.499
N10170 G1 X317.358 Y49.671
N10175 X317.273 Y49.753
N10180 X317.19 Y49.837
N10185 X316.967 Y50.076
N10190 X316.832 Y50.23
N10195 X316.624 Y50.484
N10200 X316.512 Y50.629
N10205 X316.317 Y50.897
N10210 X316.227 Y51.027
N10215 X316.042 Y51.31
N10220 X315.969 Y51.427
N10225 X315.793 Y51.723
N10230 X315.731 Y51.833
N10235 X315.564 Y52.142
N10240 X315.517 Y52.231
N10245 X315.357 Y52.55
N10250 X315.304 Y52.662
N10255 X315.002 Y53.328
N10260 X314.955 Y53.438
N10265 X314.669 Y54.138
N10270 X314.644 Y54.2
N10275 X314.364 Y54.928
N10280 X314.353 Y54.957
N10285 X314.077 Y55.699
N10290 X313.802 Y56.425
N10295 X313.527 Y57.116
N10300 X313.249 Y57.766
N10305 X312.956 Y58.38
N10310 X312.821 Y58.635
N10315 X312.676 Y58.89
N10320 X312.529 Y59.129
N10325 X312.384 Y59.346
N10330 X312.24 Y59.543
N10335 X312.094 Y59.724
N10340 X311.952 Y59.881
N10345 X311.816 Y60.016
N10350 X311.683 Y60.131
N10355 X311.555 Y60.227
N10360 X311.436 Y60.304
N10365 X311.325 Y60.363
N10370 X311.222 Y60.408
N10375 X311.125 Y60.44
N10380 X311.03 Y60.462
N10385 X310.938 Y60.475
N10390 X310.846 Y60.479
N10395 X310.751 Y60.475
N10400 X310.654 Y60.462
N10405 X310.551 Y60.438
N10410 X310.442 Y60.403
N10415 X310.326 Y60.355
N10420 X310.205 Y60.292
N10425 X310.075 Y60.212
N10430 X309.936 Y60.112
N10435 X309.794 Y59.994
N10440 X309.646 Y59.856
N10445 X309.496 Y59.7
N10450 X309.344 Y59.524
N10455 X309.189 Y59.326
N10460 X309.032 Y59.108
N10465 X308.878 Y58.876
N10470 X308.724 Y58.625
N10475 X308.578 Y58.371
N10480 X308.266 Y57.777
N10485 X307.97 Y57.157
N10490 X307.682 Y56.506
N10495 X307.391 Y55.823
N10500 X307.099 Y55.128
N10505 X307.088 Y55.103
N10510 X306.793 Y54.418
N10515 X306.766 Y54.357
N10520 X306.464 Y53.694
N10525 X306.417 Y53.596
N10530 X306.102 Y52.963
N10535 X306.052 Y52.867
N10540 X305.888 Y52.564
N10545 X305.838 Y52.474
N10550 X305.667 Y52.181
N10555 X305.614 Y52.094
N10560 X305.437 Y51.812
N10565 X305.368 Y51.706
N10570 X305.183 Y51.436
N10575 X305.104 Y51.326
N10580 X304.91 Y51.067
N10585 X304.808 Y50.937
N10590 X304.601 Y50.689
N10595 X304.488 Y50.561
N10600 X304.269 Y50.325
N10605 X304.124 Y50.179
N10610 X303.89 Y49.958
N10615 X303.73 Y49.817
N10620 X303.482 Y49.612
N10625 X303.386 Y49.535
N10630 X303.286 Y49.463
N10635 X303.021 Y49.276
N10640 G2 X302.81 Y49.14 I-1.825 J2.598
N10645 G1 X302.533 Y48.977
N10650 G2 X302.305 Y48.854 I-1.614 J2.734
N10655 G1 X302.019 Y48.716
N10660 G2 X301.772 Y48.609 I-1.386 J2.856
N10665 G1 X301.475 Y48.494
N10670 G2 X301.23 Y48.411 I-1.139 J2.963
N10675 G1 X300.924 Y48.321
N10680 G2 X300.672 Y48.258 I-0.894 J3.047
N10685 G1 X300.356 Y48.193
N10690 X300.235 Y48.171
N10695 X300.113 Y48.153
N10700 X299.793 Y48.112
N10705 X299.676 Y48.1
N10710 X299.559 Y48.092
N10715 X299.237 Y48.075
N10720 X299.023 Y48.071
N10725 X298.701 Y48.076
N10730 X298.502 Y48.085
N10735 X298.18 Y48.11
N10740 X298. Y48.13
N10745 X297.679 Y48.173
N10750 X297.513 Y48.201
N10755 X297.194 Y48.261
N10760 X297.046 Y48.293
N10765 X296.728 Y48.369
N10770 X296.591 Y48.406
N10775 X296.276 Y48.497
N10780 X296.152 Y48.535
N10785 X295.841 Y48.638
N10790 X295.73 Y48.678
N10795 X295.423 Y48.793
N10800 X295.32 Y48.833
N10805 X295.019 Y48.958
N10810 X294.884 Y49.018
N10815 X294.296 Y49.295
N10820 X294.134 Y49.377
N10825 X293.558 Y49.689
N10830 X293.413 Y49.773
N10835 X292.853 Y50.116
N10840 X292.722 Y50.201
N10845 X292.183 Y50.569
N10850 X292.108 Y50.622
N10855 X292.037 Y50.673
N10860 X291.995 Y50.704
N10865 X291.638 Y50.974
N10870 X291.553 Y51.04
N10875 X291.2 Y51.326
N10880 X291.118 Y51.396
N10885 X290.771 Y51.697
N10890 X290.679 Y51.78
N10895 X290.343 Y52.095
N10900 X290.252 Y52.184
N10905 X289.929 Y52.513
N10910 X289.834 Y52.613
N10915 X289.527 Y52.954
N10920 X289.433 Y53.064
N10925 X289.144 Y53.416
N10930 X289.042 Y53.546
N10935 X288.775 Y53.908
N10940 X288.673 Y54.055
N10945 X288.43 Y54.427
N10950 X288.323 Y54.603
N10955 X288.105 Y54.988
N10960 X288.001 Y55.188
N10965 X287.811 Y55.588
N10970 G2 X287.711 Y55.823 I2.868 J1.362
N10975 G1 X287.554 Y56.236
N10980 X287.483 Y56.443
N10985 X287.419 Y56.655
N10990 X287.383 Y56.786
N10995 X287.328 Y57.
N11000 X287.291 Y57.158
N11005 X287.247 Y57.375
N11010 X287.218 Y57.544
N11015 X287.186 Y57.761
N11020 X287.167 Y57.918
N11025 X287.146 Y58.136
N11030 X287.133 Y58.324
N11035 X287.125 Y58.542
N11040 X287.123 Y58.702
N11045 X287.126 Y58.92
N11050 X287.134 Y59.095
N11055 X287.149 Y59.312
N11060 X287.167 Y59.499
N11065 X287.195 Y59.716
N11070 X287.221 Y59.885
N11075 X287.261 Y60.103
N11080 X287.295 Y60.261
N11085 X287.346 Y60.476
N11090 X287.393 Y60.652
N11095 X287.456 Y60.863
N11100 X287.504 Y61.01
N11105 X287.577 Y61.217
N11110 X287.632 Y61.362
N11115 X287.715 Y61.565
N11120 X287.775 Y61.702
N11125 Z23.535
N11130 X270.484 Y61.739
N11135 Z12.185 F833.33
N11140 G2 X270.582 Y61.504 I-2.882 J-1.331 F2500.
N11145 G1 X270.686 Y61.222
N11150 G2 X270.765 Y60.976 I-2.98 J-1.097
N11155 G1 X270.845 Y60.688
N11160 G2 X270.907 Y60.423 I-3.059 J-0.851
N11165 G1 X270.962 Y60.13
N11170 G2 X271. Y59.861 I-3.121 J-0.585
N11175 G1 X271.03 Y59.562
N11180 G2 X271.046 Y59.287 I-3.159 J-0.317
N11185 G1 X271.05 Y58.983
N11190 G2 X271.042 Y58.711 I-3.175 J-0.042
N11195 G1 X271.02 Y58.409
N11200 X271.009 Y58.293
N11205 X270.994 Y58.177
N11210 X270.95 Y57.878
N11215 X270.93 Y57.758
N11220 X270.905 Y57.638
N11225 X270.838 Y57.343
N11230 X270.787 Y57.146
N11235 X270.701 Y56.856
N11240 X270.637 Y56.663
N11245 X270.532 Y56.377
N11250 X270.468 Y56.217
N11255 X270.347 Y55.935
N11260 X270.279 Y55.787
N11265 X270.143 Y55.51
N11270 X270.076 Y55.381
N11275 X269.926 Y55.11
N11280 X269.857 Y54.989
N11285 X269.696 Y54.725
N11290 X269.633 Y54.627
N11295 X269.463 Y54.37
N11300 X269.4 Y54.277
N11305 X269.222 Y54.027
N11310 X269.136 Y53.913
N11315 X268.759 Y53.431
N11320 X268.647 Y53.296
N11325 X268.237 Y52.828
N11330 X268.132 Y52.713
N11335 X267.695 Y52.261
N11340 X267.593 Y52.16
N11345 X267.135 Y51.727
N11350 X267.039 Y51.641
N11355 X266.567 Y51.229
N11360 X266.469 Y51.148
N11365 X265.988 Y50.762
N11370 X265.867 Y50.669
N11375 G2 X264.098 Y49.473 I-18.66 J25.688
N11380 G1 X263.939 Y49.379
N11385 X263.357 Y49.059
N11390 X263.236 Y48.996
N11395 X262.933 Y48.846
N11400 X262.848 Y48.805
N11405 X262.54 Y48.664
N11410 X262.442 Y48.621
N11415 X262.129 Y48.49
N11420 X262.022 Y48.447
N11425 X261.706 Y48.328
N11430 X261.58 Y48.284
N11435 X261.26 Y48.178
N11440 X261.127 Y48.138
N11445 X260.806 Y48.047
N11450 X260.65 Y48.008
N11455 X260.327 Y47.934
N11460 X260.161 Y47.901
N11465 X259.838 Y47.846
N11470 X259.645 Y47.818
N11475 X259.319 Y47.783
N11480 X259.107 Y47.767
N11485 X258.781 Y47.753
N11490 X258.663 Y47.75
N11495 X258.545 Y47.752
N11500 X258.218 Y47.763
N11505 G2 X257.961 Y47.781 I0.103 J3.173
N11510 G1 X257.636 Y47.819
N11515 G2 X257.36 Y47.862 I0.36 J3.155
N11520 G1 X257.04 Y47.928
N11525 G2 X256.757 Y47.999 I0.636 J3.111
N11530 G1 X256.447 Y48.093
N11535 G2 X256.165 Y48.193 I0.919 J3.039
N11540 G1 X255.867 Y48.315
N11545 G2 X255.592 Y48.443 I1.201 J2.939
N11550 G1 X255.306 Y48.593
N11555 G2 X255.055 Y48.74 I1.476 J2.811
N11560 G1 X254.78 Y48.918
N11565 G2 X254.549 Y49.083 I1.727 J2.664
N11570 G1 X254.292 Y49.285
N11575 G2 X254.098 Y49.45 I1.958 J2.499
N11580 G1 X253.858 Y49.671
N11585 X253.773 Y49.753
N11590 X253.69 Y49.837
N11595 X253.467 Y50.076
N11600 X253.332 Y50.23
N11605 X253.124 Y50.484
N11610 X253.012 Y50.629
N11615 X252.817 Y50.897
N11620 X252.727 Y51.027
N11625 X252.542 Y51.31
N11630 X252.469 Y51.427
N11635 X252.293 Y51.723
N11640 X252.231 Y51.833
N11645 X252.064 Y52.142
N11650 X252.017 Y52.231
N11655 X251.857 Y52.55
N11660 X251.804 Y52.662
N11665 X251.502 Y53.328
N11670 X251.455 Y53.438
N11675 X251.169 Y54.138
N11680 X251.144 Y54.2
N11685 X250.864 Y54.928
N11690 X250.853 Y54.957
N11695 X250.577 Y55.699
N11700 X250.302 Y56.425
N11705 X250.027 Y57.116
N11710 X249.749 Y57.766
N11715 X249.456 Y58.38
N11720 X249.321 Y58.635
N11725 X249.176 Y58.89
N11730 X249.029 Y59.129
N11735 X248.884 Y59.346
N11740 X248.74 Y59.543
N11745 X248.594 Y59.724
N11750 X248.452 Y59.881
N11755 X248.316 Y60.016
N11760 X248.183 Y60.131
N11765 X248.055 Y60.227
N11770 X247.936 Y60.304
N11775 X247.825 Y60.363
N11780 X247.722 Y60.408
N11785 X247.625 Y60.44
N11790 X247.53 Y60.462
N11795 X247.438 Y60.475
N11800 X247.346 Y60.479
N11805 X247.251 Y60.475
N11810 X247.154 Y60.462
N11815 X247.051 Y60.438
N11820 X246.942 Y60.403
N11825 X246.826 Y60.355
N11830 X246.705 Y60.292
N11835 X246.575 Y60.212
N11840 X246.436 Y60.112
N11845 X246.294 Y59.994
N11850 X246.146 Y59.856
N11855 X245.996 Y59.7
N11860 X245.844 Y59.524
N11865 X245.689 Y59.326
N11870 X245.532 Y59.108
N11875 X245.378 Y58.876
N11880 X245.224 Y58.625
N11885 X245.078 Y58.371
N11890 X244.766 Y57.777
N11895 X244.47 Y57.157
N11900 X244.182 Y56.506
N11905 X243.891 Y55.823
N11910 X243.599 Y55.128
N11915 X243.588 Y55.103
N11920 X243.293 Y54.418
N11925 X243.266 Y54.357
N11930 X242.964 Y53.694
N11935 X242.917 Y53.596
N11940 X242.602 Y52.963
N11945 X242.552 Y52.867
N11950 X242.388 Y52.564
N11955 X242.338 Y52.474
N11960 X242.167 Y52.181
N11965 X242.114 Y52.094
N11970 X241.937 Y51.812
N11975 X241.868 Y51.706
N11980 X241.683 Y51.436
N11985 X241.604 Y51.326
N11990 X241.41 Y51.067
N11995 X241.308 Y50.937
N12000 X241.101 Y50.689
N12005 X240.988 Y50.561
N12010 X240.769 Y50.325
N12015 X240.624 Y50.179
N12020 X240.39 Y49.958
N12025 X240.23 Y49.817
N12030 X239.982 Y49.612
N12035 X239.886 Y49.535
N12040 X239.786 Y49.463
N12045 X239.521 Y49.276
N12050 G2 X239.31 Y49.14 I-1.825 J2.598
N12055 G1 X239.033 Y48.977
N12060 G2 X238.805 Y48.854 I-1.614 J2.734
N12065 G1 X238.519 Y48.716
N12070 G2 X238.272 Y48.609 I-1.386 J2.856
N12075 G1 X237.975 Y48.494
N12080 G2 X237.73 Y48.411 I-1.139 J2.963
N12085 G1 X237.424 Y48.321
N12090 G2 X237.172 Y48.258 I-0.894 J3.047
N12095 G1 X236.856 Y48.193
N12100 X236.735 Y48.171
N12105 X236.613 Y48.153
N12110 X236.293 Y48.112
N12115 X236.176 Y48.1
N12120 X236.059 Y48.092
N12125 X235.737 Y48.075
N12130 X235.523 Y48.071
N12135 X235.201 Y48.076
N12140 X235.002 Y48.085
N12145 X234.68 Y48.11
N12150 X234.5 Y48.13
N12155 X234.179 Y48.173
N12160 X234.013 Y48.201
N12165 X233.694 Y48.261
N12170 X233.546 Y48.293
N12175 X233.228 Y48.369
N12180 X233.091 Y48.406
N12185 X232.776 Y48.497
N12190 X232.652 Y48.535
N12195 X232.341 Y48.638
N12200 X232.23 Y48.678
N12205 X231.923 Y48.793
N12210 X231.82 Y48.833
N12215 X231.519 Y48.958
N12220 X231.384 Y49.018
N12225 X230.796 Y49.295
N12230 X230.634 Y49.377
N12235 X230.058 Y49.689
N12240 X229.913 Y49.773
N12245 X229.353 Y50.116
N12250 X229.222 Y50.201
N12255 X228.683 Y50.569
N12260 X228.608 Y50.622
N12265 X228.537 Y50.673
N12270 X228.495 Y50.704
N12275 X228.138 Y50.974
N12280 X228.053 Y51.04
N12285 X227.7 Y51.326
N12290 X227.618 Y51.396
N12295 X227.271 Y51.697
N12300 X227.179 Y51.78
N12305 X226.843 Y52.095
N12310 X226.752 Y52.184
N12315 X226.429 Y52.513
N12320 X226.334 Y52.613
N12325 X226.027 Y52.954
N12330 X225.933 Y53.064
N12335 X225.644 Y53.416
N12340 X225.542 Y53.546
N12345 X225.275 Y53.908
N12350 X225.173 Y54.055
N12355 X224.93 Y54.427
N12360 X224.823 Y54.603
N12365 X224.605 Y54.988
N12370 X224.501 Y55.188
N12375 X224.311 Y55.588
N12380 G2 X224.211 Y55.823 I2.868 J1.362
N12385 G1 X224.054 Y56.236
N12390 X223.983 Y56.443
N12395 X223.919 Y56.655
N12400 X223.883 Y56.786
N12405 X223.828 Y57.
N12410 X223.791 Y57.158
N12415 X223.747 Y57.375
N12420 X223.718 Y57.544
N12425 X223.686 Y57.761
N12430 X223.667 Y57.918
N12435 X223.646 Y58.136
N12440 X223.633 Y58.324
N12445 X223.625 Y58.542
N12450 X223.623 Y58.702
N12455 X223.626 Y58.92
N12460 X223.634 Y59.095
N12465 X223.649 Y59.312
N12470 X223.667 Y59.499
N12475 X223.695 Y59.716
N12480 X223.721 Y59.885
N12485 X223.761 Y60.103
N12490 X223.795 Y60.261
N12495 X223.846 Y60.476
N12500 X223.893 Y60.652
N12505 X223.956 Y60.863
N12510 X224.004 Y61.01
N12515 X224.077 Y61.217
N12520 X224.132 Y61.362
N12525 X224.215 Y61.565
N12530 X224.304 Y61.762
N12535 X224.498 Y62.158
N12540 X224.555 Y62.268
N12545 X224.616 Y62.377
N12550 X224.842 Y62.758
N12555 X224.901 Y62.855
N12560 X224.964 Y62.949
N12565 X225.221 Y63.32
N12570 X225.333 Y63.472
N12575 X225.617 Y63.834
N12580 X225.72 Y63.958
N12585 X226.028 Y64.312
N12590 X226.116 Y64.409
N12595 X226.444 Y64.756
N12600 X226.519 Y64.833
N12605 X226.864 Y65.174
N12610 X226.924 Y65.232
N12615 X227.284 Y65.57
N12620 X227.332 Y65.613
N12625 X227.705 Y65.949
N12630 X227.747 Y65.987
N12635 X228.519 Y66.657
N12640 X228.534 Y66.669
N12645 X229.302 Y67.328
N12650 X230.031 Y67.975
N12655 X230.354 Y68.276
N12660 X230.661 Y68.576
N12665 X230.939 Y68.866
N12670 X231.193 Y69.151
N12675 X231.417 Y69.424
N12680 X231.61 Y69.686
N12685 X231.773 Y69.937
N12690 X231.921 Y70.202
N12695 X231.961 Y70.284
N12700 X232.007 Y70.391
N12705 X232.049 Y70.5
N12710 X232.082 Y70.595
N12715 X232.108 Y70.688
N12720 X232.128 Y70.774
N12725 X232.141 Y70.84
N12730 X232.15 Y70.908
N12735 X232.156 Y70.979
N12740 X232.16 Y71.047
N12745 Y71.096
N12750 Y71.116
N12755 X232.147 Y71.251
N12760 X232.13 Y71.348
N12765 X232.106 Y71.445
N12770 X232.075 Y71.536
N12775 X232.035 Y71.63
N12780 X231.985 Y71.726
N12785 X231.928 Y71.819
N12790 X231.865 Y71.907
N12795 X231.789 Y71.997
N12800 X231.704 Y72.085
N12805 X231.605 Y72.174
N12810 X231.494 Y72.261
N12815 X231.375 Y72.343
N12820 X231.236 Y72.426
N12825 X231.082 Y72.508
N12830 X230.915 Y72.586
N12835 X230.733 Y72.66
N12840 X230.535 Y72.73
N12845 X230.323 Y72.795
N12850 X230.098 Y72.854
N12855 X229.86 Y72.908
N12860 X229.629 Y72.953
N12865 X229.072 Y73.037
N12870 X228.503 Y73.096
N12875 X227.905 Y73.136
N12880 X227.276 Y73.162
N12885 X226.623 Y73.179
N12890 X225.951 Y73.191
N12895 X225.941
N12900 X225.271 Y73.206
N12905 X225.228 Y73.207
N12910 X224.573 Y73.23
N12915 X224.494 Y73.234
N12920 X223.858 Y73.272
N12925 X223.738 Y73.282
N12930 X223.125 Y73.342
N12935 X223.008 Y73.356
N12940 X222.711 Y73.396
N12945 X222.616 Y73.41
N12950 X222.326 Y73.459
N12955 X222.218 Y73.479
N12960 X221.936 Y73.536
N12965 X221.818 Y73.562
N12970 X221.543 Y73.629
N12975 X221.406 Y73.666
N12980 X221.14 Y73.743
N12985 X220.995 Y73.789
N12990 X220.737 Y73.878
N12995 X220.578 Y73.937
N13000 X220.329 Y74.038
N13005 X220.15 Y74.116
N13010 X219.912 Y74.23
N13015 X219.733 Y74.323
N13020 X219.505 Y74.45
N13025 X219.324 Y74.559
N13030 X219.106 Y74.7
N13035 X219.006 Y74.768
N13040 X218.909 Y74.839
N13045 X218.704 Y74.996
N13050 X218.609 Y75.071
N13055 X218.517 Y75.15
N13060 X218.324 Y75.322
N13065 X218.234 Y75.406
N13070 X218.147 Y75.492
N13075 X217.966 Y75.681
N13080 G2 X217.799 Y75.87 I2.29 J2.2
N13085 G1 X217.633 Y76.073
N13090 X217.557 Y76.169
N13095 X217.486 Y76.267
N13100 X217.337 Y76.481
N13105 G2 X217.201 Y76.693 I2.604 J1.816
N13110 G1 X217.07 Y76.916
N13115 X216.968 Y77.106
N13120 X216.852 Y77.339
N13125 X216.76 Y77.54
N13130 X216.66 Y77.781
N13135 X216.593 Y77.959
N13140 X216.507 Y78.208
N13145 X216.447 Y78.402
N13150 X216.377 Y78.656
N13155 X216.34 Y78.803
N13160 X216.282 Y79.062
N13165 X216.251 Y79.218
N13170 X216.206 Y79.48
N13175 X216.185 Y79.624
N13180 X216.152 Y79.887
N13185 X216.138 Y80.018
N13190 X216.116 Y80.282
N13195 X216.106 Y80.45
N13200 X216.09 Y80.977
N13205 X216.091 Y81.174
N13210 X216.108 Y81.709
N13215 X216.118 Y81.889
N13220 X216.166 Y82.429
N13225 X216.183 Y82.578
N13230 X216.257 Y83.12
N13235 X216.278 Y83.254
N13240 X216.375 Y83.792
N13245 X216.399 Y83.908
N13250 X216.515 Y84.437
N13255 X216.542 Y84.55
N13260 X216.675 Y85.066
N13265 X216.698 Y85.151
N13270 G2 X217.008 Y86.164 I30.513 J-8.776
N13275 G1 X217.038 Y86.254
N13280 X217.228 Y86.785
N13285 X217.267 Y86.888
N13290 X217.478 Y87.42
N13295 X217.519 Y87.519
N13300 X217.749 Y88.046
N13305 X217.801 Y88.158
N13310 X218.051 Y88.675
N13315 X218.111 Y88.792
N13320 X218.38 Y89.294
N13325 X218.452 Y89.423
N13330 X218.74 Y89.905
N13335 X218.825 Y90.038
N13340 X219.13 Y90.495
N13345 X219.234 Y90.643
N13350 X219.556 Y91.071
N13355 X219.69 Y91.236
N13360 X220.039 Y91.64
N13365 X220.165 Y91.778
N13370 X220.352 Y91.971
N13375 X220.449 Y92.067
N13380 X220.644 Y92.251
N13385 X220.762 Y92.356
N13390 X220.966 Y92.531
N13395 X221.087 Y92.629
N13400 X221.298 Y92.792
N13405 X221.449 Y92.902
N13410 X221.669 Y93.052
N13415 X221.829 Y93.155
N13420 X222.056 Y93.29
N13425 X222.248 Y93.396
N13430 X222.483 Y93.516
N13435 X222.684 Y93.609
N13440 X222.924 Y93.711
N13445 X223.033 Y93.755
N13450 X223.143 Y93.794
N13455 X223.39 Y93.878
N13460 X223.508 Y93.915
N13465 X223.626 Y93.948
N13470 X223.88 Y94.012
N13475 G2 X224.126 Y94.065 I0.783 J-3.077
N13480 G1 X224.386 Y94.109
N13485 G2 X224.638 Y94.142 I0.537 J-3.129
N13490 G1 X224.901 Y94.166
N13495 X225.023 Y94.175
N13500 X225.146 Y94.178
N13505 X225.408 Y94.182
N13510 X225.526 Y94.181
N13515 X225.645 Y94.176
N13520 X225.906 Y94.16
N13525 X226.126 Y94.138
N13530 X226.387 Y94.104
N13535 X226.592 Y94.07
N13540 X226.852 Y94.018
N13545 X227.033 Y93.976
N13550 X227.293 Y93.908
N13555 X227.462 Y93.859
N13560 X227.72 Y93.776
N13565 X227.865 Y93.725
N13570 X228.123 Y93.628
N13575 X228.253 Y93.576
N13580 X228.51 Y93.466
N13585 X228.624 Y93.415
N13590 X228.88 Y93.293
N13595 X228.974 Y93.247
N13600 X229.23 Y93.115
N13605 X229.348 Y93.051
N13610 X229.861 Y92.758
N13615 X229.982 Y92.685
N13620 X230.498 Y92.36
N13625 X230.58 Y92.306
N13630 X231.101 Y91.955
N13635 X231.148 Y91.922
N13640 X231.676 Y91.552
N13645 X231.694 Y91.539
N13650 X232.228 Y91.16
N13655 X232.756 Y90.786
N13660 X233.268 Y90.433
N13665 X233.77 Y90.103
N13670 X234.263 Y89.802
N13675 X234.76 Y89.528
N13680 X234.973 Y89.421
N13685 X235.2 Y89.315
N13690 X235.421 Y89.221
N13695 X235.631 Y89.14
N13700 X235.834 Y89.072
N13705 X236.034 Y89.014
N13710 X236.238 Y88.965
N13715 X236.441 Y88.929
N13720 X236.641 Y88.906
N13725 X236.87 Y88.897
N13730 X236.936 Y88.898
N13735 X237.031 Y88.904
N13740 X237.124 Y88.914
N13745 X237.212 Y88.927
N13750 X237.294 Y88.944
N13755 X237.377 Y88.964
N13760 X237.454 Y88.987
N13765 X237.526 Y89.013
N13770 X237.597 Y89.042
N13775 X237.668 Y89.075
N13780 X237.737 Y89.111
N13785 X237.796 Y89.147
N13790 X237.856 Y89.187
N13795 X237.915 Y89.231
N13800 X237.974 Y89.28
N13805 X238.026 Y89.327
N13810 X238.074 Y89.376
N13815 X238.119 Y89.426
N13820 X238.164 Y89.483
N13825 X238.208 Y89.544
N13830 X238.249 Y89.607
N13835 X238.287 Y89.673
N13840 X238.322 Y89.741
N13845 X238.358 Y89.82
N13850 X238.389 Y89.897
N13855 X238.407 Y89.95
N13860 X238.472 Y90.184
N13865 X238.515 Y90.406
N13870 X238.543 Y90.654
N13875 X238.557 Y90.929
N13880 X238.555 Y91.227
N13885 X238.536 Y91.553
N13890 X238.5 Y91.901
N13895 X238.448 Y92.265
N13900 X238.38 Y92.65
N13905 X238.297 Y93.057
N13910 X238.205 Y93.463
N13915 X237.981 Y94.346
N13920 X237.735 Y95.255
N13925 Y95.258
N13930 X237.487 Y96.177
N13935 X237.475 Y96.221
N13940 X237.36 Y96.674
N13945 X237.349 Y96.717
N13950 X237.242 Y97.163
N13955 X237.226 Y97.234
N13960 X237.131 Y97.674
N13965 X237.115 Y97.754
N13970 X237.033 Y98.188
N13975 X237.015 Y98.292
N13980 X236.949 Y98.719
N13985 X236.932 Y98.85
N13990 X236.885 Y99.269
N13995 X236.871 Y99.422
N14000 X236.845 Y99.832
N14005 X236.839 Y100.009
N14010 X236.836 Y100.413
N14015 X236.842 Y100.635
N14020 X236.867 Y101.036
N14025 X236.877 Y101.155
N14030 X236.891 Y101.274
N14035 X236.946 Y101.671
N14040 G2 X236.999 Y101.955 I3.145 J-0.436
N14045 G1 X237.09 Y102.346
N14050 X237.147 Y102.559
N14055 X237.206 Y102.751
N14060 X237.264 Y102.921
N14065 X237.334 Y103.11
N14070 X237.402 Y103.279
N14075 X237.482 Y103.462
N14080 X237.554 Y103.616
N14085 X237.643 Y103.793
N14090 X237.725 Y103.946
N14095 X237.823 Y104.117
N14100 X237.917 Y104.269
N14105 X238.025 Y104.435
N14110 X238.123 Y104.578
N14115 X238.24 Y104.738
N14120 X238.354 Y104.884
N14125 X238.48 Y105.038
N14130 X238.592 Y105.166
N14135 X238.728 Y105.314
N14140 X238.845 Y105.435
N14145 X238.989 Y105.576
N14150 X239.075 Y105.657
N14155 X239.163 Y105.734
N14160 X239.469 Y105.992
N14165 G2 X239.706 Y106.173 I2.047 J-2.427
N14170 G1 X240.036 Y106.402
N14175 G2 X240.252 Y106.54 I1.81 J-2.608
N14180 G1 X240.6 Y106.742
N14185 X240.703 Y106.799
N14190 X240.809 Y106.853
N14195 X241.172 Y107.029
N14200 X241.356 Y107.111
N14205 X241.733 Y107.265
N14210 X241.909 Y107.331
N14215 X242.296 Y107.463
N14220 X242.442 Y107.509
N14225 X242.834 Y107.622
N14230 X242.976 Y107.659
N14235 X243.37 Y107.753
N14240 X243.498 Y107.781
N14245 X243.892 Y107.858
N14250 X244.001 Y107.877
N14255 X244.39 Y107.939
N14260 X244.492 Y107.954
N14265 X244.872 Y108.002
N14270 X244.969 Y108.013
N14275 X245.337 Y108.048
N14280 X245.464 Y108.057
N14285 G2 X247.205 Y108.105 I1.741 J-31.702
N14290 G1 X247.329 Y108.103
N14295 X247.763 Y108.086
N14300 X247.856 Y108.081
N14305 X248.294 Y108.051
N14310 X248.385 Y108.043
N14315 X248.826 Y108.
N14320 X248.919 Y107.99
N14325 X249.359 Y107.934
N14330 X249.466 Y107.918
N14335 X249.904 Y107.847
N14340 X250.015 Y107.827
N14345 X250.448 Y107.741
N14350 X250.556 Y107.718
N14355 X250.981 Y107.618
N14360 X251.1 Y107.587
N14365 X251.516 Y107.472
N14370 X251.656 Y107.43
N14375 X252.06 Y107.298
N14380 X252.2 Y107.248
N14385 X252.59 Y107.1
N14390 X252.744 Y107.037
N14395 X253.123 Y106.87
N14400 X253.299 Y106.786
N14405 X253.669 Y106.595
N14410 X253.86 Y106.488
N14415 X254.216 Y106.272
N14420 G2 X254.425 Y106.134 I-1.647 J-2.714
N14425 G1 X254.761 Y105.892
N14430 G2 X254.983 Y105.716 I-1.856 J-2.576
N14435 G1 X255.296 Y105.445
N14440 X255.385 Y105.365
N14445 X255.471 Y105.282
N14450 X255.616 Y105.136
N14455 X255.721 Y105.025
N14460 X255.858 Y104.873
N14465 X255.967 Y104.746
N14470 X256.095 Y104.588
N14475 X256.211 Y104.436
N14480 X256.329 Y104.271
N14485 X256.421 Y104.135
N14490 X256.531 Y103.963
N14495 X256.631 Y103.795
N14500 X256.73 Y103.617
N14505 X256.81 Y103.463
N14510 X256.9 Y103.278
N14515 X256.974 Y103.116
N14520 X257.053 Y102.925
N14525 X257.12 Y102.753
N14530 X257.188 Y102.56
N14535 X257.243 Y102.387
N14540 X257.3 Y102.19
N14545 X257.34 Y102.038
N14550 X257.387 Y101.839
N14555 X257.42 Y101.684
N14560 X257.457 Y101.483
N14565 X257.488 Y101.27
N14570 X257.535 Y100.861
N14575 G2 X257.554 Y100.597 I-3.154 J-0.362
N14580 G1 X257.567 Y100.178
N14585 X257.566 Y99.954
N14590 X257.549 Y99.527
N14595 X257.537 Y99.348
N14600 X257.495 Y98.913
N14605 X257.475 Y98.749
N14610 X257.409 Y98.307
N14615 X257.389 Y98.185
N14620 X257.304 Y97.736
N14625 X257.284 Y97.641
N14630 X257.183 Y97.184
N14635 X257.167 Y97.114
N14640 X257.053 Y96.649
N14645 X257.04 Y96.599
N14650 X256.916 Y96.126
N14655 X256.905 Y96.086
N14660 X256.639 Y95.123
N14665 X256.38 Y94.175
N14670 X256.154 Y93.256
N14675 X256.066 Y92.839
N14680 X255.99 Y92.423
N14685 X255.931 Y92.022
N14690 X255.891 Y91.64
N14695 X255.871 Y91.277
N14700 X255.87 Y90.939
N14705 X255.89 Y90.631
N14710 X255.932 Y90.315
N14715 X255.951 Y90.218
N14720 X255.976 Y90.109
N14725 X256.003 Y90.012
N14730 X256.032 Y89.921
N14735 X256.059 Y89.847
N14740 X256.088 Y89.776
N14745 X256.122 Y89.701
N14750 X256.136 Y89.673
N14755 X256.207 Y89.551
N14760 X256.269 Y89.461
N14765 X256.328 Y89.386
N14770 X256.389 Y89.322
N14775 X256.453 Y89.265
N14780 X256.524 Y89.21
N14785 X256.597 Y89.164
N14790 X256.671 Y89.125
N14795 X256.755 Y89.088
N14800 X256.849 Y89.057
N14805 X256.952 Y89.03
N14810 X257.066 Y89.01
N14815 X257.193 Y88.997
N14820 X257.331 Y88.992
N14825 X257.485 Y88.996
N14830 X257.652 Y89.011
N14835 X257.832 Y89.036
N14840 X258.025 Y89.074
N14845 X258.228 Y89.123
N14850 X258.441 Y89.185
N14855 X258.665 Y89.26
N14860 X258.896 Y89.346
N14865 X259.132 Y89.442
N14870 X259.358 Y89.542
N14875 X259.881 Y89.798
N14880 X260.404 Y90.08
N14885 X260.947 Y90.395
N14890 X261.508 Y90.736
N14895 X262.086 Y91.096
N14900 X262.67 Y91.46
N14905 X262.694 Y91.474
N14910 X263.27 Y91.827
N14915 X263.327 Y91.861
N14920 X263.896 Y92.192
N14925 X263.985 Y92.243
N14930 X264.551 Y92.549
N14935 X264.68 Y92.615
N14940 X265.244 Y92.887
N14945 X265.374 Y92.946
N14950 X265.656 Y93.067
N14955 X265.76 Y93.11
N14960 X266.042 Y93.219
N14965 X266.161 Y93.262
N14970 X266.443 Y93.359
N14975 X266.578 Y93.401
N14980 X266.86 Y93.484
N14985 X267.01 Y93.524
N14990 X267.292 Y93.592
N14995 X267.461 Y93.628
N15000 X267.744 Y93.68
N15005 X267.933 Y93.709
N15010 X268.218 Y93.744
N15015 X268.422 Y93.762
N15020 X268.708 Y93.778
N15025 X268.928 Y93.783
N15030 X269.214 Y93.78
N15035 X269.329 Y93.776
N15040 X269.444 Y93.768
N15045 X269.732 Y93.744
N15050 X269.853 Y93.731
N15055 X269.973 Y93.714
N15060 X270.258 Y93.668
N15065 X270.376 Y93.646
N15070 X270.494 Y93.62
N15075 X270.773 Y93.553
N15080 X270.89 Y93.522
N15085 X271.007 Y93.487
N15090 X271.278 Y93.399
N15095 X271.386 Y93.361
N15100 X271.493 Y93.32
N15105 X271.758 Y93.212
N15110 X271.862 Y93.168
N15115 X271.964 Y93.12
N15120 X272.222 Y92.993
N15125 X272.412 Y92.892
N15130 X272.663 Y92.747
N15135 X272.836 Y92.638
N15140 X273.077 Y92.477
N15145 X273.226 Y92.372
N15150 X273.458 Y92.197
N15155 X273.596 Y92.087
N15160 X273.818 Y91.899
N15165 X273.939 Y91.79
N15170 X274.151 Y91.591
N15175 X274.253 Y91.491
N15180 X274.456 Y91.283
N15185 X274.547 Y91.186
N15190 X274.741 Y90.97
N15195 X274.824 Y90.873
N15200 X275.01 Y90.648
N15205 X275.079 Y90.56
N15210 X275.259 Y90.326
N15215 X275.355 Y90.195
N15220 X275.695 Y89.703
N15225 X275.798 Y89.544
N15230 X276.112 Y89.025
N15235 X276.197 Y88.876
N15240 X276.484 Y88.338
N15245 X276.551 Y88.205
N15250 X276.812 Y87.655
N15255 X276.871 Y87.523
N15260 X277.104 Y86.968
N15265 X277.156 Y86.837
N15270 X277.36 Y86.284
N15275 X277.401 Y86.166
N15280 G2 X277.745 Y85.034 I-30.197 J-9.808
N15285 G1 X277.772 Y84.936
N15290 X277.859 Y84.587
N15295 X277.881 Y84.49
N15300 X277.958 Y84.135
N15305 X277.975 Y84.051
N15310 X278.043 Y83.69
N15315 X278.061 Y83.584
N15320 X278.117 Y83.22
N15325 X278.132 Y83.107
N15330 X278.175 Y82.741
N15335 X278.187 Y82.621
N15340 X278.216 Y82.254
N15345 X278.223 Y82.134
N15350 X278.238 Y81.768
N15355 X278.241 Y81.621
N15360 X278.239 Y81.257
N15365 X278.234 Y81.098
N15370 X278.214 Y80.739
N15375 X278.2 Y80.569
N15380 X278.161 Y80.214
N15385 X278.135 Y80.026
N15390 X278.075 Y79.675
N15395 X278.034 Y79.477
N15400 X277.952 Y79.132
N15405 X277.922 Y79.015
N15410 X277.888 Y78.899
N15415 X277.78 Y78.561
N15420 X277.74 Y78.443
N15425 X277.695 Y78.328
N15430 X277.561 Y77.999
N15435 G2 X277.448 Y77.751 I-2.94 J1.198
N15440 G1 X277.286 Y77.435
N15445 G2 X277.138 Y77.177 I-2.827 J1.446
N15450 G1 X276.949 Y76.88
N15455 G2 X276.782 Y76.642 I-2.679 J1.703
N15460 G1 X276.568 Y76.365
N15465 G2 X276.373 Y76.136 I-2.512 J1.942
N15470 G1 X276.133 Y75.88
N15475 G2 X275.921 Y75.673 I-2.317 J2.171
N15480 G1 X275.655 Y75.438
N15485 G2 X275.434 Y75.259 I-2.105 J2.377
N15490 G1 X275.148 Y75.048
N15495 G2 X274.928 Y74.9 I-1.884 J2.556
N15500 G1 X274.626 Y74.714
N15505 X274.525 Y74.654
N15510 X274.421 Y74.598
N15515 X274.106 Y74.435
N15520 X273.915 Y74.344
N15525 X273.589 Y74.202
N15530 X273.411 Y74.131
N15535 X273.073 Y74.007
N15540 X272.919 Y73.956
N15545 X272.57 Y73.848
N15550 X272.432 Y73.809
N15555 X272.072 Y73.715
N15560 X271.948 Y73.686
N15565 X271.577 Y73.605
N15570 X271.474 Y73.584
N15575 X271.095 Y73.515
N15580 X271.008 Y73.5
N15585 X270.622 Y73.441
N15590 X270.547 Y73.43
N15595 X270.153 Y73.379
N15600 X270.073 Y73.37
N15605 X269.265 Y73.285
N15610 X269.198 Y73.279
N15615 X268.365 Y73.21
N15620 X268.344 Y73.209
N15625 X267.504 Y73.145
N15630 X266.689 Y73.077
N15635 X265.918 Y72.997
N15640 X265.179 Y72.895
N15645 X264.86 Y72.84
N15650 X264.544 Y72.776
N15655 X264.247 Y72.705
N15660 X263.97 Y72.629
N15665 X263.718 Y72.547
N15670 X263.488 Y72.461
N15675 X263.278 Y72.369
N15680 X263.094 Y72.276
N15685 X262.934 Y72.182
N15690 X262.797 Y72.088
N15695 X262.681 Y71.995
N15700 X262.584 Y71.903
N15705 X262.506 Y71.815
N15710 X262.44 Y71.727
N15715 X262.389 Y71.643
N15720 X262.346 Y71.555
N15725 X262.309 Y71.457
N15730 X262.282 Y71.36
N15735 X262.263 Y71.253
N15740 X262.253 Y71.136
N15745 Y71.011
N15750 X262.264 Y70.877
N15755 X262.288 Y70.735
N15760 X262.326 Y70.579
N15765 X262.381 Y70.411
N15770 X262.452 Y70.235
N15775 X262.539 Y70.052
N15780 X262.646 Y69.86
N15785 X262.772 Y69.657
N15790 X262.913 Y69.454
N15795 X263.074 Y69.245
N15800 X263.254 Y69.029
N15805 X263.447 Y68.815
N15810 X263.657 Y68.595
N15815 X263.884 Y68.373
N15820 X264.111 Y68.161
N15825 X264.639 Y67.7
N15830 X265.194 Y67.247
N15835 X265.777 Y66.788
N15840 X266.372 Y66.326
N15845 X266.392 Y66.311
N15850 X266.975 Y65.849
N15855 X267.03 Y65.805
N15860 X267.586 Y65.346
N15865 X267.65 Y65.292
N15870 X267.915 Y65.061
N15875 X267.973 Y65.009
N15880 X268.227 Y64.776
N15885 X268.295 Y64.712
N15890 X268.537 Y64.477
N15895 X268.609 Y64.405
N15900 X268.839 Y64.167
N15905 X268.927 Y64.072
N15910 X269.143 Y63.829
N15915 X269.239 Y63.716
N15920 X269.44 Y63.467
N15925 X269.536 Y63.343
N15930 X269.722 Y63.088
N15935 X269.83 Y62.931
N15940 X269.998 Y62.67
N15945 X270.108 Y62.484
N15950 X270.256 Y62.215
N15955 X270.356 Y62.016
N15960 X270.484 Y61.739
N15965 Z5.835 F833.33
N15970 G2 X270.582 Y61.504 I-2.882 J-1.331 F2500.
N15975 G1 X270.686 Y61.222
N15980 G2 X270.765 Y60.976 I-2.98 J-1.097
N15985 G1 X270.845 Y60.688
N15990 G2 X270.907 Y60.423 I-3.059 J-0.851
N15995 G1 X270.962 Y60.13
N16000 G2 X271. Y59.861 I-3.121 J-0.585
N16005 G1 X271.03 Y59.562
N16010 G2 X271.046 Y59.287 I-3.159 J-0.317
N16015 G1 X271.05 Y58.983
N16020 G2 X271.042 Y58.711 I-3.175 J-0.042
N16025 G1 X271.02 Y58.409
N16030 X271.009 Y58.293
N16035 X270.994 Y58.177
N16040 X270.95 Y57.878
N16045 X270.93 Y57.758
N16050 X270.905 Y57.638
N16055 X270.838 Y57.343
N16060 X270.787 Y57.146
N16065 X270.701 Y56.856
N16070 X270.637 Y56.663
N16075 X270.532 Y56.377
N16080 X270.468 Y56.217
N16085 X270.347 Y55.935
N16090 X270.279 Y55.787
N16095 X270.143 Y55.51
N16100 X270.076 Y55.381
N16105 X269.926 Y55.11
N16110 X269.857 Y54.989
N16115 X269.696 Y54.725
N16120 X269.633 Y54.627
N16125 X269.463 Y54.37
N16130 X269.4 Y54.277
N16135 X269.222 Y54.027
N16140 X269.136 Y53.913
N16145 X268.759 Y53.431
N16150 X268.647 Y53.296
N16155 X268.237 Y52.828
N16160 X268.132 Y52.713
N16165 X267.695 Y52.261
N16170 X267.593 Y52.16
N16175 X267.135 Y51.727
N16180 X267.039 Y51.641
N16185 X266.567 Y51.229
N16190 X266.469 Y51.148
N16195 X265.988 Y50.762
N16200 X265.867 Y50.669
N16205 G2 X264.098 Y49.473 I-18.66 J25.688
N16210 G1 X263.939 Y49.379
N16215 X263.357 Y49.059
N16220 X263.236 Y48.996
N16225 X262.933 Y48.846
N16230 X262.848 Y48.805
N16235 X262.54 Y48.664
N16240 X262.442 Y48.621
N16245 X262.129 Y48.49
N16250 X262.022 Y48.447
N16255 X261.706 Y48.328
N16260 X261.58 Y48.284
N16265 X261.26 Y48.178
N16270 X261.127 Y48.138
N16275 X260.806 Y48.047
N16280 X260.65 Y48.008
N16285 X260.327 Y47.934
N16290 X260.161 Y47.901
N16295 X259.838 Y47.846
N16300 X259.645 Y47.818
N16305 X259.319 Y47.783
N16310 X259.107 Y47.767
N16315 X258.781 Y47.753
N16320 X258.663 Y47.75
N16325 X258.545 Y47.752
N16330 X258.218 Y47.763
N16335 G2 X257.961 Y47.781 I0.103 J3.173
N16340 G1 X257.636 Y47.819
N16345 G2 X257.36 Y47.862 I0.36 J3.155
N16350 G1 X257.04 Y47.928
N16355 G2 X256.757 Y47.999 I0.636 J3.111
N16360 G1 X256.447 Y48.093
N16365 G2 X256.165 Y48.193 I0.919 J3.039
N16370 G1 X255.867 Y48.315
N16375 G2 X255.592 Y48.443 I1.201 J2.939
N16380 G1 X255.306 Y48.593
N16385 G2 X255.055 Y48.74 I1.476 J2.811
N16390 G1 X254.78 Y48.918
N16395 G2 X254.549 Y49.083 I1.727 J2.664
N16400 G1 X254.292 Y49.285
N16405 G2 X254.098 Y49.45 I1.958 J2.499
N16410 G1 X253.858 Y49.671
N16415 X253.773 Y49.753
N16420 X253.69 Y49.837
N16425 X253.467 Y50.076
N16430 X253.332 Y50.23
N16435 X253.124 Y50.484
N16440 X253.012 Y50.629
N16445 X252.817 Y50.897
N16450 X252.727 Y51.027
N16455 X252.542 Y51.31
N16460 X252.469 Y51.427
N16465 X252.293 Y51.723
N16470 X252.231 Y51.833
N16475 X252.064 Y52.142
N16480 X252.017 Y52.231
N16485 X251.857 Y52.55
N16490 X251.804 Y52.662
N16495 X251.502 Y53.328
N16500 X251.455 Y53.438
N16505 X251.169 Y54.138
N16510 X251.144 Y54.2
N16515 X250.864 Y54.928
N16520 X250.853 Y54.957
N16525 X250.577 Y55.699
N16530 X250.302 Y56.425
N16535 X250.027 Y57.116
N16540 X249.749 Y57.766
N16545 X249.456 Y58.38
N16550 X249.321 Y58.635
N16555 X249.176 Y58.89
N16560 X249.029 Y59.129
N16565 X248.884 Y59.346
N16570 X248.74 Y59.543
N16575 X248.594 Y59.724
N16580 X248.452 Y59.881
N16585 X248.316 Y60.016
N16590 X248.183 Y60.131
N16595 X248.055 Y60.227
N16600 X247.936 Y60.304
N16605 X247.825 Y60.363
N16610 X247.722 Y60.408
N16615 X247.625 Y60.44
N16620 X247.53 Y60.462
N16625 X247.438 Y60.475
N16630 X247.346 Y60.479
N16635 X247.251 Y60.475
N16640 X247.154 Y60.462
N16645 X247.051 Y60.438
N16650 X246.942 Y60.403
N16655 X246.826 Y60.355
N16660 X246.705 Y60.292
N16665 X246.575 Y60.212
N16670 X246.436 Y60.112
N16675 X246.294 Y59.994
N16680 X246.146 Y59.856
N16685 X245.996 Y59.7
N16690 X245.844 Y59.524
N16695 X245.689 Y59.326
N16700 X245.532 Y59.108
N16705 X245.378 Y58.876
N16710 X245.224 Y58.625
N16715 X245.078 Y58.371
N16720 X244.766 Y57.777
N16725 X244.47 Y57.157
N16730 X244.182 Y56.506
N16735 X243.891 Y55.823
N16740 X243.599 Y55.128
N16745 X243.588 Y55.103
N16750 X243.293 Y54.418
N16755 X243.266 Y54.357
N16760 X242.964 Y53.694
N16765 X242.917 Y53.596
N16770 X242.602 Y52.963
N16775 X242.552 Y52.867
N16780 X242.388 Y52.564
N16785 X242.338 Y52.474
N16790 X242.167 Y52.181
N16795 X242.114 Y52.094
N16800 X241.937 Y51.812
N16805 X241.868 Y51.706
N16810 X241.683 Y51.436
N16815 X241.604 Y51.326
N16820 X241.41 Y51.067
N16825 X241.308 Y50.937
N16830 X241.101 Y50.689
N16835 X240.988 Y50.561
N16840 X240.769 Y50.325
N16845 X240.624 Y50.179
N16850 X240.39 Y49.958
N16855 X240.23 Y49.817
N16860 X239.982 Y49.612
N16865 X239.886 Y49.535
N16870 X239.786 Y49.463
N16875 X239.521 Y49.276
N16880 G2 X239.31 Y49.14 I-1.825 J2.598
N16885 G1 X239.033 Y48.977
N16890 G2 X238.805 Y48.854 I-1.614 J2.734
N16895 G1 X238.519 Y48.716
N16900 G2 X238.272 Y48.609 I-1.386 J2.856
N16905 G1 X237.975 Y48.494
N16910 G2 X237.73 Y48.411 I-1.139 J2.963
N16915 G1 X237.424 Y48.321
N16920 G2 X237.172 Y48.258 I-0.894 J3.047
N16925 G1 X236.856 Y48.193
N16930 X236.735 Y48.171
N16935 X236.613 Y48.153
N16940 X236.293 Y48.112
N16945 X236.176 Y48.1
N16950 X236.059 Y48.092
N16955 X235.737 Y48.075
N16960 X235.523 Y48.071
N16965 X235.201 Y48.076
N16970 X235.002 Y48.085
N16975 X234.68 Y48.11
N16980 X234.5 Y48.13
N16985 X234.179 Y48.173
N16990 X234.013 Y48.201
N16995 X233.694 Y48.261
N17000 X233.546 Y48.293
N17005 X233.228 Y48.369
N17010 X233.091 Y48.406
N17015 X232.776 Y48.497
N17020 X232.652 Y48.535
N17025 X232.341 Y48.638
N17030 X232.23 Y48.678
N17035 X231.923 Y48.793
N17040 X231.82 Y48.833
N17045 X231.519 Y48.958
N17050 X231.384 Y49.018
N17055 X230.796 Y49.295
N17060 X230.634 Y49.377
N17065 X230.058 Y49.689
N17070 X229.913 Y49.773
N17075 X229.353 Y50.116
N17080 X229.222 Y50.201
N17085 X228.683 Y50.569
N17090 X228.608 Y50.622
N17095 X228.537 Y50.673
N17100 X228.495 Y50.704
N17105 X228.138 Y50.974
N17110 X228.053 Y51.04
N17115 X227.7 Y51.326
N17120 X227.618 Y51.396
N17125 X227.271 Y51.697
N17130 X227.179 Y51.78
N17135 X226.843 Y52.095
N17140 X226.752 Y52.184
N17145 X226.429 Y52.513
N17150 X226.334 Y52.613
N17155 X226.027 Y52.954
N17160 X225.933 Y53.064
N17165 X225.644 Y53.416
N17170 X225.542 Y53.546
N17175 X225.275 Y53.908
N17180 X225.173 Y54.055
N17185 X224.93 Y54.427
N17190 X224.823 Y54.603
N17195 X224.605 Y54.988
N17200 X224.501 Y55.188
N17205 X224.311 Y55.588
N17210 G2 X224.211 Y55.823 I2.868 J1.362
N17215 G1 X224.054 Y56.236
N17220 X223.983 Y56.443
N17225 X223.919 Y56.655
N17230 X223.883 Y56.786
N17235 X223.828 Y57.
N17240 X223.791 Y57.158
N17245 X223.747 Y57.375
N17250 X223.718 Y57.544
N17255 X223.686 Y57.761
N17260 X223.667 Y57.918
N17265 X223.646 Y58.136
N17270 X223.633 Y58.324
N17275 X223.625 Y58.542
N17280 X223.623 Y58.702
N17285 X223.626 Y58.92
N17290 X223.634 Y59.095
N17295 X223.649 Y59.312
N17300 X223.667 Y59.499
N17305 X223.695 Y59.716
N17310 X223.721 Y59.885
N17315 X223.761 Y60.103
N17320 X223.795 Y60.261
N17325 X223.846 Y60.476
N17330 X223.893 Y60.652
N17335 X223.956 Y60.863
N17340 X224.004 Y61.01
N17345 X224.077 Y61.217
N17350 X224.132 Y61.362
N17355 X224.215 Y61.565
N17360 X224.304 Y61.762
N17365 X224.498 Y62.158
N17370 X224.555 Y62.268
N17375 X224.616 Y62.377
N17380 X224.842 Y62.758
N17385 X224.901 Y62.855
N17390 X224.964 Y62.949
N17395 X225.221 Y63.32
N17400 X225.333 Y63.472
N17405 X225.617 Y63.834
N17410 X225.72 Y63.958
N17415 X226.028 Y64.312
N17420 X226.116 Y64.409
N17425 X226.444 Y64.756
N17430 X226.519 Y64.833
N17435 X226.864 Y65.174
N17440 X226.924 Y65.232
N17445 X227.284 Y65.57
N17450 X227.332 Y65.613
N17455 X227.705 Y65.949
N17460 X227.747 Y65.987
N17465 X228.519 Y66.657
N17470 X228.534 Y66.669
N17475 X229.302 Y67.328
N17480 X230.031 Y67.975
N17485 X230.354 Y68.276
N17490 X230.661 Y68.576
N17495 X230.939 Y68.866
N17500 X231.193 Y69.151
N17505 X231.417 Y69.424
N17510 X231.61 Y69.686
N17515 X231.773 Y69.937
N17520 X231.921 Y70.202
N17525 X231.961 Y70.284
N17530 X232.007 Y70.391
N17535 X232.049 Y70.5
N17540 X232.082 Y70.595
N17545 X232.108 Y70.688
N17550 X232.128 Y70.774
N17555 X232.141 Y70.84
N17560 X232.15 Y70.908
N17565 X232.156 Y70.979
N17570 X232.16 Y71.047
N17575 Y71.096
N17580 Y71.116
N17585 X232.147 Y71.251
N17590 X232.13 Y71.348
N17595 X232.106 Y71.445
N17600 X232.075 Y71.536
N17605 X232.035 Y71.63
N17610 X231.985 Y71.726
N17615 X231.928 Y71.819
N17620 X231.865 Y71.907
N17625 X231.789 Y71.997
N17630 X231.704 Y72.085
N17635 X231.605 Y72.174
N17640 X231.494 Y72.261
N17645 X231.375 Y72.343
N17650 X231.236 Y72.426
N17655 X231.082 Y72.508
N17660 X230.915 Y72.586
N17665 X230.733 Y72.66
N17670 X230.535 Y72.73
N17675 X230.323 Y72.795
N17680 X230.098 Y72.854
N17685 X229.86 Y72.908
N17690 X229.629 Y72.953
N17695 X229.072 Y73.037
N17700 X228.503 Y73.096
N17705 X227.905 Y73.136
N17710 X227.276 Y73.162
N17715 X226.623 Y73.179
N17720 X225.951 Y73.191
N17725 X225.941
N17730 X225.271 Y73.206
N17735 X225.228 Y73.207
N17740 X224.573 Y73.23
N17745 X224.494 Y73.234
N17750 X223.858 Y73.272
N17755 X223.738 Y73.282
N17760 X223.125 Y73.342
N17765 X223.008 Y73.356
N17770 X222.711 Y73.396
N17775 X222.616 Y73.41
N17780 X222.326 Y73.459
N17785 X222.218 Y73.479
N17790 X221.936 Y73.536
N17795 X221.818 Y73.562
N17800 X221.543 Y73.629
N17805 X221.406 Y73.666
N17810 X221.14 Y73.743
N17815 X220.995 Y73.789
N17820 X220.737 Y73.878
N17825 X220.578 Y73.937
N17830 X220.329 Y74.038
N17835 X220.15 Y74.116
N17840 X219.912 Y74.23
N17845 X219.733 Y74.323
N17850 X219.505 Y74.45
N17855 X219.324 Y74.559
N17860 X219.106 Y74.7
N17865 X219.006 Y74.768
N17870 X218.909 Y74.839
N17875 X218.704 Y74.996
N17880 X218.609 Y75.071
N17885 X218.517 Y75.15
N17890 X218.324 Y75.322
N17895 X218.234 Y75.406
N17900 X218.147 Y75.492
N17905 X217.966 Y75.681
N17910 G2 X217.799 Y75.87 I2.29 J2.2
N17915 G1 X217.633 Y76.073
N17920 X217.557 Y76.169
N17925 X217.486 Y76.267
N17930 X217.337 Y76.481
N17935 G2 X217.201 Y76.693 I2.604 J1.816
N17940 G1 X217.07 Y76.916
N17945 X216.968 Y77.106
N17950 X216.852 Y77.339
N17955 X216.76 Y77.54
N17960 X216.66 Y77.781
N17965 X216.593 Y77.959
N17970 X216.507 Y78.208
N17975 X216.447 Y78.402
N17980 X216.377 Y78.656
N17985 X216.34 Y78.803
N17990 X216.282 Y79.062
N17995 X216.251 Y79.218
N18000 X216.206 Y79.48
N18005 X216.185 Y79.624
N18010 X216.152 Y79.887
N18015 X216.138 Y80.018
N18020 X216.116 Y80.282
N18025 X216.106 Y80.45
N18030 X216.09 Y80.977
N18035 X216.091 Y81.174
N18040 X216.108 Y81.709
N18045 X216.118 Y81.889
N18050 X216.166 Y82.429
N18055 X216.183 Y82.578
N18060 X216.257 Y83.12
N18065 X216.278 Y83.254
N18070 X216.375 Y83.792
N18075 X216.399 Y83.908
N18080 X216.515 Y84.437
N18085 X216.542 Y84.55
N18090 X216.675 Y85.066
N18095 X216.698 Y85.151
N18100 G2 X217.008 Y86.164 I30.513 J-8.776
N18105 G1 X217.038 Y86.254
N18110 X217.228 Y86.785
N18115 X217.267 Y86.888
N18120 X217.478 Y87.42
N18125 X217.519 Y87.519
N18130 X217.749 Y88.046
N18135 X217.801 Y88.158
N18140 X218.051 Y88.675
N18145 X218.111 Y88.792
N18150 X218.38 Y89.294
N18155 X218.452 Y89.423
N18160 X218.74 Y89.905
N18165 X218.825 Y90.038
N18170 X219.13 Y90.495
N18175 X219.234 Y90.643
N18180 X219.556 Y91.071
N18185 X219.69 Y91.236
N18190 X220.039 Y91.64
N18195 X220.165 Y91.778
N18200 X220.352 Y91.971
N18205 X220.449 Y92.067
N18210 X220.644 Y92.251
N18215 X220.762 Y92.356
N18220 X220.966 Y92.531
N18225 X221.087 Y92.629
N18230 X221.298 Y92.792
N18235 X221.449 Y92.902
N18240 X221.669 Y93.052
N18245 X221.829 Y93.155
N18250 X222.056 Y93.29
N18255 X222.248 Y93.396
N18260 X222.483 Y93.516
N18265 X222.684 Y93.609
N18270 X222.924 Y93.711
N18275 X223.033 Y93.755
N18280 X223.143 Y93.794
N18285 X223.39 Y93.878
N18290 X223.508 Y93.915
N18295 X223.626 Y93.948
N18300 X223.88 Y94.012
N18305 G2 X224.126 Y94.065 I0.783 J-3.077
N18310 G1 X224.386 Y94.109
N18315 G2 X224.638 Y94.142 I0.537 J-3.129
N18320 G1 X224.901 Y94.166
N18325 X225.023 Y94.175
N18330 X225.146 Y94.178
N18335 X225.408 Y94.182
N18340 X225.526 Y94.181
N18345 X225.645 Y94.176
N18350 X225.906 Y94.16
N18355 X226.126 Y94.138
N18360 X226.387 Y94.104
N18365 X226.592 Y94.07
N18370 X226.852 Y94.018
N18375 X227.033 Y93.976
N18380 X227.293 Y93.908
N18385 X227.462 Y93.859
N18390 X227.72 Y93.776
N18395 X227.865 Y93.725
N18400 X228.123 Y93.628
N18405 X228.253 Y93.576
N18410 X228.51 Y93.466
N18415 X228.624 Y93.415
N18420 X228.88 Y93.293
N18425 X228.974 Y93.247
N18430 X229.23 Y93.115
N18435 X229.348 Y93.051
N18440 X229.861 Y92.758
N18445 X229.982 Y92.685
N18450 X230.498 Y92.36
N18455 X230.58 Y92.306
N18460 X231.101 Y91.955
N18465 X231.148 Y91.922
N18470 X231.676 Y91.552
N18475 X231.694 Y91.539
N18480 X232.228 Y91.16
N18485 X232.756 Y90.786
N18490 X233.268 Y90.433
N18495 X233.77 Y90.103
N18500 X234.263 Y89.802
N18505 X234.76 Y89.528
N18510 X234.973 Y89.421
N18515 X235.2 Y89.315
N18520 X235.421 Y89.221
N18525 X235.631 Y89.14
N18530 X235.834 Y89.072
N18535 X236.034 Y89.014
N18540 X236.238 Y88.965
N18545 X236.441 Y88.929
N18550 X236.641 Y88.906
N18555 X236.87 Y88.897
N18560 X236.936 Y88.898
N18565 X237.031 Y88.904
N18570 X237.124 Y88.914
N18575 X237.212 Y88.927
N18580 X237.294 Y88.944
N18585 X237.377 Y88.964
N18590 X237.454 Y88.987
N18595 X237.526 Y89.013
N18600 X237.597 Y89.042
N18605 X237.668 Y89.075
N18610 X237.737 Y89.111
N18615 X237.796 Y89.147
N18620 X237.856 Y89.187
N18625 X237.915 Y89.231
N18630 X237.974 Y89.28
N18635 X238.026 Y89.327
N18640 X238.074 Y89.376
N18645 X238.119 Y89.426
N18650 X238.164 Y89.483
N18655 X238.208 Y89.544
N18660 X238.249 Y89.607
N18665 X238.287 Y89.673
N18670 X238.322 Y89.741
N18675 X238.358 Y89.82
N18680 X238.389 Y89.897
N18685 X238.407 Y89.95
N18690 X238.472 Y90.184
N18695 X238.515 Y90.406
N18700 X238.543 Y90.654
N18705 X238.557 Y90.929
N18710 X238.555 Y91.227
N18715 X238.536 Y91.553
N18720 X238.5 Y91.901
N18725 X238.448 Y92.265
N18730 X238.38 Y92.65
N18735 X238.297 Y93.057
N18740 X238.205 Y93.463
N18745 X237.981 Y94.346
N18750 X237.735 Y95.255
N18755 Y95.258
N18760 X237.487 Y96.177
N18765 X237.475 Y96.221
N18770 X237.36 Y96.674
N18775 X237.349 Y96.717
N18780 X237.242 Y97.163
N18785 X237.226 Y97.234
N18790 X237.131 Y97.674
N18795 X237.115 Y97.754
N18800 X237.033 Y98.188
N18805 X237.015 Y98.292
N18810 X236.949 Y98.719
N18815 X236.932 Y98.85
N18820 X236.885 Y99.269
N18825 X236.871 Y99.422
N18830 X236.845 Y99.832
N18835 X236.839 Y100.009
N18840 X236.836 Y100.413
N18845 X236.842 Y100.635
N18850 X236.867 Y101.036
N18855 X236.877 Y101.155
N18860 X236.891 Y101.274
N18865 X236.946 Y101.671
N18870 G2 X236.999 Y101.955 I3.145 J-0.436
N18875 G1 X237.09 Y102.346
N18880 X237.147 Y102.559
N18885 X237.206 Y102.751
N18890 X237.264 Y102.921
N18895 X237.334 Y103.11
N18900 X237.402 Y103.279
N18905 X237.482 Y103.462
N18910 X237.554 Y103.616
N18915 X237.643 Y103.793
N18920 X237.725 Y103.946
N18925 X237.823 Y104.117
N18930 X237.917 Y104.269
N18935 X238.025 Y104.435
N18940 X238.123 Y104.578
N18945 X238.24 Y104.738
N18950 X238.354 Y104.884
N18955 X238.48 Y105.038
N18960 X238.592 Y105.166
N18965 X238.728 Y105.314
N18970 X238.845 Y105.435
N18975 X238.989 Y105.576
N18980 X239.075 Y105.657
N18985 X239.163 Y105.734
N18990 X239.469 Y105.992
N18995 G2 X239.706 Y106.173 I2.047 J-2.427
N19000 G1 X240.036 Y106.402
N19005 G2 X240.252 Y106.54 I1.81 J-2.608
N19010 G1 X240.6 Y106.742
N19015 X240.703 Y106.799
N19020 X240.809 Y106.853
N19025 X241.172 Y107.029
N19030 X241.356 Y107.111
N19035 X241.733 Y107.265
N19040 X241.909 Y107.331
N19045 X242.296 Y107.463
N19050 X242.442 Y107.509
N19055 X242.834 Y107.622
N19060 X242.976 Y107.659
N19065 X243.37 Y107.753
N19070 X243.498 Y107.781
N19075 X243.892 Y107.858
N19080 X244.001 Y107.877
N19085 X244.39 Y107.939
N19090 X244.492 Y107.954
N19095 X244.872 Y108.002
N19100 X244.969 Y108.013
N19105 X245.337 Y108.048
N19110 X245.464 Y108.057
N19115 G2 X247.205 Y108.105 I1.741 J-31.702
N19120 G1 X247.329 Y108.103
N19125 X247.763 Y108.086
N19130 X247.856 Y108.081
N19135 X248.294 Y108.051
N19140 X248.385 Y108.043
N19145 X248.826 Y108.
N19150 X248.919 Y107.99
N19155 X249.359 Y107.934
N19160 X249.466 Y107.918
N19165 X249.904 Y107.847
N19170 X250.015 Y107.827
N19175 X250.448 Y107.741
N19180 X250.556 Y107.718
N19185 X250.981 Y107.618
N19190 X251.1 Y107.587
N19195 X251.516 Y107.472
N19200 X251.656 Y107.43
N19205 X252.06 Y107.298
N19210 X252.2 Y107.248
N19215 X252.59 Y107.1
N19220 X252.744 Y107.037
N19225 X253.123 Y106.87
N19230 X253.299 Y106.786
N19235 X253.669 Y106.595
N19240 X253.86 Y106.488
N19245 X254.216 Y106.272
N19250 G2 X254.425 Y106.134 I-1.647 J-2.714
N19255 G1 X254.761 Y105.892
N19260 G2 X254.983 Y105.716 I-1.856 J-2.576
N19265 G1 X255.296 Y105.445
N19270 X255.385 Y105.365
N19275 X255.471 Y105.282
N19280 X255.616 Y105.136
N19285 X255.721 Y105.025
N19290 X255.858 Y104.873
N19295 X255.967 Y104.746
N19300 X256.095 Y104.588
N19305 X256.211 Y104.436
N19310 X256.329 Y104.271
N19315 X256.421 Y104.135
N19320 X256.531 Y103.963
N19325 X256.631 Y103.795
N19330 X256.73 Y103.617
N19335 X256.81 Y103.463
N19340 X256.9 Y103.278
N19345 X256.974 Y103.116
N19350 X257.053 Y102.925
N19355 X257.12 Y102.753
N19360 X257.188 Y102.56
N19365 X257.243 Y102.387
N19370 X257.3 Y102.19
N19375 X257.34 Y102.038
N19380 X257.387 Y101.839
N19385 X257.42 Y101.684
N19390 X257.457 Y101.483
N19395 X257.488 Y101.27
N19400 X257.535 Y100.861
N19405 G2 X257.554 Y100.597 I-3.154 J-0.362
N19410 G1 X257.567 Y100.178
N19415 X257.566 Y99.954
N19420 X257.549 Y99.527
N19425 X257.537 Y99.348
N19430 X257.495 Y98.913
N19435 X257.475 Y98.749
N19440 X257.409 Y98.307
N19445 X257.389 Y98.185
N19450 X257.304 Y97.736
N19455 X257.284 Y97.641
N19460 X257.183 Y97.184
N19465 X257.167 Y97.114
N19470 X257.053 Y96.649
N19475 X257.04 Y96.599
N19480 X256.916 Y96.126
N19485 X256.905 Y96.086
N19490 X256.639 Y95.123
N19495 X256.38 Y94.175
N19500 X256.154 Y93.256
N19505 X256.066 Y92.839
N19510 X255.99 Y92.423
N19515 X255.931 Y92.022
N19520 X255.891 Y91.64
N19525 X255.871 Y91.277
N19530 X255.87 Y90.939
N19535 X255.89 Y90.631
N19540 X255.932 Y90.315
N19545 X255.951 Y90.218
N19550 X255.976 Y90.109
N19555 X256.003 Y90.012
N19560 X256.032 Y89.921
N19565 X256.059 Y89.847
N19570 X256.088 Y89.776
N19575 X256.122 Y89.701
