%
(CORNERCLAMP_CONTOUR_RUNSECOND)
(T1  D=6.35 CR=0. - ZMIN=0. - FLAT END MILL)
N10 G90 G94 G17 G91.1
N15 G21
(WHEN USING FUSION 360 FOR PERSONAL USE, THE FEEDRATE OF)
(RAPID MOVES IS REDUCED TO MATCH THE FEEDRATE OF CUTTING)
(MOVES, WHICH CAN INCREASE MACHINING TIME. UNRESTRICTED RAPID)
(MOVES ARE AVAILABLE WITH A FUSION 360 SUBSCRIPTION.)
N20 G53 G0 Z0.
(2D CONTOUR3)
N25 T1 M6
N30 S10000 M3
N35 G54
N40 G0 X254.474 Y211.814
N45 G43 Z33.5 H1
N50 G1 Z23.5 F2500.
N55 Z12.785 F833.33
N60 G18 G2 X255.109 Z12.15 I0.635 K0. F2500.
N65 G1 X255.744
N70 G17 G3 X256.379 Y212.449 I0. J0.635
N75 G1 Y275.297
N80 G3 X243.679 I-6.35 J0.
N85 G1 Y211.797
N90 G3 X256.379 I6.35 J0.
N95 G1 Y212.449
N100 G3 X255.744 Y213.084 I-0.635 J0.
N105 G1 X255.109
N110 G18 G3 X254.474 Z12.785 I0. K0.635
N115 G1 Z23.5
N120 Y211.814
N125 Z17.15 F833.33
N130 Z6.435
N135 G2 X255.109 Z5.8 I0.635 K0. F2500.
N140 G1 X255.744
N145 G17 G3 X256.379 Y212.449 I0. J0.635
N150 G1 Y275.297
N155 G3 X243.679 I-6.35 J0.
N160 G1 Y211.797
N165 G3 X256.379 I6.35 J0.
N170 G1 Y212.449
N175 G3 X255.744 Y213.084 I-0.635 J0.
N180 G1 X255.109
N185 G18 G3 X254.474 Z6.435 I0. K0.635
N190 G1 Z23.5
N195 Y211.814
N200 Z10.8 F833.33
N205 Z0.635
N210 G2 X255.109 Z0. I0.635 K0. F2500.
N215 G1 X255.744
N220 G17 G3 X256.379 Y212.449 I0. J0.635
N225 G1 Y275.297
N230 G3 X243.679 I-6.35 J0.
N235 G1 Y211.797
N240 G3 X256.379 I6.35 J0.
N245 G1 Y212.449
N250 G3 X255.744 Y213.084 I-0.635 J0.
N255 G1 X255.109
N260 G18 G3 X254.474 Z0.635 I0. K0.635
N265 G1 Z23.5
N270 X244.096 Y178.796
N275 Z12.785 F833.33
N280 X244.101 Y178.801 Z12.686 F2500.
N285 X244.118 Y178.818 Z12.589
N290 X244.145 Y178.845 Z12.497
N295 X244.182 Y178.882 Z12.412
N300 X244.227 Y178.927 Z12.336
N305 X244.281 Y178.981 Z12.271
N310 X244.341 Y179.041 Z12.219
N315 X244.406 Y179.106 Z12.181
N320 X244.475 Y179.175 Z12.158
N325 X244.545 Y179.245 Z12.15
N330 X244.994 Y179.694
N335 G17 G3 Y180.592 I-0.449 J0.449
N340 G1 X225.507 Y200.079
N345 G2 X225.628 Y198.327 I-12.579 J-1.751
N350 G1 Y176.872
N355 G2 X222.453 Y173.697 I-3.175 J0.
N360 G1 X76.403
N365 G2 X74.158 Y174.627 I0. J3.175
N370 G1 X55.108 Y193.677
N375 G2 X54.178 Y195.922 I2.245 J2.245
N380 G1 Y341.972
N385 G2 X57.353 Y345.147 I3.175 J0.
N390 G1 X78.807
N395 G2 X87.787 Y341.427 I0. J-12.7
N400 G1 X107.275 Y321.94
N405 G2 X107.154 Y323.692 I12.579 J1.751
N410 G1 Y345.147
N415 G2 X110.329 Y348.322 I3.175 J0.
N420 G1 X256.379
N425 G2 X258.624 Y347.392 I0. J-3.175
N430 G1 X277.674 Y328.342
N435 G2 X278.604 Y326.097 I-2.245 J-2.245
N440 G1 Y180.047
N445 G2 X275.429 Y176.872 I-3.175 J0.
N450 G1 X253.975
N455 G2 X244.994 Y180.592 I-0.001 J12.7
N460 G3 X244.096 I-0.449 J-0.449
N465 G1 X243.647 Y180.143
N470 X243.577 Y180.073 Z12.158
N475 X243.508 Y180.004 Z12.181
N480 X243.443 Y179.939 Z12.219
N485 X243.383 Y179.879 Z12.271
N490 X243.329 Y179.825 Z12.336
N495 X243.284 Y179.78 Z12.412
N500 X243.247 Y179.743 Z12.497
N505 X243.22 Y179.716 Z12.589
N510 X243.203 Y179.7 Z12.686
N515 X243.198 Y179.694 Z12.785
N520 Z23.5
N525 X234.273 Y170.18
N530 Z12.785 F833.33
N535 G19 G2 Y169.545 Z12.15 J-0.635 K0. F2500.
N540 G1 Y168.91
N545 G17 G3 X234.908 Y168.275 I0.635 J0.
N550 G1 X259.264
N555 G2 X261.509 Y167.345 I0. J-3.175
N560 G1 X280.559 Y148.295
N565 G2 X281.489 Y146.05 I-2.245 J-2.245
N570 G1 Y0.
N575 G2 X278.314 Y-3.175 I-3.175 J0.
N580 G1 X256.859
N585 G2 X247.879 Y0.545 I0. J12.7
N590 G1 X228.512 Y19.912
N595 Y0.
N600 G2 X225.337 Y-3.175 I-3.175 J0.
N605 G1 X79.287
N610 G2 X77.042 Y-2.245 I0. J3.175
N615 G1 X57.992 Y16.805
N620 G2 X57.062 Y19.05 I2.245 J2.245
N625 G1 Y165.1
N630 G2 X60.237 Y168.275 I3.175 J0.
N635 G1 X81.692
N640 G2 X90.672 Y164.555 I0. J-12.7
N645 G1 X110.039 Y145.188
N650 Y165.1
N655 G2 X113.214 Y168.275 I3.175 J0.
N660 G1 X234.908
N665 G3 X235.543 Y168.91 I0. J0.635
N670 G1 Y169.545
N675 G19 G3 Y170.18 Z12.785 J0. K0.635
N680 G1 Z23.5
N685 X257.342 Y132.698
N690 Z12.785 F833.33
N695 G18 G2 X257.977 Z12.15 I0.635 K0. F2500.
N700 G1 X258.612
N705 G17 G3 X259.247 Y133.333 I0. J0.635
N710 X233.847 I-12.7 J0.
N715 X259.247 I12.7 J0.
N720 X258.612 Y133.968 I-0.635 J0.
N725 G1 X257.977
N730 G18 G3 X257.342 Z12.785 I0. K0.635
N735 G1 Z23.5
N740 Y132.698
N745 Z17.15 F833.33
N750 Z6.435
N755 G2 X257.977 Z5.8 I0.635 K0. F2500.
N760 G1 X258.612
N765 G17 G3 X259.247 Y133.333 I0. J0.635
N770 X233.847 I-12.7 J0.
N775 X259.247 I12.7 J0.
N780 X258.612 Y133.968 I-0.635 J0.
N785 G1 X257.977
N790 G18 G3 X257.342 Z6.435 I0. K0.635
N795 G1 Z23.5
N800 Y132.698
N805 Z10.8 F833.33
N810 Z0.635
N815 G2 X257.977 Z0. I0.635 K0. F2500.
N820 G1 X258.612
N825 G17 G3 X259.247 Y133.333 I0. J0.635
N830 X233.847 I-12.7 J0.
N835 X259.247 I12.7 J0.
N840 X258.612 Y133.968 I-0.635 J0.
N845 G1 X257.977
N850 G18 G3 X257.342 Z0.635 I0. K0.635
N855 G1 Z23.5
N860 X283.757 Y164.465
N865 Z12.785 F833.33
N870 G2 X284.392 Z12.15 I0.635 K0. F2500.
N875 G1 X285.027
N880 G17 G3 X285.662 Y165.1 I0. J0.635
N885 G2 X288.837 Y168.275 I3.175 J0.
N890 G1 X310.292
N895 G2 X319.272 Y164.555 I0. J-12.7
N900 G1 X338.639 Y145.188
N905 Y165.1
N910 G2 X341.814 Y168.275 I3.175 J0.
N915 G1 X451.053
N920 X487.864
N925 G2 X490.109 Y167.345 I0. J-3.175
N930 G1 X509.159 Y148.295
N935 G2 X510.089 Y146.05 I-2.245 J-2.245
N940 G1 Y0.
N945 G2 X506.914 Y-3.175 I-3.175 J0.
N950 G1 X485.459
N955 G2 X476.479 Y0.545 I0. J12.7
N960 G1 X457.112 Y19.912
N965 Y0.
N970 G2 X453.937 Y-3.175 I-3.175 J0.
N975 G1 X307.887
N980 G2 X305.642 Y-2.245 I0. J3.175
N985 G1 X286.592 Y16.805
N990 G2 X285.662 Y19.05 I2.245 J2.245
N995 G1 Y165.1
N1000 G3 X285.027 Y165.735 I-0.635 J0.
N1005 G1 X284.392
N1010 G18 G3 X283.757 Z12.785 I0. K0.635
N1015 G1 Z23.5
N1020 X292.842 Y181.849
N1025 Z12.785 F833.33
N1030 X292.848 Y181.854 Z12.686 F2500.
N1035 X292.864 Y181.871 Z12.589
N1040 X292.891 Y181.898 Z12.497
N1045 X292.928 Y181.935 Z12.412
N1050 X292.973 Y181.98 Z12.336
N1055 X293.027 Y182.034 Z12.271
N1060 X293.087 Y182.094 Z12.219
N1065 X293.152 Y182.159 Z12.181
N1070 X293.221 Y182.228 Z12.158
N1075 X293.291 Y182.298 Z12.15
N1080 X293.74 Y182.747
N1085 G17 G3 Y183.645 I-0.449 J0.449
N1090 G1 X283.708 Y193.677
N1095 G2 X282.778 Y195.922 I2.245 J2.245
N1100 G1 Y341.972
N1105 G2 X285.953 Y345.147 I3.175 J0.
N1110 G1 X307.407
N1115 G2 X316.387 Y341.427 I0. J-12.7
N1120 G1 X335.875 Y321.94
N1125 G2 X335.754 Y323.692 I12.579 J1.751
N1130 G1 Y345.147
N1135 G2 X338.929 Y348.322 I3.175 J0.
N1140 G1 X484.979
N1145 G2 X487.224 Y347.392 I0. J-3.175
N1150 G1 X506.274 Y328.342
N1155 G2 X507.204 Y326.097 I-2.245 J-2.245
N1160 G1 Y180.047
N1165 G2 X504.029 Y176.872 I-3.175 J0.
N1170 G1 X482.575
N1175 G2 X473.594 Y180.592 I-0.001 J12.7
N1180 G1 X454.107 Y200.079
N1185 G2 X454.228 Y198.327 I-12.579 J-1.751
N1190 G1 Y176.872
N1195 G2 X451.053 Y173.697 I-3.175 J0.
N1200 G1 X305.003
N1205 G2 X302.758 Y174.627 I0. J3.175
N1210 G1 X293.74 Y183.645
N1215 G3 X292.842 I-0.449 J-0.449
N1220 G1 X292.393 Y183.196
N1225 X292.323 Y183.126 Z12.158
N1230 X292.254 Y183.057 Z12.181
N1235 X292.189 Y182.992 Z12.219
N1240 X292.129 Y182.932 Z12.271
N1245 X292.075 Y182.878 Z12.336
N1250 X292.03 Y182.833 Z12.412
N1255 X291.993 Y182.796 Z12.497
N1260 X291.966 Y182.769 Z12.589
N1265 X291.949 Y182.752 Z12.686
N1270 X291.944 Y182.747 Z12.785
N1275 Z23.5
N1280 X287.583 Y170.064
N1285 Z17.15 F833.33
N1290 Z6.435
N1295 X287.584 Y170.056 Z6.336 F2500.
N1300 X287.587 Y170.033 Z6.239
N1305 X287.592 Y169.995 Z6.147
N1310 X287.598 Y169.943 Z6.062
N1315 X287.606 Y169.879 Z5.986
N1320 X287.615 Y169.804 Z5.921
N1325 X287.626 Y169.72 Z5.869
N1330 X287.637 Y169.628 Z5.831
N1335 X287.649 Y169.532 Z5.808
N1340 X287.661 Y169.433 Z5.8
N1345 X287.739 Y168.803
N1350 G3 X288.447 Y168.251 I0.63 J0.078
N1355 G2 X288.837 Y168.275 I0.39 J-3.151
N1360 G1 X310.292
N1365 G2 X319.272 Y164.555 I0. J-12.7
N1370 G1 X338.639 Y145.188
N1375 Y165.1
N1380 G2 X341.814 Y168.275 I3.175 J0.
N1385 G1 X451.053
N1390 X487.864
N1395 G2 X490.109 Y167.345 I0. J-3.175
N1400 G1 X509.159 Y148.295
N1405 G2 X510.089 Y146.05 I-2.245 J-2.245
N1410 G1 Y0.
N1415 G2 X506.914 Y-3.175 I-3.175 J0.
N1420 G1 X485.459
N1425 G2 X476.479 Y0.545 I0. J12.7
N1430 G1 X457.112 Y19.912
N1435 Y0.
N1440 G2 X453.937 Y-3.175 I-3.175 J0.
N1445 G1 X307.887
N1450 G2 X305.642 Y-2.245 I0. J3.175
N1455 G1 X286.592 Y16.805
N1460 G2 X285.662 Y19.05 I2.245 J2.245
N1465 G1 Y165.1
N1470 G2 X288.447 Y168.251 I3.175 J0.
N1475 G3 X288.999 Y168.959 I-0.078 J0.63
N1480 G1 X288.922 Y169.589
N1485 X288.909 Y169.688 Z5.808
N1490 X288.897 Y169.784 Z5.831
N1495 X288.886 Y169.875 Z5.869
N1500 X288.876 Y169.96 Z5.921
N1505 X288.866 Y170.035 Z5.986
N1510 X288.858 Y170.099 Z6.062
N1515 X288.852 Y170.151 Z6.147
N1520 X288.847 Y170.189 Z6.239
N1525 X288.845 Y170.212 Z6.336
N1530 X288.844 Y170.22 Z6.435
N1535 Z23.5
N1540 X328.515 Y208.004
N1545 Z12.785 F833.33
N1550 G18 G2 X329.15 Z12.15 I0.635 K0. F2500.
N1555 G1 X329.785
N1560 G17 G3 X330.42 Y208.639 I0. J0.635
N1565 X305.02 I-12.7 J0.
N1570 X330.42 I12.7 J0.
N1575 X329.785 Y209.274 I-0.635 J0.
N1580 G1 X329.15
N1585 G18 G3 X328.515 Z12.785 I0. K0.635
N1590 G1 Z23.5
N1595 Y208.004
N1600 Z17.15 F833.33
N1605 Z6.435
N1610 G2 X329.15 Z5.8 I0.635 K0. F2500.
N1615 G1 X329.785
N1620 G17 G3 X330.42 Y208.639 I0. J0.635
N1625 X305.02 I-12.7 J0.
N1630 X330.42 I12.7 J0.
N1635 X329.785 Y209.274 I-0.635 J0.
N1640 G1 X329.15
N1645 G18 G3 X328.515 Z6.435 I0. K0.635
N1650 G1 Z23.5
N1655 Y208.004
N1660 Z10.8 F833.33
N1665 Z0.635
N1670 G2 X329.15 Z0. I0.635 K0. F2500.
N1675 G1 X329.785
N1680 G17 G3 X330.42 Y208.639 I0. J0.635
N1685 X305.02 I-12.7 J0.
N1690 X330.42 I12.7 J0.
N1695 X329.785 Y209.274 I-0.635 J0.
N1700 G1 X329.15
N1705 G18 G3 X328.515 Z0.635 I0. K0.635
N1710 G1 Z23.5
N1715 X356.438 Y206.717
N1720 Z12.785 F833.33
N1725 G19 G3 Y207.352 Z12.15 J0.635 K0. F2500.
N1730 G1 Y207.987
N1735 G17 G3 X355.803 Y208.622 I-0.635 J0.
N1740 Y195.922 I0. J-6.35
N1745 G1 X419.303
N1750 G3 Y208.622 I0. J6.35
N1755 G1 X355.803
N1760 G3 X355.168 Y207.987 I0. J-0.635
N1765 G1 Y207.352
N1770 G19 G2 Y206.717 Z12.785 J0. K0.635
N1775 G1 Z23.5
N1780 X356.438
N1785 Z17.15 F833.33
N1790 Z6.435
N1795 G3 Y207.352 Z5.8 J0.635 K0. F2500.
N1800 G1 Y207.987
N1805 G17 G3 X355.803 Y208.622 I-0.635 J0.
N1810 Y195.922 I0. J-6.35
N1815 G1 X419.303
N1820 G3 Y208.622 I0. J6.35
N1825 G1 X355.803
N1830 G3 X355.168 Y207.987 I0. J-0.635
N1835 G1 Y207.352
N1840 G19 G2 Y206.717 Z6.435 J0. K0.635
N1845 G1 Z23.5
N1850 X356.438
N1855 Z10.8 F833.33
N1860 Z0.635
N1865 G3 Y207.352 Z0. J0.635 K0. F2500.
N1870 G1 Y207.987
N1875 G17 G3 X355.803 Y208.622 I-0.635 J0.
N1880 Y195.922 I0. J-6.35
N1885 G1 X419.303
N1890 G3 Y208.622 I0. J6.35
N1895 G1 X355.803
N1900 G3 X355.168 Y207.987 I0. J-0.635
N1905 G1 Y207.352
N1910 G19 G2 Y206.717 Z0.635 J0. K0.635
N1915 G1 Z23.5
N1920 X396.904 Y232.752
N1925 Z12.785 F833.33
N1930 G2 Y232.117 Z12.15 J-0.635 K0. F2500.
N1935 G1 Y231.482
N1940 G17 G3 X397.539 Y230.847 I0.635 J0.
N1945 G1 X421.707
N1950 G2 X430.687 Y227.127 I0. J-12.7
N1955 G1 X450.175 Y207.64
N1960 G2 X450.054 Y209.392 I12.579 J1.751
N1965 G1 Y243.547
N1970 G3 X446.879 Y246.722 I-3.175 J0.
N1975 G1 X418.304
N1980 G2 X405.604 Y259.422 I0. J12.7
N1985 G1 Y287.997
N1990 G3 X402.429 Y291.172 I-3.175 J0.
N1995 G1 X368.275
N2000 G2 X359.294 Y294.892 I-0.001 J12.7
N2005 G1 X339.807 Y314.379
N2010 G2 X339.928 Y312.627 I-12.579 J-1.751
N2015 G1 Y278.472
N2020 G3 X343.103 Y275.297 I3.175 J0.
N2025 G1 X371.678
N2030 G2 X384.378 Y262.597 I0. J-12.7
N2035 G1 Y234.022
N2040 G3 X387.553 Y230.847 I3.175 J0.
N2045 G1 X397.539
N2050 G3 X398.174 Y231.482 I0. J0.635
N2055 G1 Y232.117
N2060 G19 G3 Y232.752 Z12.785 J0. K0.635
N2065 G1 Z23.5
N2070 X396.904
N2075 Z17.15 F833.33
N2080 Z6.435
N2085 G2 Y232.117 Z5.8 J-0.635 K0. F2500.
N2090 G1 Y231.482
N2095 G17 G3 X397.539 Y230.847 I0.635 J0.
N2100 G1 X421.707
N2105 G2 X430.687 Y227.127 I0. J-12.7
N2110 G1 X450.175 Y207.64
N2115 G2 X450.054 Y209.392 I12.579 J1.751
N2120 G1 Y243.547
N2125 G3 X446.879 Y246.722 I-3.175 J0.
N2130 G1 X418.304
N2135 G2 X405.604 Y259.422 I0. J12.7
N2140 G1 Y287.997
N2145 G3 X402.429 Y291.172 I-3.175 J0.
N2150 G1 X368.275
N2155 G2 X359.294 Y294.892 I-0.001 J12.7
N2160 G1 X339.807 Y314.379
N2165 G2 X339.928 Y312.627 I-12.579 J-1.751
N2170 G1 Y278.472
N2175 G3 X343.103 Y275.297 I3.175 J0.
N2180 G1 X371.678
N2185 G2 X384.378 Y262.597 I0. J-12.7
N2190 G1 Y234.022
N2195 G3 X387.553 Y230.847 I3.175 J0.
N2200 G1 X397.539
N2205 G3 X398.174 Y231.482 I0. J0.635
N2210 G1 Y232.117
N2215 G19 G3 Y232.752 Z6.435 J0. K0.635
N2220 G1 Z23.5
N2225 X396.904
N2230 Z10.8 F833.33
N2235 Z0.635
N2240 G2 Y232.117 Z0. J-0.635 K0. F2500.
N2245 G1 Y231.482
N2250 G17 G3 X397.539 Y230.847 I0.635 J0.
N2255 G1 X421.707
N2260 G2 X430.687 Y227.127 I0. J-12.7
N2265 G1 X450.175 Y207.64
N2270 G2 X450.054 Y209.392 I12.579 J1.751
N2275 G1 Y243.547
N2280 G3 X446.879 Y246.722 I-3.175 J0.
N2285 G1 X440.052
N2290 Z2.
N2295 X427.352
N2300 Z0. F833.33
N2305 X418.304 F2500.
N2310 G2 X405.604 Y259.422 I0. J12.7
N2315 G1 Y287.997
N2320 G3 X402.429 Y291.172 I-3.175 J0.
N2325 G1 X390.781
N2330 Z2.
N2335 X378.081
N2340 Z0. F833.33
N2345 X368.275 F2500.
N2350 G2 X359.294 Y294.892 I-0.001 J12.7
N2355 G1 X339.807 Y314.379
N2360 G2 X339.928 Y312.627 I-12.579 J-1.751
N2365 G1 Y299.005
N2370 Z2.
N2375 Y286.305
N2380 Z0. F833.33
N2385 Y278.472 F2500.
N2390 G3 X343.103 Y275.297 I3.175 J0.
N2395 G1 X371.678
N2400 G2 X384.378 Y262.597 I0. J-12.7
N2405 G1 Y253.754
N2410 Z2.
N2415 Y241.054
N2420 Z0. F833.33
N2425 Y234.022 F2500.
N2430 G3 X387.553 Y230.847 I3.175 J0.
N2435 G1 X397.539
N2440 G3 X398.174 Y231.482 I0. J0.635
N2445 G1 Y232.117
N2450 G19 G3 Y232.752 Z0.635 J0. K0.635
N2455 G1 Z23.5
N2460 X483.074 Y211.814
N2465 Z12.785 F833.33
N2470 G18 G2 X483.709 Z12.15 I0.635 K0. F2500.
N2475 G1 X484.344
N2480 G17 G3 X484.979 Y212.449 I0. J0.635
N2485 G1 Y275.297
N2490 G3 X472.279 I-6.35 J0.
N2495 G1 Y211.797
N2500 G3 X484.979 I6.35 J0.
N2505 G1 Y212.449
N2510 G3 X484.344 Y213.084 I-0.635 J0.
N2515 G1 X483.709
N2520 G18 G3 X483.074 Z12.785 I0. K0.635
N2525 G1 Z23.5
N2530 Y211.814
N2535 Z17.15 F833.33
N2540 Z6.435
N2545 G2 X483.709 Z5.8 I0.635 K0. F2500.
N2550 G1 X484.344
N2555 G17 G3 X484.979 Y212.449 I0. J0.635
N2560 G1 Y275.297
N2565 G3 X472.279 I-6.35 J0.
N2570 G1 Y211.797
N2575 G3 X484.979 I6.35 J0.
N2580 G1 Y212.449
N2585 G3 X484.344 Y213.084 I-0.635 J0.
N2590 G1 X483.709
N2595 G18 G3 X483.074 Z6.435 I0. K0.635
N2600 G1 Z23.5
N2605 Y211.814
N2610 Z10.8 F833.33
N2615 Z0.635
N2620 G2 X483.709 Z0. I0.635 K0. F2500.
N2625 G1 X484.344
N2630 G17 G3 X484.979 Y212.449 I0. J0.635
N2635 G1 Y275.297
N2640 G3 X472.279 I-6.35 J0.
N2645 G1 Y211.797
N2650 G3 X484.979 I6.35 J0.
N2655 G1 Y212.449
N2660 G3 X484.344 Y213.084 I-0.635 J0.
N2665 G1 X483.709
N2670 G18 G3 X483.074 Z0.635 I0. K0.635
N2675 G1 Z23.5
N2680 X485.942 Y132.698
N2685 Z12.785 F833.33
N2690 G2 X486.577 Z12.15 I0.635 K0. F2500.
N2695 G1 X487.212
N2700 G17 G3 X487.847 Y133.333 I0. J0.635
N2705 X462.447 I-12.7 J0.
N2710 X487.847 I12.7 J0.
N2715 X487.212 Y133.968 I-0.635 J0.
N2720 G1 X486.577
N2725 G18 G3 X485.942 Z12.785 I0. K0.635
N2730 G1 Z23.5
N2735 Y132.698
N2740 Z17.15 F833.33
N2745 Z6.435
N2750 G2 X486.577 Z5.8 I0.635 K0. F2500.
N2755 G1 X487.212
N2760 G17 G3 X487.847 Y133.333 I0. J0.635
N2765 X462.447 I-12.7 J0.
N2770 X487.847 I12.7 J0.
N2775 X487.212 Y133.968 I-0.635 J0.
N2780 G1 X486.577
N2785 G18 G3 X485.942 Z6.435 I0. K0.635
N2790 G1 Z23.5
N2795 Y132.698
N2800 Z10.8 F833.33
N2805 Z0.635
N2810 G2 X486.577 Z0. I0.635 K0. F2500.
N2815 G1 X487.212
N2820 G17 G3 X487.847 Y133.333 I0. J0.635
N2825 X462.447 I-12.7 J0.
N2830 X487.847 I12.7 J0.
N2835 X487.212 Y133.968 I-0.635 J0.
N2840 G1 X486.577
N2845 G18 G3 X485.942 Z0.635 I0. K0.635
N2850 G1 Z23.5
N2855 X485.959 Y94.615
N2860 Z12.785 F833.33
N2865 G2 X486.594 Z12.15 I0.635 K0. F2500.
N2870 G1 X487.229
N2875 G17 G3 X487.864 Y95.25 I0. J0.635
N2880 X475.164 I-6.35 J0.
N2885 G1 Y31.75
N2890 G3 X487.864 I6.35 J0.
N2895 G1 Y95.25
N2900 G3 X487.229 Y95.885 I-0.635 J0.
N2905 G1 X486.594
N2910 G18 G3 X485.959 Z12.785 I0. K0.635
N2915 G1 Z23.5
N2920 Y94.615
N2925 Z17.15 F833.33
N2930 Z6.435
N2935 G2 X486.594 Z5.8 I0.635 K0. F2500.
N2940 G1 X487.229
N2945 G17 G3 X487.864 Y95.25 I0. J0.635
N2950 X475.164 I-6.35 J0.
N2955 G1 Y31.75
N2960 G3 X487.864 I6.35 J0.
N2965 G1 Y95.25
N2970 G3 X487.229 Y95.885 I-0.635 J0.
N2975 G1 X486.594
N2980 G18 G3 X485.959 Z6.435 I0. K0.635
N2985 G1 Z23.5
N2990 Y94.615
N2995 Z10.8 F833.33
N3000 Z0.635
N3005 G2 X486.594 Z0. I0.635 K0. F2500.
N3010 G1 X487.229
N3015 G17 G3 X487.864 Y95.25 I0. J0.635
N3020 X475.164 I-6.35 J0.
N3025 G1 Y31.75
N3030 G3 X487.864 I6.35 J0.
N3035 G1 Y95.25
N3040 G3 X487.229 Y95.885 I-0.635 J0.
N3045 G1 X486.594
N3050 G18 G3 X485.959 Z0.635 I0. K0.635
N3055 G1 Z23.5
N3060 X451.034 Y55.558
N3065 Z12.785 F833.33
N3070 G2 X451.669 Z12.15 I0.635 K0. F2500.
N3075 G1 X452.304
N3080 G17 G3 X452.939 Y56.193 I0. J0.635
N3085 G1 Y63.5
N3090 G3 X449.764 Y66.675 I-3.175 J0.
N3095 G1 X421.189
N3100 G2 X408.489 Y79.375 I0. J12.7
N3105 G1 Y107.95
N3110 G3 X405.314 Y111.125 I-3.175 J0.
N3115 G1 X371.159
N3120 G2 X362.179 Y114.845 I0. J12.7
N3125 G1 X342.812 Y134.212
N3130 Y101.6
N3135 G3 X345.987 Y98.425 I3.175 J0.
N3140 G1 X374.562
N3145 G2 X387.262 Y85.725 I0. J-12.7
N3150 G1 Y57.15
N3155 G3 X390.437 Y53.975 I3.175 J0.
N3160 G1 X424.592
N3165 G2 X433.572 Y50.255 I0. J-12.7
N3170 G1 X452.939 Y30.888
N3175 Y56.193
N3180 G3 X452.304 Y56.828 I-0.635 J0.
N3185 G1 X451.669
N3190 G18 G3 X451.034 Z12.785 I0. K0.635
N3195 G1 Z23.5
N3200 Y55.558
N3205 Z17.15 F833.33
N3210 Z6.435
N3215 G2 X451.669 Z5.8 I0.635 K0. F2500.
N3220 G1 X452.304
N3225 G17 G3 X452.939 Y56.193 I0. J0.635
N3230 G1 Y63.5
N3235 G3 X449.764 Y66.675 I-3.175 J0.
N3240 G1 X421.189
N3245 G2 X408.489 Y79.375 I0. J12.7
N3250 G1 Y107.95
N3255 G3 X405.314 Y111.125 I-3.175 J0.
N3260 G1 X371.159
N3265 G2 X362.179 Y114.845 I0. J12.7
N3270 G1 X342.812 Y134.212
N3275 Y101.6
N3280 G3 X345.987 Y98.425 I3.175 J0.
N3285 G1 X374.562
N3290 G2 X387.262 Y85.725 I0. J-12.7
N3295 G1 Y57.15
N3300 G3 X390.437 Y53.975 I3.175 J0.
N3305 G1 X424.592
N3310 G2 X433.572 Y50.255 I0. J-12.7
N3315 G1 X452.939 Y30.888
N3320 Y56.193
N3325 G3 X452.304 Y56.828 I-0.635 J0.
N3330 G1 X451.669
N3335 G18 G3 X451.034 Z6.435 I0. K0.635
N3340 G1 Z23.5
N3345 Y55.558
N3350 Z10.8 F833.33
N3355 Z0.635
N3360 G2 X451.669 Z0. I0.635 K0. F2500.
N3365 G1 X452.304
N3370 G17 G3 X452.939 Y56.193 I0. J0.635
N3375 G1 Y63.5
N3380 G3 X449.764 Y66.675 I-3.175 J0.
N3385 G1 X421.189
N3390 G2 X408.489 Y79.375 I0. J12.7
N3395 G1 Y86.267
N3400 Z2.
N3405 Y98.967
N3410 Z0. F833.33
N3415 Y107.95 F2500.
N3420 G3 X405.314 Y111.125 I-3.175 J0.
N3425 G1 X371.159
N3430 G2 X362.179 Y114.845 I0. J12.7
N3435 G1 X342.812 Y134.212
N3440 Y101.6
N3445 G3 X345.987 Y98.425 I3.175 J0.
N3450 G1 X350.746
N3455 Z2.
N3460 X363.446
N3465 Z0. F833.33
N3470 X374.562 F2500.
N3475 G2 X387.262 Y85.725 I0. J-12.7
N3480 G1 Y57.15
N3485 G3 X390.437 Y53.975 I3.175 J0.
N3490 G1 X395.437
N3495 Z2.
N3500 X408.137
N3505 Z0. F833.33
N3510 X424.592 F2500.
N3515 G2 X433.572 Y50.255 I0. J-12.7
N3520 G1 X452.939 Y30.888
N3525 Y38.953
N3530 Z2.
N3535 Y51.653
N3540 Z0. F833.33
N3545 Y56.193 F2500.
N3550 G3 X452.304 Y56.828 I-0.635 J0.
N3555 G1 X451.669
N3560 G18 G3 X451.034 Z0.635 I0. K0.635
N3565 G1 Z23.5
N3570 X426.632 Y24.765
N3575 Z12.785 F833.33
N3580 G2 X427.267 Z12.15 I0.635 K0. F2500.
N3585 G1 X427.902
N3590 G17 G3 X428.537 Y25.4 I0. J0.635
N3595 X422.187 Y31.75 I-6.35 J0.
N3600 G1 X358.687
N3605 G3 Y19.05 I0. J-6.35
N3610 G1 X422.187
N3615 G3 X428.537 Y25.4 I0. J6.35
N3620 X427.902 Y26.035 I-0.635 J0.
N3625 G1 X427.267
N3630 G18 G3 X426.632 Z12.785 I0. K0.635
N3635 G1 Z23.5
N3640 Y24.765
N3645 Z17.15 F833.33
N3650 Z6.435
N3655 G2 X427.267 Z5.8 I0.635 K0. F2500.
N3660 G1 X427.902
N3665 G17 G3 X428.537 Y25.4 I0. J0.635
N3670 X422.187 Y31.75 I-6.35 J0.
N3675 G1 X358.687
N3680 G3 Y19.05 I0. J-6.35
N3685 G1 X422.187
N3690 G3 X428.537 Y25.4 I0. J6.35
N3695 X427.902 Y26.035 I-0.635 J0.
N3700 G1 X427.267
N3705 G18 G3 X426.632 Z6.435 I0. K0.635
N3710 G1 Z23.5
N3715 Y24.765
N3720 Z10.8 F833.33
N3725 Z0.635
N3730 G2 X427.267 Z0. I0.635 K0. F2500.
N3735 G1 X427.902
N3740 G17 G3 X428.537 Y25.4 I0. J0.635
N3745 X422.187 Y31.75 I-6.35 J0.
N3750 G1 X358.687
N3755 G3 Y19.05 I0. J-6.35
N3760 G1 X422.187
N3765 G3 X428.537 Y25.4 I0. J6.35
N3770 X427.902 Y26.035 I-0.635 J0.
N3775 G1 X427.267
N3780 G18 G3 X426.632 Z0.635 I0. K0.635
N3785 G1 Z23.5
N3790 X331.399 Y31.132
N3795 Z12.785 F833.33
N3800 G2 X332.034 Z12.15 I0.635 K0. F2500.
N3805 G1 X332.669
N3810 G17 G3 X333.304 Y31.767 I0. J0.635
N3815 X307.904 I-12.7 J0.
N3820 X333.304 I12.7 J0.
N3825 X332.669 Y32.402 I-0.635 J0.
N3830 G1 X332.034
N3835 G18 G3 X331.399 Z12.785 I0. K0.635
N3840 G1 Z23.5
N3845 Y31.132
N3850 Z17.15 F833.33
N3855 Z6.435
N3860 G2 X332.034 Z5.8 I0.635 K0. F2500.
N3865 G1 X332.669
N3870 G17 G3 X333.304 Y31.767 I0. J0.635
N3875 X307.904 I-12.7 J0.
N3880 X333.304 I12.7 J0.
N3885 X332.669 Y32.402 I-0.635 J0.
N3890 G1 X332.034
N3895 G18 G3 X331.399 Z6.435 I0. K0.635
N3900 G1 Z23.5
N3905 Y31.132
N3910 Z10.8 F833.33
N3915 Z0.635
N3920 G2 X332.034 Z0. I0.635 K0. F2500.
N3925 G1 X332.669
N3930 G17 G3 X333.304 Y31.767 I0. J0.635
N3935 X307.904 I-12.7 J0.
N3940 X333.304 I12.7 J0.
N3945 X332.669 Y32.402 I-0.635 J0.
N3950 G1 X332.034
N3955 G18 G3 X331.399 Z0.635 I0. K0.635
N3960 G1 Z23.5
N3965 X318.682 Y69.867
N3970 Z12.785 F833.33
N3975 G2 X319.317 Z12.15 I0.635 K0. F2500.
N3980 G1 X319.952
N3985 G17 G3 X320.587 Y70.502 I0. J0.635
N3990 G1 Y133.35
N3995 G3 X307.887 I-6.35 J0.
N4000 G1 Y69.85
N4005 G3 X320.587 I6.35 J0.
N4010 G1 Y70.502
N4015 G3 X319.952 Y71.137 I-0.635 J0.
N4020 G1 X319.317
N4025 G18 G3 X318.682 Z12.785 I0. K0.635
N4030 G1 Z23.5
N4035 Y69.867
N4040 Z17.15 F833.33
N4045 Z6.435
N4050 G2 X319.317 Z5.8 I0.635 K0. F2500.
N4055 G1 X319.952
N4060 G17 G3 X320.587 Y70.502 I0. J0.635
N4065 G1 Y133.35
N4070 G3 X307.887 I-6.35 J0.
N4075 G1 Y69.85
N4080 G3 X320.587 I6.35 J0.
N4085 G1 Y70.502
N4090 G3 X319.952 Y71.137 I-0.635 J0.
N4095 G1 X319.317
N4100 G18 G3 X318.682 Z6.435 I0. K0.635
N4105 G1 Z23.5
N4110 Y69.867
N4115 Z10.8 F833.33
N4120 Z0.635
N4125 G2 X319.317 Z0. I0.635 K0. F2500.
N4130 G1 X319.952
N4135 G17 G3 X320.587 Y70.502 I0. J0.635
N4140 G1 Y133.35
N4145 G3 X307.887 I-6.35 J0.
N4150 G1 Y69.85
N4155 G3 X320.587 I6.35 J0.
N4160 G1 Y70.502
N4165 G3 X319.952 Y71.137 I-0.635 J0.
N4170 G1 X319.317
N4175 G18 G3 X318.682 Z0.635 I0. K0.635
N4180 G1 Z23.5
N4185 X257.359 Y94.615
N4190 Z12.785 F833.33
N4195 G2 X257.994 Z12.15 I0.635 K0. F2500.
N4200 G1 X258.629
N4205 G17 G3 X259.264 Y95.25 I0. J0.635
N4210 X246.564 I-6.35 J0.
N4215 G1 Y31.75
N4220 G3 X259.264 I6.35 J0.
N4225 G1 Y95.25
N4230 G3 X258.629 Y95.885 I-0.635 J0.
N4235 G1 X257.994
N4240 G18 G3 X257.359 Z12.785 I0. K0.635
N4245 G1 Z23.5
N4250 Y94.615
N4255 Z17.15 F833.33
N4260 Z6.435
N4265 G2 X257.994 Z5.8 I0.635 K0. F2500.
N4270 G1 X258.629
N4275 G17 G3 X259.264 Y95.25 I0. J0.635
N4280 X246.564 I-6.35 J0.
N4285 G1 Y31.75
N4290 G3 X259.264 I6.35 J0.
N4295 G1 Y95.25
N4300 G3 X258.629 Y95.885 I-0.635 J0.
N4305 G1 X257.994
N4310 G18 G3 X257.359 Z6.435 I0. K0.635
N4315 G1 Z23.5
N4320 Y94.615
N4325 Z10.8 F833.33
N4330 Z0.635
N4335 G2 X257.994 Z0. I0.635 K0. F2500.
N4340 G1 X258.629
N4345 G17 G3 X259.264 Y95.25 I0. J0.635
N4350 X246.564 I-6.35 J0.
N4355 G1 Y31.75
N4360 G3 X259.264 I6.35 J0.
N4365 G1 Y95.25
N4370 G3 X258.629 Y95.885 I-0.635 J0.
N4375 G1 X257.994
N4380 G18 G3 X257.359 Z0.635 I0. K0.635
N4385 G1 Z23.5
N4390 X222.434 Y55.558
N4395 Z12.785 F833.33
N4400 G2 X223.069 Z12.15 I0.635 K0. F2500.
N4405 G1 X223.704
N4410 G17 G3 X224.339 Y56.193 I0. J0.635
N4415 G1 Y63.5
N4420 G3 X221.164 Y66.675 I-3.175 J0.
N4425 G1 X192.589
N4430 G2 X179.889 Y79.375 I0. J12.7
N4435 G1 Y107.95
N4440 G3 X176.714 Y111.125 I-3.175 J0.
N4445 G1 X142.559
N4450 G2 X133.579 Y114.845 I0. J12.7
N4455 G1 X114.212 Y134.212
N4460 Y101.6
N4465 G3 X117.387 Y98.425 I3.175 J0.
N4470 G1 X145.962
N4475 G2 X158.662 Y85.725 I0. J-12.7
N4480 G1 Y57.15
N4485 G3 X161.837 Y53.975 I3.175 J0.
N4490 G1 X195.992
N4495 G2 X204.972 Y50.255 I0. J-12.7
N4500 G1 X224.339 Y30.888
N4505 Y56.193
N4510 G3 X223.704 Y56.828 I-0.635 J0.
N4515 G1 X223.069
N4520 G18 G3 X222.434 Z12.785 I0. K0.635
N4525 G1 Z23.5
N4530 Y55.558
N4535 Z17.15 F833.33
N4540 Z6.435
N4545 G2 X223.069 Z5.8 I0.635 K0. F2500.
N4550 G1 X223.704
N4555 G17 G3 X224.339 Y56.193 I0. J0.635
N4560 G1 Y63.5
N4565 G3 X221.164 Y66.675 I-3.175 J0.
N4570 G1 X192.589
N4575 G2 X179.889 Y79.375 I0. J12.7
N4580 G1 Y107.95
N4585 G3 X176.714 Y111.125 I-3.175 J0.
N4590 G1 X142.559
N4595 G2 X133.579 Y114.845 I0. J12.7
N4600 G1 X114.212 Y134.212
N4605 Y101.6
N4610 G3 X117.387 Y98.425 I3.175 J0.
N4615 G1 X145.962
N4620 G2 X158.662 Y85.725 I0. J-12.7
N4625 G1 Y57.15
N4630 G3 X161.837 Y53.975 I3.175 J0.
N4635 G1 X195.992
N4640 G2 X204.972 Y50.255 I0. J-12.7
N4645 G1 X224.339 Y30.888
N4650 Y56.193
N4655 G3 X223.704 Y56.828 I-0.635 J0.
N4660 G1 X223.069
N4665 G18 G3 X222.434 Z6.435 I0. K0.635
N4670 G1 Z23.5
N4675 Y55.558
N4680 Z10.8 F833.33
N4685 Z0.635
N4690 G2 X223.069 Z0. I0.635 K0. F2500.
N4695 G1 X223.704
N4700 G17 G3 X224.339 Y56.193 I0. J0.635
N4705 G1 Y63.5
N4710 G3 X221.164 Y66.675 I-3.175 J0.
N4715 G1 X192.589
N4720 G2 X179.889 Y79.375 I0. J12.7
N4725 G1 Y88.905
N4730 Z2.
N4735 Y101.605
N4740 Z0. F833.33
N4745 Y107.95 F2500.
N4750 G3 X176.714 Y111.125 I-3.175 J0.
N4755 G1 X142.559
N4760 G2 X133.579 Y114.845 I0. J12.7
N4765 G1 X114.212 Y134.212
N4770 Y101.6
N4775 G3 X117.387 Y98.425 I3.175 J0.
N4780 G1 X123.515
N4785 Z2.
N4790 X136.215
N4795 Z0. F833.33
N4800 X145.962 F2500.
N4805 G2 X158.662 Y85.725 I0. J-12.7
N4810 G1 Y57.15
N4815 G3 X161.837 Y53.975 I3.175 J0.
N4820 G1 X171.285
N4825 Z2.
N4830 X183.985
N4835 Z0. F833.33
N4840 X195.992 F2500.
N4845 G2 X204.972 Y50.255 I0. J-12.7
N4850 G1 X224.339 Y30.888
N4855 Y42.623
N4860 Z2.
N4865 Y55.323
N4870 Z0. F833.33
N4875 Y56.193 F2500.
N4880 G3 X223.704 Y56.828 I-0.635 J0.
N4885 G1 X223.069
N4890 G18 G3 X222.434 Z0.635 I0. K0.635
N4895 G1 Z23.5
N4900 X198.032 Y24.765
N4905 Z12.785 F833.33
N4910 G2 X198.667 Z12.15 I0.635 K0. F2500.
N4915 G1 X199.302
N4920 G17 G3 X199.937 Y25.4 I0. J0.635
N4925 X193.587 Y31.75 I-6.35 J0.
N4930 G1 X130.087
N4935 G3 Y19.05 I0. J-6.35
N4940 G1 X193.587
N4945 G3 X199.937 Y25.4 I0. J6.35
N4950 X199.302 Y26.035 I-0.635 J0.
N4955 G1 X198.667
N4960 G18 G3 X198.032 Z12.785 I0. K0.635
N4965 G1 Z23.5
N4970 Y24.765
N4975 Z17.15 F833.33
N4980 Z6.435
N4985 G2 X198.667 Z5.8 I0.635 K0. F2500.
N4990 G1 X199.302
N4995 G17 G3 X199.937 Y25.4 I0. J0.635
N5000 X193.587 Y31.75 I-6.35 J0.
N5005 G1 X130.087
N5010 G3 Y19.05 I0. J-6.35
N5015 G1 X193.587
N5020 G3 X199.937 Y25.4 I0. J6.35
N5025 X199.302 Y26.035 I-0.635 J0.
N5030 G1 X198.667
N5035 G18 G3 X198.032 Z6.435 I0. K0.635
N5040 G1 Z23.5
N5045 Y24.765
N5050 Z10.8 F833.33
N5055 Z0.635
N5060 G2 X198.667 Z0. I0.635 K0. F2500.
N5065 G1 X199.302
N5070 G17 G3 X199.937 Y25.4 I0. J0.635
N5075 X193.587 Y31.75 I-6.35 J0.
N5080 G1 X130.087
N5085 G3 Y19.05 I0. J-6.35
N5090 G1 X193.587
N5095 G3 X199.937 Y25.4 I0. J6.35
N5100 X199.302 Y26.035 I-0.635 J0.
N5105 G1 X198.667
N5110 G18 G3 X198.032 Z0.635 I0. K0.635
N5115 G1 Z23.5
N5120 X91.369 Y20.972
N5125 Z12.785 F833.33
N5130 G19 G2 Y20.337 Z12.15 J-0.635 K0. F2500.
N5135 G1 Y19.702
N5140 G17 G3 X92.004 Y19.067 I0.635 J0.
N5145 X104.704 Y31.767 I0. J12.7
N5150 X79.304 I-12.7 J0.
N5155 X92.004 Y19.067 I12.7 J0.
N5160 X92.639 Y19.702 I0. J0.635
N5165 G1 Y20.337
N5170 G19 G3 Y20.972 Z12.785 J0. K0.635
N5175 G1 Z23.5
N5180 X91.369
N5185 Z17.15 F833.33
N5190 Z6.435
N5195 G2 Y20.337 Z5.8 J-0.635 K0. F2500.
N5200 G1 Y19.702
N5205 G17 G3 X92.004 Y19.067 I0.635 J0.
N5210 X104.704 Y31.767 I0. J12.7
N5215 X79.304 I-12.7 J0.
N5220 X92.004 Y19.067 I12.7 J0.
N5225 X92.639 Y19.702 I0. J0.635
N5230 G1 Y20.337
N5235 G19 G3 Y20.972 Z6.435 J0. K0.635
N5240 G1 Z23.5
N5245 X91.369
N5250 Z10.8 F833.33
N5255 Z0.635
N5260 G2 Y20.337 Z0. J-0.635 K0. F2500.
N5265 G1 Y19.702
N5270 G17 G3 X92.004 Y19.067 I0.635 J0.
N5275 X104.704 Y31.767 I0. J12.7
N5280 X79.304 I-12.7 J0.
N5285 X92.004 Y19.067 I12.7 J0.
N5290 X92.639 Y19.702 I0. J0.635
N5295 G1 Y20.337
N5300 G19 G3 Y20.972 Z0.635 J0. K0.635
N5305 G1 Z23.5
N5310 X55.88 Y1.434
N5315 Z12.785 F833.33
N5320 G18 G3 X55.245 Z12.15 I-0.635 K0. F2500.
N5325 G1 X54.61
N5330 G17 G3 X53.975 Y0.799 I0. J-0.635
N5335 G2 X50.8 Y-2.376 I-3.175 J0.
N5340 G1 X0.
N5345 G2 X-3.175 Y0.799 I0. J3.175
N5350 G1 Y407.199
N5355 G2 X0. Y410.374 I3.175 J0.
N5360 G1 X406.4
N5365 G2 X409.575 Y407.199 I0. J-3.175
N5370 G1 Y356.399
N5375 G2 X406.4 Y353.224 I-3.175 J0.
N5380 G1 X60.325
N5385 G2 X57.15 Y356.399 I0. J3.175
N5390 G3 X44.45 I-6.35 J0.
N5395 X50.8 Y350.049 I6.35 J0.
N5400 G2 X53.975 Y346.874 I0. J-3.175
N5405 G1 Y0.799
N5410 G3 X54.61 Y0.164 I0.635 J0.
N5415 G1 X55.245
N5420 G18 G2 X55.88 Z12.785 I0. K0.635
N5425 G1 Z23.5
N5430 Y1.434
N5435 Z17.15 F833.33
N5440 Z6.435
N5445 G3 X55.245 Z5.8 I-0.635 K0. F2500.
N5450 G1 X54.61
N5455 G17 G3 X53.975 Y0.799 I0. J-0.635
N5460 G2 X50.8 Y-2.376 I-3.175 J0.
N5465 G1 X0.
N5470 G2 X-3.175 Y0.799 I0. J3.175
N5475 G1 Y407.199
N5480 G2 X0. Y410.374 I3.175 J0.
N5485 G1 X406.4
N5490 G2 X409.575 Y407.199 I0. J-3.175
N5495 G1 Y356.399
N5500 G2 X406.4 Y353.224 I-3.175 J0.
N5505 G1 X60.325
N5510 G2 X57.15 Y356.399 I0. J3.175
N5515 G3 X44.45 I-6.35 J0.
N5520 X50.8 Y350.049 I6.35 J0.
N5525 G2 X53.975 Y346.874 I0. J-3.175
N5530 G1 Y0.799
N5535 G3 X54.61 Y0.164 I0.635 J0.
N5540 G1 X55.245
N5545 G18 G2 X55.88 Z6.435 I0. K0.635
N5550 G1 Z23.5
N5555 X108.122 Y164.574
N5560 Z17.15 F833.33
N5565 Z6.435
N5570 X108.129 Y164.573 Z6.336 F2500.
N5575 X108.153 Z6.239
N5580 X108.191 Y164.572 Z6.147
N5585 X108.243 Y164.571 Z6.062
N5590 X108.308 Y164.57 Z5.986
N5595 X108.383 Y164.568 Z5.921
N5600 X108.468 Y164.566 Z5.869
N5605 X108.56 Y164.564 Z5.831
N5610 X108.657 Y164.562 Z5.808
N5615 X108.756 Y164.56 Z5.8
N5620 X109.391 Y164.547
N5625 G17 G3 X110.04 Y165.168 I0.014 J0.635
N5630 G2 X113.214 Y168.275 I3.174 J-0.068
N5635 G1 X259.264
N5640 G2 X261.509 Y167.345 I0. J-3.175
N5645 G1 X280.559 Y148.295
N5650 G2 X281.489 Y146.05 I-2.245 J-2.245
N5655 G1 Y0.
N5660 G2 X278.314 Y-3.175 I-3.175 J0.
N5665 G1 X256.859
N5670 G2 X247.879 Y0.545 I0. J12.7
N5675 G1 X228.512 Y19.912
N5680 Y0.
N5685 G2 X225.337 Y-3.175 I-3.175 J0.
N5690 G1 X79.287
N5695 G2 X77.042 Y-2.245 I0. J3.175
N5700 G1 X57.992 Y16.805
N5705 G2 X57.062 Y19.05 I2.245 J2.245
N5710 G1 Y165.1
N5715 G2 X60.237 Y168.275 I3.175 J0.
N5720 G1 X81.692
N5725 G2 X90.672 Y164.555 I0. J-12.7
N5730 G1 X110.039 Y145.188
N5735 Y165.1
N5740 X110.04 Y165.168
N5745 G3 X109.418 Y165.816 I-0.635 J0.014
N5750 G1 X108.784 Y165.83
N5755 X108.684 Y165.832 Z5.808
N5760 X108.587 Y165.834 Z5.831
N5765 X108.495 Y165.836 Z5.869
N5770 X108.41 Y165.838 Z5.921
N5775 X108.335 Y165.839 Z5.986
N5780 X108.27 Y165.841 Z6.062
N5785 X108.218 Y165.842 Z6.147
N5790 X108.18 Y165.843 Z6.239
N5795 X108.157 Z6.336
N5800 X108.149 Z6.435
N5805 Z23.5
N5810 X102.326 Y171.792
N5815 Z17.15 F833.33
N5820 Z6.435
N5825 G19 G3 Y172.427 Z5.8 J0.635 K0. F2500.
N5830 G1 Y173.062
N5835 G17 G3 X101.691 Y173.697 I-0.635 J0.
N5840 G1 X76.403
N5845 G2 X74.158 Y174.627 I0. J3.175
N5850 G1 X55.108 Y193.677
N5855 G2 X54.178 Y195.922 I2.245 J2.245
N5860 G1 Y341.972
N5865 G2 X57.353 Y345.147 I3.175 J0.
N5870 G1 X78.807
N5875 G2 X87.787 Y341.427 I0. J-12.7
N5880 G1 X107.275 Y321.94
N5885 G2 X107.154 Y323.692 I12.579 J1.751
N5890 G1 Y345.147
N5895 G2 X110.329 Y348.322 I3.175 J0.
N5900 G1 X256.379
N5905 G2 X258.624 Y347.392 I0. J-3.175
N5910 G1 X277.674 Y328.342
N5915 G2 X278.604 Y326.097 I-2.245 J-2.245
N5920 G1 Y180.047
N5925 G2 X275.429 Y176.872 I-3.175 J0.
N5930 G1 X253.975
N5935 G2 X244.994 Y180.592 I-0.001 J12.7
N5940 G1 X225.507 Y200.079
N5945 G2 X225.628 Y198.327 I-12.579 J-1.751
N5950 G1 Y176.872
N5955 G2 X222.453 Y173.697 I-3.175 J0.
N5960 G1 X101.691
N5965 G3 X101.056 Y173.062 I0. J-0.635
N5970 G1 Y172.427
N5975 G19 G2 Y171.792 Z6.435 J0. K0.635
N5980 G1 Z23.5
N5985 X108.122 Y164.574
N5990 Z10.8 F833.33
N5995 Z0.635
N6000 X108.129 Y164.573 Z0.536 F2500.
N6005 X108.153 Z0.439
N6010 X108.191 Y164.572 Z0.347
N6015 X108.243 Y164.571 Z0.262
N6020 X108.308 Y164.57 Z0.186
N6025 X108.383 Y164.568 Z0.121
N6030 X108.468 Y164.566 Z0.069
N6035 X108.56 Y164.564 Z0.031
N6040 X108.657 Y164.562 Z0.008
N6045 X108.756 Y164.56 Z0.
N6050 X109.391 Y164.547
N6055 G17 G3 X110.04 Y165.168 I0.014 J0.635
N6060 G2 X113.214 Y168.275 I3.174 J-0.068
N6065 G1 X259.264
N6070 G2 X261.509 Y167.345 I0. J-3.175
N6075 G1 X266.101 Y162.753
N6080 Z2.
N6085 X275.081 Y153.773
N6090 Z0. F833.33
N6095 X280.559 Y148.295 F2500.
N6100 G2 X281.489 Y146.05 I-2.245 J-2.245
N6105 G1 Y0.
N6110 G2 X278.314 Y-3.175 I-3.175 J0.
N6115 G1 X272.062
N6120 Z2.
N6125 X259.362
N6130 Z0. F833.33
N6135 X256.859 F2500.
N6140 G2 X247.879 Y0.545 I0. J12.7
N6145 G1 X232.322 Y16.102
N6150 Z2.
N6155 X230.904 Y17.52
N6160 Z0. F833.33
N6165 X228.512 Y19.912 F2500.
N6170 Y17.52
N6175 Z2.
N6180 Y4.82
N6185 Z0. F833.33
N6190 Y0. F2500.
N6195 G2 X225.337 Y-3.175 I-3.175 J0.
N6200 G1 X79.287
N6205 G2 X77.042 Y-2.245 I0. J3.175
N6210 G1 X72.344 Y2.453
N6215 Z2.
N6220 X63.364 Y11.434
N6225 Z0. F833.33
N6230 X57.992 Y16.805 F2500.
N6235 G2 X57.062 Y19.05 I2.245 J2.245
N6240 G1 Y165.1
N6245 G2 X60.237 Y168.275 I3.175 J0.
N6250 G1 X64.879
N6255 Z2.
N6260 X77.579
N6265 Z0. F833.33
N6270 X81.692 F2500.
N6275 G2 X90.672 Y164.555 I0. J-12.7
N6280 G1 X106.229 Y148.998
N6285 Z2.
N6290 X107.883 Y147.344
N6295 Z0. F833.33
N6300 X110.039 Y145.188 F2500.
N6305 Y147.344
N6310 Z2.
N6315 Y160.044
N6320 Z0. F833.33
N6325 Y165.1 F2500.
N6330 X110.04 Y165.168
N6335 G3 X109.418 Y165.816 I-0.635 J0.014
N6340 G1 X108.784 Y165.83
N6345 X108.684 Y165.832 Z0.008
N6350 X108.587 Y165.834 Z0.031
N6355 X108.495 Y165.836 Z0.069
N6360 X108.41 Y165.838 Z0.121
N6365 X108.335 Y165.839 Z0.186
N6370 X108.27 Y165.841 Z0.262
N6375 X108.218 Y165.842 Z0.347
N6380 X108.18 Y165.843 Z0.439
N6385 X108.157 Z0.536
N6390 X108.149 Z0.635
N6395 Z23.5
N6400 X90.082 Y132.715
N6405 Z12.785 F833.33
N6410 G18 G2 X90.717 Z12.15 I0.635 K0. F2500.
N6415 G1 X91.352
N6420 G17 G3 X91.987 Y133.35 I0. J0.635
N6425 X79.287 I-6.35 J0.
N6430 G1 Y69.85
N6435 G3 X91.987 I6.35 J0.
N6440 G1 Y133.35
N6445 G3 X91.352 Y133.985 I-0.635 J0.
N6450 G1 X90.717
N6455 G18 G3 X90.082 Z12.785 I0. K0.635
N6460 G1 Z23.5
N6465 Y132.715
N6470 Z17.15 F833.33
N6475 Z6.435
N6480 G2 X90.717 Z5.8 I0.635 K0. F2500.
N6485 G1 X91.352
N6490 G17 G3 X91.987 Y133.35 I0. J0.635
N6495 X79.287 I-6.35 J0.
N6500 G1 Y69.85
N6505 G3 X91.987 I6.35 J0.
N6510 G1 Y133.35
N6515 G3 X91.352 Y133.985 I-0.635 J0.
N6520 G1 X90.717
N6525 G18 G3 X90.082 Z6.435 I0. K0.635
N6530 G1 Z23.5
N6535 Y132.715
N6540 Z10.8 F833.33
N6545 Z0.635
N6550 G2 X90.717 Z0. I0.635 K0. F2500.
N6555 G1 X91.352
N6560 G17 G3 X91.987 Y133.35 I0. J0.635
N6565 X79.287 I-6.35 J0.
N6570 G1 Y69.85
N6575 G3 X91.987 I6.35 J0.
N6580 G1 Y133.35
N6585 G3 X91.352 Y133.985 I-0.635 J0.
N6590 G1 X90.717
N6595 G18 G3 X90.082 Z0.635 I0. K0.635
N6600 G1 Z23.5
N6605 X145.599 Y144.145
N6610 Z12.785 F833.33
N6615 G19 G3 Y144.78 Z12.15 J0.635 K0. F2500.
N6620 G1 Y145.415
N6625 G17 G3 X144.964 Y146.05 I-0.635 J0.
N6630 Y133.35 I0. J-6.35
N6635 G1 X208.464
N6640 G3 Y146.05 I0. J6.35
N6645 G1 X144.964
N6650 G3 X144.329 Y145.415 I0. J-0.635
N6655 G1 Y144.78
N6660 G19 G2 Y144.145 Z12.785 J0. K0.635
N6665 G1 Z23.5
N6670 X145.599
N6675 Z17.15 F833.33
N6680 Z6.435
N6685 G3 Y144.78 Z5.8 J0.635 K0. F2500.
N6690 G1 Y145.415
N6695 G17 G3 X144.964 Y146.05 I-0.635 J0.
N6700 Y133.35 I0. J-6.35
N6705 G1 X208.464
N6710 G3 Y146.05 I0. J6.35
N6715 G1 X144.964
N6720 G3 X144.329 Y145.415 I0. J-0.635
N6725 G1 Y144.78
N6730 G19 G2 Y144.145 Z6.435 J0. K0.635
N6735 G1 Z23.5
N6740 X145.599
N6745 Z10.8 F833.33
N6750 Z0.635
N6755 G3 Y144.78 Z0. J0.635 K0. F2500.
N6760 G1 Y145.415
N6765 G17 G3 X144.964 Y146.05 I-0.635 J0.
N6770 Y133.35 I0. J-6.35
N6775 G1 X208.464
N6780 G3 Y146.05 I0. J6.35
N6785 G1 X144.964
N6790 G3 X144.329 Y145.415 I0. J-0.635
N6795 G1 Y144.78
N6800 G19 G2 Y144.145 Z0.635 J0. K0.635
N6805 G1 Z23.5
N6810 X127.22 Y197.827
N6815 Z12.785 F833.33
N6820 G2 Y197.192 Z12.15 J-0.635 K0. F2500.
N6825 G1 Y196.557
N6830 G17 G3 X127.855 Y195.922 I0.635 J0.
N6835 G1 X190.703
N6840 G3 Y208.622 I0. J6.35
N6845 G1 X127.203
N6850 G3 Y195.922 I0. J-6.35
N6855 G1 X127.855
N6860 G3 X128.49 Y196.557 I0. J0.635
N6865 G1 Y197.192
N6870 G19 G3 Y197.827 Z12.785 J0. K0.635
N6875 G1 Z23.5
N6880 X127.22
N6885 Z17.15 F833.33
N6890 Z6.435
N6895 G2 Y197.192 Z5.8 J-0.635 K0. F2500.
N6900 G1 Y196.557
N6905 G17 G3 X127.855 Y195.922 I0.635 J0.
N6910 G1 X190.703
N6915 G3 Y208.622 I0. J6.35
N6920 G1 X127.203
N6925 G3 Y195.922 I0. J-6.35
N6930 G1 X127.855
N6935 G3 X128.49 Y196.557 I0. J0.635
N6940 G1 Y197.192
N6945 G19 G3 Y197.827 Z6.435 J0. K0.635
N6950 G1 Z23.5
N6955 X127.22
N6960 Z10.8 F833.33
N6965 Z0.635
N6970 G2 Y197.192 Z0. J-0.635 K0. F2500.
N6975 G1 Y196.557
N6980 G17 G3 X127.855 Y195.922 I0.635 J0.
N6985 G1 X190.703
N6990 G3 Y208.622 I0. J6.35
N6995 G1 X127.203
N7000 G3 Y195.922 I0. J-6.35
N7005 G1 X127.855
N7010 G3 X128.49 Y196.557 I0. J0.635
N7015 G1 Y197.192
N7020 G19 G3 Y197.827 Z0.635 J0. K0.635
N7025 G1 Z23.5
N7030 X89.791 Y219.432
N7035 Z12.785 F833.33
N7040 Y219.44 Z12.686 F2500.
N7045 Y219.463 Z12.589
N7050 Y219.501 Z12.497
N7055 Y219.553 Z12.412
N7060 Y219.618 Z12.336
N7065 X89.792 Y219.694 Z12.271
N7070 Y219.779 Z12.219
N7075 Y219.871 Z12.181
N7080 X89.793 Y219.967 Z12.158
N7085 Y220.067 Z12.15
N7090 X89.795 Y220.702
N7095 G17 G3 X89.162 Y221.339 I-0.635 J0.002
N7100 X76.42 Y208.639 I-0.042 J-12.7
N7105 X89.12 Y195.939 I12.7 J0.
N7110 X101.82 Y208.639 I0. J12.7
N7115 X89.162 Y221.339 I-12.7 J0.
N7120 X88.525 Y220.706 I-0.002 J-0.635
N7125 G1 X88.523 Y220.071
N7130 Y219.972 Z12.158
N7135 X88.522 Y219.875 Z12.181
N7140 Y219.783 Z12.219
N7145 Y219.698 Z12.271
N7150 X88.521 Y219.622 Z12.336
N7155 Y219.557 Z12.412
N7160 Y219.505 Z12.497
N7165 Y219.467 Z12.589
N7170 Y219.444 Z12.686
N7175 Y219.436 Z12.785
N7180 Z23.5
N7185 X89.791 Y219.432
N7190 Z17.15 F833.33
N7195 Z6.435
N7200 Y219.44 Z6.336 F2500.
N7205 Y219.463 Z6.239
N7210 Y219.501 Z6.147
N7215 Y219.553 Z6.062
N7220 Y219.618 Z5.986
N7225 X89.792 Y219.694 Z5.921
N7230 Y219.779 Z5.869
N7235 Y219.871 Z5.831
N7240 X89.793 Y219.967 Z5.808
N7245 Y220.067 Z5.8
N7250 X89.795 Y220.702
N7255 G3 X89.162 Y221.339 I-0.635 J0.002
N7260 X76.42 Y208.639 I-0.042 J-12.7
N7265 X89.12 Y195.939 I12.7 J0.
N7270 X101.82 Y208.639 I0. J12.7
N7275 X89.162 Y221.339 I-12.7 J0.
N7280 X88.525 Y220.706 I-0.002 J-0.635
N7285 G1 X88.523 Y220.071
N7290 Y219.972 Z5.808
N7295 X88.522 Y219.875 Z5.831
N7300 Y219.783 Z5.869
N7305 Y219.698 Z5.921
N7310 X88.521 Y219.622 Z5.986
N7315 Y219.557 Z6.062
N7320 Y219.505 Z6.147
N7325 Y219.467 Z6.239
N7330 Y219.444 Z6.336
N7335 Y219.436 Z6.435
N7340 Z23.5
N7345 X89.791 Y219.432
N7350 Z10.8 F833.33
N7355 Z0.635
N7360 Y219.44 Z0.536 F2500.
N7365 Y219.463 Z0.439
N7370 Y219.501 Z0.347
N7375 Y219.553 Z0.262
N7380 Y219.618 Z0.186
N7385 X89.792 Y219.694 Z0.121
N7390 Y219.779 Z0.069
N7395 Y219.871 Z0.031
N7400 X89.793 Y219.967 Z0.008
N7405 Y220.067 Z0.
N7410 X89.795 Y220.702
N7415 G3 X89.162 Y221.339 I-0.635 J0.002
N7420 X76.42 Y208.639 I-0.042 J-12.7
N7425 X89.12 Y195.939 I12.7 J0.
N7430 X101.82 Y208.639 I0. J12.7
N7435 X89.162 Y221.339 I-12.7 J0.
N7440 X88.525 Y220.706 I-0.002 J-0.635
N7445 G1 X88.523 Y220.071
N7450 Y219.972 Z0.008
N7455 X88.522 Y219.875 Z0.031
N7460 Y219.783 Z0.069
N7465 Y219.698 Z0.121
N7470 X88.521 Y219.622 Z0.186
N7475 Y219.557 Z0.262
N7480 Y219.505 Z0.347
N7485 Y219.467 Z0.439
N7490 Y219.444 Z0.536
N7495 Y219.436 Z0.635
N7500 Z23.5
N7505 X87.198 Y246.087
N7510 Z12.785 F833.33
N7515 G18 G2 X87.833 Z12.15 I0.635 K0. F2500.
N7520 G1 X88.468
N7525 G17 G3 X89.103 Y246.722 I0. J0.635
N7530 G1 Y310.222
N7535 G3 X76.403 I-6.35 J0.
N7540 G1 Y246.722
N7545 G3 X89.103 I6.35 J0.
N7550 X88.468 Y247.357 I-0.635 J0.
N7555 G1 X87.833
N7560 G18 G3 X87.198 Z12.785 I0. K0.635
N7565 G1 Z23.5
N7570 Y246.087
N7575 Z17.15 F833.33
N7580 Z6.435
N7585 G2 X87.833 Z5.8 I0.635 K0. F2500.
N7590 G1 X88.468
N7595 G17 G3 X89.103 Y246.722 I0. J0.635
N7600 G1 Y310.222
N7605 G3 X76.403 I-6.35 J0.
N7610 G1 Y246.722
N7615 G3 X89.103 I6.35 J0.
N7620 X88.468 Y247.357 I-0.635 J0.
N7625 G1 X87.833
N7630 G18 G3 X87.198 Z6.435 I0. K0.635
N7635 G1 Z23.5
N7640 Y246.087
N7645 Z10.8 F833.33
N7650 Z0.635
N7655 G2 X87.833 Z0. I0.635 K0. F2500.
N7660 G1 X88.468
N7665 G17 G3 X89.103 Y246.722 I0. J0.635
N7670 G1 Y310.222
N7675 G3 X76.403 I-6.35 J0.
N7680 G1 Y246.722
N7685 G3 X89.103 I6.35 J0.
N7690 X88.468 Y247.357 I-0.635 J0.
N7695 G1 X87.833
N7700 G18 G3 X87.198 Z0.635 I0. K0.635
N7705 G1 Z23.5
N7710 X122.104 Y277.202
N7715 Z12.785 F833.33
N7720 G19 G2 Y276.567 Z12.15 J-0.635 K0. F2500.
N7725 G1 Y275.932
N7730 G17 G3 X122.739 Y275.297 I0.635 J0.
N7735 G1 X143.078
N7740 G2 X155.778 Y262.597 I0. J-12.7
N7745 G1 Y234.022
N7750 G3 X158.953 Y230.847 I3.175 J0.
N7755 G1 X193.107
N7760 G2 X202.087 Y227.127 I0. J-12.7
N7765 G1 X221.575 Y207.64
N7770 G2 X221.454 Y209.392 I12.579 J1.751
N7775 G1 Y243.547
N7780 G3 X218.279 Y246.722 I-3.175 J0.
N7785 G1 X189.704
N7790 G2 X177.004 Y259.422 I0. J12.7
N7795 G1 Y287.997
N7800 G3 X173.829 Y291.172 I-3.175 J0.
N7805 G1 X139.675
N7810 G2 X130.694 Y294.892 I-0.001 J12.7
N7815 G1 X111.207 Y314.379
N7820 G2 X111.328 Y312.627 I-12.579 J-1.751
N7825 G1 Y278.472
N7830 G3 X114.503 Y275.297 I3.175 J0.
N7835 G1 X122.739
N7840 G3 X123.374 Y275.932 I0. J0.635
N7845 G1 Y276.567
N7850 G19 G3 Y277.202 Z12.785 J0. K0.635
N7855 G1 Z23.5
N7860 X122.104
N7865 Z17.15 F833.33
N7870 Z6.435
N7875 G2 Y276.567 Z5.8 J-0.635 K0. F2500.
N7880 G1 Y275.932
N7885 G17 G3 X122.739 Y275.297 I0.635 J0.
N7890 G1 X143.078
N7895 G2 X155.778 Y262.597 I0. J-12.7
N7900 G1 Y234.022
N7905 G3 X158.953 Y230.847 I3.175 J0.
N7910 G1 X193.107
N7915 G2 X202.087 Y227.127 I0. J-12.7
N7920 G1 X221.575 Y207.64
N7925 G2 X221.454 Y209.392 I12.579 J1.751
N7930 G1 Y243.547
N7935 G3 X218.279 Y246.722 I-3.175 J0.
N7940 G1 X189.704
N7945 G2 X177.004 Y259.422 I0. J12.7
N7950 G1 Y287.997
N7955 G3 X173.829 Y291.172 I-3.175 J0.
N7960 G1 X139.675
N7965 G2 X130.694 Y294.892 I-0.001 J12.7
N7970 G1 X111.207 Y314.379
N7975 G2 X111.328 Y312.627 I-12.579 J-1.751
N7980 G1 Y278.472
N7985 G3 X114.503 Y275.297 I3.175 J0.
N7990 G1 X122.739
N7995 G3 X123.374 Y275.932 I0. J0.635
N8000 G1 Y276.567
N8005 G19 G3 Y277.202 Z6.435 J0. K0.635
N8010 G1 Z23.5
N8015 X122.104
N8020 Z10.8 F833.33
N8025 Z0.635
N8030 G2 Y276.567 Z0. J-0.635 K0. F2500.
N8035 G1 Y275.932
N8040 G17 G3 X122.739 Y275.297 I0.635 J0.
N8045 G1 X143.078
N8050 G2 X155.778 Y262.597 I0. J-12.7
N8055 G1 Y254.343
N8060 Z2.
N8065 Y241.643
N8070 Z0. F833.33
N8075 Y234.022 F2500.
N8080 G3 X158.953 Y230.847 I3.175 J0.
N8085 G1 X193.107
N8090 G2 X202.087 Y227.127 I0. J-12.7
N8095 G1 X221.575 Y207.64
N8100 G2 X221.454 Y209.392 I12.579 J1.751
N8105 G1 Y243.547
N8110 G3 X218.279 Y246.722 I-3.175 J0.
N8115 G1 X208.526
N8120 Z2.
N8125 X195.826
N8130 Z0. F833.33
N8135 X189.704 F2500.
N8140 G2 X177.004 Y259.422 I0. J12.7
N8145 G1 Y287.997
N8150 G3 X173.829 Y291.172 I-3.175 J0.
N8155 G1 X162.003
N8160 Z2.
N8165 X149.303
N8170 Z0. F833.33
N8175 X139.675 F2500.
N8180 G2 X130.694 Y294.892 I-0.001 J12.7
N8185 G1 X111.207 Y314.379
N8190 G2 X111.328 Y312.627 I-12.579 J-1.751
N8195 G1 Y299.171
N8200 Z2.
N8205 Y286.471
N8210 Z0. F833.33
N8215 Y278.472 F2500.
N8220 G3 X114.503 Y275.297 I3.175 J0.
N8225 G1 X122.739
N8230 G3 X123.374 Y275.932 I0. J0.635
N8235 G1 Y276.567
N8240 G19 G3 Y277.202 Z0.635 J0. K0.635
N8245 G1 Z23.5
N8250 X142.714 Y324.192
N8255 Z12.785 F833.33
N8260 G3 Y324.827 Z12.15 J0.635 K0. F2500.
N8265 G1 Y325.462
N8270 G17 G3 X142.079 Y326.097 I-0.635 J0.
N8275 Y313.397 I0. J-6.35
N8280 G1 X205.579
N8285 G3 Y326.097 I0. J6.35
N8290 G1 X142.079
N8295 G3 X141.444 Y325.462 I0. J-0.635
N8300 G1 Y324.827
N8305 G19 G2 Y324.192 Z12.785 J0. K0.635
N8310 G1 Z23.5
N8315 X142.714
N8320 Z17.15 F833.33
N8325 Z6.435
N8330 G3 Y324.827 Z5.8 J0.635 K0. F2500.
N8335 G1 Y325.462
N8340 G17 G3 X142.079 Y326.097 I-0.635 J0.
N8345 Y313.397 I0. J-6.35
N8350 G1 X205.579
N8355 G3 Y326.097 I0. J6.35
N8360 G1 X142.079
N8365 G3 X141.444 Y325.462 I0. J-0.635
N8370 G1 Y324.827
N8375 G19 G2 Y324.192 Z6.435 J0. K0.635
N8380 G1 Z23.5
N8385 X142.714
N8390 Z10.8 F833.33
N8395 Z0.635
N8400 G3 Y324.827 Z0. J0.635 K0. F2500.
N8405 G1 Y325.462
N8410 G17 G3 X142.079 Y326.097 I-0.635 J0.
N8415 Y313.397 I0. J-6.35
N8420 G1 X205.579
N8425 G3 Y326.097 I0. J6.35
N8430 G1 X142.079
N8435 G3 X141.444 Y325.462 I0. J-0.635
N8440 G1 Y324.827
N8445 G19 G2 Y324.192 Z0.635 J0. K0.635
N8450 G1 Z23.5
N8455 X254.457 Y312.745
N8460 Z12.785 F833.33
N8465 G18 G2 X255.092 Z12.15 I0.635 K0. F2500.
N8470 G1 X255.727
N8475 G17 G3 X256.362 Y313.38 I0. J0.635
N8480 X230.962 I-12.7 J0.
N8485 X256.362 I12.7 J0.
N8490 X255.727 Y314.015 I-0.635 J0.
N8495 G1 X255.092
N8500 G18 G3 X254.457 Z12.785 I0. K0.635
N8505 G1 Z23.5
N8510 Y312.745
N8515 Z17.15 F833.33
N8520 Z6.435
N8525 G2 X255.092 Z5.8 I0.635 K0. F2500.
N8530 G1 X255.727
N8535 G17 G3 X256.362 Y313.38 I0. J0.635
N8540 X230.962 I-12.7 J0.
N8545 X256.362 I12.7 J0.
N8550 X255.727 Y314.015 I-0.635 J0.
N8555 G1 X255.092
N8560 G18 G3 X254.457 Z6.435 I0. K0.635
N8565 G1 Z23.5
N8570 Y312.745
N8575 Z10.8 F833.33
N8580 Z0.635
N8585 G2 X255.092 Z0. I0.635 K0. F2500.
N8590 G1 X255.727
N8595 G17 G3 X256.362 Y313.38 I0. J0.635
N8600 X230.962 I-12.7 J0.
N8605 X256.362 I12.7 J0.
N8610 X255.727 Y314.015 I-0.635 J0.
N8615 G1 X255.092
N8620 G18 G3 X254.457 Z0.635 I0. K0.635
N8625 G1 Z23.5
N8630 X280.873 Y341.337
N8635 Z17.15 F833.33
N8640 Z6.435
N8645 G2 X281.508 Z5.8 I0.635 K0. F2500.
N8650 G1 X282.143
N8655 G17 G3 X282.778 Y341.972 I0. J0.635
N8660 G2 X285.953 Y345.147 I3.175 J0.
N8665 G1 X307.407
N8670 G2 X316.387 Y341.427 I0. J-12.7
N8675 G1 X335.875 Y321.94
N8680 G2 X335.754 Y323.692 I12.579 J1.751
N8685 G1 Y345.147
N8690 G2 X338.929 Y348.322 I3.175 J0.
N8695 G1 X484.979
N8700 G2 X487.224 Y347.392 I0. J-3.175
N8705 G1 X506.274 Y328.342
N8710 G2 X507.204 Y326.097 I-2.245 J-2.245
N8715 G1 Y180.047
N8720 G2 X504.029 Y176.872 I-3.175 J0.
N8725 G1 X482.575
N8730 G2 X473.594 Y180.592 I-0.001 J12.7
N8735 G1 X454.107 Y200.079
N8740 G2 X454.228 Y198.327 I-12.579 J-1.751
N8745 G1 Y176.872
N8750 G2 X451.053 Y173.697 I-3.175 J0.
N8755 G1 X305.003
N8760 G2 X302.758 Y174.627 I0. J3.175
N8765 G1 X283.708 Y193.677
N8770 G2 X282.778 Y195.922 I2.245 J2.245
N8775 G1 Y341.972
N8780 G3 X282.143 Y342.607 I-0.635 J0.
N8785 G1 X281.508
N8790 G18 G3 X280.873 Z6.435 I0. K0.635
N8795 G1 Z23.5
N8800 Y341.337
N8805 Z10.8 F833.33
N8810 Z0.635
N8815 G2 X281.508 Z0. I0.635 K0. F2500.
N8820 G1 X282.143
N8825 G17 G3 X282.778 Y341.972 I0. J0.635
N8830 G2 X285.953 Y345.147 I3.175 J0.
N8835 G1 X291.627
N8840 Z2.
N8845 X304.327
N8850 Z0. F833.33
N8855 X307.407 F2500.
N8860 G2 X316.387 Y341.427 I0. J-12.7
N8865 G1 X335.875 Y321.94
N8870 G2 X335.754 Y323.692 I12.579 J1.751
N8875 G1 Y327.973
N8880 Z2.
N8885 Y340.673
N8890 Z0. F833.33
N8895 Y345.147 F2500.
N8900 G2 X338.929 Y348.322 I3.175 J0.
N8905 G1 X484.979
N8910 G2 X487.224 Y347.392 I0. J-3.175
N8915 G1 X491.416 Y343.2
N8920 Z2.
N8925 X500.397 Y334.219
N8930 Z0. F833.33
N8935 X506.274 Y328.342 F2500.
N8940 G2 X507.204 Y326.097 I-2.245 J-2.245
N8945 G1 Y180.047
N8950 G2 X504.029 Y176.872 I-3.175 J0.
N8955 G1 X500.145
N8960 Z2.
N8965 X487.445
N8970 Z0. F833.33
N8975 X482.575 F2500.
N8980 G2 X473.594 Y180.592 I-0.001 J12.7
N8985 G1 X454.107 Y200.079
N8990 G2 X454.228 Y198.327 I-12.579 J-1.751
N8995 G1 Y193.732
N9000 Z2.
N9005 Y181.032
N9010 Z0. F833.33
N9015 Y176.872 F2500.
N9020 G2 X451.053 Y173.697 I-3.175 J0.
N9025 G1 X305.003
N9030 G2 X302.758 Y174.627 I0. J3.175
N9035 G1 X299.697 Y177.688
N9040 Z2.
N9045 X290.717 Y186.668
N9050 Z0. F833.33
N9055 X283.708 Y193.677 F2500.
N9060 G2 X282.778 Y195.922 I2.245 J2.245
N9065 G1 Y341.972
N9070 G3 X282.143 Y342.607 I-0.635 J0.
N9075 G1 X281.508
N9080 G18 G3 X280.873 Z0.635 I0. K0.635
N9085 G1 Z23.5
N9090 X327.261 Y351.319
N9095 Z10.8 F833.33
N9100 Z0.635
N9105 G19 G3 Y351.954 Z0. J0.635 K0. F2500.
N9110 G1 Y352.589
N9115 G17 G3 X326.626 Y353.224 I-0.635 J0.
N9120 G1 X223.826
N9125 Z2.
N9130 X211.126
N9135 Z0. F833.33
N9140 X60.325 F2500.
N9145 G2 X57.15 Y356.399 I0. J3.175
N9150 G3 X44.45 I-6.35 J0.
N9155 X50.8 Y350.049 I6.35 J0.
N9160 G2 X53.975 Y346.874 I0. J-3.175
N9165 G1 Y215.057
N9170 Z2.
N9175 Y202.357
N9180 Z0. F833.33
N9185 Y0.799 F2500.
N9190 G2 X50.8 Y-2.376 I-3.175 J0.
N9195 G1 X30.804
N9200 Z2.
N9205 X18.104
N9210 Z0. F833.33
N9215 X0. F2500.
N9220 G2 X-3.175 Y0.799 I0. J3.175
N9225 G1 Y407.199
N9230 G2 X0. Y410.374 I3.175 J0.
N9235 G1 X406.4
N9240 G2 X409.575 Y407.199 I0. J-3.175
N9245 G1 Y388.559
N9250 Z2.
N9255 Y375.859
N9260 Z0. F833.33
N9265 Y356.399 F2500.
N9270 G2 X406.4 Y353.224 I-3.175 J0.
N9275 G1 X326.626
N9280 G3 X325.991 Y352.589 I0. J-0.635
N9285 G1 Y351.954
N9290 G19 G2 Y351.319 Z0.635 J0. K0.635
N9295 G1 Z23.5
N9300 X315.798 Y309.587
N9305 Z12.785 F833.33
N9310 G18 G2 X316.433 Z12.15 I0.635 K0. F2500.
N9315 G1 X317.068
N9320 G17 G3 X317.703 Y310.222 I0. J0.635
N9325 X305.003 I-6.35 J0.
N9330 G1 Y246.722
N9335 G3 X317.703 I6.35 J0.
N9340 G1 Y310.222
N9345 G3 X317.068 Y310.857 I-0.635 J0.
N9350 G1 X316.433
N9355 G18 G3 X315.798 Z12.785 I0. K0.635
N9360 G1 Z23.5
N9365 Y309.587
N9370 Z17.15 F833.33
N9375 Z6.435
N9380 G2 X316.433 Z5.8 I0.635 K0. F2500.
N9385 G1 X317.068
N9390 G17 G3 X317.703 Y310.222 I0. J0.635
N9395 X305.003 I-6.35 J0.
N9400 G1 Y246.722
N9405 G3 X317.703 I6.35 J0.
N9410 G1 Y310.222
N9415 G3 X317.068 Y310.857 I-0.635 J0.
N9420 G1 X316.433
N9425 G18 G3 X315.798 Z6.435 I0. K0.635
N9430 G1 Z23.5
N9435 Y309.587
N9440 Z10.8 F833.33
N9445 Z0.635
N9450 G2 X316.433 Z0. I0.635 K0. F2500.
N9455 G1 X317.068
N9460 G17 G3 X317.703 Y310.222 I0. J0.635
N9465 X305.003 I-6.35 J0.
N9470 G1 Y246.722
N9475 G3 X317.703 I6.35 J0.
N9480 G1 Y310.222
N9485 G3 X317.068 Y310.857 I-0.635 J0.
N9490 G1 X316.433
N9495 G18 G3 X315.798 Z0.635 I0. K0.635
N9500 G1 Z23.5
N9505 X268.804 Y339.906
N9510 Z10.8 F833.33
N9515 Z2.
N9520 X268.355 Y339.457 F2500.
N9525 X267.906 Y339.008
N9530 G17 G3 Y338.11 I0.449 J-0.449
N9535 G1 X272.078 Y333.938
N9540 Z0. F833.33
N9545 X277.674 Y328.342 F2500.
N9550 G2 X278.604 Y326.097 I-2.245 J-2.245
N9555 G1 Y180.047
N9560 G2 X275.429 Y176.872 I-3.175 J0.
N9565 G1 X269.55
N9570 Z2.
N9575 X256.85
N9580 Z0. F833.33
N9585 X253.975 F2500.
N9590 G2 X244.994 Y180.592 I-0.001 J12.7
N9595 G1 X225.507 Y200.079
N9600 G2 X225.628 Y198.327 I-12.579 J-1.751
N9605 G1 Y194.81
N9610 Z2.
N9615 Y182.11
N9620 Z0. F833.33
N9625 Y176.872 F2500.
N9630 G2 X222.453 Y173.697 I-3.175 J0.
N9635 G1 X76.403
N9640 G2 X74.158 Y174.627 I0. J3.175
N9645 G1 X72.002 Y176.783
N9650 Z2.
N9655 X63.021 Y185.763
N9660 Z0. F833.33
N9665 X55.108 Y193.677 F2500.
N9670 G2 X54.178 Y195.922 I2.245 J2.245
N9675 G1 Y202.357
N9680 Z2.
N9685 Y215.057
N9690 Z0. F833.33
N9695 Y341.972 F2500.
N9700 G2 X57.353 Y345.147 I3.175 J0.
N9705 G1 X64.414
N9710 Z2.
N9715 X77.114
N9720 Z0. F833.33
N9725 X78.807 F2500.
N9730 G2 X87.787 Y341.427 I0. J-12.7
N9735 G1 X107.275 Y321.94
N9740 G2 X107.154 Y323.692 I12.579 J1.751
N9745 G1 Y326.592
N9750 Z2.
N9755 Y339.292
N9760 Z0. F833.33
N9765 Y345.147 F2500.
N9770 G2 X110.329 Y348.322 I3.175 J0.
N9775 G1 X256.379
N9780 G2 X258.624 Y347.392 I0. J-3.175
N9785 G1 X263.097 Y342.919
N9790 Z2.
N9795 X267.906 Y338.11
N9800 G3 X268.804 I0.449 J0.449
N9805 G1 X269.702 Y339.008
N9810 Z23.5
N9815 X370.696 Y315.302
N9820 Z12.785 F833.33
N9825 G19 G2 Y314.667 Z12.15 J-0.635 K0. F2500.
N9830 G1 Y314.032
N9835 G17 G3 X371.331 Y313.397 I0.635 J0.
N9840 G1 X434.179
N9845 G3 Y326.097 I0. J6.35
N9850 G1 X370.679
N9855 G3 Y313.397 I0. J-6.35
N9860 G1 X371.331
N9865 G3 X371.966 Y314.032 I0. J0.635
N9870 G1 Y314.667
N9875 G19 G3 Y315.302 Z12.785 J0. K0.635
N9880 G1 Z23.5
N9885 X370.696
N9890 Z17.15 F833.33
N9895 Z6.435
N9900 G2 Y314.667 Z5.8 J-0.635 K0. F2500.
N9905 G1 Y314.032
N9910 G17 G3 X371.331 Y313.397 I0.635 J0.
N9915 G1 X434.179
N9920 G3 Y326.097 I0. J6.35
N9925 G1 X370.679
N9930 G3 Y313.397 I0. J-6.35
N9935 G1 X371.331
N9940 G3 X371.966 Y314.032 I0. J0.635
N9945 G1 Y314.667
N9950 G19 G3 Y315.302 Z6.435 J0. K0.635
N9955 G1 Z23.5
N9960 X370.696
N9965 Z10.8 F833.33
N9970 Z0.635
N9975 G2 Y314.667 Z0. J-0.635 K0. F2500.
N9980 G1 Y314.032
N9985 G17 G3 X371.331 Y313.397 I0.635 J0.
N9990 G1 X434.179
N9995 G3 Y326.097 I0. J6.35
N10000 G1 X370.679
N10005 G3 Y313.397 I0. J-6.35
N10010 G1 X371.331
N10015 G3 X371.966 Y314.032 I0. J0.635
N10020 G1 Y314.667
N10025 G19 G3 Y315.302 Z0.635 J0. K0.635
N10030 G1 Z23.5
N10035 X483.057 Y312.745
N10040 Z12.785 F833.33
N10045 G18 G2 X483.692 Z12.15 I0.635 K0. F2500.
N10050 G1 X484.327
N10055 G17 G3 X484.962 Y313.38 I0. J0.635
N10060 X459.562 I-12.7 J0.
N10065 X484.962 I12.7 J0.
N10070 X484.327 Y314.015 I-0.635 J0.
N10075 G1 X483.692
N10080 G18 G3 X483.057 Z12.785 I0. K0.635
N10085 G1 Z23.5
N10090 Y312.745
N10095 Z17.15 F833.33
N10100 Z6.435
N10105 G2 X483.692 Z5.8 I0.635 K0. F2500.
N10110 G1 X484.327
N10115 G17 G3 X484.962 Y313.38 I0. J0.635
N10120 X459.562 I-12.7 J0.
N10125 X484.962 I12.7 J0.
N10130 X484.327 Y314.015 I-0.635 J0.
N10135 G1 X483.692
N10140 G18 G3 X483.057 Z6.435 I0. K0.635
N10145 G1 Z23.5
N10150 Y312.745
N10155 Z10.8 F833.33
N10160 Z0.635
N10165 G2 X483.692 Z0. I0.635 K0. F2500.
N10170 G1 X484.327
N10175 G17 G3 X484.962 Y313.38 I0. J0.635
N10180 X459.562 I-12.7 J0.
N10185 X484.962 I12.7 J0.
N10190 X484.327 Y314.015 I-0.635 J0.
N10195 G1 X483.692
N10200 G18 G3 X483.057 Z0.635 I0. K0.635
N10205 G1 Z23.5
N10210 X462.873 Y170.18
N10215 Z10.8 F833.33
N10220 Z0.635
N10225 G19 G2 Y169.545 Z0. J-0.635 K0. F2500.
N10230 G1 Y168.91
N10235 G17 G3 X463.508 Y168.275 I0.635 J0.
N10240 G1 X487.864
N10245 G2 X490.109 Y167.345 I0. J-3.175
N10250 G1 X494.186 Y163.268
N10255 Z2.
N10260 X503.166 Y154.288
N10265 Z0. F833.33
N10270 X509.159 Y148.295 F2500.
N10275 G2 X510.089 Y146.05 I-2.245 J-2.245
N10280 G1 Y0.
N10285 G2 X506.914 Y-3.175 I-3.175 J0.
N10290 G1 X500.794
N10295 Z2.
N10300 X488.094
N10305 Z0. F833.33
N10310 X485.459 F2500.
N10315 G2 X476.479 Y0.545 I0. J12.7
N10320 G1 X460.922 Y16.102
N10325 Z2.
N10330 X458.934 Y18.09
N10335 Z0. F833.33
N10340 X457.112 Y19.912 F2500.
N10345 Y18.09
N10350 Z2.
N10355 Y5.39
N10360 Z0. F833.33
N10365 Y0. F2500.
N10370 G2 X453.937 Y-3.175 I-3.175 J0.
N10375 G1 X307.887
N10380 G2 X305.642 Y-2.245 I0. J3.175
N10385 G1 X302.768 Y0.629
N10390 Z2.
N10395 X293.788 Y9.609
N10400 Z0. F833.33
N10405 X286.592 Y16.805 F2500.
N10410 G2 X285.662 Y19.05 I2.245 J2.245
N10415 G1 Y165.1
N10420 G2 X288.837 Y168.275 I3.175 J0.
N10425 G1 X295.684
N10430 Z2.
N10435 X308.384
N10440 Z0. F833.33
N10445 X310.292 F2500.
N10450 G2 X319.272 Y164.555 I0. J-12.7
N10455 G1 X334.829 Y148.998
N10460 Z2.
N10465 X336.483 Y147.344
N10470 Z0. F833.33
N10475 X338.639 Y145.188 F2500.
N10480 Y147.344
N10485 Z2.
N10490 Y160.044
N10495 Z0. F833.33
N10500 Y165.1 F2500.
N10505 G2 X341.814 Y168.275 I3.175 J0.
N10510 G1 X463.508
N10515 G3 X464.143 Y168.91 I0. J0.635
N10520 G1 Y169.545
N10525 G19 G3 Y170.18 Z0.635 J0. K0.635
N10530 G1 Z23.5
N10535 X374.199 Y144.145
N10540 Z12.785 F833.33
N10545 G3 Y144.78 Z12.15 J0.635 K0. F2500.
N10550 G1 Y145.415
N10555 G17 G3 X373.564 Y146.05 I-0.635 J0.
N10560 Y133.35 I0. J-6.35
N10565 G1 X437.064
N10570 G3 Y146.05 I0. J6.35
N10575 G1 X373.564
N10580 G3 X372.929 Y145.415 I0. J-0.635
N10585 G1 Y144.78
N10590 G19 G2 Y144.145 Z12.785 J0. K0.635
N10595 G1 Z23.5
N10600 X374.199
N10605 Z17.15 F833.33
N10610 Z6.435
N10615 G3 Y144.78 Z5.8 J0.635 K0. F2500.
N10620 G1 Y145.415
N10625 G17 G3 X373.564 Y146.05 I-0.635 J0.
N10630 Y133.35 I0. J-6.35
N10635 G1 X437.064
N10640 G3 Y146.05 I0. J6.35
N10645 G1 X373.564
N10650 G3 X372.929 Y145.415 I0. J-0.635
N10655 G1 Y144.78
N10660 G19 G2 Y144.145 Z6.435 J0. K0.635
N10665 G1 Z23.5
N10670 X374.199
N10675 Z10.8 F833.33
N10680 Z0.635
N10685 G3 Y144.78 Z0. J0.635 K0. F2500.
N10690 G1 Y145.415
N10695 G17 G3 X373.564 Y146.05 I-0.635 J0.
N10700 Y133.35 I0. J-6.35
N10705 G1 X437.064
N10710 G3 Y146.05 I0. J6.35
N10715 G1 X373.564
N10720 G3 X372.929 Y145.415 I0. J-0.635
N10725 G1 Y144.78
N10730 G19 G2 Y144.145 Z0.635 J0. K0.635
N10735 G1 Z33.5
N10740 G17
N10745 G53 G0 Z0.
N10750 M30
%
