%
(CORNERCLAMP_HOLES_RUNFIRST)
(T1  D=6.35 CR=0. - ZMIN=0. - FLAT END MILL)
N10 G90 G94 G17 G91.1
N15 G21
(WHEN USING FUSION 360 FOR PERSONAL USE, THE FEEDRATE OF)
(RAPID MOVES IS REDUCED TO MATCH THE FEEDRATE OF CUTTING)
(MOVES, WHICH CAN INCREASE MACHINING TIME. UNRESTRICTED RAPID)
(MOVES ARE AVAILABLE WITH A FUSION 360 SUBSCRIPTION.)
N20 G53 G0 Z0.
(2D POCKET1)
N25 T1 M6
N30 S10000 M3
N35 G54
N40 G0 X22.413 Y210.349
N45 G43 Z33.5 H1
N50 G1 Z23.5 F2500.
N55 Z21.
N60 Z0. F833.33
N65 G3 X22.007 I-0.203 J0. F2500.
N70 X22.413 I0.203 J0.
N75 G1 X22.405 Y210.403 Z0.007
N80 X22.384 Y210.454 Z0.015
N85 X22.349 Y210.497 Z0.022
N90 X22.308 Y210.527 Z0.043
N95 X22.261 Y210.546 Z0.065
N100 X22.21 Y210.552 Z0.086
N105 X22.155 Y210.544 Z0.133
N110 X22.103 Y210.522 Z0.18
N115 X22.06 Y210.486 Z0.228
N120 X22.029 Y210.441 Z0.323
N125 X22.011 Y210.39 Z0.418
N130 X22.007 Y210.352 Z0.635
N135 Z23.5
N140 X22.21 Y387.946
N145 Z21. F833.33
N150 Z0.
N155 G3 Y388.352 I0. J0.203 F2500.
N160 Y387.946 I0. J-0.203
N165 G1 X22.264 Y387.953 Z0.007
N170 X22.315 Y387.975 Z0.015
N175 X22.357 Y388.01 Z0.022
N180 X22.388 Y388.051 Z0.043
N185 X22.406 Y388.098 Z0.065
N190 X22.413 Y388.149 Z0.086
N195 X22.405 Y388.204 Z0.133
N200 X22.383 Y388.256 Z0.18
N205 X22.347 Y388.299 Z0.228
N210 X22.302 Y388.33 Z0.323
N215 X22.25 Y388.348 Z0.418
N220 X22.213 Y388.352 Z0.635
N225 Z23.5
N230 X200.01
N235 Z21. F833.33
N240 Z0.
N245 G3 Y387.946 I0. J-0.203 F2500.
N250 Y388.352 I0. J0.203
N255 G1 X199.956 Y388.345 Z0.007
N260 X199.905 Y388.323 Z0.015
N265 X199.863 Y388.288 Z0.022
N270 X199.832 Y388.247 Z0.043
N275 X199.813 Y388.2 Z0.065
N280 X199.807 Y388.149 Z0.086
N285 X199.815 Y388.094 Z0.133
N290 X199.837 Y388.042 Z0.18
N295 X199.873 Y387.999 Z0.228
N300 X199.918 Y387.968 Z0.323
N305 X199.969 Y387.95 Z0.418
N310 X200.007 Y387.946 Z0.635
N315 Z23.5
N320 X378.013 Y388.149
N325 Z21. F833.33
N330 Z0.
N335 G3 X377.607 I-0.203 J0. F2500.
N340 X378.013 I0.203 J0.
N345 G1 X378.006 Y388.203 Z0.007
N350 X377.984 Y388.254 Z0.015
N355 X377.949 Y388.297 Z0.022
N360 X377.908 Y388.327 Z0.043
N365 X377.861 Y388.346 Z0.065
N370 X377.81 Y388.352 Z0.086
N375 X377.755 Y388.344 Z0.133
N380 X377.703 Y388.322 Z0.18
N385 X377.66 Y388.286 Z0.228
N390 X377.629 Y388.241 Z0.323
N395 X377.611 Y388.19 Z0.418
N400 X377.607 Y388.152 Z0.635
N405 Z23.5
N410 X22.007 Y32.549
N415 Z21. F833.33
N420 Z0.
N425 G3 X22.413 I0.203 J0. F2500.
N430 X22.007 I-0.203 J0.
N435 G1 X22.014 Y32.495 Z0.007
N440 X22.036 Y32.444 Z0.015
N445 X22.07 Y32.402 Z0.022
N450 X22.112 Y32.371 Z0.043
N455 X22.159 Y32.353 Z0.065
N460 X22.21 Y32.346 Z0.086
N465 X22.265 Y32.354 Z0.133
N470 X22.316 Y32.376 Z0.181
N475 X22.359 Y32.412 Z0.228
N480 X22.391 Y32.457 Z0.323
N485 X22.409 Y32.508 Z0.418
N490 X22.413 Y32.546 Z0.635
N495 Z33.5
N500 G53 G0 Z0.
N505 M30
%
