%
(CUTTINGBOARD_CUTOUT_CENTER.NGC)
(T1  D=6.35 CR=0. - ZMIN=-34.5 - FLAT END MILL)
N10 G90 G94 G17 G91.1
N15 G21
(WHEN USING FUSION 360 FOR PERSONAL USE, THE FEEDRATE OF)
(RAPID MOVES IS REDUCED TO MATCH THE FEEDRATE OF CUTTING)
(MOVES, WHICH CAN INCREASE MACHINING TIME. UNRESTRICTED RAPID)
(MOVES ARE AVAILABLE WITH A FUSION 360 SUBSCRIPTION.)
N20 G53 G0 Z0.
(2D CONTOUR3 2)
N25 T1 M6
N30 S10000 M3
N35 G54
N40 G0 X195.08 Y0.635
N45 G43 Z15. H1
N50 G1 Z5. F2500.
N55 Z-2.365 F833.33
N60 G18 G3 X194.445 Z-3. I-0.635 K0. F2500.
N65 G1 X193.81
N70 G17 G3 X193.175 Y0. I0. J-0.635
N75 G1 Y-111.9
N80 G2 X151.9 Y-153.175 I-41.275 J0.
N85 G1 X-151.9
N90 G2 X-193.175 Y-111.9 I0. J41.275
N95 G1 Y111.9
N100 G2 X-151.9 Y153.175 I41.275 J0.
N105 G1 X151.9
N110 G2 X193.175 Y111.9 I0. J-41.275
N115 G1 Y0.
N120 G3 X193.81 Y-0.635 I0.635 J0.
N125 G1 X194.445
N130 G18 G2 X195.08 Z-2.365 I0. K0.635
N135 G1 Z5.
N140 Y0.635
N145 Z2. F833.33
N150 Z-5.365
N155 G3 X194.445 Z-6. I-0.635 K0. F2500.
N160 G1 X193.81
N165 G17 G3 X193.175 Y0. I0. J-0.635
N170 G1 Y-111.9
N175 G2 X151.9 Y-153.175 I-41.275 J0.
N180 G1 X-151.9
N185 G2 X-193.175 Y-111.9 I0. J41.275
N190 G1 Y111.9
N195 G2 X-151.9 Y153.175 I41.275 J0.
N200 G1 X151.9
N205 G2 X193.175 Y111.9 I0. J-41.275
N210 G1 Y0.
N215 G3 X193.81 Y-0.635 I0.635 J0.
N220 G1 X194.445
N225 G18 G2 X195.08 Z-5.365 I0. K0.635
N230 G1 Z5.
N235 Y0.635
N240 Z-1. F833.33
N245 Z-8.365
N250 G3 X194.445 Z-9. I-0.635 K0. F2500.
N255 G1 X193.81
N260 G17 G3 X193.175 Y0. I0. J-0.635
N265 G1 Y-111.9
N270 G2 X151.9 Y-153.175 I-41.275 J0.
N275 G1 X-151.9
N280 G2 X-193.175 Y-111.9 I0. J41.275
N285 G1 Y111.9
N290 G2 X-151.9 Y153.175 I41.275 J0.
N295 G1 X151.9
N300 G2 X193.175 Y111.9 I0. J-41.275
N305 G1 Y0.
N310 G3 X193.81 Y-0.635 I0.635 J0.
N315 G1 X194.445
N320 G18 G2 X195.08 Z-8.365 I0. K0.635
N325 G1 Z5.
N330 Y0.635
N335 Z-4. F833.33
N340 Z-11.365
N345 G3 X194.445 Z-12. I-0.635 K0. F2500.
N350 G1 X193.81
N355 G17 G3 X193.175 Y0. I0. J-0.635
N360 G1 Y-111.9
N365 G2 X151.9 Y-153.175 I-41.275 J0.
N370 G1 X-151.9
N375 G2 X-193.175 Y-111.9 I0. J41.275
N380 G1 Y111.9
N385 G2 X-151.9 Y153.175 I41.275 J0.
N390 G1 X151.9
N395 G2 X193.175 Y111.9 I0. J-41.275
N400 G1 Y0.
N405 G3 X193.81 Y-0.635 I0.635 J0.
N410 G1 X194.445
N415 G18 G2 X195.08 Z-11.365 I0. K0.635
N420 G1 Z5.
N425 Y0.635
N430 Z-7. F833.33
N435 Z-14.365
N440 G3 X194.445 Z-15. I-0.635 K0. F2500.
N445 G1 X193.81
N450 G17 G3 X193.175 Y0. I0. J-0.635
N455 G1 Y-111.9
N460 G2 X151.9 Y-153.175 I-41.275 J0.
N465 G1 X-151.9
N470 G2 X-193.175 Y-111.9 I0. J41.275
N475 G1 Y111.9
N480 G2 X-151.9 Y153.175 I41.275 J0.
N485 G1 X151.9
N490 G2 X193.175 Y111.9 I0. J-41.275
N495 G1 Y0.
N500 G3 X193.81 Y-0.635 I0.635 J0.
N505 G1 X194.445
N510 G18 G2 X195.08 Z-14.365 I0. K0.635
N515 G1 Z5.
N520 Y0.635
N525 Z-10. F833.33
N530 Z-17.365
N535 G3 X194.445 Z-18. I-0.635 K0. F2500.
N540 G1 X193.81
N545 G17 G3 X193.175 Y0. I0. J-0.635
N550 G1 Y-111.9
N555 G2 X151.9 Y-153.175 I-41.275 J0.
N560 G1 X-151.9
N565 G2 X-193.175 Y-111.9 I0. J41.275
N570 G1 Y111.9
N575 G2 X-151.9 Y153.175 I41.275 J0.
N580 G1 X151.9
N585 G2 X193.175 Y111.9 I0. J-41.275
N590 G1 Y0.
N595 G3 X193.81 Y-0.635 I0.635 J0.
N600 G1 X194.445
N605 G18 G2 X195.08 Z-17.365 I0. K0.635
N610 G1 Z5.
N615 Y0.635
N620 Z-13. F833.33
N625 Z-20.365
N630 G3 X194.445 Z-21. I-0.635 K0. F2500.
N635 G1 X193.81
N640 G17 G3 X193.175 Y0. I0. J-0.635
N645 G1 Y-111.9
N650 G2 X151.9 Y-153.175 I-41.275 J0.
N655 G1 X-151.9
N660 G2 X-193.175 Y-111.9 I0. J41.275
N665 G1 Y111.9
N670 G2 X-151.9 Y153.175 I41.275 J0.
N675 G1 X151.9
N680 G2 X193.175 Y111.9 I0. J-41.275
N685 G1 Y0.
N690 G3 X193.81 Y-0.635 I0.635 J0.
N695 G1 X194.445
N700 G18 G2 X195.08 Z-20.365 I0. K0.635
N705 G1 Z5.
N710 Y0.635
N715 Z-16. F833.33
N720 Z-23.365
N725 G3 X194.445 Z-24. I-0.635 K0. F2500.
N730 G1 X193.81
N735 G17 G3 X193.175 Y0. I0. J-0.635
N740 G1 Y-111.9
N745 G2 X151.9 Y-153.175 I-41.275 J0.
N750 G1 X-151.9
N755 G2 X-193.175 Y-111.9 I0. J41.275
N760 G1 Y111.9
N765 G2 X-151.9 Y153.175 I41.275 J0.
N770 G1 X151.9
N775 G2 X193.175 Y111.9 I0. J-41.275
N780 G1 Y0.
N785 G3 X193.81 Y-0.635 I0.635 J0.
N790 G1 X194.445
N795 G18 G2 X195.08 Z-23.365 I0. K0.635
N800 G1 Z5.
N805 Y0.635
N810 Z-19. F833.33
N815 Z-26.365
N820 G3 X194.445 Z-27. I-0.635 K0. F2500.
N825 G1 X193.81
N830 G17 G3 X193.175 Y0. I0. J-0.635
N835 G1 Y-111.9
N840 G2 X151.9 Y-153.175 I-41.275 J0.
N845 G1 X-151.9
N850 G2 X-193.175 Y-111.9 I0. J41.275
N855 G1 Y111.9
N860 G2 X-151.9 Y153.175 I41.275 J0.
N865 G1 X151.9
N870 G2 X193.175 Y111.9 I0. J-41.275
N875 G1 Y0.
N880 G3 X193.81 Y-0.635 I0.635 J0.
N885 G1 X194.445
N890 G18 G2 X195.08 Z-26.365 I0. K0.635
N895 G1 Z5.
N900 Y0.635
N905 Z-22. F833.33
N910 Z-29.365
N915 G3 X194.445 Z-30. I-0.635 K0. F2500.
N920 G1 X193.81
N925 G17 G3 X193.175 Y0. I0. J-0.635
N930 G1 Y-111.9
N935 G2 X151.9 Y-153.175 I-41.275 J0.
N940 G1 X-151.9
N945 G2 X-193.175 Y-111.9 I0. J41.275
N950 G1 Y111.9
N955 G2 X-151.9 Y153.175 I41.275 J0.
N960 G1 X151.9
N965 G2 X193.175 Y111.9 I0. J-41.275
N970 G1 Y0.
N975 G3 X193.81 Y-0.635 I0.635 J0.
N980 G1 X194.445
N985 G18 G2 X195.08 Z-29.365 I0. K0.635
N990 G1 Z5.
N995 Y0.635
N1000 Z-25. F833.33
N1005 Z-32.365
N1010 G3 X194.445 Z-33. I-0.635 K0. F2500.
N1015 G1 X193.81
N1020 G17 G3 X193.175 Y0. I0. J-0.635
N1025 G1 Y-111.9
N1030 G2 X151.9 Y-153.175 I-41.275 J0.
N1035 G1 X-151.9
N1040 G2 X-193.175 Y-111.9 I0. J41.275
N1045 G1 Y111.9
N1050 G2 X-151.9 Y153.175 I41.275 J0.
N1055 G1 X151.9
N1060 G2 X193.175 Y111.9 I0. J-41.275
N1065 G1 Y0.
N1070 G3 X193.81 Y-0.635 I0.635 J0.
N1075 G1 X194.445
N1080 G18 G2 X195.08 Z-32.365 I0. K0.635
N1085 G1 Z5.
N1090 Y0.635
N1095 Z-28. F833.33
N1100 Z-33.865
N1105 G3 X194.445 Z-34.5 I-0.635 K0. F2500.
N1110 G1 X193.81
N1115 G17 G3 X193.175 Y0. I0. J-0.635
N1120 G1 Y-111.9
N1125 G2 X151.9 Y-153.175 I-41.275 J0.
N1130 G1 X-151.9
N1135 G2 X-193.175 Y-111.9 I0. J41.275
N1140 G1 Y111.9
N1145 G2 X-151.9 Y153.175 I41.275 J0.
N1150 G1 X151.9
N1155 G2 X193.175 Y111.9 I0. J-41.275
N1160 G1 Y0.
N1165 G3 X193.81 Y-0.635 I0.635 J0.
N1170 G1 X194.445
N1175 G18 G2 X195.08 Z-33.865 I0. K0.635
N1180 G1 Z15.
N1185 G17
N1190 G53 G0 Z0.
N1195 M30
%
