%
(flatten - Generated via flattenboard.py)
(Use the 19.05 mm diameter bit)
(This cuts -0.2 mm below Z zero)


N5 G90 G94 G17 G91.1
N10 G21

N15 G53 G0 Z0.

N20 T1 M6
N25 S15000 M3
N30 G54
N35 M8
N40 G0 X0 Y0 Z2

N45 G1 Z-0.2  F3500.

N50 G1 X400.0 Z-0.2
N55 G1 X0

N60 G1 Y9.525
N65 G1 X400.0
N70 G1 Y19.05
N75 G1 X0
N80 G1 Y28.575
N85 G1 X400.0
N90 G1 Y38.1
N95 G1 X0
N100 G1 Y47.625
N105 G1 X400.0
N110 G1 Y57.15
N115 G1 X0
N120 G1 Y66.675
N125 G1 X400.0
N130 G1 Y76.2
N135 G1 X0
N140 G1 Y85.725
N145 G1 X400.0
N150 G1 Y95.25
N155 G1 X0
N160 G1 Y104.775
N165 G1 X400.0
N170 G1 Y114.3
N175 G1 X0
N180 G1 Y123.825
N185 G1 X400.0
N190 G1 Y133.35
N195 G1 X0
N200 G1 Y142.875
N205 G1 X400.0
N210 G1 Y152.4
N215 G1 X0
N220 G1 Y161.925
N225 G1 X400.0
N230 G1 Y171.45
N235 G1 X0
N240 G1 Y180.975
N245 G1 X400.0
N250 G1 Y190.5
N255 G1 X0
N260 G1 Y200.025
N265 G1 X400.0
N270 G1 Y209.55
N275 G1 X0
N280 G1 Y219.075
N285 G1 X400.0
N290 G1 Y228.6
N295 G1 X0
N300 G1 Y238.125
N305 G1 X400.0
N310 G1 Y247.65
N315 G1 X0
N320 G1 Y257.175
N325 G1 X400.0
N330 G1 Y266.7
N335 G1 X0
N340 G1 Y276.225
N345 G1 X400.0
N350 G1 Y285.75
N355 G1 X0
N360 G1 Y295.275
N365 G1 X400.0
N370 G1 Y304.8
N375 G1 X0
N380 G1 Y314.325
N385 G1 X400.0
N390 G1 Y323.85
N395 G1 X0

N400 G1 Z15.
N405 G17
N410 M9
N415 G0 Z5 X0 Y0
N420 M30

%
