%
(CUTTINGBOARDSHAPE)
(T1  D=6.35 CR=0. - ZMIN=0. - FLAT END MILL)
N10 G90 G94 G17 G91.1
N15 G21
(WHEN USING FUSION 360 FOR PERSONAL USE, THE FEEDRATE OF)
(RAPID MOVES IS REDUCED TO MATCH THE FEEDRATE OF CUTTING)
(MOVES, WHICH CAN INCREASE MACHINING TIME. UNRESTRICTED RAPID)
(MOVES ARE AVAILABLE WITH A FUSION 360 SUBSCRIPTION.)
N20 G53 G0 Z0.
(2D CONTOUR3 2)
N25 T1 M6
N30 S10000 M3
N35 G54
N40 G0 X385.08 Y150.635
N45 G43 Z54.4 H1
N50 G1 Z44.4 F2500.
N55 Z33.685 F833.33
N60 G18 G3 X384.445 Z33.05 I-0.635 K0. F2500.
N65 G1 X383.81
N70 G17 G3 X383.175 Y150. I0. J-0.635
N75 G1 Y38.1
N80 G2 X341.9 Y-3.175 I-41.275 J0.
N85 G1 X38.1
N90 G2 X-3.175 Y38.1 I0. J41.275
N95 G1 Y261.9
N100 G2 X38.1 Y303.175 I41.275 J0.
N105 G1 X341.9
N110 G2 X383.175 Y261.9 I0. J-41.275
N115 G1 Y150.
N120 G3 X383.81 Y149.365 I0.635 J0.
N125 G1 X384.445
N130 G18 G2 X385.08 Z33.685 I0. K0.635
N135 G1 Z44.4
N140 Y150.635
N145 Z38.05 F833.33
N150 Z27.335
N155 G3 X384.445 Z26.7 I-0.635 K0. F2500.
N160 G1 X383.81
N165 G17 G3 X383.175 Y150. I0. J-0.635
N170 G1 Y38.1
N175 G2 X341.9 Y-3.175 I-41.275 J0.
N180 G1 X38.1
N185 G2 X-3.175 Y38.1 I0. J41.275
N190 G1 Y261.9
N195 G2 X38.1 Y303.175 I41.275 J0.
N200 G1 X341.9
N205 G2 X383.175 Y261.9 I0. J-41.275
N210 G1 Y150.
N215 G3 X383.81 Y149.365 I0.635 J0.
N220 G1 X384.445
N225 G18 G2 X385.08 Z27.335 I0. K0.635
N230 G1 Z44.4
N235 Y150.635
N240 Z31.7 F833.33
N245 Z20.985
N250 G3 X384.445 Z20.35 I-0.635 K0. F2500.
N255 G1 X383.81
N260 G17 G3 X383.175 Y150. I0. J-0.635
N265 G1 Y38.1
N270 G2 X341.9 Y-3.175 I-41.275 J0.
N275 G1 X38.1
N280 G2 X-3.175 Y38.1 I0. J41.275
N285 G1 Y261.9
N290 G2 X38.1 Y303.175 I41.275 J0.
N295 G1 X341.9
N300 G2 X383.175 Y261.9 I0. J-41.275
N305 G1 Y150.
N310 G3 X383.81 Y149.365 I0.635 J0.
N315 G1 X384.445
N320 G18 G2 X385.08 Z20.985 I0. K0.635
N325 G1 Z44.4
N330 Y150.635
N335 Z25.35 F833.33
N340 Z14.635
N345 G3 X384.445 Z14. I-0.635 K0. F2500.
N350 G1 X383.81
N355 G17 G3 X383.175 Y150. I0. J-0.635
N360 G1 Y38.1
N365 G2 X341.9 Y-3.175 I-41.275 J0.
N370 G1 X38.1
N375 G2 X-3.175 Y38.1 I0. J41.275
N380 G1 Y261.9
N385 G2 X38.1 Y303.175 I41.275 J0.
N390 G1 X341.9
N395 G2 X383.175 Y261.9 I0. J-41.275
N400 G1 Y150.
N405 G3 X383.81 Y149.365 I0.635 J0.
N410 G1 X384.445
N415 G18 G2 X385.08 Z14.635 I0. K0.635
N420 G1 Z44.4
N425 Y150.635
N430 Z19. F833.33
N435 Z8.285
N440 G3 X384.445 Z7.65 I-0.635 K0. F2500.
N445 G1 X383.81
N450 G17 G3 X383.175 Y150. I0. J-0.635
N455 G1 Y38.1
N460 G2 X341.9 Y-3.175 I-41.275 J0.
N465 G1 X38.1
N470 G2 X-3.175 Y38.1 I0. J41.275
N475 G1 Y261.9
N480 G2 X38.1 Y303.175 I41.275 J0.
N485 G1 X341.9
N490 G2 X383.175 Y261.9 I0. J-41.275
N495 G1 Y150.
N500 G3 X383.81 Y149.365 I0.635 J0.
N505 G1 X384.445
N510 G18 G2 X385.08 Z8.285 I0. K0.635
N515 G1 Z44.4
N520 Y150.635
N525 Z12.65 F833.33
N530 Z4.46
N535 G3 X384.445 Z3.825 I-0.635 K0. F2500.
N540 G1 X383.81
N545 G17 G3 X383.175 Y150. I0. J-0.635
N550 G1 Y38.1
N555 G2 X341.9 Y-3.175 I-41.275 J0.
N560 G1 X38.1
N565 G2 X-3.175 Y38.1 I0. J41.275
N570 G1 Y261.9
N575 G2 X38.1 Y303.175 I41.275 J0.
N580 G1 X341.9
N585 G2 X383.175 Y261.9 I0. J-41.275
N590 G1 Y150.
N595 G3 X383.81 Y149.365 I0.635 J0.
N600 G1 X384.445
N605 G18 G2 X385.08 Z4.46 I0. K0.635
N610 G1 Z44.4
N615 Y150.635
N620 Z8.825 F833.33
N625 Z0.635
N630 G3 X384.445 Z0. I-0.635 K0. F2500.
N635 G1 X383.81
N640 G17 G3 X383.175 Y150. I0. J-0.635
N645 G1 Y38.1
N650 G2 X341.9 Y-3.175 I-41.275 J0.
N655 G1 X38.1
N660 G2 X-3.175 Y38.1 I0. J41.275
N665 G1 Y261.9
N670 G2 X38.1 Y303.175 I41.275 J0.
N675 G1 X341.9
N680 G2 X383.175 Y261.9 I0. J-41.275
N685 G1 Y150.
N690 G3 X383.81 Y149.365 I0.635 J0.
N695 G1 X384.445
N700 G18 G2 X385.08 Z0.635 I0. K0.635
N705 G1 Z54.4
N710 G17
N715 G53 G0 Z0.
N720 M30
%
