%
(DANNIEGROOVE.NGC)
(T1  D=12.7 CR=6.35 - ZMIN=-5. - BALL END MILL)
N10 G90 G94 G17 G91.1
N15 G21
(WHEN USING FUSION 360 FOR PERSONAL USE, THE FEEDRATE OF)
(RAPID MOVES IS REDUCED TO MATCH THE FEEDRATE OF CUTTING)
(MOVES, WHICH CAN INCREASE MACHINING TIME. UNRESTRICTED RAPID)
(MOVES ARE AVAILABLE WITH A FUSION 360 SUBSCRIPTION.)
N20 G53 G0 Z0.
(2D CONTOUR1)
N25 T1 M6
N30 S10000 M3
N35 G54
N40 G0 X476.25 Y152.4
N45 G43 Z15. H1
N50 G1 Z5. F1800.
N55 Z-3. F333.33
N60 Y266.7 F1800.
N65 G3 X469.9 Y273.05 I-6.35 J0.
N70 G1 X38.1
N75 G3 X31.75 Y266.7 I0. J-6.35
N80 G1 Y38.1
N85 G3 X38.1 Y31.75 I6.35 J0.
N90 G1 X469.9
N95 G3 X476.25 Y38.1 I0. J6.35
N100 G1 Y152.4
N105 Z-5. F333.33
N110 Y266.7 F1800.
N115 G3 X469.9 Y273.05 I-6.35 J0.
N120 G1 X38.1
N125 G3 X31.75 Y266.7 I0. J-6.35
N130 G1 Y38.1
N135 G3 X38.1 Y31.75 I6.35 J0.
N140 G1 X469.9
N145 G3 X476.25 Y38.1 I0. J6.35
N150 G1 Y152.4
N155 Z15.
N160 G53 G0 Z0.
N165 M30
%
