%
(DANNIECBCUTOUT.NGC)
(T1  D=6.35 CR=0. - ZMIN=-36.513 - FLAT END MILL)
N10 G90 G94 G17 G91.1
N15 G21
(WHEN USING FUSION 360 FOR PERSONAL USE, THE FEEDRATE OF)
(RAPID MOVES IS REDUCED TO MATCH THE FEEDRATE OF CUTTING)
(MOVES, WHICH CAN INCREASE MACHINING TIME. UNRESTRICTED RAPID)
(MOVES ARE AVAILABLE WITH A FUSION 360 SUBSCRIPTION.)
N20 G53 G0 Z0.
(2D CONTOUR5)
N25 T1 M6
N30 S5000 M3
N35 G54
N40 M8
N45 G0 X-101.6 Y149.225
N50 G43 Z15. H1
N55 G1 Z5. F1000.
N60 Z-6.35 F333.33
N65 X-215.9 F1000.
N70 G3 X-250.825 Y114.3 I0. J-34.925
N75 G1 Y-114.3
N80 G3 X-215.9 Y-149.225 I34.925 J0.
N85 G1 X215.9
N90 G3 X250.825 Y-114.3 I0. J34.925
N95 G1 Y114.3
N100 G3 X215.9 Y149.225 I-34.925 J0.
N105 G1 X-101.6
N110 Z-12.7 F333.33
N115 X-215.9 F1000.
N120 G3 X-250.825 Y114.3 I0. J-34.925
N125 G1 Y-114.3
N130 G3 X-215.9 Y-149.225 I34.925 J0.
N135 G1 X215.9
N140 G3 X250.825 Y-114.3 I0. J34.925
N145 G1 Y114.3
N150 G3 X215.9 Y149.225 I-34.925 J0.
N155 G1 X-101.6
N160 Z-19.05 F333.33
N165 X-215.9 F1000.
N170 G3 X-250.825 Y114.3 I0. J-34.925
N175 G1 Y-114.3
N180 G3 X-215.9 Y-149.225 I34.925 J0.
N185 G1 X215.9
N190 G3 X250.825 Y-114.3 I0. J34.925
N195 G1 Y114.3
N200 G3 X215.9 Y149.225 I-34.925 J0.
N205 G1 X-101.6
N210 Z-25.4 F333.33
N215 X-215.9 F1000.
N220 G3 X-250.825 Y114.3 I0. J-34.925
N225 G1 Y-114.3
N230 G3 X-215.9 Y-149.225 I34.925 J0.
N235 G1 X215.9
N240 G3 X250.825 Y-114.3 I0. J34.925
N245 G1 Y114.3
N250 G3 X215.9 Y149.225 I-34.925 J0.
N255 G1 X-101.6
N260 Z-31.75 F333.33
N265 X-215.9 F1000.
N270 G3 X-250.825 Y114.3 I0. J-34.925
N275 G1 Y-114.3
N280 G3 X-215.9 Y-149.225 I34.925 J0.
N285 G1 X215.9
N290 G3 X250.825 Y-114.3 I0. J34.925
N295 G1 Y114.3
N300 G3 X215.9 Y149.225 I-34.925 J0.
N305 G1 X-101.6
N310 Z-36.513 F333.33
N315 X-149.929 F1000.
N320 Z-34.925
N325 X-162.629
N330 Z-36.513 F333.33
N335 X-215.9 F1000.
N340 G3 X-250.825 Y114.3 I0. J-34.925
N345 G1 Y73.393
N350 Z-34.925
N355 Y60.693
N360 Z-36.513 F333.33
N365 Y5.172 F1000.
N370 Z-34.925
N375 Y-7.528
N380 Z-36.513 F333.33
N385 Y-58.988 F1000.
N390 Z-34.925
N395 Y-71.688
N400 Z-36.513 F333.33
N405 Y-114.3 F1000.
N410 G3 X-215.9 Y-149.225 I34.925 J0.
N415 G1 X-165.515
N420 Z-34.925
N425 X-152.815
N430 Z-36.513 F333.33
N435 X-55.275 F1000.
N440 Z-34.925
N445 X-42.575
N450 Z-36.513 F333.33
N455 X44.243 F1000.
N460 Z-34.925
N465 X56.943
N470 Z-36.513 F333.33
N475 X128.811 F1000.
N480 Z-34.925
N485 X141.511
N490 Z-36.513 F333.33
N495 X215.9 F1000.
N500 G3 X250.825 Y-114.3 I0. J34.925
N505 G1 Y-86.428
N510 Z-34.925
N515 Y-73.728
N520 Z-36.513 F333.33
N525 Y-35.33 F1000.
N530 Z-34.925
N535 Y-22.63
N540 Z-36.513 F333.33
N545 Y21.818 F1000.
N550 Z-34.925
N555 Y34.518
N560 Z-36.513 F333.33
N565 Y76.244 F1000.
N570 Z-34.925
N575 Y88.944
N580 Z-36.513 F333.33
N585 Y114.3 F1000.
N590 G3 X215.9 Y149.225 I-34.925 J0.
N595 G1 X181.664
N600 Z-34.925
N605 X168.964
N610 Z-36.513 F333.33
N615 X111.682 F1000.
N620 Z-34.925
N625 X98.982
N630 Z-36.513 F333.33
N635 X27.651 F1000.
N640 Z-34.925
N645 X14.951
N650 Z-36.513 F333.33
N655 X-55.285 F1000.
N660 Z-34.925
N665 X-67.985
N670 Z-36.513 F333.33
N675 X-101.6 F1000.
N680 Z15.
N685 M9
N690 G53 G0 Z0.
N695 M30
%
