%
(DOGWOOD_FEMALE_FLAT3175_FIRST)
(T1  D=3.175 CR=0. - ZMIN=-3.175 - FLAT END MILL)
N10 G90 G94 G17 G91.1
N15 G21
(WHEN USING FUSION 360 FOR PERSONAL USE, THE FEEDRATE OF)
(RAPID MOVES IS REDUCED TO MATCH THE FEEDRATE OF CUTTING)
(MOVES, WHICH CAN INCREASE MACHINING TIME. UNRESTRICTED RAPID)
(MOVES ARE AVAILABLE WITH A FUSION 360 SUBSCRIPTION.)
N20 G53 G0 Z0.
(FEMALEPOCKETFLATBITFIRST)
N25 T1 M6
N30 S9000 M3
N35 G54
N40 G0 X-25.547 Y-11.532
N45 G43 Z15. H1
N50 G1 Z5. F3000.
N55 Z2.7
N60 Z-1.7 F1000.
N65 X-24.244 Y-12.234 F3000.
N70 X-22.908 Y-12.663
N75 X-21.591 Y-12.793
N80 X-20.201 Y-12.643
N85 X-18.71 Y-12.214
N90 X-20.054 Y-11.552
N95 X-20.176 Y-11.485
N100 X-21.642 Y-10.596
N105 X-21.678 Y-10.573
N110 X-23.074 Y-9.673
N115 X-24.165 Y-9.016
N120 X-24.989 Y-8.588
N125 X-25.566 Y-8.364
N130 X-25.942 Y-8.29
N135 X-26.235 Y-8.299
N140 X-26.608 Y-8.391
N145 X-27.175 Y-8.618
N150 X-27.669 Y-8.838
N155 X-27.688 Y-8.846
N160 X-28.091 Y-9.02
N165 X-28.145 Y-9.042
N170 X-28.437 Y-9.156
N175 X-28.508 Y-9.181
N180 X-27.105 Y-10.415
N185 X-25.648 Y-11.477
N190 X-25.547 Y-11.532
N195 Z-3.175 F1000.
N200 X-24.244 Y-12.234 F3000.
N205 X-22.908 Y-12.663
N210 X-21.591 Y-12.793
N215 X-20.201 Y-12.643
N220 X-18.71 Y-12.214
N225 X-20.054 Y-11.552
N230 X-20.176 Y-11.485
N235 X-21.642 Y-10.596
N240 X-21.678 Y-10.573
N245 X-23.074 Y-9.673
N250 X-24.165 Y-9.016
N255 X-24.989 Y-8.588
N260 X-25.566 Y-8.364
N265 X-25.942 Y-8.29
N270 X-26.235 Y-8.299
N275 X-26.608 Y-8.391
N280 X-27.175 Y-8.618
N285 X-27.669 Y-8.838
N290 X-27.688 Y-8.846
N295 X-28.091 Y-9.02
N300 X-28.145 Y-9.042
N305 X-28.437 Y-9.156
N310 X-28.508 Y-9.181
N315 X-27.105 Y-10.415
N320 X-25.648 Y-11.477
N325 X-25.547 Y-11.532
N330 Z5.
N335 X-34.925 Y-13.014
N340 Z2.7 F1000.
N345 Z-1.7
N350 X-34.887 Y-13.216 F3000.
N355 X-34.717 Y-12.913
N360 X-34.828 Y-12.924
N365 X-34.94 Y-12.928
N370 X-34.925 Y-13.014
N375 Z-3.175 F1000.
N380 X-34.887 Y-13.216 F3000.
N385 X-34.717 Y-12.913
N390 X-34.828 Y-12.924
N395 X-34.94 Y-12.928
N400 X-34.925 Y-13.014
N405 Z5.
N410 X-51.118 Y-19.23
N415 Z2.7 F1000.
N420 Z-1.7
N425 X-51.232 Y-19.225 F3000.
N430 X-51.347
N435 X-51.575 Y-19.227
N440 X-51.804 Y-19.226
N445 X-52.032 Y-19.224
N450 X-52.069 Y-19.231
N455 X-52.1 Y-19.251
N460 X-52.122 Y-19.282
N465 X-52.13 Y-19.318
N470 X-52.125 Y-19.355
N475 X-52.106 Y-19.387
N480 X-52.076 Y-19.41
N485 X-52.04 Y-19.42
N490 X-52.024 Y-19.421
N495 X-52.007
N500 G3 X-51.552 Y-19.437 I0.662 J12.677
N505 X-51.097 Y-19.442 I0.661 J40.544
N510 G1 X-51.035 Y-19.443
N515 X-50.973 Y-19.444
N520 X-50.937 Y-19.436
N525 X-50.907 Y-19.417
N530 X-50.886 Y-19.387
N535 X-50.877 Y-19.352
N540 X-50.881 Y-19.316
N545 X-50.898 Y-19.284
N550 X-50.926 Y-19.26
N555 X-50.96 Y-19.248
N560 X-51.039 Y-19.238
N565 X-51.118 Y-19.23
N570 G2 X-52.234 Y-18.433 I0.096 J1.315
N575 G3 X-53.423 Y-17.749 I-1.049 J-0.448
N580 G1 X-53.653 Y-17.778
N585 G3 X-54.696 Y-17.948 I2.225 J-16.96
N590 G2 X-55.739 Y-18.118 I-3.227 J16.536
N595 X-56.65 Y-18.214 I-2.417 J18.486
N600 G3 X-57.561 Y-18.311 I1.506 J-18.583
N605 X-57.661 Y-18.594 I0.022 J-0.167
N610 G1 X-57.627 Y-18.629
N615 X-57.592 Y-18.662
N620 G3 X-57.295 Y-18.923 I3.343 J3.505
N625 X-56.982 Y-19.164 I5.264 J6.507
N630 G2 X-56.193 Y-19.764 I-17.182 J-23.418
N635 G3 X-55.353 Y-20.292 I2.897 J3.678
N640 X-53.272 Y-20.907 I2.855 J5.837
N645 X-51.106 Y-21.041 I2.263 J18.875
N650 X-49.023 Y-21.008 I0.25 J49.15
N655 X-46.943 Y-20.917 I-6.046 J162.084
N660 X-46.79 Y-20.629 I-0.01 J0.19
N665 X-47.098 Y-20.21 I-2.421 J-1.459
N670 G2 X-47.44 Y-19.817 I17.846 J15.867
N675 G3 X-48.657 Y-18.563 I-10.183 J-8.664
N680 X-50.203 Y-17.746 I-2.376 J-2.629
N685 X-51.929 Y-17.604 I-1.323 J-5.486
N690 X-53.423 Y-17.749 I2.107 J-29.374
N695 G2 X-55.152 Y-16.919 I-0.217 J1.764
N700 G3 X-56.882 Y-16.088 I-1.502 J-0.912
N705 G1 X-57.99 Y-16.233
N710 X-58.131 Y-16.245
N715 X-60.128 Y-16.327
N720 X-60.255
N725 X-62.253 Y-16.249
N730 X-62.368 Y-16.241
N735 X-62.261 Y-16.381
N740 X-61.372 Y-17.539
N745 X-60.548 Y-18.556
N750 X-59.772 Y-19.447
N755 X-59.056 Y-20.197
N760 X-57.655 Y-21.414
N765 X-56.307 Y-22.242
N770 X-54.864 Y-22.783
N775 X-53.152 Y-23.1
N780 X-52.203 Y-23.175
N785 X-51.117 Y-23.202
N790 X-49.914 Y-23.184
N795 X-48.577 Y-23.123
N800 X-48.202 Y-23.101
N805 X-47.471 Y-23.062
N810 X-46.508 Y-23.013
N815 X-45.425 Y-22.965
N820 X-45.411 Y-22.964
N825 X-44.331 Y-22.925
N830 X-44.309 Y-22.924
N835 X-43.609 Y-22.909
N840 X-43.735 Y-22.531
N845 X-43.745 Y-22.502
N850 X-43.987 Y-21.724
N855 X-44.201 Y-21.109
N860 X-44.635 Y-20.105
N865 X-45.127 Y-19.288
N870 X-45.802 Y-18.424
N875 X-46.834 Y-17.31
N880 X-47.789 Y-16.508
N885 X-48.714 Y-15.971
N890 X-49.694 Y-15.637
N895 X-50.843 Y-15.47
N900 X-52.243 Y-15.468
N905 X-53.934 Y-15.635
N910 X-55.969 Y-15.968
N915 X-56.02 Y-15.976
N920 X-56.882 Y-16.088
N925 G3 X-57.079 Y-17.839 I0.118 J-0.899
N930 G1 X-54.058 Y-18.956
N935 X-53.979 Y-18.981
N940 X-53.899 Y-18.999
N945 X-53.817 Y-19.009
N950 X-51.118 Y-19.23
N955 Z-3.175 F1000.
N960 X-51.232 Y-19.225 F3000.
N965 X-51.347
N970 X-51.575 Y-19.227
N975 X-51.804 Y-19.226
N980 X-52.032 Y-19.224
N985 X-52.069 Y-19.231
N990 X-52.1 Y-19.251
N995 X-52.122 Y-19.282
N1000 X-52.13 Y-19.318
N1005 X-52.125 Y-19.355
N1010 X-52.106 Y-19.387
N1015 X-52.076 Y-19.41
N1020 X-52.04 Y-19.42
N1025 X-52.024 Y-19.421
N1030 X-52.007
N1035 G3 X-51.552 Y-19.437 I0.662 J12.677
N1040 X-51.097 Y-19.442 I0.661 J40.544
N1045 G1 X-51.035 Y-19.443
N1050 X-50.973 Y-19.444
N1055 X-50.937 Y-19.436
N1060 X-50.907 Y-19.417
N1065 X-50.886 Y-19.387
N1070 X-50.877 Y-19.352
N1075 X-50.881 Y-19.316
N1080 X-50.898 Y-19.284
N1085 X-50.926 Y-19.26
N1090 X-50.96 Y-19.248
N1095 X-51.039 Y-19.238
N1100 X-51.118 Y-19.23
N1105 G2 X-52.234 Y-18.433 I0.096 J1.315
N1110 G3 X-53.423 Y-17.749 I-1.049 J-0.448
N1115 G1 X-53.653 Y-17.778
N1120 G3 X-54.696 Y-17.948 I2.225 J-16.96
N1125 G2 X-55.739 Y-18.118 I-3.227 J16.536
N1130 X-56.65 Y-18.214 I-2.417 J18.486
N1135 G3 X-57.561 Y-18.311 I1.506 J-18.583
N1140 X-57.661 Y-18.594 I0.022 J-0.167
N1145 G1 X-57.627 Y-18.629
N1150 X-57.592 Y-18.662
N1155 G3 X-57.295 Y-18.923 I3.343 J3.505
N1160 X-56.982 Y-19.164 I5.264 J6.507
N1165 G2 X-56.193 Y-19.764 I-17.182 J-23.418
N1170 G3 X-55.353 Y-20.292 I2.897 J3.678
N1175 X-53.272 Y-20.907 I2.855 J5.837
N1180 X-51.106 Y-21.041 I2.263 J18.875
N1185 X-49.023 Y-21.008 I0.25 J49.15
N1190 X-46.943 Y-20.917 I-6.046 J162.084
N1195 X-46.79 Y-20.629 I-0.01 J0.19
N1200 X-47.098 Y-20.21 I-2.421 J-1.459
N1205 G2 X-47.44 Y-19.817 I17.846 J15.867
N1210 G3 X-48.657 Y-18.563 I-10.183 J-8.664
N1215 X-50.203 Y-17.746 I-2.376 J-2.629
N1220 X-51.929 Y-17.604 I-1.323 J-5.486
N1225 X-53.423 Y-17.749 I2.107 J-29.374
N1230 G2 X-55.152 Y-16.919 I-0.217 J1.764
N1235 G3 X-56.882 Y-16.088 I-1.502 J-0.912
N1240 G1 X-57.99 Y-16.233
N1245 X-58.131 Y-16.245
N1250 X-60.128 Y-16.327
N1255 X-60.255
N1260 X-62.253 Y-16.249
N1265 X-62.368 Y-16.241
N1270 X-62.261 Y-16.381
N1275 X-61.372 Y-17.539
N1280 X-60.548 Y-18.556
N1285 X-59.772 Y-19.447
N1290 X-59.056 Y-20.197
N1295 X-57.655 Y-21.414
N1300 X-56.307 Y-22.242
N1305 X-54.864 Y-22.783
N1310 X-53.152 Y-23.1
N1315 X-52.203 Y-23.175
N1320 X-51.117 Y-23.202
N1325 X-49.914 Y-23.184
N1330 X-48.577 Y-23.123
N1335 X-48.202 Y-23.101
N1340 X-47.471 Y-23.062
N1345 X-46.508 Y-23.013
N1350 X-45.425 Y-22.965
N1355 X-45.411 Y-22.964
N1360 X-44.331 Y-22.925
N1365 X-44.309 Y-22.924
N1370 X-43.609 Y-22.909
N1375 X-43.735 Y-22.531
N1380 X-43.745 Y-22.502
N1385 X-43.987 Y-21.724
N1390 X-44.201 Y-21.109
N1395 X-44.635 Y-20.105
N1400 X-45.127 Y-19.288
N1405 X-45.802 Y-18.424
N1410 X-46.834 Y-17.31
N1415 X-47.789 Y-16.508
N1420 X-48.714 Y-15.971
N1425 X-49.694 Y-15.637
N1430 X-50.843 Y-15.47
N1435 X-52.243 Y-15.468
N1440 X-53.934 Y-15.635
N1445 X-55.969 Y-15.968
N1450 X-56.02 Y-15.976
N1455 X-56.882 Y-16.088
N1460 Z5.
N1465 X-50.68 Y-44.743
N1470 Z2.7 F1000.
N1475 Z-1.7
N1480 X-51.421 Y-46.172 F3000.
N1485 G2 X-52.055 Y-46.827 I-1.41 J0.73
N1490 G1 X-53.071 Y-47.396
N1495 X-53.397 Y-47.604
N1500 X-53.832 Y-47.926
N1505 X-54.381 Y-48.368
N1510 X-55.01 Y-48.905
N1515 X-56.477 Y-50.233
N1520 X-58.093 Y-51.781
N1525 X-61.426 Y-55.197
N1530 X-62.926 Y-56.851
N1535 X-64.225 Y-58.384
N1540 X-64.239 Y-58.399
N1545 X-66.558 Y-61.066
N1550 X-66.502 Y-61.228
N1555 G2 X-66.425 Y-61.562 I-1.5 J-0.521
N1560 G1 X-66.317 Y-62.475
N1565 G2 X-66.309 Y-62.767 I-1.576 J-0.187
N1570 G1 X-66.371 Y-63.697
N1575 X-66.379 Y-63.781
N1580 X-66.429 Y-64.205
N1585 X-66.219 Y-63.955
N1590 X-64.21 Y-61.466
N1595 X-63.248 Y-60.244
N1600 X-62.381 Y-59.13
N1605 X-61.332 Y-57.783
N1610 X-61.323 Y-57.772
N1615 X-60.44 Y-56.661
N1620 X-60.424 Y-56.64
N1625 X-59.654 Y-55.704
N1630 X-59.629 Y-55.674
N1635 X-58.918 Y-54.851
N1640 X-58.87 Y-54.798
N1645 X-57.414 Y-53.26
N1650 X-57.373 Y-53.219
N1655 X-56.523 Y-52.384
N1660 X-56.508 Y-52.369
N1665 X-55.503 Y-51.41
N1670 X-55.496 Y-51.402
N1675 X-54.583 Y-50.542
N1680 X-54.572 Y-50.532
N1685 X-53.795 Y-49.813
N1690 X-53.777 Y-49.796
N1695 X-53.113 Y-49.201
N1700 X-53.083 Y-49.175
N1705 X-52.509 Y-48.686
N1710 X-52.438 Y-48.629
N1715 X-51.472 Y-47.896
N1720 X-51.406 Y-47.849
N1725 X-51.339 Y-47.805
N1730 X-50.44 Y-47.258
N1735 X-50.334 Y-47.199
N1740 X-49.614 Y-46.832
N1745 X-49.557 Y-46.805
N1750 X-48.664 Y-46.394
N1755 X-48.612 Y-46.371
N1760 X-46.55 Y-45.51
N1765 X-46.491 Y-45.487
N1770 X-44.466 Y-44.736
N1775 X-44.404 Y-44.714
N1780 X-43.556 Y-44.439
N1785 X-43.477 Y-44.416
N1790 X-42.821 Y-44.24
N1795 X-42.749 Y-44.223
N1800 X-41.852 Y-44.026
N1805 G2 X-41.202 Y-44.02 I0.339 J-1.551
N1810 G1 X-41.083 Y-43.942
N1815 X-40.749 Y-43.741
N1820 G2 X-40.486 Y-43.614 I0.817 J-1.361
N1825 G1 X-40.179 Y-43.5
N1830 X-40.1 Y-43.473
N1835 X-39.685 Y-43.343
N1840 X-39.641 Y-43.33
N1845 X-39.106 Y-43.179
N1850 X-39.081 Y-43.173
N1855 X-38.423 Y-42.998
N1860 X-35.782 Y-42.263
N1865 X-33.197 Y-41.433
N1870 X-30.66 Y-40.477
N1875 X-28.147 Y-39.307
N1880 X-28.096 Y-39.285
N1885 X-27.567 Y-39.061
N1890 X-27.474 Y-39.025
N1895 X-27.379 Y-38.995
N1900 X-26.711 Y-38.807
N1905 X-26.614 Y-38.783
N1910 X-26.516 Y-38.765
N1915 X-25.365 Y-38.592
N1920 X-25.358 Y-38.446
N1925 X-25.336 Y-38.192
N1930 G2 X-24.991 Y-37.337 I1.581 J-0.141
N1935 G1 X-24.659 Y-36.924
N1940 X-24.604 Y-36.86
N1945 X-24.546 Y-36.799
N1950 X-23.928 Y-36.179
N1955 X-23.898 Y-36.15
N1960 X-23.022 Y-35.318
N1965 X-20.75 Y-32.987
N1970 X-18.896 Y-30.856
N1975 X-20.16 Y-32.231
N1980 X-20.173 Y-32.246
N1985 X-21.266 Y-33.406
N1990 X-21.287 Y-33.428
N1995 X-22.235 Y-34.395
N2000 X-22.266 Y-34.427
N2005 X-23.108 Y-35.24
N2010 X-23.152 Y-35.28
N2015 X-23.94 Y-35.986
N2020 X-24.022 Y-36.055
N2025 X-25.634 Y-37.312
N2030 X-25.758 Y-37.4
N2035 X-28.031 Y-38.846
N2040 X-28.103 Y-38.889
N2045 X-28.177 Y-38.928
N2050 X-29.396 Y-39.534
N2055 X-29.499 Y-39.581
N2060 X-30.885 Y-40.151
N2065 X-30.971 Y-40.183
N2070 X-32.6 Y-40.745
N2075 X-32.662 Y-40.765
N2080 X-34.601 Y-41.346
N2085 X-34.633 Y-41.356
N2090 X-35.74 Y-41.662
N2095 X-35.756 Y-41.667
N2100 X-36.965 Y-41.989
N2105 X-36.976 Y-41.992
N2110 X-38.297 Y-42.333
N2115 X-39.743 Y-42.698
N2120 X-43.111 Y-43.552
N2125 X-44.693 Y-43.964
N2130 X-45.448 Y-44.165
N2135 X-45.928 Y-44.297
N2140 X-46.26 Y-44.396
N2145 X-46.797 Y-44.561
N2150 X-46.877 Y-44.583
N2155 X-46.958 Y-44.601
N2160 X-47.355 Y-44.679
N2165 G2 X-49.243 Y-43.251 I-0.305 J1.558
N2170 G1 X-49.256 Y-43.092
N2175 G2 X-49.201 Y-42.53 I1.582 J0.13
N2180 G1 X-49.136 Y-42.301
N2185 X-49.097 Y-42.18
N2190 X-48.938 Y-41.752
N2195 X-48.898 Y-41.655
N2200 X-48.425 Y-40.602
N2205 X-48.405 Y-40.558
N2210 X-48.177 Y-40.09
N2215 X-47.842 Y-39.4
N2220 X-47.05 Y-37.772
N2225 X-46.75 Y-37.154
N2230 X-48.659 Y-40.839
N2235 X-50.68 Y-44.743
N2240 Z-3.175 F1000.
N2245 X-51.421 Y-46.172 F3000.
N2250 G2 X-52.055 Y-46.827 I-1.41 J0.73
N2255 G1 X-53.071 Y-47.396
N2260 X-53.397 Y-47.604
N2265 X-53.832 Y-47.926
N2270 X-54.381 Y-48.368
N2275 X-55.01 Y-48.905
N2280 X-56.477 Y-50.233
N2285 X-58.093 Y-51.781
N2290 X-61.426 Y-55.197
N2295 X-62.926 Y-56.851
N2300 X-64.225 Y-58.384
N2305 X-64.239 Y-58.399
N2310 X-66.558 Y-61.066
N2315 X-66.502 Y-61.228
N2320 G2 X-66.425 Y-61.562 I-1.5 J-0.521
N2325 G1 X-66.317 Y-62.475
N2330 G2 X-66.309 Y-62.767 I-1.576 J-0.187
N2335 G1 X-66.371 Y-63.697
N2340 X-66.379 Y-63.781
N2345 X-66.429 Y-64.205
N2350 X-66.219 Y-63.955
N2355 X-64.21 Y-61.466
N2360 X-63.248 Y-60.244
N2365 X-62.381 Y-59.13
N2370 X-61.332 Y-57.783
N2375 X-61.323 Y-57.772
N2380 X-60.44 Y-56.661
N2385 X-60.424 Y-56.64
N2390 X-59.654 Y-55.704
N2395 X-59.629 Y-55.674
N2400 X-58.918 Y-54.851
N2405 X-58.87 Y-54.798
N2410 X-57.414 Y-53.26
N2415 X-57.373 Y-53.219
N2420 X-56.523 Y-52.384
N2425 X-56.508 Y-52.369
N2430 X-55.503 Y-51.41
N2435 X-55.496 Y-51.402
N2440 X-54.583 Y-50.542
N2445 X-54.572 Y-50.532
N2450 X-53.795 Y-49.813
N2455 X-53.777 Y-49.796
N2460 X-53.113 Y-49.201
N2465 X-53.083 Y-49.175
N2470 X-52.509 Y-48.686
N2475 X-52.438 Y-48.629
N2480 X-51.472 Y-47.896
N2485 X-51.406 Y-47.849
N2490 X-51.339 Y-47.805
N2495 X-50.44 Y-47.258
N2500 X-50.334 Y-47.199
N2505 X-49.614 Y-46.832
N2510 X-49.557 Y-46.805
N2515 X-48.664 Y-46.394
N2520 X-48.612 Y-46.371
N2525 X-46.55 Y-45.51
N2530 X-46.491 Y-45.487
N2535 X-44.466 Y-44.736
N2540 X-44.404 Y-44.714
N2545 X-43.556 Y-44.439
N2550 X-43.477 Y-44.416
N2555 X-42.821 Y-44.24
N2560 X-42.749 Y-44.223
N2565 X-41.852 Y-44.026
N2570 G2 X-41.202 Y-44.02 I0.339 J-1.551
N2575 G1 X-41.083 Y-43.942
N2580 X-40.749 Y-43.741
N2585 G2 X-40.486 Y-43.614 I0.817 J-1.361
N2590 G1 X-40.179 Y-43.5
N2595 X-40.1 Y-43.473
N2600 X-39.685 Y-43.343
N2605 X-39.641 Y-43.33
N2610 X-39.106 Y-43.179
N2615 X-39.081 Y-43.173
N2620 X-38.423 Y-42.998
N2625 X-35.782 Y-42.263
N2630 X-33.197 Y-41.433
N2635 X-30.66 Y-40.477
N2640 X-28.147 Y-39.307
N2645 X-28.096 Y-39.285
N2650 X-27.567 Y-39.061
N2655 X-27.474 Y-39.025
N2660 X-27.379 Y-38.995
N2665 X-26.711 Y-38.807
N2670 X-26.614 Y-38.783
N2675 X-26.516 Y-38.765
N2680 X-25.365 Y-38.592
N2685 X-25.358 Y-38.446
N2690 X-25.336 Y-38.192
N2695 G2 X-24.991 Y-37.337 I1.581 J-0.141
N2700 G1 X-24.659 Y-36.924
N2705 X-24.604 Y-36.86
N2710 X-24.546 Y-36.799
N2715 X-23.928 Y-36.179
N2720 X-23.898 Y-36.15
N2725 X-23.022 Y-35.318
N2730 X-20.75 Y-32.987
N2735 X-18.896 Y-30.856
N2740 X-20.16 Y-32.231
N2745 X-20.173 Y-32.246
N2750 X-21.266 Y-33.406
N2755 X-21.287 Y-33.428
N2760 X-22.235 Y-34.395
N2765 X-22.266 Y-34.427
N2770 X-23.108 Y-35.24
N2775 X-23.152 Y-35.28
N2780 X-23.94 Y-35.986
N2785 X-24.022 Y-36.055
N2790 X-25.634 Y-37.312
N2795 X-25.758 Y-37.4
N2800 X-28.031 Y-38.846
N2805 X-28.103 Y-38.889
N2810 X-28.177 Y-38.928
N2815 X-29.396 Y-39.534
N2820 X-29.499 Y-39.581
N2825 X-30.885 Y-40.151
N2830 X-30.971 Y-40.183
N2835 X-32.6 Y-40.745
N2840 X-32.662 Y-40.765
N2845 X-34.601 Y-41.346
N2850 X-34.633 Y-41.356
N2855 X-35.74 Y-41.662
N2860 X-35.756 Y-41.667
N2865 X-36.965 Y-41.989
N2870 X-36.976 Y-41.992
N2875 X-38.297 Y-42.333
N2880 X-39.743 Y-42.698
N2885 X-43.111 Y-43.552
N2890 X-44.693 Y-43.964
N2895 X-45.448 Y-44.165
N2900 X-45.928 Y-44.297
N2905 X-46.26 Y-44.396
N2910 X-46.797 Y-44.561
N2915 X-46.877 Y-44.583
N2920 X-46.958 Y-44.601
N2925 X-47.355 Y-44.679
N2930 G2 X-49.243 Y-43.251 I-0.305 J1.558
N2935 G1 X-49.256 Y-43.092
N2940 G2 X-49.201 Y-42.53 I1.582 J0.13
N2945 G1 X-49.136 Y-42.301
N2950 X-49.097 Y-42.18
N2955 X-48.938 Y-41.752
N2960 X-48.898 Y-41.655
N2965 X-48.425 Y-40.602
N2970 X-48.405 Y-40.558
N2975 X-48.177 Y-40.09
N2980 X-47.842 Y-39.4
N2985 X-47.05 Y-37.772
N2990 X-46.75 Y-37.154
N2995 X-48.659 Y-40.839
N3000 X-50.68 Y-44.743
N3005 Z5.
N3010 X-35.182 Y-58.122
N3015 Z2.7 F1000.
N3020 Z-1.7
N3025 G3 X-35.417 Y-57.848 I-16.999 J-14.388 F3000.
N3030 X-36.9 Y-56.342 I-13.491 J-11.8
N3035 G2 X-38.383 Y-54.836 I14.281 J15.543
N3040 G1 X-39.212 Y-53.905
N3045 G2 X-39.834 Y-53.151 I9.677 J8.617
N3050 X-40.01 Y-52.905 I3.853 J2.942
N3055 G3 X-40.187 Y-52.658 I-4.029 J-2.696
N3060 X-40.479 Y-52.714 I-0.132 J-0.101
N3065 G1 X-40.487 Y-52.744
N3070 X-40.494 Y-52.775
N3075 G3 X-40.532 Y-53.045 I2.136 J-0.437
N3080 X-40.548 Y-53.317 I8.14 J-0.627
N3085 X-40.549 Y-54.095 I9.112 J-0.396
N3090 X-40.401 Y-54.86 I2.626 J0.11
N3095 X-39.702 Y-56.299 I6.704 J2.366
N3100 X-38.81 Y-57.628 I25.755 J16.321
N3105 X-36.818 Y-60.259 I43.341 J30.767
N3110 G2 X-34.753 Y-62.833 I-387.149 J-312.705
N3115 G3 X-34.328 Y-62.863 I0.226 J0.18
N3120 X-33.996 Y-62.372 I-0.946 J0.999
N3125 X-33.803 Y-61.812 I-5.866 J2.334
N3130 X-33.66 Y-61.021 I-3.662 J1.072
N3135 X-33.783 Y-60.227 I-1.773 J0.131
N3140 X-34.5 Y-58.969 I-4.965 J-1.995
N3145 X-35.182 Y-58.122 I-17.681 J-13.541
N3150 G2 X-35.442 Y-56.202 I1.375 J1.163
N3155 G3 X-35.783 Y-54.296 I-1.534 J0.709
N3160 G1 X-36.657 Y-53.425
N3165 X-36.722 Y-53.356
N3170 X-38.01 Y-51.909
N3175 X-38.086 Y-51.817
N3180 X-39.199 Y-50.359
N3185 X-39.264 Y-50.268
N3190 X-40.266 Y-48.744
N3195 X-40.296 Y-48.697
N3200 X-40.77 Y-47.919
N3205 X-40.78 Y-47.901
N3210 X-40.822 Y-47.831
N3215 X-41.235 Y-48.704
N3220 X-41.726 Y-49.779
N3225 X-42.124 Y-50.74
N3230 X-42.432 Y-51.602
N3235 X-42.637 Y-52.336
N3240 X-42.825 Y-53.762
N3245 X-42.8 Y-54.333
N3250 X-42.695 Y-54.95
N3255 X-42.502 Y-55.601
N3260 X-42.21 Y-56.31
N3265 X-41.805 Y-57.092
N3270 X-41.279 Y-57.957
N3275 X-40.625 Y-58.916
N3280 X-39.841 Y-59.978
N3285 X-38.924 Y-61.151
N3290 X-37.866 Y-62.455
N3295 X-36.58 Y-64.038
N3300 X-36.57 Y-64.049
N3305 X-35.945 Y-64.834
N3310 X-35.758 Y-65.072
N3315 X-35.392 Y-65.54
N3320 X-35.383 Y-65.551
N3325 X-34.956 Y-66.107
N3330 X-34.935 Y-66.136
N3335 X-34.873 Y-66.221
N3340 X-34.364 Y-65.803
N3345 X-33.147 Y-64.745
N3350 X-32.681 Y-64.305
N3355 X-32.29 Y-63.882
N3360 X-31.987 Y-63.324
N3365 X-31.671 Y-62.436
N3370 X-31.458 Y-61.515
N3375 X-31.393 Y-60.811
N3380 X-31.48 Y-60.12
N3385 X-31.713 Y-59.396
N3390 X-32.078 Y-58.644
N3395 X-32.531 Y-57.915
N3400 X-33.74 Y-56.381
N3405 X-35.137 Y-54.94
N3410 X-35.783 Y-54.296
N3415 G3 X-36.12 Y-54.448 I-0.14 J-0.14
N3420 G1 X-36.065 Y-55.293
N3425 X-35.417 Y-58.04
N3430 X-35.307 Y-58.213
N3435 X-35.285 Y-58.234
N3440 X-35.256 Y-58.245
N3445 X-35.225
N3450 X-35.197 Y-58.232
N3455 X-35.176 Y-58.209
N3460 X-35.166 Y-58.18
N3465 X-35.168 Y-58.149
N3470 X-35.182 Y-58.122
N3475 Z-3.175 F1000.
N3480 G3 X-35.417 Y-57.848 I-16.999 J-14.388 F3000.
N3485 X-36.9 Y-56.342 I-13.491 J-11.8
N3490 G2 X-38.383 Y-54.836 I14.281 J15.543
N3495 G1 X-39.212 Y-53.905
N3500 G2 X-39.834 Y-53.151 I9.677 J8.617
N3505 X-40.01 Y-52.905 I3.853 J2.942
N3510 G3 X-40.187 Y-52.658 I-4.029 J-2.696
N3515 X-40.479 Y-52.714 I-0.132 J-0.101
N3520 G1 X-40.487 Y-52.744
N3525 X-40.494 Y-52.775
N3530 G3 X-40.532 Y-53.045 I2.136 J-0.437
N3535 X-40.548 Y-53.317 I8.14 J-0.627
N3540 X-40.549 Y-54.095 I9.112 J-0.396
N3545 X-40.401 Y-54.86 I2.626 J0.11
N3550 X-39.702 Y-56.299 I6.704 J2.366
N3555 X-38.81 Y-57.628 I25.755 J16.321
N3560 X-36.818 Y-60.259 I43.341 J30.767
N3565 G2 X-34.753 Y-62.833 I-387.149 J-312.705
N3570 G3 X-34.328 Y-62.863 I0.226 J0.18
N3575 X-33.996 Y-62.372 I-0.946 J0.999
N3580 X-33.803 Y-61.812 I-5.866 J2.334
N3585 X-33.66 Y-61.021 I-3.662 J1.072
N3590 X-33.783 Y-60.227 I-1.773 J0.131
N3595 X-34.5 Y-58.969 I-4.965 J-1.995
N3600 X-35.182 Y-58.122 I-17.681 J-13.541
N3605 G2 X-35.442 Y-56.202 I1.375 J1.163
N3610 G3 X-35.783 Y-54.296 I-1.534 J0.709
N3615 G1 X-36.657 Y-53.425
N3620 X-36.722 Y-53.356
N3625 X-38.01 Y-51.909
N3630 X-38.086 Y-51.817
N3635 X-39.199 Y-50.359
N3640 X-39.264 Y-50.268
N3645 X-40.266 Y-48.744
N3650 X-40.296 Y-48.697
N3655 X-40.77 Y-47.919
N3660 X-40.78 Y-47.901
N3665 X-40.822 Y-47.831
N3670 X-41.235 Y-48.704
N3675 X-41.726 Y-49.779
N3680 X-42.124 Y-50.74
N3685 X-42.432 Y-51.602
N3690 X-42.637 Y-52.336
N3695 X-42.825 Y-53.762
N3700 X-42.8 Y-54.333
N3705 X-42.695 Y-54.95
N3710 X-42.502 Y-55.601
N3715 X-42.21 Y-56.31
N3720 X-41.805 Y-57.092
N3725 X-41.279 Y-57.957
N3730 X-40.625 Y-58.916
N3735 X-39.841 Y-59.978
N3740 X-38.924 Y-61.151
N3745 X-37.866 Y-62.455
N3750 X-36.58 Y-64.038
N3755 X-36.57 Y-64.049
N3760 X-35.945 Y-64.834
N3765 X-35.758 Y-65.072
N3770 X-35.392 Y-65.54
N3775 X-35.383 Y-65.551
N3780 X-34.956 Y-66.107
N3785 X-34.935 Y-66.136
N3790 X-34.873 Y-66.221
N3795 X-34.364 Y-65.803
N3800 X-33.147 Y-64.745
N3805 X-32.681 Y-64.305
N3810 X-32.29 Y-63.882
N3815 X-31.987 Y-63.324
N3820 X-31.671 Y-62.436
N3825 X-31.458 Y-61.515
N3830 X-31.393 Y-60.811
N3835 X-31.48 Y-60.12
N3840 X-31.713 Y-59.396
N3845 X-32.078 Y-58.644
N3850 X-32.531 Y-57.915
N3855 X-33.74 Y-56.381
N3860 X-35.137 Y-54.94
N3865 X-35.783 Y-54.296
N3870 Z5.
N3875 X-13.006 Y-45.301
N3880 Z2.7 F1000.
N3885 Z-1.7
N3890 X-13.039 Y-45.264 F3000.
N3895 G3 X-13.234 Y-45.057 I-3.414 J-3.011
N3900 X-13.701 Y-45.046 I-0.239 J-0.239
N3905 G1 X-14.245 Y-45.542
N3910 G3 X-14.235 Y-45.956 I0.185 J-0.203
N3915 X-12.583 Y-47.108 I7.821 J9.455
N3920 X-10.725 Y-47.884 I3.859 J6.635
N3925 G2 X-10.376 Y-47.979 I-14.466 J-53.583
N3930 G3 X-10.022 Y-48.052 I0.722 J2.607
N3935 G1 X-9.969 Y-48.057
N3940 X-9.929 Y-48.054
N3945 X-9.892 Y-48.037
N3950 X-9.862 Y-48.01
N3955 X-9.843 Y-47.975
N3960 X-9.836 Y-47.935
N3965 X-9.842 Y-47.895
N3970 X-9.861 Y-47.859
N3975 X-9.89 Y-47.831
N3980 G2 X-11.421 Y-46.719 I21.657 J31.41
N3985 X-12.845 Y-45.471 I8.702 J11.37
N3990 G1 X-13.006 Y-45.301
N3995 G2 X-13.233 Y-43.9 I0.971 J0.876
N4000 G3 X-14.387 Y-43.075 I-0.664 J0.291
N4005 X-15.358 Y-43.967 I297.595 J-324.688
N4010 G2 X-17.124 Y-45.56 I-72.25 J78.355
N4015 G3 X-17.125 Y-45.974 I0.183 J-0.207
N4020 X-14.39 Y-48.189 I26.288 J29.655
N4025 X-11.221 Y-49.721 I5.644 J7.638
N4030 X-8.756 Y-49.926 I1.794 J6.645
N4035 X-6.401 Y-49.17 I-0.571 J5.826
N4040 X-6.246 Y-48.577 I-0.215 J0.373
N4045 G2 X-6.572 Y-47.89 I3.509 J2.085
N4050 G3 X-7.168 Y-47.223 I-1.134 J-0.413
N4055 G2 X-8.409 Y-46.559 I10.582 J21.281
N4060 X-9.566 Y-45.759 I4.142 J7.223
N4065 X-11.442 Y-44.152 I42.514 J51.526
N4070 X-13.17 Y-42.387 I11.918 J13.402
N4075 G3 X-13.605 Y-42.36 I-0.23 J-0.196
N4080 X-14.387 Y-43.075 I296.813 J-325.403
N4085 G2 X-16.614 Y-43.424 I-1.376 J1.502
N4090 G3 X-18.844 Y-43.751 I-0.863 J-1.878
N4095 G1 X-19.628 Y-44.442
N4100 X-20.611 Y-45.335
N4105 X-21.019 Y-45.721
N4110 X-20.609 Y-46.135
N4115 X-19.091 Y-47.564
N4120 X-17.477 Y-48.995
N4125 X-17.1 Y-49.315
N4130 X-16.582 Y-49.743
N4135 X-16.004 Y-50.198
N4140 X-15.535 Y-50.528
N4145 X-14.359 Y-51.198
N4150 X-13.134 Y-51.757
N4155 X-11.884 Y-52.177
N4160 X-10.625 Y-52.437
N4165 X-9.368 Y-52.524
N4170 X-8.122 Y-52.427
N4175 X-6.923 Y-52.146
N4180 X-5.764 Y-51.682
N4185 X-4.881 Y-51.173
N4190 X-4.301 Y-50.663
N4195 X-3.869 Y-50.043
N4200 X-3.464 Y-49.092
N4205 X-3.252 Y-48.471
N4210 X-3.382 Y-48.322
N4215 X-3.434 Y-48.259
N4220 X-3.482 Y-48.194
N4225 X-4.036 Y-47.404
N4230 G2 X-4.255 Y-46.957 I1.3 J0.912
N4235 G1 X-4.506 Y-46.134
N4240 X-4.537 Y-46.018
N4245 X-4.588 Y-45.791
N4250 X-4.659 Y-45.735
N4255 X-4.969 Y-45.547
N4260 X-5.46 Y-45.286
N4265 X-6.14 Y-44.948
N4270 X-6.217 Y-44.907
N4275 X-6.933 Y-44.501
N4280 X-7.05 Y-44.427
N4285 X-7.841 Y-43.882
N4290 X-7.95 Y-43.8
N4295 X-9.598 Y-42.44
N4300 X-9.71 Y-42.338
N4305 X-11.187 Y-40.861
N4310 X-11.285 Y-40.754
N4315 X-11.877 Y-40.042
N4320 X-11.936 Y-39.966
N4325 X-11.991 Y-39.886
N4330 X-12.508 Y-39.083
N4335 X-12.521 Y-39.062
N4340 X-13.094 Y-39.281
N4345 X-13.67 Y-39.502
N4350 X-13.787 Y-39.542
N4355 X-13.907 Y-39.572
N4360 X-14.402 Y-39.678
N4365 X-14.51 Y-39.697
N4370 G2 X-14.827 Y-40.099 I-1.387 J0.772
N4375 G1 X-18.457 Y-43.409
N4380 X-18.477 Y-43.427
N4385 X-18.844 Y-43.751
N4390 G3 X-18.726 Y-44.239 I0.187 J-0.213
N4395 G1 X-17.449 Y-44.56
N4400 X-13.348 Y-45.403
N4405 X-13.057 Y-45.416
N4410 X-13.025 Y-45.41
N4415 X-13. Y-45.39
N4420 X-12.988 Y-45.36
N4425 X-12.99 Y-45.329
N4430 X-13.006 Y-45.301
N4435 Z-3.175 F1000.
N4440 X-13.039 Y-45.264 F3000.
N4445 G3 X-13.234 Y-45.057 I-3.414 J-3.011
N4450 X-13.701 Y-45.046 I-0.239 J-0.239
N4455 G1 X-14.245 Y-45.542
N4460 G3 X-14.235 Y-45.956 I0.185 J-0.203
N4465 X-12.583 Y-47.108 I7.821 J9.455
N4470 X-10.725 Y-47.884 I3.859 J6.635
N4475 G2 X-10.376 Y-47.979 I-14.466 J-53.583
N4480 G3 X-10.022 Y-48.052 I0.722 J2.607
N4485 G1 X-9.969 Y-48.057
N4490 X-9.929 Y-48.054
N4495 X-9.892 Y-48.037
N4500 X-9.862 Y-48.01
N4505 X-9.843 Y-47.975
N4510 X-9.836 Y-47.935
N4515 X-9.842 Y-47.895
N4520 X-9.861 Y-47.859
N4525 X-9.89 Y-47.831
N4530 G2 X-11.421 Y-46.719 I21.657 J31.41
N4535 X-12.845 Y-45.471 I8.702 J11.37
N4540 G1 X-13.006 Y-45.301
N4545 G2 X-13.233 Y-43.9 I0.971 J0.876
N4550 G3 X-14.387 Y-43.075 I-0.664 J0.291
N4555 X-15.358 Y-43.967 I297.595 J-324.688
N4560 G2 X-17.124 Y-45.56 I-72.25 J78.355
N4565 G3 X-17.125 Y-45.974 I0.183 J-0.207
N4570 X-14.39 Y-48.189 I26.288 J29.655
N4575 X-11.221 Y-49.721 I5.644 J7.638
N4580 X-8.756 Y-49.926 I1.794 J6.645
N4585 X-6.401 Y-49.17 I-0.571 J5.826
N4590 X-6.246 Y-48.577 I-0.215 J0.373
N4595 G2 X-6.572 Y-47.89 I3.509 J2.085
N4600 G3 X-7.168 Y-47.223 I-1.134 J-0.413
N4605 G2 X-8.409 Y-46.559 I10.582 J21.281
N4610 X-9.566 Y-45.759 I4.142 J7.223
N4615 X-11.442 Y-44.152 I42.514 J51.526
N4620 X-13.17 Y-42.387 I11.918 J13.402
N4625 G3 X-13.605 Y-42.36 I-0.23 J-0.196
N4630 X-14.387 Y-43.075 I296.813 J-325.403
N4635 G2 X-16.614 Y-43.424 I-1.376 J1.502
N4640 G3 X-18.844 Y-43.751 I-0.863 J-1.878
N4645 G1 X-19.628 Y-44.442
N4650 X-20.611 Y-45.335
N4655 X-21.019 Y-45.721
N4660 X-20.609 Y-46.135
N4665 X-19.091 Y-47.564
N4670 X-17.477 Y-48.995
N4675 X-17.1 Y-49.315
N4680 X-16.582 Y-49.743
N4685 X-16.004 Y-50.198
N4690 X-15.535 Y-50.528
N4695 X-14.359 Y-51.198
N4700 X-13.134 Y-51.757
N4705 X-11.884 Y-52.177
N4710 X-10.625 Y-52.437
N4715 X-9.368 Y-52.524
N4720 X-8.122 Y-52.427
N4725 X-6.923 Y-52.146
N4730 X-5.764 Y-51.682
N4735 X-4.881 Y-51.173
N4740 X-4.301 Y-50.663
N4745 X-3.869 Y-50.043
N4750 X-3.464 Y-49.092
N4755 X-3.252 Y-48.471
N4760 X-3.382 Y-48.322
N4765 X-3.434 Y-48.259
N4770 X-3.482 Y-48.194
N4775 X-4.036 Y-47.404
N4780 G2 X-4.255 Y-46.957 I1.3 J0.912
N4785 G1 X-4.506 Y-46.134
N4790 X-4.537 Y-46.018
N4795 X-4.588 Y-45.791
N4800 X-4.659 Y-45.735
N4805 X-4.969 Y-45.547
N4810 X-5.46 Y-45.286
N4815 X-6.14 Y-44.948
N4820 X-6.217 Y-44.907
N4825 X-6.933 Y-44.501
N4830 X-7.05 Y-44.427
N4835 X-7.841 Y-43.882
N4840 X-7.95 Y-43.8
N4845 X-9.598 Y-42.44
N4850 X-9.71 Y-42.338
N4855 X-11.187 Y-40.861
N4860 X-11.285 Y-40.754
N4865 X-11.877 Y-40.042
N4870 X-11.936 Y-39.966
N4875 X-11.991 Y-39.886
N4880 X-12.508 Y-39.083
N4885 X-12.521 Y-39.062
N4890 X-13.094 Y-39.281
N4895 X-13.67 Y-39.502
N4900 X-13.787 Y-39.542
N4905 X-13.907 Y-39.572
N4910 X-14.402 Y-39.678
N4915 X-14.51 Y-39.697
N4920 G2 X-14.827 Y-40.099 I-1.387 J0.772
N4925 G1 X-18.457 Y-43.409
N4930 X-18.477 Y-43.427
N4935 X-18.844 Y-43.751
N4940 Z5.
N4945 X-5.006 Y-34.892
N4950 Z2.7 F1000.
N4955 Z-1.7
N4960 X-4.942 Y-34.996 F3000.
N4965 X-4.872 Y-35.096
N4970 G3 X-4.31 Y-35.759 I4.767 J3.47
N4975 X-3.661 Y-36.38 I10.459 J10.277
N4980 X-2.962 Y-36.944 I5.579 J6.198
N4985 X-2.697 Y-36.806 I0.098 J0.136
N4990 X-2.744 Y-36.404 I-2.013 J-0.031
N4995 G2 X-2.83 Y-36.008 I53.916 J11.876
N5000 G3 X-3.321 Y-34.518 I-7.047 J-1.498
N5005 X-4.139 Y-33.18 I-5.907 J-2.692
N5010 X-4.793 Y-32.575 I-2.274 J-1.801
N5015 X-5.584 Y-32.163 I-2.224 J-3.305
N5020 X-5.822 Y-32.364 I-0.064 J-0.166
N5025 X-5.565 Y-33.348 I9.129 J1.862
N5030 G2 X-5.26 Y-34.319 I-75.572 J-24.249
N5035 G3 X-5.006 Y-34.892 I2.517 J0.772
N5040 G2 X-4.968 Y-36.699 I-1.577 J-0.938
N5045 G3 X-4.603 Y-38.468 I1.24 J-0.667
N5050 X-3.27 Y-39.342 I5.504 J6.94
N5055 G1 X-3.206 Y-39.377
N5060 X-3.142 Y-39.411
N5065 G3 X-2.329 Y-39.449 I0.45 J0.907
N5070 G2 X-1.838 Y-39.299 I1.314 J-3.422
N5075 X-1.334 Y-39.199 I1.94 J-8.426
N5080 G3 X-0.778 Y-38.719 I-0.117 J0.697
N5085 X-0.581 Y-36.077 I-5.357 J1.728
N5090 X-1.356 Y-33.544 I-9.787 J-1.609
N5095 X-2.083 Y-32.246 I-8.468 J-3.892
N5100 X-3.039 Y-31.106 I-5.787 J-3.88
N5105 X-4.035 Y-30.451 I-2.248 J-2.336
N5110 X-5.143 Y-30.013 I-11.376 J-27.168
N5115 G2 X-6.427 Y-29.532 I87.24 J234.548
N5120 G3 X-7.716 Y-29.063 I-19.278 J-50.972
N5125 X-8.096 Y-29.276 I-0.096 J-0.274
N5130 X-8.263 Y-30.323 I9.922 J-2.123
N5135 X-8.231 Y-31.382 I3.873 J-0.413
N5140 X-7.799 Y-33.515 I32.103 J5.4
N5145 X-7.159 Y-35.595 I16.373 J3.894
N5150 X-6.613 Y-36.518 I2.936 J1.115
N5155 X-5.888 Y-37.309 I11.592 J9.888
N5160 X-4.656 Y-38.425 I10.241 J10.063
N5165 G1 X-4.603 Y-38.468
N5170 G2 X-3.827 Y-40.568 I-1.338 J-1.688
N5175 G3 X-2.258 Y-42.165 I1.333 J-0.26
N5180 G1 X-2.111 Y-42.147
N5185 X-1.986 Y-42.136
N5190 X-1.764 Y-41.982
N5195 G2 X-1.12 Y-41.719 I0.907 J-1.303
N5200 G1 X-0.882 Y-41.679
N5205 G2 X-0.462 Y-41.664 I0.264 J-1.565
N5210 G1 X-0.039 Y-41.706
N5215 X0.28 Y-41.661
N5220 X0.553 Y-41.583
N5225 X0.769 Y-41.311
N5230 X1.169 Y-40.595
N5235 X1.558 Y-39.687
N5240 X1.85 Y-38.782
N5245 X2.044 Y-37.559
N5250 X2.025 Y-36.305
N5255 X1.829 Y-35.017
N5260 X1.475 Y-33.726
N5265 X0.978 Y-32.471
N5270 X0.358 Y-31.294
N5275 X-0.387 Y-30.21
N5280 X-1.256 Y-29.253
N5285 X-1.919 Y-28.695
N5290 X-2.77 Y-28.209
N5295 X-3.381 Y-27.943
N5300 X-4.249 Y-27.609
N5305 X-5.384 Y-27.202
N5310 X-6.83 Y-26.702
N5315 X-8.852 Y-25.995
N5320 X-8.873 Y-25.988
N5325 X-9.571 Y-25.733
N5330 X-9.669 Y-26.
N5335 X-10.153 Y-27.298
N5340 X-10.523 Y-28.573
N5345 X-10.773 Y-29.743
N5350 X-10.877 Y-30.647
N5355 X-10.858 Y-31.089
N5360 X-10.763 Y-31.808
N5365 X-10.368 Y-33.744
N5370 X-9.827 Y-35.72
N5375 X-9.559 Y-36.506
N5380 X-9.327 Y-37.058
N5385 X-9.093 Y-37.466
N5390 X-8.747 Y-37.948
N5395 X-7.721 Y-39.11
N5400 X-6.518 Y-40.211
N5405 X-5.3 Y-41.089
N5410 X-4.46 Y-41.571
N5415 X-3.666 Y-41.964
N5420 X-2.939 Y-42.258
N5425 X-2.714 Y-42.32
N5430 G2 X-2.258 Y-42.165 I0.732 J-1.409
N5435 G3 X-1.923 Y-41.46 I-0.083 J0.472
N5440 G1 X-3.034 Y-39.47
N5445 X-3.058 Y-39.42
N5450 X-4.919 Y-34.917
N5455 X-5.006 Y-34.892
N5460 Z-3.175 F1000.
N5465 X-4.942 Y-34.996 F3000.
N5470 X-4.872 Y-35.096
N5475 G3 X-4.31 Y-35.759 I4.767 J3.47
N5480 X-3.661 Y-36.38 I10.459 J10.277
N5485 X-2.962 Y-36.944 I5.579 J6.198
N5490 X-2.697 Y-36.806 I0.098 J0.136
N5495 X-2.744 Y-36.404 I-2.013 J-0.031
N5500 G2 X-2.83 Y-36.008 I53.916 J11.876
N5505 G3 X-3.321 Y-34.518 I-7.047 J-1.498
N5510 X-4.139 Y-33.18 I-5.907 J-2.692
N5515 X-4.793 Y-32.575 I-2.274 J-1.801
N5520 X-5.584 Y-32.163 I-2.224 J-3.305
N5525 X-5.822 Y-32.364 I-0.064 J-0.166
N5530 X-5.565 Y-33.348 I9.129 J1.862
N5535 G2 X-5.26 Y-34.319 I-75.572 J-24.249
N5540 G3 X-5.006 Y-34.892 I2.517 J0.772
N5545 G2 X-4.968 Y-36.699 I-1.577 J-0.938
N5550 G3 X-4.603 Y-38.468 I1.24 J-0.667
N5555 X-3.27 Y-39.342 I5.504 J6.94
N5560 G1 X-3.206 Y-39.377
N5565 X-3.142 Y-39.411
N5570 G3 X-2.329 Y-39.449 I0.45 J0.907
N5575 G2 X-1.838 Y-39.299 I1.314 J-3.422
N5580 X-1.334 Y-39.199 I1.94 J-8.426
N5585 G3 X-0.778 Y-38.719 I-0.117 J0.697
N5590 X-0.581 Y-36.077 I-5.357 J1.728
N5595 X-1.356 Y-33.544 I-9.787 J-1.609
N5600 X-2.083 Y-32.246 I-8.468 J-3.892
N5605 X-3.039 Y-31.106 I-5.787 J-3.88
N5610 X-4.035 Y-30.451 I-2.248 J-2.336
N5615 X-5.143 Y-30.013 I-11.376 J-27.168
N5620 G2 X-6.427 Y-29.532 I87.24 J234.548
N5625 G3 X-7.716 Y-29.063 I-19.278 J-50.972
N5630 X-8.096 Y-29.276 I-0.096 J-0.274
N5635 X-8.263 Y-30.323 I9.922 J-2.123
N5640 X-8.231 Y-31.382 I3.873 J-0.413
N5645 X-7.799 Y-33.515 I32.103 J5.4
N5650 X-7.159 Y-35.595 I16.373 J3.894
N5655 X-6.613 Y-36.518 I2.936 J1.115
N5660 X-5.888 Y-37.309 I11.592 J9.888
N5665 X-4.656 Y-38.425 I10.241 J10.063
N5670 G1 X-4.603 Y-38.468
N5675 G2 X-3.827 Y-40.568 I-1.338 J-1.688
N5680 G3 X-2.258 Y-42.165 I1.333 J-0.26
N5685 G1 X-2.111 Y-42.147
N5690 X-1.986 Y-42.136
N5695 X-1.764 Y-41.982
N5700 G2 X-1.12 Y-41.719 I0.907 J-1.303
N5705 G1 X-0.882 Y-41.679
N5710 G2 X-0.462 Y-41.664 I0.264 J-1.565
N5715 G1 X-0.039 Y-41.706
N5720 X0.28 Y-41.661
N5725 X0.553 Y-41.583
N5730 X0.769 Y-41.311
N5735 X1.169 Y-40.595
N5740 X1.558 Y-39.687
N5745 X1.85 Y-38.782
N5750 X2.044 Y-37.559
N5755 X2.025 Y-36.305
N5760 X1.829 Y-35.017
N5765 X1.475 Y-33.726
N5770 X0.978 Y-32.471
N5775 X0.358 Y-31.294
N5780 X-0.387 Y-30.21
N5785 X-1.256 Y-29.253
N5790 X-1.919 Y-28.695
N5795 X-2.77 Y-28.209
N5800 X-3.381 Y-27.943
N5805 X-4.249 Y-27.609
N5810 X-5.384 Y-27.202
N5815 X-6.83 Y-26.702
N5820 X-8.852 Y-25.995
N5825 X-8.873 Y-25.988
N5830 X-9.571 Y-25.733
N5835 X-9.669 Y-26.
N5840 X-10.153 Y-27.298
N5845 X-10.523 Y-28.573
N5850 X-10.773 Y-29.743
N5855 X-10.877 Y-30.647
N5860 X-10.858 Y-31.089
N5865 X-10.763 Y-31.808
N5870 X-10.368 Y-33.744
N5875 X-9.827 Y-35.72
N5880 X-9.559 Y-36.506
N5885 X-9.327 Y-37.058
N5890 X-9.093 Y-37.466
N5895 X-8.747 Y-37.948
N5900 X-7.721 Y-39.11
N5905 X-6.518 Y-40.211
N5910 X-5.3 Y-41.089
N5915 X-4.46 Y-41.571
N5920 X-3.666 Y-41.964
N5925 X-2.939 Y-42.258
N5930 X-2.714 Y-42.32
N5935 G2 X-2.258 Y-42.165 I0.732 J-1.409
N5940 G1 Z5.
N5945 X6.217 Y-19.965
N5950 Z2.7 F1000.
N5955 Z-1.7
N5960 G3 X6.802 Y-20.766 I13.91 J9.553 F3000.
N5965 G1 X6.83 Y-20.791
N5970 X6.865 Y-20.803
N5975 X6.901 Y-20.802
N5980 X6.935 Y-20.788
N5985 X6.962 Y-20.762
N5990 X6.977 Y-20.729
N5995 X6.979 Y-20.692
N6000 X6.967 Y-20.657
N6005 G3 X6.359 Y-19.632 I-16.643 J-9.189
N6010 X5.663 Y-18.665 I-8.874 J-5.653
N6015 G1 X5.633 Y-18.64
N6020 X5.597 Y-18.627
N6025 X5.558
N6030 X5.523 Y-18.642
N6035 X5.494 Y-18.668
N6040 X5.477 Y-18.702
N6045 X5.473 Y-18.74
N6050 X5.483 Y-18.778
N6055 X5.513 Y-18.839
N6060 X5.545 Y-18.9
N6065 G3 X5.866 Y-19.442 I6.417 J3.435
N6070 X6.217 Y-19.965 I22.198 J14.482
N6075 G2 X6.413 Y-21.582 I-1.45 J-0.996
N6080 G3 X6.886 Y-23.14 I1.249 J-0.471
N6085 G1 X7.452 Y-23.543
N6090 X8.558 Y-24.111
N6095 X9.82 Y-24.561
N6100 X10.305 Y-24.674
N6105 X11.139 Y-24.826
N6110 X11.577 Y-24.893
N6115 X11.434 Y-24.704
N6120 X11.4 Y-24.656
N6125 X10.842 Y-23.861
N6130 X10.806 Y-23.807
N6135 X10.171 Y-22.816
N6140 X10.131 Y-22.751
N6145 X8.851 Y-20.528
N6150 X8.837 Y-20.503
N6155 X8.091 Y-19.151
N6160 X7.441 Y-18.143
N6165 X6.861 Y-17.425
N6170 X6.331 Y-16.949
N6175 X5.803 Y-16.636
N6180 X5.182 Y-16.419
N6185 X4.404 Y-16.284
N6190 X3.408 Y-16.221
N6195 X2.569 Y-16.18
N6200 X2.719 Y-16.614
N6205 X3.35 Y-18.27
N6210 X4.031 Y-19.71
N6215 X4.778 Y-20.953
N6220 X5.586 Y-21.989
N6225 X6.47 Y-22.843
N6230 X6.886 Y-23.14
N6235 G3 X7.667 Y-22.492 I0.305 J0.427
N6240 G1 X6.864 Y-20.766
N6245 X6.831 Y-20.706
N6250 X6.791 Y-20.651
N6255 X6.217 Y-19.965
N6260 Z-3.175 F1000.
N6265 G3 X6.802 Y-20.766 I13.91 J9.553 F3000.
N6270 G1 X6.83 Y-20.791
N6275 X6.865 Y-20.803
N6280 X6.901 Y-20.802
N6285 X6.935 Y-20.788
N6290 X6.962 Y-20.762
N6295 X6.977 Y-20.729
N6300 X6.979 Y-20.692
N6305 X6.967 Y-20.657
N6310 G3 X6.359 Y-19.632 I-16.643 J-9.189
N6315 X5.663 Y-18.665 I-8.874 J-5.653
N6320 G1 X5.633 Y-18.64
N6325 X5.597 Y-18.627
N6330 X5.558
N6335 X5.523 Y-18.642
N6340 X5.494 Y-18.668
N6345 X5.477 Y-18.702
N6350 X5.473 Y-18.74
N6355 X5.483 Y-18.778
N6360 X5.513 Y-18.839
N6365 X5.545 Y-18.9
N6370 G3 X5.866 Y-19.442 I6.417 J3.435
N6375 X6.217 Y-19.965 I22.198 J14.482
N6380 G2 X6.413 Y-21.582 I-1.45 J-0.996
N6385 G3 X6.886 Y-23.14 I1.249 J-0.471
N6390 G1 X7.452 Y-23.543
N6395 X8.558 Y-24.111
N6400 X9.82 Y-24.561
N6405 X10.305 Y-24.674
N6410 X11.139 Y-24.826
N6415 X11.577 Y-24.893
N6420 X11.434 Y-24.704
N6425 X11.4 Y-24.656
N6430 X10.842 Y-23.861
N6435 X10.806 Y-23.807
N6440 X10.171 Y-22.816
N6445 X10.131 Y-22.751
N6450 X8.851 Y-20.528
N6455 X8.837 Y-20.503
N6460 X8.091 Y-19.151
N6465 X7.441 Y-18.143
N6470 X6.861 Y-17.425
N6475 X6.331 Y-16.949
N6480 X5.803 Y-16.636
N6485 X5.182 Y-16.419
N6490 X4.404 Y-16.284
N6495 X3.408 Y-16.221
N6500 X2.569 Y-16.18
N6505 X2.719 Y-16.614
N6510 X3.35 Y-18.27
N6515 X4.031 Y-19.71
N6520 X4.778 Y-20.953
N6525 X5.586 Y-21.989
N6530 X6.47 Y-22.843
N6535 X6.886 Y-23.14
N6540 Z5.
N6545 X16.63 Y0.485
N6550 Z2.7 F1000.
N6555 Z-1.7
N6560 X18.708 Y-2.179 F3000.
N6565 G3 X19.136 Y-2.205 I0.226 J0.183
N6570 G1 X19.274 Y-2.071
N6575 X19.357 Y-1.988
N6580 X19.436 Y-1.901
N6585 X19.482 Y-1.839
N6590 X19.52 Y-1.772
N6595 X19.548 Y-1.701
N6600 G3 X19.729 Y-0.991 I-5.942 J1.888
N6605 X19.789 Y-0.261 I-3.343 J0.644
N6610 X19.613 Y0.421 I-1.564 J-0.04
N6615 X19.259 Y1.03 I-6.677 J-3.474
N6620 X17.686 Y3.038 I-11.787 J-7.612
N6625 X15.928 Y4.886 I-188.831 J-177.84
N6630 G2 X14.576 Y6.334 I50.563 J48.567
N6635 X13.276 Y7.829 I35.16 J31.912
N6640 G3 X12.97 Y7.772 I-0.137 J-0.114
N6645 G1 X12.962 Y7.747
N6650 X12.955 Y7.722
N6655 X12.938 Y7.646
N6660 X12.927 Y7.569
N6665 X12.911 Y7.414
N6670 G3 X13.395 Y5.058 I4.146 J-0.377
N6675 X14.659 Y3.011 I18.302 J9.894
N6680 G1 X16.63 Y0.485
N6685 G2 X16.805 Y-1.551 I-1.477 J-1.152
N6690 G3 X16.999 Y-3.585 I1.629 J-0.871
N6695 G1 X17.267 Y-3.916
N6700 X17.28 Y-3.932
N6705 X17.858 Y-4.664
N6710 X17.879 Y-4.692
N6715 X18.324 Y-5.282
N6720 X18.362 Y-5.335
N6725 X18.622 Y-5.71
N6730 X20.038 Y-4.394
N6735 X20.59 Y-3.878
N6740 X20.966 Y-3.513
N6745 X21.372 Y-3.047
N6750 X21.549 Y-2.712
N6755 X21.759 Y-2.052
N6760 X21.995 Y-1.029
N6765 X22.058 Y-0.204
N6770 X21.964 Y0.532
N6775 X21.688 Y1.317
N6780 X21.159 Y2.257
N6785 X20.315 Y3.405
N6790 X19.117 Y4.795
N6795 X18.39 Y5.58
N6800 X17.557 Y6.451
N6805 X16.748 Y7.29
N6810 X16.736 Y7.302
N6815 X16.065 Y8.013
N6820 X16.044 Y8.035
N6825 X15.487 Y8.649
N6830 X15.456 Y8.684
N6835 X14.988 Y9.231
N6840 X14.927 Y9.307
N6845 X14.154 Y10.331
N6850 X14.088 Y10.424
N6855 X13.351 Y11.564
N6860 X13.317 Y11.618
N6865 X12.659 Y12.73
N6870 X12.111 Y11.511
N6875 X11.296 Y9.595
N6880 X11.001 Y8.851
N6885 X10.803 Y8.274
N6890 X10.635 Y7.31
N6895 X10.627 Y6.407
N6900 X10.794 Y5.485
N6905 X11.181 Y4.434
N6910 X11.843 Y3.187
N6915 X12.81 Y1.715
N6920 X14.099 Y-0.012
N6925 X14.86 Y-0.97
N6930 X15.712 Y-2.013
N6935 X16.551 Y-3.032
N6940 X16.558 Y-3.041
N6945 X16.999 Y-3.585
N6950 G3 X17.261 Y-3.497 I0.115 J0.093
N6955 G1 X17.282 Y-2.867
N6960 X16.827 Y0.406
N6965 X16.749 Y0.563
N6970 X16.73 Y0.585
N6975 X16.704 Y0.598
N6980 X16.674 Y0.6
N6985 X16.647 Y0.589
N6990 X16.626 Y0.568
N6995 X16.616 Y0.54
N7000 X16.617 Y0.511
N7005 X16.63 Y0.485
N7010 Z-3.175 F1000.
N7015 X18.708 Y-2.179 F3000.
N7020 G3 X19.136 Y-2.205 I0.226 J0.183
N7025 G1 X19.274 Y-2.071
N7030 X19.357 Y-1.988
N7035 X19.436 Y-1.901
N7040 X19.482 Y-1.839
N7045 X19.52 Y-1.772
N7050 X19.548 Y-1.701
N7055 G3 X19.729 Y-0.991 I-5.942 J1.888
N7060 X19.789 Y-0.261 I-3.343 J0.644
N7065 X19.613 Y0.421 I-1.564 J-0.04
N7070 X19.259 Y1.03 I-6.677 J-3.474
N7075 X17.686 Y3.038 I-11.787 J-7.612
N7080 X15.928 Y4.886 I-188.831 J-177.84
N7085 G2 X14.576 Y6.334 I50.563 J48.567
N7090 X13.276 Y7.829 I35.16 J31.912
N7095 G3 X12.97 Y7.772 I-0.137 J-0.114
N7100 G1 X12.962 Y7.747
N7105 X12.955 Y7.722
N7110 X12.938 Y7.646
N7115 X12.927 Y7.569
N7120 X12.911 Y7.414
N7125 G3 X13.395 Y5.058 I4.146 J-0.377
N7130 X14.659 Y3.011 I18.302 J9.894
N7135 G1 X16.63 Y0.485
N7140 G2 X16.805 Y-1.551 I-1.477 J-1.152
N7145 G3 X16.999 Y-3.585 I1.629 J-0.871
N7150 G1 X17.267 Y-3.916
N7155 X17.28 Y-3.932
N7160 X17.858 Y-4.664
N7165 X17.879 Y-4.692
N7170 X18.324 Y-5.282
N7175 X18.362 Y-5.335
N7180 X18.622 Y-5.71
N7185 X20.038 Y-4.394
N7190 X20.59 Y-3.878
N7195 X20.966 Y-3.513
N7200 X21.372 Y-3.047
N7205 X21.549 Y-2.712
N7210 X21.759 Y-2.052
N7215 X21.995 Y-1.029
N7220 X22.058 Y-0.204
N7225 X21.964 Y0.532
N7230 X21.688 Y1.317
N7235 X21.159 Y2.257
N7240 X20.315 Y3.405
N7245 X19.117 Y4.795
N7250 X18.39 Y5.58
N7255 X17.557 Y6.451
N7260 X16.748 Y7.29
N7265 X16.736 Y7.302
N7270 X16.065 Y8.013
N7275 X16.044 Y8.035
N7280 X15.487 Y8.649
N7285 X15.456 Y8.684
N7290 X14.988 Y9.231
N7295 X14.927 Y9.307
N7300 X14.154 Y10.331
N7305 X14.088 Y10.424
N7310 X13.351 Y11.564
N7315 X13.317 Y11.618
N7320 X12.659 Y12.73
N7325 X12.111 Y11.511
N7330 X11.296 Y9.595
N7335 X11.001 Y8.851
N7340 X10.803 Y8.274
N7345 X10.635 Y7.31
N7350 X10.627 Y6.407
N7355 X10.794 Y5.485
N7360 X11.181 Y4.434
N7365 X11.843 Y3.187
N7370 X12.81 Y1.715
N7375 X14.099 Y-0.012
N7380 X14.86 Y-0.97
N7385 X15.712 Y-2.013
N7390 X16.551 Y-3.032
N7395 X16.558 Y-3.041
N7400 X16.999 Y-3.585
N7405 Z5.
N7410 X43.465 Y14.601
N7415 Z2.7 F1000.
N7420 Z-1.7
N7425 G3 X42.552 Y15.009 I-3.778 J-7.236 F3000.
N7430 X41.668 Y15.288 I-3.109 J-8.294
N7435 X40.762 Y15.481 I-2.606 J-10.038
N7440 G1 X40.722
N7445 X40.684 Y15.468
N7450 X40.653 Y15.443
N7455 X40.631 Y15.41
N7460 X40.621 Y15.372
N7465 X40.625 Y15.332
N7470 X40.641 Y15.295
N7475 X40.668 Y15.266
N7480 G3 X42.3 Y14.267 I5.271 J6.776
N7485 G2 X44.03 Y13.446 I-74.2 J-158.582
N7490 X44.779 Y13.069 I-10.586 J-21.995
N7495 G3 X45.549 Y12.736 I2.613 J4.983
N7500 X45.683 Y12.949 I0.042 J0.122
N7505 X44.228 Y14.148 I-6.741 J-6.696
N7510 X43.465 Y14.601 I-4.542 J-6.782
N7515 G2 X42.552 Y16.154 I0.787 J1.507
N7520 G3 X41.419 Y17.553 I-1.385 J0.037
N7525 X40.759 Y17.654 I-1.977 J-10.71
N7530 X40.129 Y17.729 I-12.888 J-105.239
N7535 X39.497 Y17.692 I-0.211 J-1.817
N7540 X39.068 Y17.474 I0.234 J-0.989
N7545 G2 X38.697 Y17.169 I-6.929 J8.06
N7550 G3 X37.989 Y16.605 I35.397 J-45.155
N7555 X37.302 Y16.016 I9.942 J-12.279
N7560 X37.272 Y15.553 I0.225 J-0.247
N7565 X39.782 Y13.239 I10.543 J8.921
N7570 X41.665 Y12.138 I6.881 J9.606
N7575 G2 X43.602 Y11.136 I-11.392 J-24.405
N7580 G3 X44.042 Y10.942 I1.185 J2.081
N7585 G1 X44.82 Y10.686
N7590 G3 X45.59 Y10.552 I0.85 J2.592
N7595 X46.201 Y10.557 I0.237 J8.083
N7600 X46.81 Y10.614 I-0.297 J6.416
N7605 X47.107 Y10.661 I-1.609 J11.294
N7610 X47.4 Y10.734 I-0.331 J1.954
N7615 G2 X47.785 Y10.82 I0.62 J-1.872
N7620 G3 X48.167 Y10.923 I-0.163 J1.357
N7625 X48.588 Y11.465 I-0.285 J0.657
N7630 G2 X48.721 Y12.028 I4.114 J-0.669
N7635 G3 X48.617 Y12.803 I-0.89 J0.275
N7640 X48.125 Y13.461 I-4.63 J-2.946
N7645 X47.582 Y14.078 I-61.796 J-53.826
N7650 X41.419 Y17.553 I-8.14 J-7.235
N7655 G2 X39.944 Y19.021 I0.335 J1.812
N7660 G3 X38.062 Y19.909 I-1.264 J-0.24
N7665 G1 X37.82 Y19.777
N7670 X37.076 Y19.237
N7675 X36.12 Y18.429
N7680 X34.91 Y17.328
N7685 X33.572 Y16.09
N7690 X33.817 Y15.757
N7695 X34.756 Y14.53
N7700 X35.647 Y13.478
N7705 X36.514 Y12.569
N7710 X37.377 Y11.784
N7715 X38.252 Y11.103
N7720 X39.134 Y10.522
N7725 X41.208 Y9.461
N7730 X41.942 Y9.108
N7735 X42.039 Y9.057
N7740 X42.354 Y8.878
N7745 G2 X42.565 Y8.733 I-0.786 J-1.379
N7750 G1 X42.77 Y8.568
N7755 G2 X43.263 Y8.481 I-0.027 J-1.587
N7760 G1 X44.189 Y8.16
N7765 X44.839 Y7.994
N7770 X45.513 Y7.919
N7775 X47.181 Y8.006
N7780 X48.807 Y8.388
N7785 X50.391 Y9.075
N7790 X50.847 Y9.337
N7795 X51.197 Y9.553
N7800 G2 X51.226 Y10.213 I1.566 J0.262
N7805 X51.268 Y11.476 I1.477 J0.583
N7810 G1 X51.385 Y11.723
N7815 X51.459 Y11.86
N7820 X51.492 Y12.097
N7825 G2 X51.631 Y12.558 I1.572 J-0.222
N7830 G1 X51.699 Y12.7
N7835 X51.483 Y13.106
N7840 X50.578 Y14.528
N7845 X49.548 Y15.825
N7850 X48.386 Y16.995
N7855 X47.108 Y18.012
N7860 X45.72 Y18.862
N7865 X44.245 Y19.526
N7870 X42.706 Y19.992
N7875 X41.078 Y20.263
N7880 X40.16 Y20.336
N7885 X39.436
N7890 X38.889 Y20.258
N7895 X38.396 Y20.092
N7900 X38.062 Y19.909
N7905 G3 X38.012 Y17.909 I0.555 J-1.015
N7910 G1 X42.682 Y15.046
N7915 X43.424 Y14.589
N7920 X43.465 Y14.601
N7925 Z-3.175 F1000.
N7930 G3 X42.552 Y15.009 I-3.778 J-7.236 F3000.
N7935 X41.668 Y15.288 I-3.109 J-8.294
N7940 X40.762 Y15.481 I-2.606 J-10.038
N7945 G1 X40.722
N7950 X40.684 Y15.468
N7955 X40.653 Y15.443
N7960 X40.631 Y15.41
N7965 X40.621 Y15.372
N7970 X40.625 Y15.332
N7975 X40.641 Y15.295
N7980 X40.668 Y15.266
N7985 G3 X42.3 Y14.267 I5.271 J6.776
N7990 G2 X44.03 Y13.446 I-74.2 J-158.582
N7995 X44.779 Y13.069 I-10.586 J-21.995
N8000 G3 X45.549 Y12.736 I2.613 J4.983
N8005 X45.683 Y12.949 I0.042 J0.122
N8010 X44.228 Y14.148 I-6.741 J-6.696
N8015 X43.465 Y14.601 I-4.542 J-6.782
N8020 G2 X42.552 Y16.154 I0.787 J1.507
N8025 G3 X41.419 Y17.553 I-1.385 J0.037
N8030 X40.759 Y17.654 I-1.977 J-10.71
N8035 X40.129 Y17.729 I-12.888 J-105.239
N8040 X39.497 Y17.692 I-0.211 J-1.817
N8045 X39.068 Y17.474 I0.234 J-0.989
N8050 G2 X38.697 Y17.169 I-6.929 J8.06
N8055 G3 X37.989 Y16.605 I35.397 J-45.155
N8060 X37.302 Y16.016 I9.942 J-12.279
N8065 X37.272 Y15.553 I0.225 J-0.247
N8070 X39.782 Y13.239 I10.543 J8.921
N8075 X41.665 Y12.138 I6.881 J9.606
N8080 G2 X43.602 Y11.136 I-11.392 J-24.405
N8085 G3 X44.042 Y10.942 I1.185 J2.081
N8090 G1 X44.82 Y10.686
N8095 G3 X45.59 Y10.552 I0.85 J2.592
N8100 X46.201 Y10.557 I0.237 J8.083
N8105 X46.81 Y10.614 I-0.297 J6.416
N8110 X47.107 Y10.661 I-1.609 J11.294
N8115 X47.4 Y10.734 I-0.331 J1.954
N8120 G2 X47.785 Y10.82 I0.62 J-1.872
N8125 G3 X48.167 Y10.923 I-0.163 J1.357
N8130 X48.588 Y11.465 I-0.285 J0.657
N8135 G2 X48.721 Y12.028 I4.114 J-0.669
N8140 G3 X48.617 Y12.803 I-0.89 J0.275
N8145 X48.125 Y13.461 I-4.63 J-2.946
N8150 X47.582 Y14.078 I-61.796 J-53.826
N8155 X41.419 Y17.553 I-8.14 J-7.235
N8160 G2 X39.944 Y19.021 I0.335 J1.812
N8165 G3 X38.062 Y19.909 I-1.264 J-0.24
N8170 G1 X37.82 Y19.777
N8175 X37.076 Y19.237
N8180 X36.12 Y18.429
N8185 X34.91 Y17.328
N8190 X33.572 Y16.09
N8195 X33.817 Y15.757
N8200 X34.756 Y14.53
N8205 X35.647 Y13.478
N8210 X36.514 Y12.569
N8215 X37.377 Y11.784
N8220 X38.252 Y11.103
N8225 X39.134 Y10.522
N8230 X41.208 Y9.461
N8235 X41.942 Y9.108
N8240 X42.039 Y9.057
N8245 X42.354 Y8.878
N8250 G2 X42.565 Y8.733 I-0.786 J-1.379
N8255 G1 X42.77 Y8.568
N8260 G2 X43.263 Y8.481 I-0.027 J-1.587
N8265 G1 X44.189 Y8.16
N8270 X44.839 Y7.994
N8275 X45.513 Y7.919
N8280 X47.181 Y8.006
N8285 X48.807 Y8.388
N8290 X50.391 Y9.075
N8295 X50.847 Y9.337
N8300 X51.197 Y9.553
N8305 G2 X51.226 Y10.213 I1.566 J0.262
N8310 X51.268 Y11.476 I1.477 J0.583
N8315 G1 X51.385 Y11.723
N8320 X51.459 Y11.86
N8325 X51.492 Y12.097
N8330 G2 X51.631 Y12.558 I1.572 J-0.222
N8335 G1 X51.699 Y12.7
N8340 X51.483 Y13.106
N8345 X50.578 Y14.528
N8350 X49.548 Y15.825
N8355 X48.386 Y16.995
N8360 X47.108 Y18.012
N8365 X45.72 Y18.862
N8370 X44.245 Y19.526
N8375 X42.706 Y19.992
N8380 X41.078 Y20.263
N8385 X40.16 Y20.336
N8390 X39.436
N8395 X38.889 Y20.258
N8400 X38.396 Y20.092
N8405 X38.062 Y19.909
N8410 Z5.
N8415 X3.178 Y50.283
N8420 Z2.7 F1000.
N8425 Z-1.7
N8430 X3.106 Y50.463 F3000.
N8435 G3 X2.796 Y51.127 I-6.677 J-2.715
N8440 X2.368 Y51.489 I-0.666 J-0.354
N8445 G2 X2.107 Y51.583 I2.133 J6.388
N8450 G3 X1.39 Y51.413 I-0.233 J-0.614
N8455 X0.956 Y50.627 I1.397 J-1.284
N8460 X0.851 Y49.735 I2.927 J-0.795
N8465 X1.073 Y49.135 I1.007 J0.032
N8470 X1.52 Y48.61 I10.129 J8.155
N8475 G2 X1.974 Y48.091 I-22.286 J-19.98
N8480 X2.161 Y47.862 I-4.656 J-3.985
N8485 G3 X2.347 Y47.633 I3.758 J2.871
N8490 X2.714 Y47.681 I0.168 J0.145
N8495 X3.34 Y49.02 I-44.129 J21.455
N8500 X3.369 Y49.779 I-0.918 J0.415
N8505 X3.178 Y50.283 I-18.146 J-6.588
N8510 G2 X3.592 Y52.051 I1.482 J0.585
N8515 G3 X3.184 Y53.82 I-0.696 J0.771
N8520 G1 X3.129 Y53.836
N8525 G2 X2.696 Y54. I0.898 J3.024
N8530 X2.44 Y54.129 I1.934 J4.154
N8535 G3 X2.185 Y54.258 I-2.189 J-4.025
N8540 X1.348 Y54.281 I-0.445 J-0.955
N8545 X-1.593 Y50.107 I1.744 J-4.352
N8550 X-1.586 Y49.218 I9.409 J-0.369
N8555 X-1.397 Y48.349 I2.809 J0.155
N8560 X-1.092 Y47.889 I1.212 J0.474
N8565 G2 X-0.718 Y47.484 I-3.482 J-3.583
N8570 G3 X0.627 Y45.869 I151.671 J124.999
N8575 X2.002 Y44.281 I59.467 J50.086
N8580 X2.539 Y44.189 I0.326 J0.29
N8585 X4.12 Y45.508 I-2.668 J4.805
N8590 X5.219 Y47.249 I-6.426 J5.272
N8595 G2 X5.495 Y47.815 I19.367 J-9.087
N8600 G1 X5.709 Y48.239
N8605 G3 X5.947 Y49.468 I-2.044 J1.033
N8610 X5.707 Y50.569 I-4.375 J-0.375
N8615 X5.289 Y51.616 I-14.133 J-5.047
N8620 X5.138 Y51.947 I-18.246 J-8.107
N8625 X4.965 Y52.267 I-2.743 J-1.279
N8630 G2 X4.747 Y52.688 I2.489 J1.549
N8635 G3 X4.516 Y53.102 I-1.903 J-0.793
N8640 X3.578 Y53.72 I-1.28 J-0.924
N8645 G2 X3.184 Y53.82 I1.432 J6.447
N8650 X1.954 Y55.513 I0.47 J1.634
N8655 G3 X0.242 Y56.716 I-1.248 J0.043
N8660 G1 X-0.125 Y56.569
N8665 X-1.142 Y55.996
N8670 X-2.041 Y55.287
N8675 X-2.81 Y54.45
N8680 X-3.43 Y53.506
N8685 X-3.891 Y52.471
N8690 X-4.187 Y51.362
N8695 X-4.314 Y50.213
N8700 X-4.277 Y49.036
N8705 X-4.078 Y47.824
N8710 X-3.934 Y47.357
N8715 X-3.726 Y46.922
N8720 X-3.662 Y46.826
N8725 X-3.467 Y46.566
N8730 X-2.815 Y45.756
N8735 X-1.951 Y44.732
N8740 X-0.972 Y43.604
N8745 X0.026 Y42.482
N8750 X0.948 Y41.473
N8755 X1.651 Y40.735
N8760 X1.678 Y40.746
N8765 X2.842 Y41.301
N8770 X4.071 Y41.984
N8775 X5.051 Y42.627
N8780 X5.859 Y43.33
N8785 X6.562 Y44.142
N8790 X7.158 Y45.049
N8795 X7.669 Y46.1
N8800 X8.064 Y46.972
N8805 X8.119 Y47.083
N8810 X8.285 Y47.384
N8815 G2 X8.472 Y47.653 I1.391 J-0.766
N8820 G1 X8.628 Y47.835
N8825 X8.683 Y47.895
N8830 X8.74 Y47.953
N8835 X8.638 Y49.362
N8840 X8.561 Y50.254
N8845 X8.39 Y51.034
N8850 X7.777 Y52.722
N8855 X6.92 Y54.336
N8860 X5.839 Y55.834
N8865 X5.75 Y55.935
N8870 G2 X5.074 Y56.087 I0.002 J1.587
N8875 G1 X4.819 Y56.207
N8880 X4.668 Y56.229
N8885 X4.2 Y56.319
N8890 G2 X3.831 Y56.438 I0.301 J1.559
N8895 G1 X3.296 Y56.687
N8900 X3.209 Y56.732
N8905 X2.565 Y57.081
N8910 X2.525 Y57.104
N8915 X2.116 Y57.342
N8920 X1.874 Y57.302
N8925 X1.293 Y57.137
N8930 X0.242 Y56.716
N8935 G3 X0.134 Y56.361 I0.088 J-0.221
N8940 G1 X0.785 Y55.397
N8945 X2.895 Y50.407
N8950 X3.058 Y50.213
N8955 X3.084 Y50.194
N8960 X3.116 Y50.188
N8965 X3.147 Y50.198
N8970 X3.171 Y50.22
N8975 X3.182 Y50.251
N8980 X3.178 Y50.283
N8985 Z-3.175 F1000.
N8990 X3.106 Y50.463 F3000.
N8995 G3 X2.796 Y51.127 I-6.677 J-2.715
N9000 X2.368 Y51.489 I-0.666 J-0.354
N9005 G2 X2.107 Y51.583 I2.133 J6.388
N9010 G3 X1.39 Y51.413 I-0.233 J-0.614
N9015 X0.956 Y50.627 I1.397 J-1.284
N9020 X0.851 Y49.735 I2.927 J-0.795
N9025 X1.073 Y49.135 I1.007 J0.032
N9030 X1.52 Y48.61 I10.129 J8.155
N9035 G2 X1.974 Y48.091 I-22.286 J-19.98
N9040 X2.161 Y47.862 I-4.656 J-3.985
N9045 G3 X2.347 Y47.633 I3.758 J2.871
N9050 X2.714 Y47.681 I0.168 J0.145
N9055 X3.34 Y49.02 I-44.129 J21.455
N9060 X3.369 Y49.779 I-0.918 J0.415
N9065 X3.178 Y50.283 I-18.146 J-6.588
N9070 G2 X3.592 Y52.051 I1.482 J0.585
N9075 G3 X3.184 Y53.82 I-0.696 J0.771
N9080 G1 X3.129 Y53.836
N9085 G2 X2.696 Y54. I0.898 J3.024
N9090 X2.44 Y54.129 I1.934 J4.154
N9095 G3 X2.185 Y54.258 I-2.189 J-4.025
N9100 X1.348 Y54.281 I-0.445 J-0.955
N9105 X-1.593 Y50.107 I1.744 J-4.352
N9110 X-1.586 Y49.218 I9.409 J-0.369
N9115 X-1.397 Y48.349 I2.809 J0.155
N9120 X-1.092 Y47.889 I1.212 J0.474
N9125 G2 X-0.718 Y47.484 I-3.482 J-3.583
N9130 G3 X0.627 Y45.869 I151.671 J124.999
N9135 X2.002 Y44.281 I59.467 J50.086
N9140 X2.539 Y44.189 I0.326 J0.29
N9145 X4.12 Y45.508 I-2.668 J4.805
N9150 X5.219 Y47.249 I-6.426 J5.272
N9155 G2 X5.495 Y47.815 I19.367 J-9.087
N9160 G1 X5.709 Y48.239
N9165 G3 X5.947 Y49.468 I-2.044 J1.033
N9170 X5.707 Y50.569 I-4.375 J-0.375
N9175 X5.289 Y51.616 I-14.133 J-5.047
N9180 X5.138 Y51.947 I-18.246 J-8.107
N9185 X4.965 Y52.267 I-2.743 J-1.279
N9190 G2 X4.747 Y52.688 I2.489 J1.549
N9195 G3 X4.516 Y53.102 I-1.903 J-0.793
N9200 X3.578 Y53.72 I-1.28 J-0.924
N9205 G2 X3.184 Y53.82 I1.432 J6.447
N9210 X1.954 Y55.513 I0.47 J1.634
N9215 G3 X0.242 Y56.716 I-1.248 J0.043
N9220 G1 X-0.125 Y56.569
N9225 X-1.142 Y55.996
N9230 X-2.041 Y55.287
N9235 X-2.81 Y54.45
N9240 X-3.43 Y53.506
N9245 X-3.891 Y52.471
N9250 X-4.187 Y51.362
N9255 X-4.314 Y50.213
N9260 X-4.277 Y49.036
N9265 X-4.078 Y47.824
N9270 X-3.934 Y47.357
N9275 X-3.726 Y46.922
N9280 X-3.662 Y46.826
N9285 X-3.467 Y46.566
N9290 X-2.815 Y45.756
N9295 X-1.951 Y44.732
N9300 X-0.972 Y43.604
N9305 X0.026 Y42.482
N9310 X0.948 Y41.473
N9315 X1.651 Y40.735
N9320 X1.678 Y40.746
N9325 X2.842 Y41.301
N9330 X4.071 Y41.984
N9335 X5.051 Y42.627
N9340 X5.859 Y43.33
N9345 X6.562 Y44.142
N9350 X7.158 Y45.049
N9355 X7.669 Y46.1
N9360 X8.064 Y46.972
N9365 X8.119 Y47.083
N9370 X8.285 Y47.384
N9375 G2 X8.472 Y47.653 I1.391 J-0.766
N9380 G1 X8.628 Y47.835
N9385 X8.683 Y47.895
N9390 X8.74 Y47.953
N9395 X8.638 Y49.362
N9400 X8.561 Y50.254
N9405 X8.39 Y51.034
N9410 X7.777 Y52.722
N9415 X6.92 Y54.336
N9420 X5.839 Y55.834
N9425 X5.75 Y55.935
N9430 G2 X5.074 Y56.087 I0.002 J1.587
N9435 G1 X4.819 Y56.207
N9440 X4.668 Y56.229
N9445 X4.2 Y56.319
N9450 G2 X3.831 Y56.438 I0.301 J1.559
N9455 G1 X3.296 Y56.687
N9460 X3.209 Y56.732
N9465 X2.565 Y57.081
N9470 X2.525 Y57.104
N9475 X2.116 Y57.342
N9480 X1.874 Y57.302
N9485 X1.293 Y57.137
N9490 X0.242 Y56.716
N9495 Z5.
N9500 X-10.729 Y31.125
N9505 Z2.7 F1000.
N9510 Z-1.7
N9515 X-10.614 Y30.811 F3000.
N9520 X-10.382 Y30.45
N9525 X-9.99 Y30.051
N9530 X-9.356 Y29.565
N9535 X-8.428 Y28.964
N9540 X-7.931 Y28.65
N9545 X-7.925 Y28.718
N9550 X-7.883 Y29.1
N9555 X-7.88 Y29.123
N9560 X-7.813 Y29.659
N9565 X-7.732 Y30.274
N9570 X-7.726 Y31.413
N9575 X-7.957 Y32.48
N9580 X-8.398 Y33.518
N9585 X-9.035 Y34.49
N9590 X-9.719 Y35.254
N9595 X-10.682 Y36.122
N9600 X-11.007 Y36.373
N9605 X-10.976 Y36.144
N9610 X-10.966 Y36.052
N9615 X-10.962 Y35.959
N9620 X-10.931 Y34.157
N9625 X-10.93 Y34.116
N9630 X-10.941 Y32.844
N9635 X-10.889 Y31.906
N9640 X-10.776 Y31.252
N9645 X-10.729 Y31.125
N9650 Z-3.175 F1000.
N9655 X-10.614 Y30.811 F3000.
N9660 X-10.382 Y30.45
N9665 X-9.99 Y30.051
N9670 X-9.356 Y29.565
N9675 X-8.428 Y28.964
N9680 X-7.931 Y28.65
N9685 X-7.925 Y28.718
N9690 X-7.883 Y29.1
N9695 X-7.88 Y29.123
N9700 X-7.813 Y29.659
N9705 X-7.732 Y30.274
N9710 X-7.726 Y31.413
N9715 X-7.957 Y32.48
N9720 X-8.398 Y33.518
N9725 X-9.035 Y34.49
N9730 X-9.719 Y35.254
N9735 X-10.682 Y36.122
N9740 X-11.007 Y36.373
N9745 X-10.976 Y36.144
N9750 X-10.966 Y36.052
N9755 X-10.962 Y35.959
N9760 X-10.931 Y34.157
N9765 X-10.93 Y34.116
N9770 X-10.941 Y32.844
N9775 X-10.889 Y31.906
N9780 X-10.776 Y31.252
N9785 X-10.729 Y31.125
N9790 Z5.
N9795 X-35.913 Y8.359
N9800 Z2.7 F1000.
N9805 Z-1.7
N9810 G3 X-35.527 Y7.998 I29.348 J31.049 F3000.
N9815 G2 X-35.144 Y7.634 I-12.441 J-13.493
N9820 G1 X-35.058 Y7.547
N9825 X-34.976 Y7.457
N9830 X-34.892 Y7.368
N9835 X-34.801 Y7.288
N9840 G2 X-34.617 Y7.099 I-0.697 J-0.863
N9845 G3 X-34.425 Y6.917 I0.661 J0.506
N9850 G1 X-34.373 Y6.887
N9855 X-34.316 Y6.864
N9860 G3 X-34.057 Y6.784 I3.412 J10.655
N9865 X-33.797 Y6.709 I13.738 J46.768
N9870 X-33.581 Y6.93 I0.048 J0.169
N9875 G1 X-33.604 Y6.996
N9880 X-33.627 Y7.062
N9885 G3 X-34.069 Y8.23 I-20.983 J-7.264
N9890 X-34.564 Y9.377 I-32. J-13.137
N9895 X-34.71 Y9.591 I-0.687 J-0.312
N9900 X-35.663 Y10.475 I-8.83 J-8.568
N9905 X-36.71 Y11.245 I-6.909 J-8.291
N9910 X-36.944 Y11.09 I-0.083 J-0.129
N9915 X-36.73 Y10.357 I3.349 J0.582
N9920 G2 X-36.447 Y9.648 I-19.979 J-8.384
N9925 X-36.274 Y9.144 I-7.976 J-3.021
N9930 G3 X-36.101 Y8.64 I8.149 J2.517
N9935 X-35.913 Y8.359 I0.705 J0.267
N9940 G2 X-35.602 Y6.489 I-1.078 J-1.14
N9945 G3 X-34.876 Y4.738 I1.091 J-0.573
N9950 X-33.843 Y4.457 I4.634 J14.953
N9955 G2 X-32.661 Y4.165 I-13.791 J-58.338
N9960 X-31.987 Y3.975 I-4.098 J-15.888
N9965 G3 X-31.314 Y3.786 I3.363 J10.682
N9970 X-30.958 Y4.052 I0.069 J0.278
N9975 X-30.935 Y4.97 I-24.565 J1.079
N9980 X-31.026 Y5.884 I-4.346 J0.029
N9985 X-31.523 Y7.636 I-12.524 J-2.605
N9990 X-32.183 Y9.334 I-37.086 J-13.438
N9995 G2 X-32.514 Y10.142 I82.246 J34.175
N10000 G3 X-32.97 Y10.886 I-2.459 J-0.994
N10005 X-34.263 Y12.151 I-8.329 J-7.225
N10010 X-35.721 Y13.221 I-9.806 J-11.832
N10015 X-35.952 Y13.347 I-0.975 J-1.507
N10020 G1 X-37.22 Y13.925
N10025 G3 X-38.039 Y13.908 I-0.393 J-0.862
N10030 G2 X-38.543 Y13.694 I-1.85 J3.66
N10035 G3 X-39.037 Y13.174 I0.257 J-0.74
N10040 X-39.156 Y12.474 I2.953 J-0.862
N10045 X-39.173 Y11.764 I12.092 J-0.635
N10050 X-38.822 Y9.717 I6.374 J0.039
N10055 X-38.116 Y7.763 I75.574 J26.181
N10060 X-37.471 Y6.809 I2.31 J0.868
N10065 G2 X-37.071 Y6.441 I-50.146 J-54.846
N10070 X-36.677 Y6.065 I-14.426 J-15.548
N10075 X-36.179 Y5.554 I-9.828 J-10.062
N10080 G3 X-35.638 Y5.087 I2.34 J2.164
N10085 X-35.016 Y4.783 I1.352 J1.977
N10090 G1 X-34.876 Y4.738
N10095 G2 X-33.451 Y3.029 I-0.605 J-1.953
N10100 G3 X-31.978 Y1.361 I1.944 J0.233
N10105 G1 X-30.788 Y1.067
N10110 X-30.211 Y0.935
N10115 X-29.888 Y0.863
N10120 X-29.462 Y0.771
N10125 X-29.057 Y0.693
N10130 X-28.904 Y1.241
N10135 X-28.457 Y3.711
N10140 X-28.405 Y4.896
N10145 X-28.417 Y5.508
N10150 X-28.45 Y5.991
N10155 X-28.52 Y6.405
N10160 X-28.667 Y7.002
N10165 X-29.171 Y8.604
N10170 X-29.819 Y10.316
N10175 X-30.478 Y11.77
N10180 X-30.702 Y12.136
N10185 X-31.034 Y12.565
N10190 X-32.069 Y13.632
N10195 X-33.326 Y14.665
N10200 X-34.622 Y15.503
N10205 X-36.714 Y16.456
N10210 X-37.595 Y16.742
N10215 X-37.83 Y16.794
N10220 G2 X-38.276 Y16.59 I-0.876 J1.324
N10225 G1 X-38.439 Y16.544
N10230 X-38.529 Y16.486
N10235 X-38.623 Y16.433
N10240 X-39.165 Y16.155
N10245 G2 X-39.491 Y16.031 I-0.724 J1.413
N10250 G1 X-40.181 Y15.852
N10255 X-40.251 Y15.836
N10260 X-40.737 Y15.733
N10265 X-40.886 Y15.423
N10270 X-41.267 Y14.507
N10275 X-41.53 Y13.603
N10280 X-41.687 Y12.682
N10285 X-41.735 Y11.748
N10290 X-41.675 Y10.809
N10295 X-41.513 Y9.877
N10300 X-41.254 Y8.95
N10305 X-40.882 Y7.969
N10310 X-40.471 Y6.883
N10315 X-40.428 Y6.754
N10320 X-40.305 Y6.321
N10325 G2 X-40.247 Y5.982 I-1.527 J-0.434
N10330 G1 X-40.236 Y5.789
N10335 G2 X-39.907 Y5.577 I-0.691 J-1.429
N10340 G1 X-39.219 Y4.999
N10345 X-39.113 Y4.902
N10350 X-38.457 Y4.243
N10355 X-37.427 Y3.265
N10360 X-36.529 Y2.651
N10365 X-36.25 Y2.539
N10370 X-35.508 Y2.301
N10375 X-34.485 Y2.007
N10380 X-33.3 Y1.688
N10385 X-31.978 Y1.361
N10390 G3 X-31.636 Y1.788 I0.072 J0.292
N10395 G1 X-32.244 Y2.999
N10400 X-35.622 Y8.331
N10405 X-35.811 Y8.48
N10410 X-35.842 Y8.494
N10415 X-35.876
N10420 X-35.907 Y8.48
N10425 X-35.929 Y8.454
N10430 X-35.938 Y8.421
N10435 X-35.933 Y8.387
N10440 X-35.913 Y8.359
N10445 Z-3.175 F1000.
N10450 G3 X-35.527 Y7.998 I29.348 J31.049 F3000.
N10455 G2 X-35.144 Y7.634 I-12.441 J-13.493
N10460 G1 X-35.058 Y7.547
N10465 X-34.976 Y7.457
N10470 X-34.892 Y7.368
N10475 X-34.801 Y7.288
N10480 G2 X-34.617 Y7.099 I-0.697 J-0.863
N10485 G3 X-34.425 Y6.917 I0.661 J0.506
N10490 G1 X-34.373 Y6.887
N10495 X-34.316 Y6.864
N10500 G3 X-34.057 Y6.784 I3.412 J10.655
N10505 X-33.797 Y6.709 I13.738 J46.768
N10510 X-33.581 Y6.93 I0.048 J0.169
N10515 G1 X-33.604 Y6.996
N10520 X-33.627 Y7.062
N10525 G3 X-34.069 Y8.23 I-20.983 J-7.264
N10530 X-34.564 Y9.377 I-32. J-13.137
N10535 X-34.71 Y9.591 I-0.687 J-0.312
N10540 X-35.663 Y10.475 I-8.83 J-8.568
N10545 X-36.71 Y11.245 I-6.909 J-8.291
N10550 X-36.944 Y11.09 I-0.083 J-0.129
N10555 X-36.73 Y10.357 I3.349 J0.582
N10560 G2 X-36.447 Y9.648 I-19.979 J-8.384
N10565 X-36.274 Y9.144 I-7.976 J-3.021
N10570 G3 X-36.101 Y8.64 I8.149 J2.517
N10575 X-35.913 Y8.359 I0.705 J0.267
N10580 G2 X-35.602 Y6.489 I-1.078 J-1.14
N10585 G3 X-34.876 Y4.738 I1.091 J-0.573
N10590 X-33.843 Y4.457 I4.634 J14.953
N10595 G2 X-32.661 Y4.165 I-13.791 J-58.338
N10600 X-31.987 Y3.975 I-4.098 J-15.888
N10605 G3 X-31.314 Y3.786 I3.363 J10.682
N10610 X-30.958 Y4.052 I0.069 J0.278
N10615 X-30.935 Y4.97 I-24.565 J1.079
N10620 X-31.026 Y5.884 I-4.346 J0.029
N10625 X-31.523 Y7.636 I-12.524 J-2.605
N10630 X-32.183 Y9.334 I-37.086 J-13.438
N10635 G2 X-32.514 Y10.142 I82.246 J34.175
N10640 G3 X-32.97 Y10.886 I-2.459 J-0.994
N10645 X-34.263 Y12.151 I-8.329 J-7.225
N10650 X-35.721 Y13.221 I-9.806 J-11.832
N10655 X-35.952 Y13.347 I-0.975 J-1.507
N10660 G1 X-37.22 Y13.925
N10665 G3 X-38.039 Y13.908 I-0.393 J-0.862
N10670 G2 X-38.543 Y13.694 I-1.85 J3.66
N10675 G3 X-39.037 Y13.174 I0.257 J-0.74
N10680 X-39.156 Y12.474 I2.953 J-0.862
N10685 X-39.173 Y11.764 I12.092 J-0.635
N10690 X-38.822 Y9.717 I6.374 J0.039
N10695 X-38.116 Y7.763 I75.574 J26.181
N10700 X-37.471 Y6.809 I2.31 J0.868
N10705 G2 X-37.071 Y6.441 I-50.146 J-54.846
N10710 X-36.677 Y6.065 I-14.426 J-15.548
N10715 X-36.179 Y5.554 I-9.828 J-10.062
N10720 G3 X-35.638 Y5.087 I2.34 J2.164
N10725 X-35.016 Y4.783 I1.352 J1.977
N10730 G1 X-34.876 Y4.738
N10735 G2 X-33.451 Y3.029 I-0.605 J-1.953
N10740 G3 X-31.978 Y1.361 I1.944 J0.233
N10745 G1 X-30.788 Y1.067
N10750 X-30.211 Y0.935
N10755 X-29.888 Y0.863
N10760 X-29.462 Y0.771
N10765 X-29.057 Y0.693
N10770 X-28.904 Y1.241
N10775 X-28.457 Y3.711
N10780 X-28.405 Y4.896
N10785 X-28.417 Y5.508
N10790 X-28.45 Y5.991
N10795 X-28.52 Y6.405
N10800 X-28.667 Y7.002
N10805 X-29.171 Y8.604
N10810 X-29.819 Y10.316
N10815 X-30.478 Y11.77
N10820 X-30.702 Y12.136
N10825 X-31.034 Y12.565
N10830 X-32.069 Y13.632
N10835 X-33.326 Y14.665
N10840 X-34.622 Y15.503
N10845 X-36.714 Y16.456
N10850 X-37.595 Y16.742
N10855 X-37.83 Y16.794
N10860 G2 X-38.276 Y16.59 I-0.876 J1.324
N10865 G1 X-38.439 Y16.544
N10870 X-38.529 Y16.486
N10875 X-38.623 Y16.433
N10880 X-39.165 Y16.155
N10885 G2 X-39.491 Y16.031 I-0.724 J1.413
N10890 G1 X-40.181 Y15.852
N10895 X-40.251 Y15.836
N10900 X-40.737 Y15.733
N10905 X-40.886 Y15.423
N10910 X-41.267 Y14.507
N10915 X-41.53 Y13.603
N10920 X-41.687 Y12.682
N10925 X-41.735 Y11.748
N10930 X-41.675 Y10.809
N10935 X-41.513 Y9.877
N10940 X-41.254 Y8.95
N10945 X-40.882 Y7.969
N10950 X-40.471 Y6.883
N10955 X-40.428 Y6.754
N10960 X-40.305 Y6.321
N10965 G2 X-40.247 Y5.982 I-1.527 J-0.434
N10970 G1 X-40.236 Y5.789
N10975 G2 X-39.907 Y5.577 I-0.691 J-1.429
N10980 G1 X-39.219 Y4.999
N10985 X-39.113 Y4.902
N10990 X-38.457 Y4.243
N10995 X-37.427 Y3.265
N11000 X-36.529 Y2.651
N11005 X-36.25 Y2.539
N11010 X-35.508 Y2.301
N11015 X-34.485 Y2.007
N11020 X-33.3 Y1.688
N11025 X-31.978 Y1.361
N11030 Z15.
N11035 X8.349 Y69.305
N11040 Z5.
N11045 Z2.7
N11050 Z-1.7 F1000.
N11055 G3 X8.29 Y69.717 I-7.844 J-0.899 F3000.
N11060 X7.93 Y69.976 I-0.311 J-0.052
N11065 G2 X7.298 Y69.884 I-3.234 J20.191
N11070 G3 X6.665 Y69.8 I9.065 J-70.672
N11075 X6.426 Y69.424 I0.04 J-0.289
N11080 X6.523 Y69.149 I3.97 J1.245
N11085 X6.654 Y68.888 I1.458 J0.572
N11090 X7.044 Y68.631 I0.478 J0.3
N11095 G2 X7.443 Y68.561 I-1.857 J-11.727
N11100 X7.838 Y68.468 I-1.008 J-5.206
N11105 G3 X8.377 Y68.889 I0.113 J0.411
N11110 X8.349 Y69.305 I-4.561 J-0.104
N11115 G2 X8.78 Y70.419 I1.276 J0.146
N11120 G3 X8.255 Y71.492 I-0.407 J0.466
N11125 G2 X7.247 Y71.325 I-3.499 J17.965
N11130 G1 X5.372 Y71.067
N11135 G3 X4.945 Y70.618 I0.068 J-0.492
N11140 X5.073 Y69.051 I4.719 J-0.401
N11145 X5.774 Y67.644 I3.593 J0.912
N11150 X6.507 Y67.255 I0.818 J0.656
N11155 G2 X7.284 Y67.134 I-0.437 J-5.356
N11160 X8.03 Y66.886 I-0.959 J-4.136
N11165 G3 X8.729 Y66.995 I0.264 J0.603
N11170 X9.414 Y67.739 I-3.212 J3.648
N11175 X9.768 Y68.685 I-1.454 J1.084
N11180 X9.674 Y70.065 I-4.82 J0.365
N11185 X9.345 Y71.408 I-23.047 J-4.948
N11190 X8.95 Y71.642 I-0.319 J-0.088
N11195 G2 X8.255 Y71.492 I-4.194 J17.816
N11200 X6.104 Y72.47 I-0.389 J1.998
N11205 G3 X3.941 Y73.42 I-1.73 J-1.002
N11210 G1 X3.708 Y73.369
N11215 X3.132 Y73.065
N11220 X3.028 Y72.962
N11225 X2.878 Y72.738
N11230 X2.72 Y72.39
N11235 X2.568 Y71.9
N11240 X2.397 Y71.05
N11245 X2.325 Y70.206
N11250 X2.358 Y69.372
N11255 X2.497 Y68.563
N11260 X2.744 Y67.776
N11265 X3.093 Y67.026
N11270 X3.539 Y66.316
N11275 X4.096 Y65.622
N11280 X4.603 Y65.071
N11285 X4.78 Y64.908
N11290 X4.811 Y64.903
N11295 X5.259 Y64.824
N11300 G2 X5.7 Y64.678 I-0.274 J-1.564
N11305 G1 X5.77 Y64.643
N11310 G2 X6.434 Y64.671 I0.399 J-1.536
N11315 G1 X6.623 Y64.639
N11320 G2 X7.358 Y64.307 I-0.265 J-1.565
N11325 G1 X7.57 Y64.135
N11330 G2 X7.79 Y63.918 I-1. J-1.233
N11335 G1 X8.039 Y63.619
N11340 X8.093 Y63.563
N11345 X8.117 Y63.569
N11350 X8.686 Y63.858
N11355 X9.438 Y64.328
N11360 X10.273 Y64.923
N11365 X11.157 Y65.702
N11370 X11.804 Y66.54
N11375 X12.214 Y67.464
N11380 X12.394 Y68.486
N11385 X12.367 Y69.631
N11390 X12.148 Y70.933
N11395 X11.751 Y72.366
N11400 X11.202 Y73.906
N11405 X10.795 Y74.929
N11410 X10.773 Y74.979
N11415 X10.743 Y74.965
N11420 X10.633 Y74.918
N11425 X9.606 Y74.524
N11430 X9.493 Y74.485
N11435 X8.452 Y74.173
N11440 X8.314 Y74.138
N11445 X7.363 Y73.944
N11450 X7.261 Y73.926
N11455 X4.527 Y73.551
N11460 X3.941 Y73.42
N11465 G3 X3.855 Y73.114 I0.039 J-0.176
N11470 G1 X4.462 Y72.534
N11475 X7.986 Y69.409
N11480 X8.241 Y69.235
N11485 X8.271 Y69.224
N11490 X8.303 Y69.227
N11495 X8.33 Y69.245
N11500 X8.346 Y69.272
N11505 X8.349 Y69.305
N11510 Z-3.175 F1000.
N11515 G3 X8.29 Y69.717 I-7.844 J-0.899 F3000.
N11520 X7.93 Y69.976 I-0.311 J-0.052
N11525 G2 X7.298 Y69.884 I-3.234 J20.191
N11530 G3 X6.665 Y69.8 I9.065 J-70.672
N11535 X6.426 Y69.424 I0.04 J-0.289
N11540 X6.523 Y69.149 I3.97 J1.245
N11545 X6.654 Y68.888 I1.458 J0.572
N11550 X7.044 Y68.631 I0.478 J0.3
N11555 G2 X7.443 Y68.561 I-1.857 J-11.727
N11560 X7.838 Y68.468 I-1.008 J-5.206
N11565 G3 X8.377 Y68.889 I0.113 J0.411
N11570 X8.349 Y69.305 I-4.561 J-0.104
N11575 G2 X8.78 Y70.419 I1.276 J0.146
N11580 G3 X8.255 Y71.492 I-0.407 J0.466
N11585 G2 X7.247 Y71.325 I-3.499 J17.965
N11590 G1 X5.372 Y71.067
N11595 G3 X4.945 Y70.618 I0.068 J-0.492
N11600 X5.073 Y69.051 I4.719 J-0.401
N11605 X5.774 Y67.644 I3.593 J0.912
N11610 X6.507 Y67.255 I0.818 J0.656
N11615 G2 X7.284 Y67.134 I-0.437 J-5.356
N11620 X8.03 Y66.886 I-0.959 J-4.136
N11625 G3 X8.729 Y66.995 I0.264 J0.603
N11630 X9.414 Y67.739 I-3.212 J3.648
N11635 X9.768 Y68.685 I-1.454 J1.084
N11640 X9.674 Y70.065 I-4.82 J0.365
N11645 X9.345 Y71.408 I-23.047 J-4.948
N11650 X8.95 Y71.642 I-0.319 J-0.088
N11655 G2 X8.255 Y71.492 I-4.194 J17.816
N11660 X6.104 Y72.47 I-0.389 J1.998
N11665 G3 X3.941 Y73.42 I-1.73 J-1.002
N11670 G1 X3.708 Y73.369
N11675 X3.132 Y73.065
N11680 X3.028 Y72.962
N11685 X2.878 Y72.738
N11690 X2.72 Y72.39
N11695 X2.568 Y71.9
N11700 X2.397 Y71.05
N11705 X2.325 Y70.206
N11710 X2.358 Y69.372
N11715 X2.497 Y68.563
N11720 X2.744 Y67.776
N11725 X3.093 Y67.026
N11730 X3.539 Y66.316
N11735 X4.096 Y65.622
N11740 X4.603 Y65.071
N11745 X4.78 Y64.908
N11750 X4.811 Y64.903
N11755 X5.259 Y64.824
N11760 G2 X5.7 Y64.678 I-0.274 J-1.564
N11765 G1 X5.77 Y64.643
N11770 G2 X6.434 Y64.671 I0.399 J-1.536
N11775 G1 X6.623 Y64.639
N11780 G2 X7.358 Y64.307 I-0.265 J-1.565
N11785 G1 X7.57 Y64.135
N11790 G2 X7.79 Y63.918 I-1. J-1.233
N11795 G1 X8.039 Y63.619
N11800 X8.093 Y63.563
N11805 X8.117 Y63.569
N11810 X8.686 Y63.858
N11815 X9.438 Y64.328
N11820 X10.273 Y64.923
N11825 X11.157 Y65.702
N11830 X11.804 Y66.54
N11835 X12.214 Y67.464
N11840 X12.394 Y68.486
N11845 X12.367 Y69.631
N11850 X12.148 Y70.933
N11855 X11.751 Y72.366
N11860 X11.202 Y73.906
N11865 X10.795 Y74.929
N11870 X10.773 Y74.979
N11875 X10.743 Y74.965
N11880 X10.633 Y74.918
N11885 X9.606 Y74.524
N11890 X9.493 Y74.485
N11895 X8.452 Y74.173
N11900 X8.314 Y74.138
N11905 X7.363 Y73.944
N11910 X7.261 Y73.926
N11915 X4.527 Y73.551
N11920 X3.941 Y73.42
N11925 Z15.
N11930 X-6.01 Y62.751
N11935 Z5.
N11940 Z2.7
N11945 Z-1.7 F1000.
N11950 X-6.073 Y62.764 F3000.
N11955 X-6.108
N11960 X-6.142 Y62.752
N11965 X-6.168 Y62.728
N11970 X-6.184 Y62.696
N11975 X-6.188 Y62.661
N11980 X-6.178 Y62.626
N11985 X-6.156 Y62.598
N11990 X-6.099 Y62.546
N11995 X-6.071 Y62.528
N12000 X-6.039 Y62.521
N12005 X-6.006 Y62.525
N12010 X-5.977 Y62.539
N12015 X-5.933 Y62.571
N12020 X-5.908 Y62.598
N12025 X-5.895 Y62.633
N12030 X-5.896 Y62.67
N12035 X-5.911 Y62.704
N12040 X-5.937 Y62.73
N12045 X-5.971 Y62.744
N12050 X-6.01 Y62.751
N12055 G2 X-7.132 Y63.868 I0.281 J1.403
N12060 G3 X-8.428 Y64.776 I-1.127 J-0.23
N12065 G1 X-8.533 Y64.759
N12070 G3 X-9.335 Y64.497 I0.462 J-2.772
N12075 X-10.066 Y64.075 I3.295 J-6.544
N12080 X-10.101 Y63.672 I0.141 J-0.215
N12085 X-7.176 Y61.014 I74.288 J78.806
N12090 G2 X-6.737 Y60.606 I-7.359 J-8.366
N12095 G3 X-6.284 Y60.212 I3.536 J3.608
N12100 X-5.765 Y60.232 I0.248 J0.322
N12105 G2 X-4.828 Y61.066 I105.125 J-117.195
N12110 X-3.797 Y61.781 I3.575 J-4.05
N12115 X-2.701 Y62.3 I5.871 J-10.997
N12120 G3 X-2.451 Y62.59 I-0.16 J0.391
N12125 G1 X-2.429 Y62.675
N12130 G3 X-2.634 Y63.222 I-0.486 J0.13
N12135 X-3.872 Y63.957 I-6.859 J-10.143
N12140 X-5.214 Y64.479 I-3.127 J-6.053
N12145 X-6.858 Y64.799 I-2.99 J-11.012
N12150 X-8.428 Y64.776 I-0.7 J-5.891
N12155 G2 X-10.23 Y65.434 I-0.295 J1.991
N12160 G3 X-12.142 Y65.609 I-1.049 J-0.927
N12165 G1 X-12.341 Y65.453
N12170 X-13.157 Y64.723
N12175 X-13.835 Y64.085
N12180 X-13.938 Y63.977
N12185 X-13.545 Y63.54
N12190 X-13.14 Y63.138
N12195 X-12.62 Y62.64
N12200 X-12.001 Y62.056
N12205 X-11.286 Y61.382
N12210 X-9.936 Y60.119
N12215 X-8.839 Y59.124
N12220 X-7.959 Y58.373
N12225 X-7.267 Y57.839
N12230 X-6.735 Y57.494
N12235 X-6.372 Y57.313
N12240 X-5.529 Y57.092
N12245 X-5.37 Y57.08
N12250 X-4.413 Y58.105
N12255 X-4.312 Y58.204
N12260 X-3.574 Y58.867
N12265 X-3.451 Y58.966
N12270 X-2.801 Y59.442
N12275 X-2.708 Y59.504
N12280 X-2.611 Y59.561
N12285 X-1.908 Y59.936
N12290 X-1.834 Y59.973
N12295 X-1.758 Y60.006
N12300 X-0.859 Y60.372
N12305 X-0.143 Y60.662
N12310 X-0.176 Y60.845
N12315 G2 X-0.162 Y61.479 I1.562 J0.281
N12320 G1 X-0.049 Y61.976
N12325 G2 X0.258 Y62.614 I1.548 J-0.352
N12330 G1 X0.574 Y63.009
N12335 G2 X0.747 Y63.194 I1.241 J-0.99
N12340 G1 X0.78 Y63.307
N12345 X0.817 Y63.421
N12350 X0.862 Y63.531
N12355 X0.789 Y63.601
N12360 X-0.121 Y64.417
N12365 X-1.009 Y65.117
N12370 X-1.892 Y65.714
N12375 X-2.779 Y66.213
N12380 X-3.674 Y66.618
N12385 X-4.551 Y66.921
N12390 X-6.532 Y67.318
N12395 X-7.434 Y67.38
N12400 X-8.949 Y67.259
N12405 X-9.583 Y67.096
N12410 X-10.235 Y66.843
N12415 X-10.899 Y66.495
N12420 X-11.596 Y66.036
N12425 X-12.142 Y65.609
N12430 G3 X-11.913 Y64.353 I0.445 J-0.568
N12435 G1 X-8.716 Y63.351
N12440 X-6.143 Y62.669
N12445 X-6.015 Y62.676
N12450 X-5.995 Y62.684
N12455 X-5.982 Y62.701
N12460 X-5.981 Y62.723
N12465 X-5.991 Y62.741
N12470 X-6.01 Y62.751
N12475 Z-3.175 F1000.
N12480 X-6.073 Y62.764 F3000.
N12485 X-6.108
N12490 X-6.142 Y62.752
N12495 X-6.168 Y62.728
N12500 X-6.184 Y62.696
N12505 X-6.188 Y62.661
N12510 X-6.178 Y62.626
N12515 X-6.156 Y62.598
N12520 X-6.099 Y62.546
N12525 X-6.071 Y62.528
N12530 X-6.039 Y62.521
N12535 X-6.006 Y62.525
N12540 X-5.977 Y62.539
N12545 X-5.933 Y62.571
N12550 X-5.908 Y62.598
N12555 X-5.895 Y62.633
N12560 X-5.896 Y62.67
N12565 X-5.911 Y62.704
N12570 X-5.937 Y62.73
N12575 X-5.971 Y62.744
N12580 X-6.01 Y62.751
N12585 G2 X-7.132 Y63.868 I0.281 J1.403
N12590 G3 X-8.428 Y64.776 I-1.127 J-0.23
N12595 G1 X-8.533 Y64.759
N12600 G3 X-9.335 Y64.497 I0.462 J-2.772
N12605 X-10.066 Y64.075 I3.295 J-6.544
N12610 X-10.101 Y63.672 I0.141 J-0.215
N12615 X-7.176 Y61.014 I74.288 J78.806
N12620 G2 X-6.737 Y60.606 I-7.359 J-8.366
N12625 G3 X-6.284 Y60.212 I3.536 J3.608
N12630 X-5.765 Y60.232 I0.248 J0.322
N12635 G2 X-4.828 Y61.066 I105.125 J-117.195
N12640 X-3.797 Y61.781 I3.575 J-4.05
N12645 X-2.701 Y62.3 I5.871 J-10.997
N12650 G3 X-2.451 Y62.59 I-0.16 J0.391
N12655 G1 X-2.429 Y62.675
N12660 G3 X-2.634 Y63.222 I-0.486 J0.13
N12665 X-3.872 Y63.957 I-6.859 J-10.143
N12670 X-5.214 Y64.479 I-3.127 J-6.053
N12675 X-6.858 Y64.799 I-2.99 J-11.012
N12680 X-8.428 Y64.776 I-0.7 J-5.891
N12685 G2 X-10.23 Y65.434 I-0.295 J1.991
N12690 G3 X-12.142 Y65.609 I-1.049 J-0.927
N12695 G1 X-12.341 Y65.453
N12700 X-13.157 Y64.723
N12705 X-13.835 Y64.085
N12710 X-13.938 Y63.977
N12715 X-13.545 Y63.54
N12720 X-13.14 Y63.138
N12725 X-12.62 Y62.64
N12730 X-12.001 Y62.056
N12735 X-11.286 Y61.382
N12740 X-9.936 Y60.119
N12745 X-8.839 Y59.124
N12750 X-7.959 Y58.373
N12755 X-7.267 Y57.839
N12760 X-6.735 Y57.494
N12765 X-6.372 Y57.313
N12770 X-5.529 Y57.092
N12775 X-5.37 Y57.08
N12780 X-4.413 Y58.105
N12785 X-4.312 Y58.204
N12790 X-3.574 Y58.867
N12795 X-3.451 Y58.966
N12800 X-2.801 Y59.442
N12805 X-2.708 Y59.504
N12810 X-2.611 Y59.561
N12815 X-1.908 Y59.936
N12820 X-1.834 Y59.973
N12825 X-1.758 Y60.006
N12830 X-0.859 Y60.372
N12835 X-0.143 Y60.662
N12840 X-0.176 Y60.845
N12845 G2 X-0.162 Y61.479 I1.562 J0.281
N12850 G1 X-0.049 Y61.976
N12855 G2 X0.258 Y62.614 I1.548 J-0.352
N12860 G1 X0.574 Y63.009
N12865 G2 X0.747 Y63.194 I1.241 J-0.99
N12870 G1 X0.78 Y63.307
N12875 X0.817 Y63.421
N12880 X0.862 Y63.531
N12885 X0.789 Y63.601
N12890 X-0.121 Y64.417
N12895 X-1.009 Y65.117
N12900 X-1.892 Y65.714
N12905 X-2.779 Y66.213
N12910 X-3.674 Y66.618
N12915 X-4.551 Y66.921
N12920 X-6.532 Y67.318
N12925 X-7.434 Y67.38
N12930 X-8.949 Y67.259
N12935 X-9.583 Y67.096
N12940 X-10.235 Y66.843
N12945 X-10.899 Y66.495
N12950 X-11.596 Y66.036
N12955 X-12.142 Y65.609
N12960 Z15.
N12965 X17.73 Y54.068
N12970 Z5.
N12975 Z2.7
N12980 Z-1.7 F1000.
N12985 X17.613 Y54.205 F3000.
N12990 G3 X16.494 Y55.232 I-5.163 J-4.505
N12995 X16.123 Y55.499 I-22.622 J-30.947
N13000 X15.731 Y55.733 I-1.626 J-2.28
N13005 X15.54 Y55.553 I-0.062 J-0.126
N13010 G2 X16.003 Y54.319 I-15.669 J-6.584
N13015 X16.357 Y53.05 I-12.848 J-4.262
N13020 G3 X16.769 Y52.709 I0.428 J0.097
N13025 X17.448 Y52.701 I0.485 J13.53
N13030 G1 X18.377 Y52.715
N13035 G3 X18.525 Y52.991 I-0.003 J0.18
N13040 X17.73 Y54.068 I-8.782 J-5.654
N13045 G2 X17.488 Y55.727 I1.216 J1.025
N13050 G3 X16.966 Y57.32 I-1.157 J0.503
N13055 G1 X16.863 Y57.379
N13060 G3 X14.829 Y58.211 I-4.3 J-7.612
N13065 X12.666 Y58.598 I-3.341 J-12.446
N13070 G1 X12.572 Y58.607
N13075 X12.476 Y58.616
N13080 G3 X12.099 Y58.323 I-0.023 J-0.36
N13085 G1 X12.058 Y58.13
N13090 G3 X12.126 Y57.701 I0.549 J-0.133
N13095 X12.562 Y57.055 I8.146 J5.033
N13100 G2 X12.962 Y56.387 I-3.284 J-2.419
N13105 X13.846 Y54.455 I-66.218 J-31.462
N13110 X14.463 Y52.424 I-8.142 J-3.583
N13115 X14.558 Y51.769 I-10.419 J-1.845
N13120 G3 X14.653 Y51.115 I10.514 J1.191
N13125 X15.078 Y50.746 I0.441 J0.078
N13130 X18.243 Y50.702 I2.61 J72.879
N13135 X21.409 Y50.736 I-3.571 J468.468
N13140 X21.622 Y51.038 I-0.003 J0.228
N13145 X19.828 Y54.648 I-14.183 J-4.799
N13150 X16.966 Y57.32 I-7.312 J-4.963
N13155 G2 X16.004 Y59.111 I0.979 J1.679
N13160 G3 X14.776 Y60.73 I-1.564 J0.09
N13165 G1 X14.287 Y60.837
N13170 X12.888 Y61.006
N13175 X11.946 Y61.065
N13180 X11.616 Y61.053
N13185 X11.456 Y61.018
N13190 X11.226 Y60.917
N13195 X10.764 Y60.65
N13200 X10. Y60.193
N13205 X9.983 Y60.183
N13210 X9.767 Y60.058
N13215 X9.785 Y59.957
N13220 G2 X9.804 Y59.543 I-1.563 J-0.28
N13225 G1 X9.753 Y58.936
N13230 G2 X9.7 Y58.643 I-1.582 J0.135
N13235 G1 X9.548 Y58.101
N13240 G2 X9.34 Y57.647 I-1.529 J0.427
N13245 G1 X9.453 Y57.424
N13250 X9.817 Y56.85
N13255 X9.827 Y56.835
N13260 X10.66 Y55.486
N13265 X10.704 Y55.41
N13270 X10.744 Y55.332
N13275 X11.424 Y53.901
N13280 X11.463 Y53.811
N13285 X11.497 Y53.717
N13290 X11.993 Y52.216
N13295 X12.024 Y52.107
N13300 X12.048 Y51.996
N13305 X12.324 Y50.441
N13310 X12.336 Y50.359
N13315 X12.344 Y50.276
N13320 X12.436 Y48.97
N13325 X12.439 Y48.894
N13330 X12.446 Y48.615
N13335 X12.482 Y48.605
N13340 X13.212 Y48.488
N13345 X14.845 Y48.342
N13350 X17.061 Y48.262
N13355 X21.602 Y48.328
N13360 X23.302 Y48.4
N13365 X24.765 Y48.469
N13370 X24.627 Y49.124
N13375 X24.344 Y50.316
N13380 X24.066 Y51.339
N13385 X23.635 Y52.614
N13390 X23.114 Y53.838
N13395 X22.501 Y55.006
N13400 X21.793 Y56.104
N13405 X20.992 Y57.121
N13410 X20.103 Y58.037
N13415 X19.131 Y58.84
N13420 X18.073 Y59.522
N13425 X16.879 Y60.107
N13430 X15.623 Y60.544
N13435 X14.776 Y60.73
N13440 G3 X14.337 Y60.189 I-0.084 J-0.381
N13445 G1 X15.072 Y58.553
N13450 X17.406 Y54.137
N13455 X17.605 Y53.951
N13460 X17.636 Y53.933
N13465 X17.672 Y53.929
N13470 X17.707 Y53.941
N13475 X17.733 Y53.966
N13480 X17.747 Y53.999
N13485 X17.746 Y54.036
N13490 X17.73 Y54.068
N13495 Z-3.175 F1000.
N13500 X17.613 Y54.205 F3000.
N13505 G3 X16.494 Y55.232 I-5.163 J-4.505
N13510 X16.123 Y55.499 I-22.622 J-30.947
N13515 X15.731 Y55.733 I-1.626 J-2.28
N13520 X15.54 Y55.553 I-0.062 J-0.126
N13525 G2 X16.003 Y54.319 I-15.669 J-6.584
N13530 X16.357 Y53.05 I-12.848 J-4.262
N13535 G3 X16.769 Y52.709 I0.428 J0.097
N13540 X17.448 Y52.701 I0.485 J13.53
N13545 G1 X18.377 Y52.715
N13550 G3 X18.525 Y52.991 I-0.003 J0.18
N13555 X17.73 Y54.068 I-8.782 J-5.654
N13560 G2 X17.488 Y55.727 I1.216 J1.025
N13565 G3 X16.966 Y57.32 I-1.157 J0.503
N13570 G1 X16.863 Y57.379
N13575 G3 X14.829 Y58.211 I-4.3 J-7.612
N13580 X12.666 Y58.598 I-3.341 J-12.446
N13585 G1 X12.572 Y58.607
N13590 X12.476 Y58.616
N13595 G3 X12.099 Y58.323 I-0.023 J-0.36
N13600 G1 X12.058 Y58.13
N13605 G3 X12.126 Y57.701 I0.549 J-0.133
N13610 X12.562 Y57.055 I8.146 J5.033
N13615 G2 X12.962 Y56.387 I-3.284 J-2.419
N13620 X13.846 Y54.455 I-66.218 J-31.462
N13625 X14.463 Y52.424 I-8.142 J-3.583
N13630 X14.558 Y51.769 I-10.419 J-1.845
N13635 G3 X14.653 Y51.115 I10.514 J1.191
N13640 X15.078 Y50.746 I0.441 J0.078
N13645 X18.243 Y50.702 I2.61 J72.879
N13650 X21.409 Y50.736 I-3.571 J468.468
N13655 X21.622 Y51.038 I-0.003 J0.228
N13660 X19.828 Y54.648 I-14.183 J-4.799
N13665 X16.966 Y57.32 I-7.312 J-4.963
N13670 G2 X16.004 Y59.111 I0.979 J1.679
N13675 G3 X14.776 Y60.73 I-1.564 J0.09
N13680 G1 X14.287 Y60.837
N13685 X12.888 Y61.006
N13690 X11.946 Y61.065
N13695 X11.616 Y61.053
N13700 X11.456 Y61.018
N13705 X11.226 Y60.917
N13710 X10.764 Y60.65
N13715 X10. Y60.193
N13720 X9.983 Y60.183
N13725 X9.767 Y60.058
N13730 X9.785 Y59.957
N13735 G2 X9.804 Y59.543 I-1.563 J-0.28
N13740 G1 X9.753 Y58.936
N13745 G2 X9.7 Y58.643 I-1.582 J0.135
N13750 G1 X9.548 Y58.101
N13755 G2 X9.34 Y57.647 I-1.529 J0.427
N13760 G1 X9.453 Y57.424
N13765 X9.817 Y56.85
N13770 X9.827 Y56.835
N13775 X10.66 Y55.486
N13780 X10.704 Y55.41
N13785 X10.744 Y55.332
N13790 X11.424 Y53.901
N13795 X11.463 Y53.811
N13800 X11.497 Y53.717
N13805 X11.993 Y52.216
N13810 X12.024 Y52.107
N13815 X12.048 Y51.996
N13820 X12.324 Y50.441
N13825 X12.336 Y50.359
N13830 X12.344 Y50.276
N13835 X12.436 Y48.97
N13840 X12.439 Y48.894
N13845 X12.446 Y48.615
N13850 X12.482 Y48.605
N13855 X13.212 Y48.488
N13860 X14.845 Y48.342
N13865 X17.061 Y48.262
N13870 X21.602 Y48.328
N13875 X23.302 Y48.4
N13880 X24.765 Y48.469
N13885 X24.627 Y49.124
N13890 X24.344 Y50.316
N13895 X24.066 Y51.339
N13900 X23.635 Y52.614
N13905 X23.114 Y53.838
N13910 X22.501 Y55.006
N13915 X21.793 Y56.104
N13920 X20.992 Y57.121
N13925 X20.103 Y58.037
N13930 X19.131 Y58.84
N13935 X18.073 Y59.522
N13940 X16.879 Y60.107
N13945 X15.623 Y60.544
N13950 X14.776 Y60.73
N13955 Z15.
N13960 X-46.019 Y30.182
N13965 Z5.
N13970 Z2.7
N13975 Z-1.7 F1000.
N13980 X-46.079 Y30.249 F3000.
N13985 G3 X-46.61 Y30.788 I-6.151 J-5.532
N13990 X-47.022 Y30.746 I-0.188 J-0.203
N13995 G1 X-47.189 Y30.513
N14000 G3 X-47.193 Y29.923 I0.415 J-0.298
N14005 X-46.592 Y29.172 I6.065 J4.236
N14010 X-45.923 Y28.482 I11.602 J10.589
N14015 G1 X-45.591 Y28.16
N14020 G3 X-45.229 Y27.871 I1.672 J1.726
N14025 X-44.864 Y28.095 I0.129 J0.199
N14030 X-45.116 Y28.935 I-2.364 J-0.251
N14035 X-45.592 Y29.672 I-4.056 J-2.097
N14040 X-46.019 Y30.182 I-9.413 J-7.45
N14045 G2 X-46.175 Y31.168 I0.694 J0.615
N14050 G3 X-46.395 Y32.142 I-0.773 J0.337
N14055 X-46.864 Y32.534 I-10.134 J-11.674
N14060 X-47.262 Y32.464 I-0.168 J-0.21
N14065 G2 X-47.875 Y31.548 I-11.366 J6.952
N14070 G3 X-48.517 Y30.651 I40.674 J-29.762
N14075 X-48.577 Y29.947 I0.579 J-0.404
N14080 G1 X-48.524 Y29.836
N14085 X-48.466 Y29.727
N14090 G3 X-48.298 Y29.482 I1.669 J0.964
N14095 G1 X-48.105 Y29.243
N14100 G3 X-47.15 Y28.088 I49.34 J39.792
N14105 X-46.062 Y27.058 I5.169 J4.375
N14110 X-45.705 Y26.817 I2.48 J3.284
N14115 X-45.321 Y26.623 I1.489 J2.473
N14120 X-44.452 Y26.714 I0.351 J0.847
N14125 G2 X-44.023 Y26.97 I2.298 J-3.354
N14130 G3 X-43.679 Y27.518 I-0.293 J0.565
N14135 X-44.682 Y30.4 I-4.298 J0.12
N14140 X-46.395 Y32.142 I-11.847 J-9.932
N14145 G2 X-47.017 Y34.215 I1.326 J1.528
N14150 G3 X-47.766 Y36.244 I-1.778 J0.497
N14155 G1 X-48.14 Y36.495
N14160 X-48.174 Y36.332
N14165 G2 X-48.249 Y36.08 I-1.554 J0.326
N14170 G1 X-48.636 Y35.088
N14175 X-48.682 Y34.982
N14180 X-48.736 Y34.879
N14185 X-49.35 Y33.8
N14190 X-49.412 Y33.7
N14195 X-49.824 Y33.087
N14200 X-49.853 Y33.045
N14205 X-50.338 Y32.371
N14210 X-50.79 Y31.724
N14215 X-51.114 Y31.194
N14220 X-51.301 Y30.822
N14225 X-51.354 Y30.652
N14230 X-51.349 Y30.253
N14235 X-51.227 Y29.763
N14240 X-50.626 Y28.479
N14245 X-49.712 Y27.171
N14250 X-48.481 Y25.843
N14255 X-47.575 Y25.054
N14260 X-46.817 Y24.561
N14265 X-45.974 Y24.211
N14270 X-44.756 Y23.892
N14275 X-44.339 Y23.81
N14280 G2 X-43.549 Y24.241 I1.125 J-1.12
N14285 X-43.263 Y24.514 I1.231 J-1.003
N14290 G1 X-43.099 Y24.635
N14295 G2 X-41.898 Y24.926 I0.945 J-1.275
N14300 G1 X-41.5 Y24.861
N14305 X-41.481 Y24.858
N14310 X-41.418 Y25.153
N14315 X-41.224 Y26.663
N14320 X-41.188 Y27.956
N14325 X-41.305 Y29.062
N14330 X-41.579 Y30.055
N14335 X-42.035 Y31.01
N14340 X-42.696 Y31.964
N14345 X-43.571 Y32.936
N14350 X-44.65 Y33.935
N14355 X-45.763 Y34.826
N14360 X-47.108 Y35.803
N14365 X-47.766 Y36.244
N14370 X-47.794 Y36.256
N14375 X-47.825 Y36.257
N14380 X-47.853 Y36.246
N14385 X-47.876 Y36.225
N14390 X-47.889 Y36.197
N14395 X-47.89 Y36.167
N14400 X-47.84 Y35.812
N14405 X-46.426 Y30.305
N14410 X-46.233 Y30.013
N14415 G3 X-46.036 Y29.984 I0.112 J0.078
N14420 X-46.019 Y30.182 I-0.085 J0.107
N14425 G1 Z-3.175 F1000.
N14430 X-46.079 Y30.249 F3000.
N14435 G3 X-46.61 Y30.788 I-6.151 J-5.532
N14440 X-47.022 Y30.746 I-0.188 J-0.203
N14445 G1 X-47.189 Y30.513
N14450 G3 X-47.193 Y29.923 I0.415 J-0.298
N14455 X-46.592 Y29.172 I6.065 J4.236
N14460 X-45.923 Y28.482 I11.602 J10.589
N14465 G1 X-45.591 Y28.16
N14470 G3 X-45.229 Y27.871 I1.672 J1.726
N14475 X-44.864 Y28.095 I0.129 J0.199
N14480 X-45.116 Y28.935 I-2.364 J-0.251
N14485 X-45.592 Y29.672 I-4.056 J-2.097
N14490 X-46.019 Y30.182 I-9.413 J-7.45
N14495 G2 X-46.175 Y31.168 I0.694 J0.615
N14500 G3 X-46.395 Y32.142 I-0.773 J0.337
N14505 X-46.864 Y32.534 I-10.134 J-11.674
N14510 X-47.262 Y32.464 I-0.168 J-0.21
N14515 G2 X-47.875 Y31.548 I-11.366 J6.952
N14520 G3 X-48.517 Y30.651 I40.674 J-29.762
N14525 X-48.577 Y29.947 I0.579 J-0.404
N14530 G1 X-48.524 Y29.836
N14535 X-48.466 Y29.727
N14540 G3 X-48.298 Y29.482 I1.669 J0.964
N14545 G1 X-48.105 Y29.243
N14550 G3 X-47.15 Y28.088 I49.34 J39.792
N14555 X-46.062 Y27.058 I5.169 J4.375
N14560 X-45.705 Y26.817 I2.48 J3.284
N14565 X-45.321 Y26.623 I1.489 J2.473
N14570 X-44.452 Y26.714 I0.351 J0.847
N14575 G2 X-44.023 Y26.97 I2.298 J-3.354
N14580 G3 X-43.679 Y27.518 I-0.293 J0.565
N14585 X-44.682 Y30.4 I-4.298 J0.12
N14590 X-46.395 Y32.142 I-11.847 J-9.932
N14595 G2 X-47.017 Y34.215 I1.326 J1.528
N14600 G3 X-47.766 Y36.244 I-1.778 J0.497
N14605 G1 X-48.14 Y36.495
N14610 X-48.174 Y36.332
N14615 G2 X-48.249 Y36.08 I-1.554 J0.326
N14620 G1 X-48.636 Y35.088
N14625 X-48.682 Y34.982
N14630 X-48.736 Y34.879
N14635 X-49.35 Y33.8
N14640 X-49.412 Y33.7
N14645 X-49.824 Y33.087
N14650 X-49.853 Y33.045
N14655 X-50.338 Y32.371
N14660 X-50.79 Y31.724
N14665 X-51.114 Y31.194
N14670 X-51.301 Y30.822
N14675 X-51.354 Y30.652
N14680 X-51.349 Y30.253
N14685 X-51.227 Y29.763
N14690 X-50.626 Y28.479
N14695 X-49.712 Y27.171
N14700 X-48.481 Y25.843
N14705 X-47.575 Y25.054
N14710 X-46.817 Y24.561
N14715 X-45.974 Y24.211
N14720 X-44.756 Y23.892
N14725 X-44.339 Y23.81
N14730 G2 X-43.549 Y24.241 I1.125 J-1.12
N14735 X-43.263 Y24.514 I1.231 J-1.003
N14740 G1 X-43.099 Y24.635
N14745 G2 X-41.898 Y24.926 I0.945 J-1.275
N14750 G1 X-41.5 Y24.861
N14755 X-41.481 Y24.858
N14760 X-41.418 Y25.153
N14765 X-41.224 Y26.663
N14770 X-41.188 Y27.956
N14775 X-41.305 Y29.062
N14780 X-41.579 Y30.055
N14785 X-42.035 Y31.01
N14790 X-42.696 Y31.964
N14795 X-43.571 Y32.936
N14800 X-44.65 Y33.935
N14805 X-45.763 Y34.826
N14810 X-47.108 Y35.803
N14815 X-47.766 Y36.244
N14820 Z15.
N14825 X-50.571 Y15.797
N14830 Z5.
N14835 Z2.7
N14840 Z-1.7 F1000.
N14845 X-50.612 Y15.764 F3000.
N14850 G3 X-51.111 Y14.847 I0.875 J-1.07
N14855 X-50.828 Y14.481 I0.331 J-0.037
N14860 G1 X-49.714 Y14.32
N14865 G3 X-49.368 Y14.589 I0.044 J0.302
N14870 G2 X-49.279 Y15.162 I5.94 J-0.626
N14875 G1 X-49.157 Y15.759
N14880 G3 X-49.688 Y16.249 I-0.414 J0.085
N14885 X-50.571 Y15.797 I0.727 J-2.505
N14890 G2 X-51.745 Y15.563 I-0.818 J1.043
N14895 G3 X-52.752 Y14.916 I-0.215 J-0.772
N14900 X-52.83 Y14.373 I21.06 J-3.326
N14905 X-52.938 Y13.49 I44.513 J-5.863
N14910 X-52.629 Y13.081 I0.37 J-0.041
N14915 X-50.696 Y12.782 I13.854 J82.928
N14920 X-48.757 Y12.516 I22.385 J156.29
N14925 G2 X-48.479 Y12.474 I-0.875 J-6.696
N14930 G3 X-48.201 Y12.434 I0.863 J4.982
N14935 X-47.884 Y12.704 I0.033 J0.283
N14940 G2 X-47.822 Y13.767 I36.968 J-1.617
N14945 X-47.677 Y14.822 I8.206 J-0.596
N14950 X-47.576 Y15.247 I6.838 J-1.401
N14955 G3 X-47.475 Y15.671 I-6.737 J1.825
N14960 X-47.612 Y16.602 I-1.351 J0.277
N14965 G2 X-47.87 Y17.167 I4.157 J2.238
N14970 X-48.087 Y17.749 I59.589 J22.577
N14975 G3 X-48.562 Y18.064 I-0.452 J-0.166
N14980 X-50.777 Y17.621 I0.358 J-7.56
N14985 X-52.451 Y16.104 I1.012 J-2.799
N14990 X-52.603 Y15.687 I2.058 J-0.982
N14995 X-52.696 Y15.253 I5.539 J-1.416
N15000 X-52.752 Y14.916 I21.004 J-3.663
N15005 G2 X-54.205 Y13.343 I-1.903 J0.301
N15010 G3 X-55.365 Y11.543 I0.362 J-1.508
N15015 G1 X-55.272 Y11.053
N15020 X-54.629 Y10.912
N15025 X-53.422 Y10.688
N15030 X-52.01 Y10.452
N15035 X-49.082 Y10.028
N15040 X-47.868 Y9.887
N15045 X-47.03 Y9.821
N15050 X-46.206 Y9.838
N15055 X-45.907 Y9.871
N15060 X-45.813 Y9.89
N15065 X-45.505 Y10.027
N15070 X-45.314 Y10.161
N15075 X-45.309 Y10.286
N15080 X-45.374 Y11.093
N15085 X-45.379 Y11.197
N15090 X-45.397 Y12.504
N15095 X-45.395 Y12.598
N15100 X-45.388 Y12.692
N15105 X-45.233 Y14.165
N15110 X-45.209 Y14.317
N15115 X-44.919 Y15.734
N15120 X-44.884 Y15.872
N15125 X-44.688 Y16.527
N15130 X-44.657 Y16.619
N15135 X-44.621 Y16.708
N15140 X-44.555 Y16.859
N15145 X-44.74 Y17.008
N15150 X-44.82 Y17.077
N15155 X-44.896 Y17.151
N15160 X-45.172 Y17.443
N15165 G2 X-45.503 Y17.967 I1.152 J1.092
N15170 G1 X-45.741 Y18.588
N15175 G2 X-45.844 Y19.063 I1.482 J0.569
N15180 G1 X-45.87 Y19.502
N15185 G2 X-45.859 Y19.801 I1.585 J0.094
N15190 G1 X-45.872 Y19.834
N15195 X-46.009 Y20.187
N15200 X-46.057 Y20.333
N15205 X-47.177 Y20.504
N15210 X-48.321 Y20.569
N15215 X-49.443 Y20.516
N15220 X-50.479 Y20.348
N15225 X-51.426 Y20.073
N15230 X-52.285 Y19.697
N15235 X-53.059 Y19.217
N15240 X-53.74 Y18.632
N15245 X-54.305 Y17.957
N15250 X-54.749 Y17.201
N15255 X-54.995 Y16.547
N15260 X-55.199 Y15.689
N15265 X-55.44 Y13.529
N15270 X-55.448 Y12.525
N15275 X-55.384 Y11.64
N15280 X-55.365 Y11.543
N15285 G3 X-54.947 Y11.405 I0.248 J0.047
N15290 G1 X-54.073 Y12.206
N15295 X-50.585 Y15.51
N15300 X-50.47 Y15.715
N15305 X-50.462 Y15.744
N15310 X-50.468 Y15.774
N15315 X-50.486 Y15.798
N15320 X-50.513 Y15.811
N15325 X-50.544
N15330 X-50.571 Y15.797
N15335 Z-3.175 F1000.
N15340 X-50.612 Y15.764 F3000.
N15345 G3 X-51.111 Y14.847 I0.875 J-1.07
N15350 X-50.828 Y14.481 I0.331 J-0.037
N15355 G1 X-49.714 Y14.32
N15360 G3 X-49.368 Y14.589 I0.044 J0.302
N15365 G2 X-49.279 Y15.162 I5.94 J-0.626
N15370 G1 X-49.157 Y15.759
N15375 G3 X-49.688 Y16.249 I-0.414 J0.085
N15380 X-50.571 Y15.797 I0.727 J-2.505
N15385 G2 X-51.745 Y15.563 I-0.818 J1.043
N15390 G3 X-52.752 Y14.916 I-0.215 J-0.772
N15395 X-52.83 Y14.373 I21.06 J-3.326
N15400 X-52.938 Y13.49 I44.513 J-5.863
N15405 X-52.629 Y13.081 I0.37 J-0.041
N15410 X-50.696 Y12.782 I13.854 J82.928
N15415 X-48.757 Y12.516 I22.385 J156.29
N15420 G2 X-48.479 Y12.474 I-0.875 J-6.696
N15425 G3 X-48.201 Y12.434 I0.863 J4.982
N15430 X-47.884 Y12.704 I0.033 J0.283
N15435 G2 X-47.822 Y13.767 I36.968 J-1.617
N15440 X-47.677 Y14.822 I8.206 J-0.596
N15445 X-47.576 Y15.247 I6.838 J-1.401
N15450 G3 X-47.475 Y15.671 I-6.737 J1.825
N15455 X-47.612 Y16.602 I-1.351 J0.277
N15460 G2 X-47.87 Y17.167 I4.157 J2.238
N15465 X-48.087 Y17.749 I59.589 J22.577
N15470 G3 X-48.562 Y18.064 I-0.452 J-0.166
N15475 X-50.777 Y17.621 I0.358 J-7.56
N15480 X-52.451 Y16.104 I1.012 J-2.799
N15485 X-52.603 Y15.687 I2.058 J-0.982
N15490 X-52.696 Y15.253 I5.539 J-1.416
N15495 X-52.752 Y14.916 I21.004 J-3.663
N15500 G2 X-54.205 Y13.343 I-1.903 J0.301
N15505 G3 X-55.365 Y11.543 I0.362 J-1.508
N15510 G1 X-55.272 Y11.053
N15515 X-54.629 Y10.912
N15520 X-53.422 Y10.688
N15525 X-52.01 Y10.452
N15530 X-49.082 Y10.028
N15535 X-47.868 Y9.887
N15540 X-47.03 Y9.821
N15545 X-46.206 Y9.838
N15550 X-45.907 Y9.871
N15555 X-45.813 Y9.89
N15560 X-45.505 Y10.027
N15565 X-45.314 Y10.161
N15570 X-45.309 Y10.286
N15575 X-45.374 Y11.093
N15580 X-45.379 Y11.197
N15585 X-45.397 Y12.504
N15590 X-45.395 Y12.598
N15595 X-45.388 Y12.692
N15600 X-45.233 Y14.165
N15605 X-45.209 Y14.317
N15610 X-44.919 Y15.734
N15615 X-44.884 Y15.872
N15620 X-44.688 Y16.527
N15625 X-44.657 Y16.619
N15630 X-44.621 Y16.708
N15635 X-44.555 Y16.859
N15640 X-44.74 Y17.008
N15645 X-44.82 Y17.077
N15650 X-44.896 Y17.151
N15655 X-45.172 Y17.443
N15660 G2 X-45.503 Y17.967 I1.152 J1.092
N15665 G1 X-45.741 Y18.588
N15670 G2 X-45.844 Y19.063 I1.482 J0.569
N15675 G1 X-45.87 Y19.502
N15680 G2 X-45.859 Y19.801 I1.585 J0.094
N15685 G1 X-45.872 Y19.834
N15690 X-46.009 Y20.187
N15695 X-46.057 Y20.333
N15700 X-47.177 Y20.504
N15705 X-48.321 Y20.569
N15710 X-49.443 Y20.516
N15715 X-50.479 Y20.348
N15720 X-51.426 Y20.073
N15725 X-52.285 Y19.697
N15730 X-53.059 Y19.217
N15735 X-53.74 Y18.632
N15740 X-54.305 Y17.957
N15745 X-54.749 Y17.201
N15750 X-54.995 Y16.547
N15755 X-55.199 Y15.689
N15760 X-55.44 Y13.529
N15765 X-55.448 Y12.525
N15770 X-55.384 Y11.64
N15775 X-55.365 Y11.543
N15780 Z15.
N15785 X-27.28 Y21.106
N15790 Z5.
N15795 Z2.7
N15800 Z-1.7 F1000.
N15805 X-27.059 Y21.346 F3000.
N15810 G3 X-27.106 Y21.761 I-0.202 J0.187
N15815 X-28.426 Y22.52 I-5.673 J-8.332
N15820 X-29.839 Y23.089 I-5.165 J-10.787
N15825 X-30.269 Y23.228 I-9.319 J-28.2
N15830 X-30.707 Y23.338 I-1.162 J-3.703
N15835 X-31.138 Y23.415 I-4.335 J-22.852
N15840 X-31.575 Y23.438 I-0.317 J-1.859
N15845 G1 X-31.614 Y23.429
N15850 X-31.647 Y23.408
N15855 X-31.672 Y23.377
N15860 X-31.685 Y23.34
N15865 Y23.3
N15870 X-31.673 Y23.263
N15875 X-31.648 Y23.231
N15880 X-31.615 Y23.21
N15885 G2 X-29.673 Y22.196 I-6.051 J-13.961
N15890 X-27.883 Y20.932 I-9.324 J-15.104
N15895 G3 X-27.409 Y20.967 I0.218 J0.272
N15900 G1 X-27.28 Y21.106
N15905 G2 X-25.916 Y21.561 I1.095 J-1.012
N15910 G3 X-25.369 Y22.89 I0.132 J0.723
N15915 X-27.112 Y24.006 I-19.126 J-27.957
N15920 X-30.347 Y25.235 I-5.079 J-8.495
N15925 X-31.686 Y25.364 I-1.368 J-7.213
N15930 X-33.019 Y25.183 I-0.019 J-4.843
N15935 G1 X-33.222 Y25.121
N15940 X-33.322 Y25.085
N15945 X-33.421 Y25.046
N15950 G3 X-34.238 Y24.646 I3.675 J-8.547
N15955 X-34.995 Y24.141 I2.624 J-4.758
N15960 X-35.065 Y23.678 I0.214 J-0.269
N15965 G2 X-34.876 Y23.389 I-6.794 J-4.651
N15970 X-34.712 Y23.086 I-2.328 J-1.454
N15975 G1 X-34.666 Y22.98
N15980 X-34.623 Y22.872
N15985 X-34.579 Y22.766
N15990 X-34.527 Y22.662
N15995 G3 X-33.881 Y22.073 I1.18 J0.645
N16000 X-32.757 Y21.634 I6.516 J15.035
N16005 G2 X-31.667 Y21.116 I-1.835 J-5.266
N16010 X-29.787 Y19.937 I-72.51 J-117.708
N16015 X-28.043 Y18.563 I-6.043 J-9.467
N16020 G1 X-27.891 Y18.407
N16025 X-27.738 Y18.251
N16030 G3 X-27.285 Y18.259 I0.223 J0.232
N16035 X-25.718 Y19.939 I-38.972 J37.916
N16040 X-24.193 Y21.657 I-240.955 J215.378
N16045 X-24.237 Y22.081 I-0.217 J0.192
N16050 X-25.369 Y22.89 I-20.258 J-27.147
N16055 G2 X-26.191 Y24.95 I1.123 J1.642
N16060 G3 X-27.235 Y26.906 I-1.68 J0.36
N16065 G1 X-28.421 Y27.379
N16070 X-29.867 Y27.762
N16075 X-31.304 Y27.929
N16080 X-32.973 Y27.822
N16085 X-33.716 Y27.655
N16090 X-34.437 Y27.409
N16095 X-35.903 Y26.639
N16100 X-37.219 Y25.593
N16105 X-37.424 Y25.382
N16110 X-37.527 Y25.176
N16115 X-37.592 Y24.933
N16120 X-37.704 Y24.387
N16125 X-37.848 Y23.58
N16130 X-37.931 Y23.088
N16135 X-37.831 Y23.024
N16140 G2 X-37.39 Y22.603 I-0.856 J-1.337
N16145 G1 X-37.158 Y22.273
N16150 G2 X-37.014 Y22.023 I-1.297 J-0.915
N16155 G1 X-36.816 Y21.596
N16160 X-36.706 Y21.394
N16165 G2 X-36.573 Y21.072 I-1.393 J-0.761
N16170 G1 X-36.482 Y20.754
N16175 X-36.388 Y20.477
N16180 X-36.361 Y20.443
N16185 X-36.113 Y20.284
N16190 X-35.411 Y19.989
N16195 X-35.394 Y19.982
N16200 X-33.214 Y19.037
N16205 X-33.111 Y18.988
N16210 X-33.013 Y18.932
N16215 X-30.992 Y17.687
N16220 X-30.91 Y17.633
N16225 X-30.831 Y17.573
N16230 X-29.907 Y16.831
N16235 X-29.8 Y16.737
N16240 X-28.954 Y15.924
N16245 X-28.854 Y15.818
N16250 X-28.087 Y14.931
N16255 X-27.996 Y14.816
N16260 X-27.799 Y14.541
N16265 X-27.716 Y14.581
N16270 X-27.183 Y14.854
N16275 X-27.158 Y14.871
N16280 X-27.01 Y14.995
N16285 X-26.452 Y15.518
N16290 X-25.847 Y16.122
N16295 X-25.371 Y16.611
N16300 X-25.238 Y16.75
N16305 X-25.172 Y16.819
N16310 X-25.046 Y16.951
N16315 X-24.794 Y17.219
N16320 X-23.738 Y18.361
N16325 X-21.66 Y20.719
N16330 X-20.937 Y21.57
N16335 X-20.39 Y22.211
N16340 X-20.418 Y22.238
N16345 X-22.08 Y23.616
N16350 X-23.971 Y25.027
N16355 X-24.845 Y25.622
N16360 X-25.592 Y26.084
N16365 X-26.991 Y26.809
N16370 X-27.235 Y26.906
N16375 G3 X-27.976 Y26.439 I-0.2 J-0.503
N16380 G1 X-28.146 Y23.874
N16385 X-28.155 Y23.803
N16390 X-28.162 Y23.757
N16395 X-28.165 Y23.71
N16400 X-28.219 Y21.487
N16405 G3 X-27.28 Y21.106 I0.542 J-0.013
N16410 G1 Z-3.175 F1000.
N16415 X-27.059 Y21.346 F3000.
N16420 G3 X-27.106 Y21.761 I-0.202 J0.187
N16425 X-28.426 Y22.52 I-5.673 J-8.332
N16430 X-29.839 Y23.089 I-5.165 J-10.787
N16435 X-30.269 Y23.228 I-9.319 J-28.2
N16440 X-30.707 Y23.338 I-1.162 J-3.703
N16445 X-31.138 Y23.415 I-4.335 J-22.852
N16450 X-31.575 Y23.438 I-0.317 J-1.859
N16455 G1 X-31.614 Y23.429
N16460 X-31.647 Y23.408
N16465 X-31.672 Y23.377
N16470 X-31.685 Y23.34
N16475 Y23.3
N16480 X-31.673 Y23.263
N16485 X-31.648 Y23.231
N16490 X-31.615 Y23.21
N16495 G2 X-29.673 Y22.196 I-6.051 J-13.961
N16500 X-27.883 Y20.932 I-9.324 J-15.104
N16505 G3 X-27.409 Y20.967 I0.218 J0.272
N16510 G1 X-27.28 Y21.106
N16515 G2 X-25.916 Y21.561 I1.095 J-1.012
N16520 G3 X-25.369 Y22.89 I0.132 J0.723
N16525 X-27.112 Y24.006 I-19.126 J-27.957
N16530 X-30.347 Y25.235 I-5.079 J-8.495
N16535 X-31.686 Y25.364 I-1.368 J-7.213
N16540 X-33.019 Y25.183 I-0.019 J-4.843
N16545 G1 X-33.222 Y25.121
N16550 X-33.322 Y25.085
N16555 X-33.421 Y25.046
N16560 G3 X-34.238 Y24.646 I3.675 J-8.547
N16565 X-34.995 Y24.141 I2.624 J-4.758
N16570 X-35.065 Y23.678 I0.214 J-0.269
N16575 G2 X-34.876 Y23.389 I-6.794 J-4.651
N16580 X-34.712 Y23.086 I-2.328 J-1.454
N16585 G1 X-34.666 Y22.98
N16590 X-34.623 Y22.872
N16595 X-34.579 Y22.766
N16600 X-34.527 Y22.662
N16605 G3 X-33.881 Y22.073 I1.18 J0.645
N16610 X-32.757 Y21.634 I6.516 J15.035
N16615 G2 X-31.667 Y21.116 I-1.835 J-5.266
N16620 X-29.787 Y19.937 I-72.51 J-117.708
N16625 X-28.043 Y18.563 I-6.043 J-9.467
N16630 G1 X-27.891 Y18.407
N16635 X-27.738 Y18.251
N16640 G3 X-27.285 Y18.259 I0.223 J0.232
N16645 X-25.718 Y19.939 I-38.972 J37.916
N16650 X-24.193 Y21.657 I-240.955 J215.378
N16655 X-24.237 Y22.081 I-0.217 J0.192
N16660 X-25.369 Y22.89 I-20.258 J-27.147
N16665 G2 X-26.191 Y24.95 I1.123 J1.642
N16670 G3 X-27.235 Y26.906 I-1.68 J0.36
N16675 G1 X-28.421 Y27.379
N16680 X-29.867 Y27.762
N16685 X-31.304 Y27.929
N16690 X-32.973 Y27.822
N16695 X-33.716 Y27.655
N16700 X-34.437 Y27.409
N16705 X-35.903 Y26.639
N16710 X-37.219 Y25.593
N16715 X-37.424 Y25.382
N16720 X-37.527 Y25.176
N16725 X-37.592 Y24.933
N16730 X-37.704 Y24.387
N16735 X-37.848 Y23.58
N16740 X-37.931 Y23.088
N16745 X-37.831 Y23.024
N16750 G2 X-37.39 Y22.603 I-0.856 J-1.337
N16755 G1 X-37.158 Y22.273
N16760 G2 X-37.014 Y22.023 I-1.297 J-0.915
N16765 G1 X-36.816 Y21.596
N16770 X-36.706 Y21.394
N16775 G2 X-36.573 Y21.072 I-1.393 J-0.761
N16780 G1 X-36.482 Y20.754
N16785 X-36.388 Y20.477
N16790 X-36.361 Y20.443
N16795 X-36.113 Y20.284
N16800 X-35.411 Y19.989
N16805 X-35.394 Y19.982
N16810 X-33.214 Y19.037
N16815 X-33.111 Y18.988
N16820 X-33.013 Y18.932
N16825 X-30.992 Y17.687
N16830 X-30.91 Y17.633
N16835 X-30.831 Y17.573
N16840 X-29.907 Y16.831
N16845 X-29.8 Y16.737
N16850 X-28.954 Y15.924
N16855 X-28.854 Y15.818
N16860 X-28.087 Y14.931
N16865 X-27.996 Y14.816
N16870 X-27.799 Y14.541
N16875 X-27.716 Y14.581
N16880 X-27.183 Y14.854
N16885 X-27.158 Y14.871
N16890 X-27.01 Y14.995
N16895 X-26.452 Y15.518
N16900 X-25.847 Y16.122
N16905 X-25.371 Y16.611
N16910 X-25.238 Y16.75
N16915 X-25.172 Y16.819
N16920 X-25.046 Y16.951
N16925 X-24.794 Y17.219
N16930 X-23.738 Y18.361
N16935 X-21.66 Y20.719
N16940 X-20.937 Y21.57
N16945 X-20.39 Y22.211
N16950 X-20.418 Y22.238
N16955 X-22.08 Y23.616
N16960 X-23.971 Y25.027
N16965 X-24.845 Y25.622
N16970 X-25.592 Y26.084
N16975 X-26.991 Y26.809
N16980 X-27.235 Y26.906
N16985 Z15.
N16990 X9.789 Y-42.206
N16995 Z5.
N17000 Z2.7
N17005 Z-1.7 F1000.
N17010 X9.771 Y-42.259 F3000.
N17015 X9.766 Y-42.294
N17020 X9.774 Y-42.328
N17025 X9.794 Y-42.358
N17030 X9.823 Y-42.378
N17035 X9.857 Y-42.386
N17040 X9.892 Y-42.381
N17045 X10.042 Y-42.333
N17050 X10.073 Y-42.316
N17055 X10.096 Y-42.289
N17060 X10.107 Y-42.256
N17065 X10.106 Y-42.22
N17070 X10.092 Y-42.187
N17075 X10.067 Y-42.162
N17080 X10.035 Y-42.148
N17085 X9.911 Y-42.118
N17090 X9.876 Y-42.116
N17095 X9.842 Y-42.128
N17100 X9.815 Y-42.15
N17105 X9.797 Y-42.181
N17110 X9.789 Y-42.206
N17115 G2 X8.945 Y-43.35 I-2.193 J0.735
N17120 G3 X9.434 Y-44.684 I0.43 J-0.599
N17125 X10.116 Y-44.604 I-0.735 J9.185
N17130 X12.026 Y-43.654 I-0.542 J3.484
N17135 X12.826 Y-42.376 I-2.183 J2.256
N17140 X13.208 Y-40.918 I-11.854 J3.885
N17145 X12.955 Y-40.518 I-0.337 J0.067
N17150 X8.369 Y-39.418 I-49.059 J-194.458
N17155 X8.027 Y-39.662 I-0.062 J-0.275
N17160 X7.949 Y-40.401 I53.432 J-6.004
N17165 G2 X7.793 Y-41.128 I-3.292 J0.324
N17170 X7.531 Y-41.828 I-10.026 J3.36
N17175 X7.239 Y-42.516 I-44.178 J18.369
N17180 G3 Y-43.335 I0.942 J-0.409
N17185 G2 X7.411 Y-43.819 I-3.389 J-1.476
N17190 X7.543 Y-44.314 I-21.817 J-6.083
N17195 G3 X7.985 Y-44.686 I0.48 J0.122
N17200 X9.434 Y-44.684 I0.715 J9.187
N17205 G2 X11.204 Y-45.62 I0.149 J-1.86
N17210 G3 X13.173 Y-45.983 I1.137 J0.649
N17215 G1 X13.789 Y-45.476
N17220 X14.509 Y-44.657
N17225 X15.005 Y-43.819
N17230 X15.204 Y-43.29
N17235 X15.412 Y-42.563
N17240 X15.763 Y-40.793
N17245 X15.867 Y-39.965
N17250 X15.918 Y-39.228
N17255 X15.913 Y-38.762
N17260 X15.545 Y-38.645
N17265 X14.723 Y-38.415
N17270 X13.655 Y-38.135
N17275 X12.447 Y-37.83
N17280 X9.948 Y-37.23
N17285 X8.768 Y-36.964
N17290 X7.972 Y-36.796
N17295 X7.392 Y-36.695
N17300 X7.142 Y-36.676
N17305 X5.841 Y-36.784
N17310 X5.769 Y-36.804
N17315 X5.691 Y-37.683
N17320 X5.631 Y-38.648
N17325 X5.627 Y-38.691
N17330 X5.584 Y-39.17
N17335 X5.58 Y-39.205
N17340 X5.54 Y-39.561
N17345 X5.53 Y-39.638
N17350 X5.459 Y-40.075
