%
(DOGWOOD_FEMALE_TAPERBIT_SECOND)
(T2  D=6. CR=0. TAPER=15DEG - ZMIN=-3.175 - CHAMFER MILL)
N10 G90 G94 G17 G91.1
N15 G21
(WHEN USING FUSION 360 FOR PERSONAL USE, THE FEEDRATE OF)
(RAPID MOVES IS REDUCED TO MATCH THE FEEDRATE OF CUTTING)
(MOVES, WHICH CAN INCREASE MACHINING TIME. UNRESTRICTED RAPID)
(MOVES ARE AVAILABLE WITH A FUSION 360 SUBSCRIPTION.)
N20 G53 G0 Z0.
(2D POCKET1 2)
N25 T2 M6
N30 S5000 M3
N35 G54
N40 M8
N45 G0 X-17.833 Y-12.493
N50 G43 Z15. H2
N55 G1 Z5. F1000.
N60 Z1.
N65 Z-3.175
N70 X-17.831 Y-12.492
N75 X-17.124 Y-12.185
N80 X-17.102 Y-12.176
N85 X-17.854 Y-11.92
N90 X-18.044 Y-11.856
N95 Z1.
N100 X-17.844 Y-12.714
N105 Z-3.175
N110 X-17.843
N115 X-17.135 Y-12.407
N120 X-16.551 Y-12.153
N125 X-17.876 Y-11.703
N130 X-18.065 Y-11.639
N135 Z1.
N140 X-17.892 Y-12.951
N145 Z-3.175
N150 X-17.89 Y-12.95
N155 X-16.419 Y-12.312
N160 X-15.958 Y-12.081
N165 X-16.319 Y-12.016
N170 X-16.405 Y-11.994
N175 X-17.201 Y-11.723
N180 X-17.931 Y-11.475
N185 X-18.121 Y-11.411
N190 Z1.
N195 X-17.988 Y-13.207
N200 Z-3.175
N205 X-17.986
N210 X-16.336 Y-12.491
N215 X-15.51 Y-12.077
N220 X-15.324 Y-11.978
N225 X-15.397 Y-11.976
N230 X-15.459 Y-11.97
N235 X-16.284 Y-11.822
N240 X-16.342 Y-11.807
N245 X-17.302 Y-11.481
N250 X-17.935 Y-11.266
N255 X-17.983 Y-11.246
N260 X-18.029 Y-11.223
N265 X-18.208 Y-11.135
N270 Z1.
N275 X-18.358 Y-13.536
N280 Z-3.175
N285 X-18.273 Y-13.527
N290 X-18.19 Y-13.508
N295 X-18.172 Y-13.503
N300 X-18.171 Y-13.502
N305 X-16.252 Y-12.67
N310 X-15.419 Y-12.252
N315 X-14.729 Y-11.885
N320 X-14.594 Y-11.795
N325 X-15.393 Y-11.778
N330 X-15.424 Y-11.775
N335 X-16.249 Y-11.627
N340 X-16.278 Y-11.619
N345 X-17.479 Y-11.212
N350 X-17.872 Y-11.078
N355 X-17.896 Y-11.068
N360 X-18.193 Y-10.922
N365 Z5.
N370 X-29.469 Y-0.62
N375 Z1. F333.33
N380 Z-3.175 F1000.
N385 X-29.389 Y-0.651
N390 X-29.306 Y-0.672
N395 X-28.758 Y-0.779
N400 X-28.547 Y-0.81
N405 X-28.362 Y-0.837
N410 X-28.172 Y-0.841
N415 X-28.006 Y-0.579
N420 X-27.859 Y-0.176
N425 X-27.731 Y0.282
N430 Z5.
N435 X-33.858 Y-12.605
N440 Z1. F333.33
N445 Z-3.175 F1000.
N450 X-33.808 Y-12.516
N455 X-33.793 Y-12.491
N460 X-32.904 Y-11.02
N465 X-32.894 Y-11.002
N470 X-31.844 Y-9.341
N475 X-31.498 Y-8.8
N480 G2 X-31.18 Y-8.489 I0.835 J-0.534
N485 G1 X-31.152 Y-8.438
N490 X-31.133 Y-8.383
N495 X-31.121 Y-8.325
N500 X-31.109 Y-8.281
N505 X-31.085 Y-8.242
N510 X-31.051 Y-8.211
N515 X-31.009 Y-8.191
N520 G2 X-30.397 Y-8.17 I0.347 J-1.143
N525 X-30.447 Y-7.324 I1.09 J0.49
N530 G1 X-31.145 Y-8.13
N535 X-31.286 Y-8.316
N540 G2 X-31.009 Y-8.191 I0.624 J-1.019
N545 G1 Z5.
N550 X-33.999 Y-12.447
N555 Z1. F333.33
N560 Z-3.175 F1000.
N565 Y-12.446
N570 X-33.983 Y-12.417
N575 X-33.965 Y-12.387
N580 X-33.076 Y-10.916
N585 X-33.063 Y-10.895
N590 X-32.157 Y-9.461
N595 X-32.218 Y-9.543
N600 X-33.159 Y-10.936
N605 X-33.598 Y-11.596
N610 X-33.678 Y-11.702
N615 X-34.017 Y-12.107
N620 G2 X-34.198 Y-12.281 I-0.913 J0.767
N625 G1 X-34.241 Y-12.306
N630 X-34.288 Y-12.321
N635 X-34.337 Y-12.323
N640 X-35.309 Y-12.243
N645 X-35.348 Y-12.236
N650 X-35.384 Y-12.222
N655 G2 X-35.759 Y-11.885 I0.454 J0.882
N660 G1 X-35.903 Y-11.666
N665 X-36.015 Y-11.495
N670 X-35.93 Y-11.687
N675 X-35.876 Y-11.809
N680 X-35.849 Y-11.875
N685 X-35.656 Y-12.408
N690 X-35.63 Y-12.457
N695 X-35.592 Y-12.497
N700 X-35.544 Y-12.525
N705 X-35.491 Y-12.539
N710 X-34.054 Y-12.704
N715 X-34.008
N720 X-33.962 Y-12.693
N725 X-33.921 Y-12.672
N730 X-33.885 Y-12.641
N735 X-33.857 Y-12.604
N740 X-33.808 Y-12.516
N745 X-33.793 Y-12.491
N750 X-32.904 Y-11.02
N755 X-32.894 Y-11.002
N760 X-31.844 Y-9.341
N765 X-31.498 Y-8.8
N770 G2 X-29.987 Y-8.609 I0.835 J-0.534
N775 G1 X-29.425 Y-9.137
N780 G3 X-29.153 Y-9.139 I0.137 J0.146
N785 G1 X-29.075 Y-9.067
N790 G3 X-29.208 Y-8.719 I-0.135 J0.148
N795 G2 X-29.61 Y-8.631 I0.007 J0.992
N800 G1 X-29.715 Y-8.584
N805 G2 X-30.217 Y-7.287 I0.409 J0.904
N810 G1 X-30.149 Y-7.13
N815 X-30.1 Y-7.031
N820 X-30.04 Y-6.939
N825 X-29.689 Y-6.457
N830 X-29.629 Y-6.381
N835 X-28.306 Y-4.895
N840 X-28.252 Y-4.838
N845 X-26.841 Y-3.483
N850 X-26.818 Y-3.462
N855 X-26.248 Y-2.949
N860 X-26.238 Y-2.94
N865 X-25.774 Y-2.532
N870 X-25.762 Y-2.523
N875 X-24.811 Y-1.713
N880 X-24.78 Y-1.687
N885 X-21.776 Y0.663
N890 X-22. Y0.509
N895 X-22.012 Y0.5
N900 X-23.83 Y-0.713
N905 X-24.981 Y-1.55
N910 X-26.218 Y-2.589
N915 X-27.513 Y-3.8
N920 X-28.814 Y-5.128
N925 X-31.303 Y-8.002
N930 X-32.382 Y-9.426
N935 X-33.326 Y-10.824
N940 X-33.765 Y-11.485
N945 X-33.831 Y-11.574
N950 X-34.171 Y-11.978
N955 G2 X-34.364 Y-12.154 I-0.76 J0.638
N960 G1 X-34.408 Y-12.178
N965 X-34.457 Y-12.189
N970 X-34.506 Y-12.188
N975 X-35.201 Y-12.086
N980 G2 X-35.593 Y-11.776 I0.271 J0.745
N985 G1 X-36.593 Y-10.256
N990 X-36.603 Y-10.24
N995 X-37.889 Y-8.185
N1000 X-39.148 Y-6.253
N1005 X-39.445 Y-5.798
N1010 X-38.564 Y-7.285
N1015 X-37.846 Y-8.491
N1020 X-37.84 Y-8.501
N1025 X-37.242 Y-9.54
N1030 X-37.233 Y-9.555
N1035 X-36.749 Y-10.443
N1040 X-36.736 Y-10.466
N1045 X-36.356 Y-11.22
N1050 X-36.34 Y-11.254
N1055 X-36.085 Y-11.828
N1060 X-36.057 Y-11.89
N1065 X-36.036 Y-11.942
N1070 X-35.842 Y-12.477
N1075 X-35.819 Y-12.552
N1080 X-35.801 Y-12.597
N1085 X-35.774 Y-12.637
N1090 X-35.737 Y-12.669
N1095 X-35.694 Y-12.691
N1100 X-35.647 Y-12.702
N1105 X-33.929 Y-12.888
N1110 X-33.882 Y-12.887
N1115 X-33.837 Y-12.876
N1120 X-33.796 Y-12.855
N1125 X-33.761 Y-12.825
N1130 X-33.733 Y-12.787
N1135 X-33.635 Y-12.614
N1140 X-33.623 Y-12.594
N1145 X-32.734 Y-11.122
N1150 X-32.726 Y-11.109
N1155 X-31.676 Y-9.447
N1160 X-31.33 Y-8.907
N1165 G2 X-30.119 Y-8.757 I0.668 J-0.427
N1170 G1 X-29.49 Y-9.348
N1175 G3 X-29.179 Y-9.301 I0.137 J0.146
N1180 G1 X-28.902 Y-8.811
N1185 G3 X-29.101 Y-8.515 I-0.174 J0.099
N1190 G2 X-29.528 Y-8.45 I-0.1 J0.787
N1195 G1 X-29.634 Y-8.403
N1200 G2 X-30.035 Y-7.366 I0.327 J0.723
N1205 G1 X-29.967 Y-7.208
N1210 X-29.928 Y-7.13
N1215 X-29.88 Y-7.056
N1220 X-29.529 Y-6.574
N1225 X-29.48 Y-6.513
N1230 X-28.158 Y-5.027
N1235 X-28.114 Y-4.982
N1240 X-26.703 Y-3.627
N1245 X-26.685 Y-3.609
N1250 X-26.115 Y-3.096
N1255 X-26.107 Y-3.089
N1260 X-25.643 Y-2.682
N1265 X-25.634 Y-2.674
N1270 X-24.682 Y-1.864
N1275 X-24.657 Y-1.844
N1280 X-20.67 Y1.277
N1285 X-20.656 Y1.287
N1290 X-19.352 Y2.263
N1295 X-18.175 Y3.179
N1300 X-17.112 Y4.051
N1305 X-16.162 Y4.883
N1310 X-14.521 Y6.512
N1315 X-13.19 Y8.152
N1320 X-12.083 Y9.914
N1325 X-11.124 Y11.912
N1330 X-10.865 Y12.601
N1335 X-11.328 Y11.581
N1340 X-11.347 Y11.541
N1345 X-11.985 Y10.323
N1350 X-12.025 Y10.255
N1355 X-13.47 Y8.063
N1360 X-13.521 Y7.994
N1365 X-14.359 Y6.981
N1370 X-14.395 Y6.941
N1375 X-15.33 Y5.956
N1380 X-15.364 Y5.922
N1385 X-16.411 Y4.947
N1390 X-16.442 Y4.92
N1395 X-17.616 Y3.934
N1400 X-17.641 Y3.914
N1405 X-18.958 Y2.898
N1410 X-18.978 Y2.883
N1415 X-20.452 Y1.818
N1420 X-20.466 Y1.807
N1425 X-22.113 Y0.672
N1430 X-22.123 Y0.666
N1435 X-23.944 Y-0.55
N1440 X-25.104 Y-1.394
N1445 X-26.349 Y-2.44
N1450 X-27.652 Y-3.658
N1455 X-28.96 Y-4.993
N1460 X-31.458 Y-7.877
N1465 X-32.543 Y-9.31
N1470 X-33.491 Y-10.714
N1475 X-33.93 Y-11.375
N1480 X-33.983 Y-11.446
N1485 X-34.323 Y-11.85
N1490 G2 X-34.553 Y-12.038 I-0.607 J0.51
N1495 G1 X-34.582 Y-12.049
N1500 X-34.612 Y-12.051
N1505 X-34.642 Y-12.045
N1510 X-34.987 Y-11.932
N1515 G2 X-35.427 Y-11.667 I0.057 J0.592
N1520 G1 X-36.428 Y-10.147
N1525 X-36.436 Y-10.135
N1530 X-37.722 Y-8.078
N1535 X-38.982 Y-6.144
N1540 X-39.682 Y-5.074
N1545 X-39.689 Y-5.063
N1550 X-40.271 Y-4.13
N1555 X-40.282 Y-4.112
N1560 X-40.754 Y-3.292
N1565 X-40.769 Y-3.264
N1570 X-41.139 Y-2.533
N1575 X-41.167 Y-2.469
N1580 X-41.645 Y-1.168
N1585 X-41.662 Y-1.118
N1590 X-41.673 Y-1.066
N1595 X-41.902 Y0.236
N1600 X-41.91 Y0.319
N1605 X-41.945 Y1.391
N1610 Y1.443
N1615 X-41.878 Y2.655
N1620 X-41.874 Y2.7
N1625 X-41.735 Y3.765
N1630 X-41.725 Y3.821
N1635 X-41.636 Y4.208
N1640 X-41.62 Y4.266
N1645 X-41.598 Y4.321
N1650 X-41.469 Y4.606
N1655 G2 X-40.714 Y4.916 I0.542 J-0.246
N1660 G3 X-40.505 Y5.223 I0.068 J0.178
N1665 G1 X-40.881 Y5.634
N1670 G3 X-41.212 Y5.494 I-0.141 J-0.129
N1675 G2 X-41.257 Y5.232 I-0.594 J-0.033
N1680 G1 X-41.451 Y4.768
N1685 X-41.601 Y4.409
N1690 X-41.864 Y3.547
N1695 X-42.126 Y1.902
N1700 X-42.102 Y0.245
N1705 X-41.843 Y-1.364
N1710 X-41.366 Y-2.762
N1715 X-41.093 Y-3.294
N1720 X-40.728 Y-3.961
N1725 X-40.434 Y-4.484
N1730 X-40.298 Y-4.724
N1735 X-39.79 Y-5.605
N1740 X-38.735 Y-7.386
N1745 X-38.016 Y-8.592
N1750 X-37.414 Y-9.639
N1755 X-37.407 Y-9.65
N1760 X-36.922 Y-10.538
N1765 X-36.913 Y-10.555
N1770 X-36.533 Y-11.309
N1775 X-36.521 Y-11.335
N1780 X-36.238 Y-11.971
N1785 X-36.222 Y-12.01
N1790 X-36.028 Y-12.545
N1795 X-36.013 Y-12.592
N1800 X-36.002 Y-12.64
N1805 X-35.986 Y-12.73
N1810 X-35.97 Y-12.779
N1815 X-35.943 Y-12.822
N1820 X-35.905 Y-12.857
N1825 X-35.86 Y-12.881
N1830 X-35.81 Y-12.893
N1835 X-33.823 Y-13.104
N1840 X-33.777
N1845 X-33.732 Y-13.092
N1850 X-33.69 Y-13.071
N1855 X-33.655 Y-13.041
N1860 X-33.628 Y-13.004
N1865 X-33.463 Y-12.711
N1870 X-33.454 Y-12.696
N1875 X-32.565 Y-11.225
N1880 X-32.558 Y-11.214
N1885 X-31.508 Y-9.553
N1890 X-31.163 Y-9.014
N1895 G2 X-30.255 Y-8.901 I0.501 J-0.321
N1900 G1 X-29.527 Y-9.585
N1905 X-29.382 Y-9.722
N1910 Z5.
N1915 X-33.549 Y-13.264
N1920 Z1. F333.33
N1925 Z-3.175 F1000.
N1930 X-33.548 Y-13.263
N1935 X-33.291 Y-12.808
N1940 X-33.285 Y-12.798
N1945 X-32.396 Y-11.327
N1950 X-31.342 Y-9.659
N1955 X-30.997 Y-9.12
N1960 G2 X-30.39 Y-9.045 I0.335 J-0.214
N1965 G1 X-29.526 Y-9.857
N1970 G3 X-29.221 Y-9.622 I0.134 J0.142
N1975 G1 X-29.696 Y-8.748
N1980 X-29.723 Y-8.71
N1985 X-29.759 Y-8.679
N1990 G3 X-31.924 Y-9.106 I-0.869 J-1.298
N1995 X-33.134 Y-10.953 I80.894 J-54.328
N2000 X-33.759 Y-12.315 I4.562 J-2.916
N2005 G2 X-35.214 Y-12.674 I-0.834 J0.25
N2010 X-38.08 Y-8.595 I11.02 J10.789
N2015 G3 X-40.418 Y-4.19 I-59.231 J-28.619
N2020 G2 X-41.881 Y-0.286 I10.82 J6.28
N2025 X-41.736 Y3.882 I9.14 J1.768
N2030 X-41.538 Y4.506 I6.742 J-1.799
N2035 X-41.178 Y5.053 I1.365 J-0.505
N2040 G1 X-41.152 Y5.084
N2045 X-41.132 Y5.121
N2050 X-41.121 Y5.161
N2055 X-41.035 Y5.672
N2060 G3 X-41.216 Y5.899 I-0.192 J0.032
N2065 X-41.422 Y5.693 I-0.01 J-0.195
N2070 G1 X-41.409 Y5.485
N2075 X-41.41 Y5.424
N2080 X-41.42 Y5.365
N2085 X-41.439 Y5.308
N2090 X-41.786 Y4.476
N2095 X-42.057 Y3.592
N2100 X-42.323 Y1.917
N2105 X-42.299 Y0.228
N2110 X-42.035 Y-1.412
N2115 X-41.548 Y-2.84
N2120 X-41.268 Y-3.386
N2125 X-40.9 Y-4.057
N2130 X-40.606 Y-4.581
N2135 X-40.469 Y-4.822
N2140 X-39.96 Y-5.705
N2145 X-38.904 Y-7.487
N2150 X-38.186 Y-8.693
N2155 X-37.585 Y-9.737
N2160 X-37.095 Y-10.633
N2165 X-37.089 Y-10.644
N2170 X-36.709 Y-11.398
N2175 X-36.701 Y-11.415
N2180 X-36.418 Y-12.051
N2185 X-36.407 Y-12.077
N2190 X-36.213 Y-12.612
N2195 X-36.196 Y-12.676
N2200 X-36.145 Y-12.953
N2205 X-36.132 Y-12.996
N2210 X-36.109 Y-13.036
N2215 X-36.078 Y-13.069
N2220 X-36.041 Y-13.094
N2225 X-35.998 Y-13.111
N2230 X-33.733 Y-13.692
N2235 X-33.682 Y-13.699
N2240 X-33.63 Y-13.691
N2245 X-33.582 Y-13.671
N2250 X-33.541 Y-13.639
N2255 X-33.509 Y-13.597
N2260 X-33.13 Y-12.926
N2265 X-33.119 Y-12.905
N2270 X-32.227 Y-11.429
N2275 X-31.174 Y-9.764
N2280 X-30.831 Y-9.227
N2285 G2 X-30.525 Y-9.189 I0.168 J-0.108
N2290 G1 X-29.457 Y-10.194
N2295 G3 X-29.157 Y-10.155 I0.134 J0.142
N2300 G1 X-28.606 Y-9.273
N2305 G3 X-29.264 Y-8.434 I-0.481 J0.301
N2310 G2 X-30.313 Y-8.239 I-0.347 J1.052
N2315 G3 X-30.649 Y-8.061 I-0.609 J-0.744
N2320 X-31.026 Y-8.113 I-0.131 J-0.441
N2325 X-32.727 Y-10.124 I2.36 J-3.722
N2330 G2 X-34.103 Y-12.37 I-8.066 J3.398
N2335 X-34.715 Y-12.725 I-0.802 J0.676
N2340 X-35.382 Y-12.488 I-0.128 J0.695
N2345 X-39.179 Y-7.265 I32.642 J27.725
N2350 X-41.721 Y-1.33 I18.554 J11.458
N2355 X-42.298 Y1.909 I20.007 J5.237
N2360 X-41.216 Y5.016 I3.91 J0.38
N2365 G1 X-41.189 Y5.05
N2370 X-41.171 Y5.089
N2375 X-41.162 Y5.13
N2380 Y5.173
N2385 X-41.257 Y6.012
N2390 G3 X-41.487 Y6.181 I-0.194 J-0.022
N2395 X-41.639 Y5.939 I0.036 J-0.192
N2400 G1 X-41.632 Y5.899
N2405 X-41.607 Y5.473
N2410 X-41.609 Y5.427
N2415 X-41.622 Y5.384
N2420 X-41.973 Y4.543
N2425 X-42.25 Y3.637
N2430 X-42.521 Y1.931
N2435 X-42.497 Y0.211
N2440 X-42.228 Y-1.46
N2445 X-41.731 Y-2.917
N2450 X-41.442 Y-3.479
N2455 X-41.073 Y-4.153
N2460 X-40.778 Y-4.679
N2465 X-40.641 Y-4.92
N2470 X-40.131 Y-5.805
N2475 X-39.074 Y-7.588
N2480 X-38.356 Y-8.794
N2485 X-37.756 Y-9.836
N2490 X-37.269 Y-10.728
N2495 X-36.886 Y-11.487
N2500 X-36.599 Y-12.131
N2505 X-36.594 Y-12.145
N2510 X-36.467 Y-12.494
N2515 X-36.4 Y-12.68
N2520 X-36.391 Y-12.712
N2525 X-36.293 Y-13.244
N2530 Z5.
N2535 X-7.855 Y27.664
N2540 Z1. F333.33
N2545 Z-3.175 F1000.
N2550 X-7.665 Y27.544
N2555 X-7.648 Y27.533
N2560 X-7.209 Y27.239
N2565 X-7.176 Y27.216
N2570 X-6.973 Y27.065
N2575 X-6.925 Y27.04
N2580 X-6.873 Y27.03
N2585 X-6.819 Y27.036
N2590 X-6.77 Y27.056
N2595 X-6.73 Y27.074
N2600 X-6.686 Y27.079
N2605 X-6.643 Y27.073
N2610 X-6.603 Y27.054
N2615 X-6.57 Y27.025
N2620 X-6.518 Y26.958
N2625 X-6.479 Y27.056
N2630 X-6.451 Y27.129
N2635 X-6.561 Y27.15
N2640 X-6.668 Y27.183
N2645 X-6.714 Y27.2
N2650 X-6.775 Y27.225
N2655 X-6.834 Y27.253
N2660 X-6.739 Y27.183
N2665 X-6.65 Y27.109
N2670 X-6.57 Y27.025
N2675 X-6.568 Y27.09
N2680 X-7.271 Y27.74
N2685 X-7.293 Y27.756
N2690 X-7.316 Y27.769
N2695 X-7.713 Y27.934
N2700 G3 X-7.853 Y27.664 I-0.059 J-0.141
N2705 G1 X-7.665 Y27.544
N2710 X-7.648 Y27.533
N2715 X-7.209 Y27.239
N2720 X-7.176 Y27.216
N2725 X-6.878 Y26.995
N2730 G2 X-6.577 Y26.538 I-0.474 J-0.64
N2735 G1 X-6.522 Y26.301
N2740 X-6.512 Y26.329
N2745 X-6.501 Y26.36
N2750 X-6.101 Y27.382
N2755 G2 X-6.587 Y27.402 I-0.211 J0.768
N2760 G1 X-6.634 Y27.419
N2765 G2 X-7.154 Y28.124 I0.275 J0.747
N2770 G1 X-7.157 Y28.181
N2775 X-7.168 Y28.381
N2780 Z1.
N2785 X-8.079 Y27.568
N2790 Z-3.175
N2795 X-8.078 Y27.567
N2800 X-7.773 Y27.374
N2805 X-7.76 Y27.366
N2810 X-7.432 Y27.146
N2815 X-7.32 Y27.071
N2820 X-7.296 Y27.055
N2825 X-6.998 Y26.834
N2830 G2 X-6.773 Y26.492 I-0.354 J-0.478
N2835 G1 X-6.7 Y26.178
N2840 X-6.688 Y26.11
N2845 X-6.684 Y26.041
N2850 X-6.688 Y25.972
N2855 X-6.728 Y25.633
N2860 X-6.746 Y25.539
N2865 X-6.979 Y24.725
N2870 X-6.989 Y24.694
N2875 X-7.185 Y24.125
N2880 X-7.408 Y23.447
N2885 X-7.585 Y22.898
N2890 X-7.669 Y22.636
N2895 X-7.96 Y21.711
N2900 X-8.541 Y19.828
N2905 X-9.147 Y17.875
N2910 X-9.15 Y17.865
N2915 X-9.732 Y16.099
N2920 X-9.737 Y16.085
N2925 X-10.31 Y14.485
N2930 X-10.317 Y14.466
N2935 X-10.896 Y13.013
N2940 X-10.907 Y12.988
N2945 X-11.508 Y11.663
N2950 X-11.523 Y11.633
N2955 X-12.16 Y10.415
N2960 X-12.191 Y10.364
N2965 X-13.635 Y8.172
N2970 X-13.674 Y8.121
N2975 X-14.511 Y7.108
N2980 X-14.538 Y7.077
N2985 X-15.473 Y6.093
N2990 X-15.499 Y6.067
N2995 X-16.546 Y5.092
N3000 X-16.569 Y5.072
N3005 X-17.743 Y4.086
N3010 X-17.762 Y4.071
N3015 X-19.079 Y3.055
N3020 X-19.094 Y3.044
N3025 X-20.568 Y1.978
N3030 X-20.579 Y1.971
N3035 X-22.225 Y0.835
N3040 X-24.057 Y-0.387
N3045 X-25.226 Y-1.238
N3050 X-26.481 Y-2.292
N3055 X-27.79 Y-3.516
N3060 X-29.106 Y-4.859
N3065 X-31.612 Y-7.752
N3070 X-32.704 Y-9.195
N3075 X-33.655 Y-10.603
N3080 X-34.095 Y-11.265
N3085 X-34.135 Y-11.318
N3090 X-34.474 Y-11.723
N3095 G2 X-34.775 Y-11.915 I-0.456 J0.383
N3100 G3 X-34.699 Y-12.296 I0.051 J-0.188
N3105 G1 X-34.052 Y-12.212
N3110 X-34. Y-12.198
N3115 X-33.955 Y-12.17
N3120 X-33.918 Y-12.132
N3125 X-33.868 Y-12.068
N3130 X-33.813 Y-12.007
N3135 X-30.813 Y-8.971
N3140 G2 X-29.558 Y-8.809 I0.731 J-0.722
N3145 G1 X-29.508 Y-8.83
N3150 X-29.453 Y-8.837
N3155 X-29.399 Y-8.827
N3160 X-28.864 Y-8.656
N3165 G3 X-28.974 Y-8.283 I-0.059 J0.186
N3170 G1 X-29.045 Y-8.302
N3175 G2 X-29.447 Y-8.27 I-0.157 J0.574
N3180 G1 X-29.552 Y-8.222
N3185 G2 X-29.853 Y-7.444 I0.245 J0.542
N3190 G1 X-29.785 Y-7.287
N3195 X-29.756 Y-7.228
N3200 X-29.72 Y-7.172
N3205 X-29.369 Y-6.69
N3210 X-29.332 Y-6.645
N3215 X-28.01 Y-5.158
N3220 X-27.977 Y-5.125
N3225 X-26.566 Y-3.769
N3230 X-26.552 Y-3.757
N3235 X-25.983 Y-3.244
N3240 X-25.512 Y-2.831
N3245 X-24.554 Y-2.015
N3250 X-24.535 Y-2.
N3255 X-20.548 Y1.121
N3260 X-20.538 Y1.128
N3265 X-19.232 Y2.106
N3270 X-18.052 Y3.024
N3275 X-16.984 Y3.899
N3280 X-16.026 Y4.738
N3285 X-14.374 Y6.379
N3290 X-13.029 Y8.036
N3295 X-11.91 Y9.819
N3300 X-10.942 Y11.834
N3305 X-10.054 Y14.194
N3310 X-9.621 Y15.528
N3315 X-9.181 Y16.991
N3320 X-8.691 Y18.67
N3325 X-8.248 Y20.174
N3330 X-7.85 Y21.513
N3335 X-7.489 Y22.704
N3340 X-7.161 Y23.76
N3345 X-6.861 Y24.696
N3350 X-6.857 Y24.707
N3355 X-6.322 Y26.263
N3360 X-6.313 Y26.287
N3365 X-5.827 Y27.53
N3370 X-5.814 Y27.561
N3375 X-5.367 Y28.537
N3380 X-5.637 Y28.087
N3385 X-5.654 Y28.061
N3390 X-5.819 Y27.817
N3395 G2 X-6.518 Y27.591 I-0.493 J0.333
N3400 G1 X-6.564 Y27.608
N3405 G2 X-6.953 Y28.135 I0.206 J0.558
N3410 G1 X-6.96 Y28.263
N3415 X-6.959 Y28.338
N3420 X-6.958 Y28.35
N3425 X-6.944 Y28.549
N3430 Z1.
N3435 X-8.343 Y27.502
N3440 Z-3.175
N3445 X-8.341 Y27.501
N3450 X-7.878 Y27.208
N3455 X-7.693 Y27.084
N3460 X-7.429 Y26.907
N3465 X-7.414 Y26.896
N3470 X-7.116 Y26.675
N3475 G2 X-6.965 Y26.447 I-0.237 J-0.32
N3480 G1 X-6.891 Y26.132
N3485 X-6.881 Y26.064
N3490 X-6.884 Y25.995
N3495 X-6.923 Y25.656
N3500 X-6.936 Y25.593
N3505 X-7.168 Y24.779
N3510 X-7.175 Y24.759
N3515 X-7.372 Y24.188
N3520 X-7.596 Y23.508
N3525 X-7.773 Y22.958
N3530 X-7.856 Y22.696
N3535 X-8.149 Y21.77
N3540 X-8.729 Y19.886
N3545 X-9.335 Y17.933
N3550 X-9.919 Y16.161
N3555 X-9.922 Y16.151
N3560 X-10.495 Y14.552
N3565 X-10.5 Y14.539
N3570 X-11.079 Y13.086
N3575 X-11.087 Y13.07
N3580 X-11.687 Y11.744
N3585 X-11.697 Y11.724
N3590 X-12.335 Y10.507
N3595 X-12.355 Y10.472
N3600 X-13.8 Y8.281
N3605 X-13.826 Y8.246
N3610 X-14.663 Y7.233
N3615 X-14.681 Y7.213
N3620 X-15.616 Y6.228
N3625 X-15.633 Y6.211
N3630 X-16.68 Y5.236
N3635 X-16.696 Y5.223
N3640 X-17.87 Y4.237
N3645 X-17.883 Y4.227
N3650 X-19.199 Y3.211
N3655 X-19.209 Y3.204
N3660 X-20.683 Y2.138
N3665 X-22.337 Y0.998
N3670 X-24.17 Y-0.226
N3675 X-25.347 Y-1.082
N3680 X-26.612 Y-2.145
N3685 X-27.928 Y-3.375
N3690 X-29.251 Y-4.726
N3695 X-31.765 Y-7.628
N3700 X-32.865 Y-9.08
N3705 X-33.819 Y-10.494
N3710 X-34.259 Y-11.156
N3715 X-34.286 Y-11.192
N3720 X-34.625 Y-11.596
N3725 G2 X-35.037 Y-11.723 I-0.305 J0.256
N3730 G1 X-35.066 Y-11.707
N3735 X-35.085 Y-11.68
N3740 X-35.09 Y-11.648
N3745 X-35.079 Y-11.616
N3750 X-35.056 Y-11.593
N3755 X-35.025 Y-11.582
N3760 X-34.79 Y-11.559
N3765 X-34.757 Y-11.564
N3770 X-34.73 Y-11.582
N3775 X-34.714 Y-11.611
N3780 X-34.712 Y-11.644
N3785 X-34.725 Y-11.674
N3790 X-34.751 Y-11.695
N3795 G2 X-35.263 Y-11.559 I-0.18 J0.355
N3800 G1 X-36.263 Y-10.039
N3805 X-37.556 Y-7.972
N3810 X-38.817 Y-6.037
N3815 X-39.517 Y-4.966
N3820 X-40.104 Y-4.025
N3825 X-40.111 Y-4.013
N3830 X-40.583 Y-3.193
N3835 X-40.593 Y-3.175
N3840 X-40.963 Y-2.443
N3845 X-40.982 Y-2.401
N3850 X-41.46 Y-1.1
N3855 X-41.479 Y-1.032
N3860 X-41.708 Y0.27
N3865 X-41.713 Y0.326
N3870 X-41.748 Y1.397
N3875 Y1.432
N3880 X-41.682 Y2.644
N3885 X-41.679 Y2.674
N3890 X-41.539 Y3.74
N3895 X-41.533 Y3.777
N3900 X-41.444 Y4.164
N3905 X-41.418 Y4.24
N3910 X-41.289 Y4.524
N3915 G2 X-40.671 Y4.665 I0.362 J-0.164
N3920 G1 X-40.596 Y4.601
N3925 G3 X-40.307 Y4.645 I0.125 J0.149
N3930 X-40.384 Y4.926 I-0.163 J0.106
N3935 G1 X-40.87 Y5.164
N3940 X-40.923 Y5.181
N3945 X-40.978 Y5.183
N3950 X-41.032 Y5.169
N3955 X-41.079 Y5.14
N3960 G3 X-41.962 Y3.399 I1.521 J-1.865
N3965 X-42.032 Y1.448 I62.557 J-3.224
N3970 X-39.958 Y-5.955 I13.285 J-0.27
N3975 X-35.567 Y-12.266 I78.678 J50.058
N3980 X-35.083 Y-12.723 I1.61 J1.222
N3985 X-34.417 Y-12.685 I0.308 J0.459
N3990 X-32.838 Y-10.638 I-4.039 J4.75
N3995 G2 X-31.436 Y-8.464 I9.389 J-4.516
N4000 X-30.439 Y-8.291 I0.601 J-0.504
N4005 X-29.566 Y-8.804 I-86.568 J-148.058
N4010 G1 X-29.518 Y-8.825
N4015 X-29.467 Y-8.832
N4020 X-29.415 Y-8.825
N4025 X-29.367 Y-8.804
N4030 X-28.658 Y-8.381
N4035 G3 X-28.828 Y-8.032 I-0.1 J0.167
N4040 G1 X-28.867 Y-8.047
N4045 X-28.907 Y-8.06
N4050 X-29.097 Y-8.112
N4055 G2 X-29.365 Y-8.09 I-0.105 J0.384
N4060 G1 X-29.471 Y-8.043
N4065 G2 X-29.672 Y-7.522 I0.164 J0.363
N4070 G1 X-29.604 Y-7.365
N4075 X-29.584 Y-7.325
N4080 X-29.56 Y-7.288
N4085 X-29.209 Y-6.806
N4090 X-29.185 Y-6.776
N4095 X-27.862 Y-5.289
N4100 X-27.841 Y-5.267
N4105 X-26.43 Y-3.912
N4110 X-26.42 Y-3.903
N4115 X-25.851 Y-3.39
N4120 X-25.382 Y-2.979
N4125 X-24.426 Y-2.165
N4130 X-24.414 Y-2.155
N4135 X-20.426 Y0.965
N4140 X-19.113 Y1.949
N4145 X-17.929 Y2.87
N4150 X-16.857 Y3.749
N4155 X-15.892 Y4.594
N4160 X-14.227 Y6.247
N4165 X-12.868 Y7.922
N4170 X-11.737 Y9.723
N4175 X-10.761 Y11.757
N4180 X-9.868 Y14.129
N4185 X-9.433 Y15.469
N4190 X-8.992 Y16.935
N4195 X-8.502 Y18.615
N4200 X-8.059 Y20.118
N4205 X-7.661 Y21.457
N4210 X-7.3 Y22.647
N4215 X-6.973 Y23.701
N4220 X-6.673 Y24.635
N4225 X-6.135 Y26.199
N4230 X-6.13 Y26.215
N4235 X-5.644 Y27.458
N4240 X-5.635 Y27.479
N4245 X-5.156 Y28.524
N4250 X-5.141 Y28.553
N4255 X-4.04 Y30.507
N4260 X-4.015 Y30.546
N4265 X-2.751 Y32.279
N4270 X-2.719 Y32.317
N4275 X-1.858 Y33.235
N4280 X-1.847 Y33.245
N4285 X-1.311 Y33.775
N4290 X-0.681 Y34.376
N4295 X0.157 Y35.157
N4300 X0.165 Y35.164
N4305 X0.89 Y35.803
N4310 X0.916 Y35.823
N4315 X2.303 Y36.854
N4320 X2.335 Y36.875
N4325 X2.582 Y37.023
N4330 X1.924 Y36.655
N4335 X0.371 Y35.512
N4340 X-0.433 Y34.816
N4345 X-1.32 Y33.994
N4350 X-2.103 Y33.246
N4355 X-2.712 Y32.644
N4360 X-3.641 Y31.591
N4365 X-4.058 Y31.015
N4370 X-4.526 Y30.299
N4375 X-5.091 Y29.379
N4380 X-5.806 Y28.189
N4385 X-5.817 Y28.171
N4390 X-5.982 Y27.927
N4395 G2 X-6.45 Y27.776 I-0.33 J0.223
N4400 G1 X-6.496 Y27.793
N4405 G2 X-6.756 Y28.145 I0.138 J0.373
N4410 G1 X-6.763 Y28.274
N4415 X-6.762 Y28.324
N4420 X-6.747 Y28.539
N4425 X-6.732 Y28.739
N4430 Z1.
N4435 X-8.811 Y27.588
N4440 Z-3.175
N4445 X-8.748 Y27.531
N4450 X-8.679 Y27.481
N4455 X-8.027 Y27.068
N4460 X-7.984 Y27.04
N4465 X-7.539 Y26.743
N4470 X-7.233 Y26.516
N4475 X-7.199 Y26.484
N4480 X-7.174 Y26.445
N4485 X-7.158 Y26.401
N4490 X-7.084 Y26.087
N4495 X-7.079 Y26.053
N4500 X-7.08 Y26.018
N4505 X-7.12 Y25.679
N4510 X-7.126 Y25.648
N4515 X-7.359 Y24.834
N4520 X-7.362 Y24.823
N4525 X-7.559 Y24.252
N4530 X-7.784 Y23.569
N4535 X-7.961 Y23.018
N4540 X-8.045 Y22.755
N4545 X-8.338 Y21.829
N4550 X-8.919 Y19.944
N4555 X-9.524 Y17.992
N4560 X-10.107 Y16.223
N4565 X-10.682 Y14.619
N4570 X-11.263 Y13.16
N4575 X-11.868 Y11.826
N4580 X-11.873 Y11.816
N4585 X-12.51 Y10.598
N4590 X-12.52 Y10.581
N4595 X-13.965 Y8.39
N4600 X-13.978 Y8.372
N4605 X-14.816 Y7.359
N4610 X-14.825 Y7.349
N4615 X-15.76 Y6.365
N4620 X-15.768 Y6.356
N4625 X-16.815 Y5.381
N4630 X-16.823 Y5.374
N4635 X-17.997 Y4.389
N4640 X-19.32 Y3.368
N4645 X-20.799 Y2.298
N4650 X-22.449 Y1.161
N4655 X-24.283 Y-0.063
N4660 X-25.469 Y-0.926
N4665 X-26.743 Y-1.996
N4670 X-28.066 Y-3.233
N4675 X-29.396 Y-4.591
N4680 X-31.919 Y-7.503
N4685 X-33.026 Y-8.965
N4690 X-33.984 Y-10.383
N4695 X-34.424 Y-11.047
N4700 X-34.438 Y-11.064
N4705 X-34.659 Y-11.328
N4710 X-34.777 Y-11.469
N4715 G2 X-35.097 Y-11.45 I-0.153 J0.129
N4720 G1 X-35.215 Y-11.27
N4725 G3 X-35.47 Y-11.438 I-0.127 J-0.084
N4730 X-35.378 Y-11.502 I0.127 J0.084
N4735 G1 X-35.142 Y-11.557
N4740 X-34.732 Y-11.589
N4745 X-34.43 Y-11.57
N4750 G3 X-34.458 Y-11.181 I-0.014 J0.195
N4755 X-34.593 Y-11.25 I0.014 J-0.195
N4760 G1 X-34.777 Y-11.469
N4765 G2 X-35.097 Y-11.45 I-0.153 J0.129
N4770 G1 X-36.098 Y-9.93
N4775 X-37.389 Y-7.866
N4780 X-38.651 Y-5.928
N4785 X-39.352 Y-4.858
N4790 X-39.936 Y-3.921
N4795 X-40.411 Y-3.095
N4800 X-40.416 Y-3.085
N4805 X-40.787 Y-2.354
N4810 X-40.796 Y-2.333
N4815 X-41.275 Y-1.032
N4820 X-41.284 Y-0.997
N4825 X-41.513 Y0.304
N4830 X-41.516 Y0.332
N4835 X-41.55 Y1.404
N4840 Y1.421
N4845 X-41.484 Y2.634
N4850 X-41.483 Y2.649
N4855 X-41.343 Y3.714
N4860 X-41.34 Y3.733
N4865 X-41.251 Y4.12
N4870 X-41.238 Y4.158
N4875 X-41.109 Y4.443
N4880 G2 X-40.799 Y4.513 I0.182 J-0.083
N4885 G1 X-40.476 Y4.243
N4890 G3 X-40.197 Y4.273 I0.125 J0.149
N4895 X-40.237 Y4.551 I-0.154 J0.12
N4900 G1 X-40.942 Y5.058
N4905 X-40.99 Y5.083
N4910 X-41.043 Y5.094
N4915 X-41.097 Y5.09
N4920 X-41.148 Y5.072
N4925 X-41.191 Y5.04
N4930 G3 X-42.181 Y2.733 I2.241 J-2.327
N4935 X-42. Y0.229 I16.044 J-0.099
N4940 X-39.609 Y-6.539 I18.874 J2.861
N4945 X-35.46 Y-12.396 I35.379 J20.668
N4950 X-34.899 Y-12.731 I0.772 J0.656
N4955 X-34.272 Y-12.551 I0.145 J0.678
N4960 X-32.768 Y-10.355 I-4.649 J4.795
N4965 G2 X-31.176 Y-8.222 I5.127 J-2.166
N4970 X-30.837 Y-8.042 I0.615 J-0.747
N4975 X-30.46 Y-8.118 I0.117 J-0.393
N4980 G1 X-30.428 Y-8.139
N4985 X-30.392 Y-8.154
N4990 X-30.353 Y-8.161
N4995 X-29.487 Y-8.234
N5000 G3 X-29.39 Y-7.862 I0.016 J0.194
N5005 G2 X-29.49 Y-7.601 I0.083 J0.182
N5010 G1 X-29.422 Y-7.443
N5015 X-29.4 Y-7.405
N5020 X-29.049 Y-6.923
N5025 X-29.037 Y-6.908
N5030 X-27.714 Y-5.421
N5035 X-27.704 Y-5.409
N5040 X-26.292 Y-4.054
N5045 X-25.718 Y-3.537
N5050 X-25.251 Y-3.128
N5055 X-24.298 Y-2.316
N5060 X-20.304 Y0.809
N5065 X-18.992 Y1.792
N5070 X-17.805 Y2.716
N5075 X-16.729 Y3.598
N5080 X-15.757 Y4.449
N5085 X-14.08 Y6.114
N5090 X-12.707 Y7.806
N5095 X-11.563 Y9.627
N5100 X-10.578 Y11.679
N5105 X-9.681 Y14.064
N5110 X-9.244 Y15.41
N5115 X-8.803 Y16.879
N5120 X-8.312 Y18.56
N5125 X-7.869 Y20.062
N5130 X-7.471 Y21.401
N5135 X-7.111 Y22.589
N5140 X-6.784 Y23.642
N5145 X-6.484 Y24.575
N5150 X-5.948 Y26.135
N5155 X-5.459 Y27.386
N5160 X-5.455 Y27.397
N5165 X-4.976 Y28.441
N5170 X-4.969 Y28.456
N5175 X-3.868 Y30.409
N5180 X-3.855 Y30.429
N5185 X-2.591 Y32.162
N5190 X-2.575 Y32.181
N5195 X-1.713 Y33.099
N5200 X-1.172 Y33.634
N5205 X-0.544 Y34.233
N5210 X0.292 Y35.012
N5215 X1.021 Y35.654
N5220 X1.034 Y35.664
N5225 X2.421 Y36.695
N5230 X2.437 Y36.706
N5235 X3.232 Y37.183
N5240 X4.193 Y37.697
N5245 X5.373 Y38.284
N5250 X6.838 Y38.986
N5255 X7.963 Y39.583
N5260 X8.878 Y40.235
N5265 X9.57 Y40.967
N5270 X10.051 Y41.814
N5275 X10.337 Y42.815
N5280 X10.446 Y44.02
N5285 X10.392 Y45.472
N5290 X10.186 Y47.211
N5295 X10.18 Y47.286
N5300 X10.124 Y48.056
N5305 G3 X9.745 Y48.13 I-0.199 J-0.015
N5310 G1 X9.065 Y46.752
N5315 G3 X9.419 Y46.567 I0.179 J-0.089
N5320 G1 X9.501 Y46.715
N5325 X9.524 Y46.749
N5330 X9.68 Y46.93
N5335 G2 X10.027 Y46.846 I0.152 J-0.13
N5340 G1 X10.199 Y46.113
N5345 X10.204 Y46.085
N5350 X10.292 Y45.118
N5355 Y45.104
N5360 X10.308 Y44.141
N5365 X10.307 Y44.117
N5370 X10.207 Y43.16
N5375 X10.2 Y43.126
N5380 X9.94 Y42.215
N5385 X9.923 Y42.175
N5390 X9.473 Y41.343
N5395 X9.447 Y41.307
N5400 X8.831 Y40.601
N5405 X8.804 Y40.575
N5410 X8.024 Y39.957
N5415 X8.002 Y39.942
N5420 X7.029 Y39.369
N5425 X7.011 Y39.36
N5430 X5.831 Y38.814
N5435 X4.612 Y38.29
N5440 X3.569 Y37.803
N5445 X1.816 Y36.822
N5450 X0.247 Y35.667
N5455 X-0.566 Y34.964
N5460 X-1.456 Y34.138
N5465 X-2.241 Y33.388
N5470 X-2.856 Y32.78
N5475 X-3.796 Y31.715
N5480 X-4.221 Y31.127
N5485 X-4.693 Y30.405
N5490 X-5.26 Y29.481
N5495 X-5.976 Y28.291
N5500 X-5.982 Y28.282
N5505 X-6.146 Y28.038
N5510 X-6.182 Y27.998
N5515 X-6.226 Y27.969
N5520 X-6.277 Y27.953
N5525 X-6.329 Y27.95
N5530 X-6.381 Y27.962
N5535 X-6.428 Y27.979
N5540 X-6.469 Y28.
N5545 X-6.505 Y28.03
N5550 X-6.532 Y28.067
N5555 X-6.55 Y28.11
N5560 X-6.558 Y28.156
N5565 X-6.565 Y28.284
N5570 Y28.309
N5575 X-6.547 Y28.556
N5580 X-6.525 Y28.754
N5585 Z5.
N5590 X-11.002 Y37.368
N5595 Z1. F333.33
N5600 Z-3.175 F1000.
N5605 X-11.003 Y37.369
N5610 X-11.546 Y37.788
N5615 X-12.159 Y38.227
N5620 X-11.991 Y37.674
N5625 X-11.975 Y37.612
N5630 X-11.964 Y37.549
N5635 X-11.872 Y36.864
N5640 X-11.845 Y36.665
N5645 Z1.
N5650 X-10.769 Y37.443
N5655 Z-3.175
N5660 X-10.77 Y37.444
N5665 X-11.381 Y37.915
N5670 X-11.426 Y37.95
N5675 X-12.263 Y38.549
N5680 X-12.522 Y38.728
N5685 X-12.184 Y37.615
N5690 X-12.164 Y37.522
N5695 X-12.053 Y36.703
N5700 X-12.026 Y36.504
N5705 Z1.
N5710 X-10.499 Y37.483
N5715 Z-3.175
N5720 X-10.5 Y37.484
N5725 X-11.111 Y37.956
N5730 X-11.308 Y38.108
N5735 X-12.149 Y38.71
N5740 X-12.993 Y39.294
N5745 X-12.791 Y38.912
N5750 X-12.762 Y38.841
N5755 X-12.373 Y37.558
N5760 X-12.359 Y37.496
N5765 X-12.223 Y36.489
N5770 X-12.196 Y36.291
N5775 Z1.
N5780 X-10.036 Y37.351
N5785 Z-3.175
N5790 X-10.093 Y37.414
N5795 X-10.158 Y37.47
N5800 X-10.768 Y37.941
N5805 X-11.19 Y38.267
N5810 X-12.035 Y38.872
N5815 X-12.995 Y39.536
N5820 X-13.542 Y39.909
N5825 X-12.966 Y38.819
N5830 X-12.951 Y38.784
N5835 X-12.562 Y37.501
N5840 X-12.555 Y37.469
N5845 X-12.382 Y36.185
N5850 Z5.
N5855 X0.7 Y39.754
N5860 Z1. F333.33
N5865 Z-3.175 F1000.
N5870 X0.695 Y39.735
N5875 X0.703 Y39.718
N5880 X1.059 Y39.367
N5885 X1.269 Y39.194
N5890 X1.72 Y39.271
N5895 X2.025 Y39.391
N5900 Z5.
N5905 X12.974 Y13.638
N5910 Z1. F333.33
N5915 Z-3.175 F1000.
N5920 X12.973 Y13.64
N5925 X12.961 Y13.661
N5930 X12.602 Y14.316
N5935 X12.589 Y14.338
N5940 X12.351 Y13.835
N5945 X12.252 Y13.615
N5950 X12.17 Y13.433
N5955 Z1.
N5960 X13.284 Y13.622
N5965 Z-3.175
N5970 X13.283 Y13.624
N5975 X13.197 Y13.768
N5980 X13.188 Y13.785
N5985 X12.907 Y14.297
N5990 X12.79 Y14.511
N5995 X12.778 Y14.533
N6000 X12.583 Y14.928
N6005 X12.27 Y14.268
N6010 X12.116 Y13.944
N6015 X11.947 Y13.568
N6020 X11.865 Y13.386
N6025 Z1.
N6030 X13.549 Y13.562
N6035 Z-3.175
N6040 X13.548 Y13.563
N6045 X13.367 Y13.869
N6050 X13.361 Y13.88
N6055 X12.963 Y14.605
N6060 X12.955 Y14.62
N6065 X12.706 Y15.123
N6070 X12.7 Y15.136
N6075 X12.589 Y15.383
N6080 X12.443 Y15.093
N6085 X12.009 Y14.177
N6090 X11.937 Y14.026
N6095 X11.69 Y13.475
N6100 X11.608 Y13.293
N6105 Z1.
N6110 X13.926 Y13.273
N6115 Z-3.175
N6120 X13.896 Y13.353
N6125 X13.857 Y13.429
N6130 X13.537 Y13.97
N6135 X13.468 Y14.095
N6140 X13.136 Y14.701
N6145 X12.884 Y15.21
N6150 X12.638 Y15.757
N6155 X12.599 Y15.83
N6160 X12.521 Y15.687
N6165 X12.265 Y15.18
N6170 X11.757 Y14.109
N6175 X11.393 Y13.298
N6180 Z5.
N6185 X32.56 Y16.775
N6190 Z1. F333.33
N6195 Z-3.175 F1000.
N6200 X32.559 Y16.774
N6205 X31.993 Y16.249
N6210 X31.984 Y16.241
N6215 X32.448 Y15.61
N6220 X32.567 Y15.448
N6225 Z1.
N6230 X32.768 Y17.209
N6235 Z-3.175
N6240 X32.696 Y17.163
N6245 X32.63 Y17.109
N6250 X32.064 Y16.585
N6255 X31.72 Y16.266
N6260 X32.455 Y15.267
N6265 Z5.
N6270 X12.087 Y-25.722
N6275 Z1. F333.33
N6280 Z-3.175 F1000.
N6285 X12.089 Y-25.723
N6290 X12.851 Y-25.838
N6295 X13.227 Y-25.895
N6300 X13.414 Y-25.919
N6305 X13.363 Y-25.874
N6310 X13.316 Y-25.826
N6315 X13.037 Y-25.516
N6320 X12.785 Y-25.235
N6325 X12.749 Y-25.192
N6330 X12.54 Y-24.926
N6335 X12.417 Y-24.769
N6340 Z1.
N6345 X11.889 Y-25.944
N6350 Z-3.175
N6355 X11.891
N6360 X12.653 Y-26.059
N6365 X13.193 Y-26.141
N6370 X14.286 Y-26.282
N6375 X14.163 Y-26.203
N6380 X14.107 Y-26.163
N6385 X13.567 Y-25.723
N6390 X13.5 Y-25.66
N6395 X13.125 Y-25.242
N6400 X12.97 Y-25.069
N6405 X12.944 Y-25.039
N6410 X12.636 Y-24.646
N6415 X12.512 Y-24.488
N6420 Z1.
N6425 X11.673 Y-26.11
N6430 Z-3.175
N6435 X11.675
N6440 X12.437 Y-26.226
N6445 X13.166 Y-26.336
N6450 X14.29 Y-26.482
N6455 X15.105 Y-26.574
N6460 X15.007 Y-26.509
N6465 X14.269 Y-26.037
N6470 X14.232 Y-26.01
N6475 X13.692 Y-25.571
N6480 X13.647 Y-25.528
N6485 X13.161 Y-24.987
N6490 X13.116 Y-24.937
N6495 X13.099 Y-24.917
N6500 X12.778 Y-24.508
N6505 X12.683 Y-24.383
N6510 X12.562 Y-24.223
N6515 Z1.
N6520 X11.204 Y-26.219
N6525 Z-3.175
N6530 X11.285 Y-26.247
N6535 X11.368 Y-26.264
N6540 X13.138 Y-26.532
N6545 X14.266 Y-26.678
N6550 X15.266 Y-26.791
N6555 X15.869 Y-26.843
N6560 X15.115 Y-26.343
N6565 X14.375 Y-25.87
N6570 X14.357 Y-25.857
N6575 X13.817 Y-25.417
N6580 X13.794 Y-25.396
N6585 X13.264 Y-24.805
N6590 X13.255 Y-24.795
N6595 X12.934 Y-24.385
N6600 X12.676 Y-24.045
N6605 Z5.
N6610 X-11.217 Y-38.563
N6615 Z1. F333.33
N6620 Z-3.175 F1000.
N6625 X-11.25 Y-38.484
N6630 X-11.291 Y-38.41
N6635 X-11.341 Y-38.332
N6640 X-11.352 Y-38.314
N6645 X-11.615 Y-37.792
N6650 X-11.775 Y-37.561
N6655 X-11.887 Y-37.5
N6660 X-12.09 Y-37.496
N6665 X-12.336 Y-37.54
N6670 X-12.713 Y-37.65
N6675 X-12.92 Y-37.729
N6680 Z5.
N6685 X-17.987 Y-30.707
N6690 Z1. F333.33
N6695 Z-3.175 F1000.
N6700 X-17.541 Y-30.166
N6705 X-17.496 Y-30.111
N6710 X-16.806 Y-29.288
N6715 X-15.204 Y-27.412
N6720 X-13.661 Y-25.64
N6725 X-13.315 Y-25.249
N6730 X-12.88 Y-24.761
N6735 X-12.307 Y-24.13
N6740 X-12.288 Y-24.11
N6745 X-11.842 Y-23.646
N6750 X-11.782 Y-23.589
N6755 X-11.718 Y-23.537
N6760 X-11.606 Y-23.454
N6765 G2 X-11.226 Y-23.281 I0.591 J-0.797
N6770 X-11.002 Y-22.979 I0.894 J-0.429
N6775 G1 X-9.601 Y-21.698
N6780 X-9.557 Y-21.659
N6785 X-8.051 Y-20.439
N6790 X-8.037 Y-20.428
N6795 X-5.137 Y-18.16
N6800 X-5.127 Y-18.152
N6805 X-3.721 Y-17.083
N6810 X-3.712 Y-17.077
N6815 X-2.436 Y-16.129
N6820 X-2.423 Y-16.119
N6825 X-1.368 Y-15.363
N6830 X-1.347 Y-15.348
N6835 X-0.868 Y-15.023
N6840 X-0.825 Y-14.995
N6845 X-0.406 Y-14.742
N6850 X-0.344 Y-14.707
N6855 X0.148 Y-14.456
N6860 G2 X0.67 Y-14.35 I0.451 J-0.883
N6865 X0.765 Y-14.024 I0.986 J-0.109
N6870 G1 X0.879 Y-13.79
N6875 G2 X1.107 Y-13.488 I0.891 J-0.436
N6880 G1 X1.408 Y-13.218
N6885 X1.476 Y-13.162
N6890 X2.114 Y-12.684
N6895 X2.153 Y-12.657
N6900 X2.879 Y-12.166
N6905 X2.905 Y-12.149
N6910 X3.736 Y-11.624
N6915 X3.77 Y-11.603
N6920 X5.03 Y-10.878
N6925 X3.647 Y-11.637
N6930 X1.934 Y-12.723
N6935 X0.984 Y-13.368
N6940 X-0.057 Y-14.096
N6945 X-0.143 Y-14.156
N6950 X-0.168 Y-14.182
N6955 X-0.179 Y-14.215
N6960 X-0.176 Y-14.251
N6965 X-0.159 Y-14.281
N6970 X-0.131 Y-14.303
N6975 X-0.097 Y-14.311
N6980 X-0.042 Y-14.308
N6985 X0.011 Y-14.296
N6990 X0.061 Y-14.275
N6995 G2 X0.504 Y-14.15 I0.538 J-1.064
N7000 G1 X0.539 Y-14.041
N7005 X0.585 Y-13.935
N7010 X0.617 Y-13.869
N7015 X0.057 Y-14.261
N7020 X-0.028 Y-14.321
N7025 X0.057 Y-14.277
N7030 X0.061 Y-14.275
N7035 Z5.
N7040 X-9.463 Y-24.549
N7045 Z1. F333.33
N7050 Z-3.175 F1000.
N7055 X-9.465 Y-24.548
N7060 X-9.99 Y-24.347
N7065 X-10. Y-24.344
N7070 X-10.184 Y-24.269
N7075 X-10.308 Y-24.218
N7080 X-10.347 Y-24.2
N7085 X-10.481 Y-24.129
N7090 X-10.467 Y-24.184
N7095 X-10.459 Y-24.24
N7100 X-10.448 Y-24.41
N7105 X-10.441 Y-24.52
N7110 Y-24.585
N7115 X-10.451 Y-24.65
N7120 X-10.544 Y-25.043
N7125 X-10.559 Y-25.094
N7130 X-10.585 Y-25.163
N7135 X-10.654 Y-25.351
N7140 Z5.
N7145 X-18.228 Y-30.37
N7150 Z1. F333.33
N7155 Z-3.175 F1000.
N7160 X-18.227 Y-30.369
N7165 X-17.851 Y-29.911
N7170 X-17.843 Y-29.901
N7175 X-17.113 Y-29.03
N7180 X-17.104 Y-29.021
N7185 X-15.508 Y-27.152
N7190 X-15.5 Y-27.142
N7195 X-13.963 Y-25.377
N7200 X-13.615 Y-24.983
N7205 X-13.179 Y-24.494
N7210 X-13.17 Y-24.485
N7215 X-12.848 Y-24.129
N7220 X-13.406 Y-24.67
N7225 X-14.814 Y-26.113
N7230 X-17.54 Y-29.067
N7235 X-18.502 Y-30.13
N7240 X-18.503 Y-30.131
N7245 Z1.
N7250 X-18.099 Y-30.528
N7255 Z-3.175
N7260 X-18.098 Y-30.526
N7265 X-17.696 Y-30.038
N7270 X-17.689 Y-30.03
N7275 X-16.959 Y-29.159
N7280 X-16.952 Y-29.151
N7285 X-15.356 Y-27.282
N7290 X-15.349 Y-27.273
N7295 X-13.812 Y-25.508
N7300 X-13.465 Y-25.116
N7305 X-13.03 Y-24.627
N7310 X-13.022 Y-24.619
N7315 X-12.456 Y-23.995
N7320 X-12.433 Y-23.971
N7325 X-11.987 Y-23.507
N7330 X-11.915 Y-23.438
N7335 X-11.838 Y-23.376
N7340 X-11.726 Y-23.293
N7345 G2 X-11.362 Y-23.109 I0.71 J-0.958
N7350 X-11.137 Y-22.831 I1.03 J-0.601
N7355 G1 X-9.737 Y-21.55
N7360 X-9.683 Y-21.503
N7365 X-8.177 Y-20.283
N7370 X-8.161 Y-20.27
N7375 X-5.261 Y-18.002
N7380 X-5.248 Y-17.992
N7385 X-4.371 Y-17.326
N7390 X-4.948 Y-17.707
N7395 X-6.803 Y-18.997
N7400 X-8.578 Y-20.332
N7405 X-11.98 Y-23.067
N7410 X-12.742 Y-23.749
N7415 X-13.548 Y-24.529
N7420 X-14.959 Y-25.975
N7425 X-17.688 Y-28.932
N7430 X-18.676 Y-30.024
N7435 X-18.755 Y-30.112
N7440 Z1.
N7445 X-17.987 Y-30.707
N7450 Z-3.175
N7455 X-17.986 Y-30.706
N7460 X-17.541 Y-30.166
N7465 X-17.496 Y-30.111
N7470 X-16.806 Y-29.288
N7475 X-15.204 Y-27.412
N7480 X-13.661 Y-25.64
N7485 X-13.315 Y-25.249
N7490 X-12.88 Y-24.761
N7495 X-12.307 Y-24.13
N7500 X-12.288 Y-24.11
N7505 X-11.842 Y-23.646
N7510 X-11.782 Y-23.589
N7515 X-11.718 Y-23.537
N7520 X-11.606 Y-23.454
N7525 G2 X-11.226 Y-23.281 I0.591 J-0.797
N7530 X-11.002 Y-22.979 I0.894 J-0.429
N7535 G1 X-9.601 Y-21.698
N7540 X-9.557 Y-21.659
N7545 X-8.051 Y-20.439
N7550 X-8.037 Y-20.428
N7555 X-5.137 Y-18.16
N7560 X-5.127 Y-18.152
N7565 X-3.721 Y-17.083
N7570 X-3.712 Y-17.077
N7575 X-2.436 Y-16.129
N7580 X-2.423 Y-16.119
N7585 X-1.368 Y-15.363
N7590 X-1.347 Y-15.348
N7595 X-0.868 Y-15.023
N7600 X-0.825 Y-14.995
N7605 X-0.406 Y-14.742
N7610 X-0.344 Y-14.707
N7615 X0.148 Y-14.456
N7620 G2 X0.67 Y-14.35 I0.451 J-0.883
N7625 X0.765 Y-14.024 I0.986 J-0.109
N7630 G1 X0.879 Y-13.79
N7635 G2 X1.107 Y-13.488 I0.891 J-0.436
N7640 G1 X1.408 Y-13.218
N7645 X1.476 Y-13.162
N7650 X2.114 Y-12.684
N7655 X2.153 Y-12.657
N7660 X2.879 Y-12.166
N7665 X2.905 Y-12.149
N7670 X3.736 Y-11.624
N7675 X3.77 Y-11.603
N7680 X5.03 Y-10.878
N7685 X3.647 Y-11.637
N7690 X1.934 Y-12.723
N7695 X0.984 Y-13.368
N7700 X-0.057 Y-14.096
N7705 X-2.425 Y-15.752
N7710 X-3.007 Y-16.153
N7715 X-3.683 Y-16.617
N7720 X-4.427 Y-17.122
N7725 X-4.436 Y-17.128
N7730 X-5.06 Y-17.541
N7735 X-6.921 Y-18.834
N7740 X-8.701 Y-20.174
N7745 X-12.11 Y-22.914
N7750 X-12.879 Y-23.602
N7755 X-13.689 Y-24.386
N7760 X-15.104 Y-25.837
N7765 X-17.836 Y-28.797
N7770 X-18.869 Y-29.938
N7775 X-19.003 Y-30.086
N7780 Z1.
N7785 X-17.897 Y-30.91
N7790 Z-3.175
N7795 X-17.896 Y-30.909
N7800 X-17.406 Y-30.313
N7805 X-17.388 Y-30.292
N7810 X-16.653 Y-29.416
N7815 X-15.053 Y-27.541
N7820 X-13.511 Y-25.771
N7825 X-13.166 Y-25.38
N7830 X-12.732 Y-24.893
N7835 X-12.16 Y-24.264
N7840 X-12.145 Y-24.247
N7845 X-11.699 Y-23.784
N7850 X-11.651 Y-23.738
N7855 X-11.6 Y-23.696
N7860 X-11.488 Y-23.613
N7865 G2 X-11.085 Y-23.46 I0.473 J-0.637
N7870 X-10.868 Y-23.126 I0.753 J-0.251
N7875 G1 X-9.467 Y-21.844
N7880 X-9.432 Y-21.813
N7885 X-7.926 Y-20.593
N7890 X-7.915 Y-20.584
N7895 X-5.015 Y-18.317
N7900 X-5.007 Y-18.31
N7905 X-3.601 Y-17.241
N7910 X-2.318 Y-16.288
N7915 X-2.307 Y-16.28
N7920 X-1.252 Y-15.524
N7925 X-1.235 Y-15.512
N7930 X-0.756 Y-15.187
N7935 X-0.722 Y-15.165
N7940 X-0.303 Y-14.912
N7945 X-0.253 Y-14.884
N7950 X0.238 Y-14.633
N7955 G2 X0.875 Y-14.595 I0.361 J-0.706
N7960 X0.943 Y-14.111 I0.781 J0.136
N7965 G1 X1.058 Y-13.877
N7970 G2 X1.24 Y-13.636 I0.713 J-0.348
N7975 G1 X1.54 Y-13.366
N7980 X1.595 Y-13.321
N7985 X2.233 Y-12.843
N7990 X2.264 Y-12.821
N7995 X2.991 Y-12.33
N8000 X3.011 Y-12.317
N8005 X3.842 Y-11.792
N8010 X3.87 Y-11.775
N8015 X5.636 Y-10.758
N8020 X5.671 Y-10.738
N8025 X6.49 Y-10.32
N8030 X6.53 Y-10.301
N8035 X7.233 Y-9.99
N8040 X7.3 Y-9.964
N8045 X8.581 Y-9.53
N8050 X8.637 Y-9.514
N8055 X9.365 Y-9.326
N8060 X9.398 Y-9.318
N8065 X10.231 Y-9.14
N8070 X10.256 Y-9.135
N8075 X11.224 Y-8.96
N8080 X11.242 Y-8.957
N8085 X12.375 Y-8.779
N8090 X12.388 Y-8.777
N8095 X13.061 Y-8.683
N8100 X11.516 Y-8.85
N8105 X9.645 Y-9.135
N8110 X8.021 Y-9.5
N8115 X6.537 Y-9.983
N8120 X5.081 Y-10.623
N8125 X3.546 Y-11.466
N8130 X1.825 Y-12.557
N8135 X0.871 Y-13.205
N8140 X-0.171 Y-13.933
N8145 X-2.539 Y-15.589
N8150 X-3.12 Y-15.99
N8155 X-3.795 Y-16.453
N8160 X-4.538 Y-16.957
N8165 X-5.172 Y-17.377
N8170 X-7.037 Y-18.673
N8175 X-8.823 Y-20.017
N8180 X-12.239 Y-22.763
N8185 X-13.014 Y-23.456
N8190 X-13.829 Y-24.246
N8195 X-15.249 Y-25.7
N8200 X-17.983 Y-28.663
N8205 X-18.563 Y-29.305
N8210 X-19.081 Y-29.877
N8215 X-19.215 Y-30.025
N8220 Z1.
N8225 X-17.832 Y-31.142
N8230 Z-3.175
N8235 X-17.831 Y-31.141
N8240 X-17.34 Y-30.546
N8245 X-17.235 Y-30.418
N8250 X-16.502 Y-29.543
N8255 X-14.902 Y-27.67
N8260 X-13.361 Y-25.901
N8265 X-13.017 Y-25.511
N8270 X-12.584 Y-25.025
N8275 X-12.014 Y-24.397
N8280 X-12.002 Y-24.385
N8285 X-11.556 Y-23.921
N8290 X-11.52 Y-23.886
N8295 X-11.482 Y-23.855
N8300 X-11.37 Y-23.772
N8305 G2 X-10.926 Y-23.662 I0.354 J-0.478
N8310 X-10.734 Y-23.272 I0.593 J-0.049
N8315 G1 X-9.334 Y-21.99
N8320 X-9.307 Y-21.967
N8325 X-7.801 Y-20.747
N8330 X-7.793 Y-20.74
N8335 X-4.893 Y-18.473
N8340 X-3.481 Y-17.399
N8345 X-2.2 Y-16.447
N8350 X-2.192 Y-16.441
N8355 X-1.137 Y-15.685
N8360 X-1.124 Y-15.676
N8365 X-0.645 Y-15.351
N8370 X-0.619 Y-15.335
N8375 X-0.201 Y-15.081
N8380 X-0.163 Y-15.06
N8385 X0.328 Y-14.809
N8390 G2 X1.162 Y-15.145 I0.271 J-0.53
N8395 G1 X1.478 Y-16.062
N8400 X1.544 Y-16.251
N8405 Z5.
N8410 X18.278 Y-6.556
N8415 Z1. F333.33
N8420 Z-3.175 F1000.
N8425 X18.279 Y-6.557
N8430 X18.297 Y-6.588
N8435 X18.335 Y-6.662
N8440 X18.365 Y-6.738
N8445 X18.441 Y-6.959
N8450 G2 X18.386 Y-7.64 I-0.807 J-0.277
N8455 G1 X18.305 Y-7.79
N8460 X18.248 Y-7.882
N8465 X18.768 Y-7.789
N8470 G2 X18.758 Y-6.587 I0.601 J0.606
N8475 G1 X18.78 Y-6.552
N8480 X18.788 Y-6.512
N8485 X18.78 Y-6.473
N8490 X18.757 Y-6.439
N8495 X18.723 Y-6.416
N8500 X18.684 Y-6.408
N8505 X18.644 Y-6.416
N8510 X18.61 Y-6.438
N8515 X18.586 Y-6.472
N8520 X18.502 Y-6.68
N8525 G3 X18.505 Y-7.258 I0.705 J-0.285
N8530 G2 X18.349 Y-7.814 I-0.43 J-0.179
N8535 X18.03 Y-7.999 I-1.066 J1.468
N8540 X17.677 Y-8.108 I-0.613 J1.357
N8545 X13.52 Y-8.639 I-7.499 J42.178
N8550 G3 X9.376 Y-9.259 I2.325 J-29.709
N8555 X4.343 Y-11.473 I3.072 J-13.814
N8560 G2 X-0.269 Y-14.465 I-45.969 J65.793
N8565 G3 X-9.693 Y-21.409 I32.251 J-53.641
N8570 X-17.921 Y-29.736 I62.141 J-69.629
N8575 G1 X-17.943 Y-29.767
N8580 X-17.959 Y-29.802
N8585 X-17.967 Y-29.84
N8590 X-18.143 Y-31.26
N8595 G3 X-17.803 Y-31.412 I0.194 J-0.024
N8600 G1 X-17.716 Y-31.312
N8605 X-17.31 Y-30.819
N8610 X-17.083 Y-30.543
N8615 X-16.351 Y-29.669
N8620 X-14.752 Y-27.798
N8625 X-13.213 Y-26.03
N8630 X-12.87 Y-25.642
N8635 X-12.437 Y-25.156
N8640 X-11.868 Y-24.529
N8645 X-11.86 Y-24.521
N8650 X-11.414 Y-24.057
N8655 X-11.364 Y-24.014
N8660 X-11.252 Y-23.931
N8665 G2 X-10.951 Y-23.858 I0.237 J-0.32
N8670 G1 X-10.833 Y-23.877
N8675 X-10.76 Y-23.896
N8680 X-10.691 Y-23.929
N8685 X-10.631 Y-23.974
N8690 G2 X-10.601 Y-23.417 I0.298 J0.264
N8695 G1 X-9.201 Y-22.136
N8700 X-9.183 Y-22.12
N8705 X-7.677 Y-20.9
N8710 X-4.772 Y-18.628
N8715 X-3.362 Y-17.556
N8720 X-2.082 Y-16.605
N8725 X-1.022 Y-15.845
N8730 X-1.013 Y-15.839
N8735 X-0.534 Y-15.514
N8740 X-0.517 Y-15.503
N8745 X-0.099 Y-15.25
N8750 X-0.074 Y-15.236
N8755 X0.418 Y-14.985
N8760 G2 X0.975 Y-15.209 I0.181 J-0.354
N8765 G1 X1.353 Y-16.305
N8770 G3 X1.703 Y-16.359 I0.189 J0.065
N8775 G1 X2.37 Y-15.468
N8780 G3 X2.24 Y-15.15 I-0.16 J0.12
N8785 G1 X1.566 Y-15.047
N8790 G2 X1.121 Y-14.198 I0.09 J0.588
N8795 G1 X1.236 Y-13.964
N8800 X1.273 Y-13.898
N8805 X1.319 Y-13.837
N8810 X1.372 Y-13.783
N8815 X1.673 Y-13.513
N8820 X1.714 Y-13.48
N8825 X2.352 Y-13.002
N8830 X2.375 Y-12.985
N8835 X3.101 Y-12.494
N8840 X3.117 Y-12.484
N8845 X3.948 Y-11.959
N8850 X3.968 Y-11.947
N8855 X5.735 Y-10.929
N8860 X5.761 Y-10.915
N8865 X6.58 Y-10.497
N8870 X6.61 Y-10.482
N8875 X7.313 Y-10.171
N8880 X7.363 Y-10.152
N8885 X8.645 Y-9.718
N8890 X8.687 Y-9.706
N8895 X9.415 Y-9.518
N8900 X9.439 Y-9.512
N8905 X10.272 Y-9.333
N8910 X10.291 Y-9.33
N8915 X11.259 Y-9.155
N8920 X11.273 Y-9.152
N8925 X12.406 Y-8.975
N8930 X13.745 Y-8.787
N8935 X15.308 Y-8.584
N8940 X17.565 Y-8.268
N8945 X19.515 Y-7.917
N8950 X21.237 Y-7.506
N8955 X22.81 Y-7.007
N8960 X24.311 Y-6.395
N8965 X25.818 Y-5.641
N8970 X26.981 Y-4.965
N8975 X26.357 Y-5.31
N8980 X26.333 Y-5.322
N8985 X25.186 Y-5.889
N8990 X25.163 Y-5.9
N8995 X23.863 Y-6.476
N9000 X23.831 Y-6.489
N9005 X22.442 Y-7.009
N9010 X22.395 Y-7.024
N9015 X20.984 Y-7.424
N9020 X20.953 Y-7.432
N9025 X19.501 Y-7.763
N9030 G2 X18.964 Y-6.747 I-0.132 J0.58
N9035 G1 X19.093 Y-6.627
N9040 G3 X18.969 Y-6.281 I-0.136 J0.147
N9045 G1 X18.15 Y-6.231
N9050 G3 X17.965 Y-6.531 I-0.012 J-0.2
N9055 G1 X18.073 Y-6.718
N9060 X18.099 Y-6.769
N9065 X18.121 Y-6.822
N9070 X18.197 Y-7.043
N9075 G2 X18.158 Y-7.518 I-0.563 J-0.193
N9080 G1 X18.078 Y-7.668
N9085 G2 X17.654 Y-7.973 I-0.524 J0.281
N9090 G1 X17.392 Y-8.018
N9095 X17.366 Y-8.022
N9100 X16.913 Y-8.08
N9105 X16.485 Y-8.13
N9110 X16.255 Y-8.155
N9115 X15.424 Y-8.244
N9120 X13.716 Y-8.413
N9125 X11.49 Y-8.653
N9130 X9.609 Y-8.94
N9135 X7.969 Y-9.309
N9140 X6.466 Y-9.797
N9145 X4.993 Y-10.445
N9150 X3.445 Y-11.295
N9155 X1.716 Y-12.392
N9160 X0.759 Y-13.042
N9165 X-0.285 Y-13.771
N9170 X-2.652 Y-15.426
N9175 X-3.232 Y-15.827
N9180 X-3.907 Y-16.29
N9185 X-4.649 Y-16.793
N9190 X-5.283 Y-17.213
N9195 X-7.153 Y-18.513
N9200 X-8.945 Y-19.86
N9205 X-12.367 Y-22.612
N9210 X-13.149 Y-23.311
N9215 X-13.969 Y-24.105
N9220 X-15.392 Y-25.564
N9225 X-18.129 Y-28.529
N9230 X-18.801 Y-29.273
N9235 X-19.319 Y-29.844
N9240 G3 X-19.333 Y-30.095 I0.148 J-0.134
N9245 G1 X-18.153 Y-31.741
N9250 G3 X-17.839 Y-31.755 I0.163 J0.117
N9255 G1 X-17.565 Y-31.44
N9260 X-16.93 Y-30.669
N9265 X-16.199 Y-29.797
N9270 X-14.602 Y-27.926
N9275 X-13.064 Y-26.16
N9280 X-12.721 Y-25.773
N9285 X-12.289 Y-25.288
N9290 X-11.721 Y-24.663
N9295 X-11.271 Y-24.195
N9300 X-11.246 Y-24.173
N9305 X-11.135 Y-24.09
N9310 X-11.088 Y-24.064
N9315 X-11.036 Y-24.051
N9320 X-10.983 Y-24.053
N9325 X-10.865 Y-24.072
N9330 X-10.814 Y-24.088
N9335 X-10.769 Y-24.117
N9340 X-10.733 Y-24.156
N9345 X-10.709 Y-24.204
N9350 X-10.698 Y-24.256
N9355 X-10.679 Y-24.536
N9360 Y-24.565
N9365 X-10.684 Y-24.595
N9370 X-10.777 Y-24.988
N9375 X-10.784 Y-25.012
N9380 X-10.906 Y-25.343
N9385 G3 X-10.628 Y-25.591 I0.188 J-0.069
N9390 G1 X-9.06 Y-24.801
N9395 G3 X-9.081 Y-24.435 I-0.09 J0.179
N9400 G1 X-9.348 Y-24.337
N9405 X-9.803 Y-24.163
N9410 X-9.905 Y-24.124
N9415 X-10.218 Y-23.996
N9420 X-10.235 Y-23.988
N9425 X-10.426 Y-23.888
N9430 G2 X-10.468 Y-23.563 I0.093 J0.177
N9435 G1 X-9.067 Y-22.282
N9440 X-9.058 Y-22.274
N9445 X-7.552 Y-21.054
N9450 X-4.65 Y-18.784
N9455 X-3.242 Y-17.713
N9460 X-1.964 Y-16.764
N9465 X-0.906 Y-16.006
N9470 X-0.423 Y-15.678
N9475 X-0.415 Y-15.673
N9480 X0.004 Y-15.419
N9485 X0.017 Y-15.412
N9490 X0.508 Y-15.161
N9495 G2 X0.788 Y-15.274 I0.091 J-0.178
N9500 G1 X1.258 Y-16.634
N9505 G3 X1.611 Y-16.683 I0.189 J0.065
N9510 G1 X2.577 Y-15.293
N9515 G3 X2.443 Y-14.981 I-0.164 J0.114
N9520 G1 X1.68 Y-14.865
N9525 X1.596 Y-14.852
N9530 G2 X1.298 Y-14.284 I0.06 J0.393
N9535 G1 X1.413 Y-14.051
N9540 X1.453 Y-13.986
N9545 X1.504 Y-13.93
N9550 X1.804 Y-13.66
N9555 X1.832 Y-13.637
N9560 X2.47 Y-13.16
N9565 X2.486 Y-13.149
N9570 X3.212 Y-12.658
N9575 X3.222 Y-12.651
N9580 X4.053 Y-12.126
N9585 X4.067 Y-12.118
N9590 X5.833 Y-11.1
N9595 X5.851 Y-11.09
N9600 X6.67 Y-10.672
N9605 X6.69 Y-10.663
N9610 X7.393 Y-10.351
N9615 X7.426 Y-10.338
N9620 X8.708 Y-9.905
N9625 X8.736 Y-9.897
N9630 X9.464 Y-9.708
N9635 X9.48 Y-9.704
N9640 X10.313 Y-9.526
N9645 X10.326 Y-9.523
N9650 X11.294 Y-9.349
N9655 X12.437 Y-9.17
N9660 X13.773 Y-8.982
N9665 X15.334 Y-8.779
N9670 X17.596 Y-8.462
N9675 X19.555 Y-8.11
N9680 X21.289 Y-7.696
N9685 X22.877 Y-7.192
N9690 X24.393 Y-6.574
N9695 X25.912 Y-5.814
N9700 X27.512 Y-4.885
N9705 X29.266 Y-3.759
N9710 X31.885 Y-1.953
N9715 X34.451 Y-0.004
N9720 X36.166 Y1.45
N9725 X35.203 Y0.682
N9730 X35.191 Y0.674
N9735 X32.867 Y-1.045
N9740 X32.854 Y-1.054
N9745 X30.583 Y-2.601
N9750 X30.568 Y-2.61
N9755 X28.374 Y-3.97
N9760 X28.357 Y-3.98
N9765 X26.262 Y-5.137
N9770 X26.246 Y-5.146
N9775 X25.099 Y-5.713
N9780 X25.084 Y-5.72
N9785 X23.783 Y-6.295
N9790 X23.761 Y-6.304
N9795 X22.373 Y-6.824
N9800 X22.342 Y-6.834
N9805 X20.93 Y-7.235
N9810 X20.91 Y-7.24
N9815 X19.458 Y-7.57
N9820 G2 X19.098 Y-6.891 I-0.088 J0.388
N9825 G1 X19.37 Y-6.639
N9830 G3 X19.25 Y-6.293 I-0.136 J0.147
N9835 G1 X17.899 Y-6.183
N9840 G3 X17.709 Y-6.483 I-0.016 J-0.199
N9845 G1 X17.902 Y-6.816
N9850 X17.934 Y-6.886
N9855 X18.01 Y-7.107
N9860 G2 X17.985 Y-7.425 I-0.376 J-0.129
N9865 G1 X17.904 Y-7.575
N9870 G2 X17.621 Y-7.779 I-0.351 J0.188
N9875 G1 X17.359 Y-7.824
N9880 X17.342 Y-7.827
N9885 X16.888 Y-7.885
N9890 X16.463 Y-7.934
N9895 X16.233 Y-7.96
N9900 X15.404 Y-8.048
N9905 X13.696 Y-8.217
N9910 X11.465 Y-8.458
N9915 X9.572 Y-8.746
N9920 X7.917 Y-9.119
N9925 X6.396 Y-9.613
N9930 X4.906 Y-10.268
N9935 X3.344 Y-11.125
N9940 X1.608 Y-12.227
N9945 X0.647 Y-12.879
N9950 X-0.398 Y-13.61
N9955 X-2.765 Y-15.265
N9960 X-3.344 Y-15.665
N9965 X-4.018 Y-16.127
N9970 X-4.76 Y-16.63
N9975 X-5.394 Y-17.05
N9980 X-7.269 Y-18.353
N9985 X-9.066 Y-19.705
N9990 X-12.494 Y-22.461
N9995 X-13.284 Y-23.167
N10000 X-14.108 Y-23.966
N10005 X-15.535 Y-25.428
N10010 X-18.274 Y-28.396
N10015 X-19.073 Y-29.279
N10020 X-19.591 Y-29.851
N10025 X-19.725 Y-30.
N10030 Z5.
N10035 X2.905 Y-14.827
N10040 Z1. F333.33
N10045 Z-3.175 F1000.
N10050 X2.822 Y-14.808
N10055 X2.737 Y-14.799
N10060 X2.483 Y-14.786
N10065 X2.463 Y-14.784
N10070 X1.972 Y-14.71
N10075 X1.626 Y-14.657
N10080 G2 X1.476 Y-14.371 I0.03 J0.198
N10085 G1 X1.59 Y-14.138
N10090 X1.611 Y-14.105
N10095 X1.636 Y-14.077
N10100 X1.937 Y-13.807
N10105 X1.95 Y-13.796
N10110 X2.589 Y-13.318
N10115 X3.323 Y-12.822
N10120 X4.159 Y-12.293
N10125 X5.932 Y-11.271
N10130 X5.941 Y-11.267
N10135 X6.76 Y-10.848
N10140 X6.77 Y-10.844
N10145 X7.473 Y-10.532
N10150 X7.49 Y-10.526
N10155 X8.771 Y-10.092
N10160 X8.786 Y-10.088
N10165 X9.514 Y-9.9
N10170 X10.355 Y-9.72
N10175 X11.33 Y-9.543
N10180 X12.467 Y-9.365
N10185 X13.8 Y-9.178
N10190 X15.361 Y-8.975
N10195 X17.628 Y-8.658
N10200 X19.596 Y-8.304
N10205 X21.342 Y-7.887
N10210 X22.944 Y-7.379
N10215 X24.474 Y-6.755
N10220 X26.006 Y-5.989
N10225 X27.615 Y-5.054
N10230 X29.375 Y-3.924
N10235 X32.001 Y-2.114
N10240 X34.575 Y-0.158
N10245 X37.074 Y1.96
N10250 X39.438 Y4.133
N10255 X42.481 Y7.008
N10260 X42.606 Y7.126
N10265 X42.65 Y7.158
N10270 X42.701 Y7.177
N10275 X42.755 Y7.181
N10280 X42.808 Y7.17
N10285 X43.169 Y7.045
N10290 G3 X43.311 Y7.419 I0.066 J0.189
N10295 G1 X41.828 Y8.039
N10300 G3 X41.652 Y7.681 I-0.077 J-0.185
N10305 G1 X41.667 Y7.672
N10310 X41.694 Y7.654
N10315 X42.049 Y7.367
N10320 G2 X42.098 Y7.114 I-0.126 J-0.156
N10325 G1 X41.927 Y6.805
N10330 X41.901 Y6.769
N10335 X41.615 Y6.448
N10340 X41.607 Y6.439
N10345 X41.041 Y5.876
N10350 X39.798 Y4.738
N10355 X37.437 Y2.717
N10360 X35.079 Y0.837
N10365 X32.749 Y-0.886
N10370 X30.471 Y-2.437
N10375 X28.27 Y-3.801
N10380 X26.166 Y-4.964
N10385 X25.011 Y-5.535
N10390 X23.703 Y-6.114
N10395 X23.692 Y-6.119
N10400 X22.303 Y-6.639
N10405 X22.288 Y-6.644
N10410 X20.876 Y-7.044
N10415 X20.866 Y-7.047
N10420 X19.414 Y-7.377
N10425 G2 X19.233 Y-7.036 I-0.044 J0.195
N10430 G1 X19.666 Y-6.634
N10435 G3 X19.551 Y-6.289 I-0.136 J0.147
N10440 G1 X17.591 Y-6.077
N10445 G3 X17.405 Y-6.39 I-0.021 J-0.199
N10450 G1 X17.534 Y-6.576
N10455 X17.543 Y-6.59
N10460 X17.731 Y-6.916
N10465 X17.747 Y-6.951
N10470 X17.823 Y-7.172
N10475 X17.833 Y-7.225
N10480 X17.829 Y-7.28
N10485 X17.81 Y-7.331
N10490 X17.729 Y-7.482
N10495 X17.704 Y-7.519
N10500 X17.67 Y-7.549
N10505 X17.63 Y-7.571
N10510 X17.587 Y-7.584
N10515 X17.325 Y-7.629
N10520 X16.863 Y-7.688
N10525 X16.44 Y-7.737
N10530 X16.211 Y-7.763
N10535 X15.383 Y-7.851
N10540 X13.675 Y-8.02
N10545 X11.439 Y-8.261
N10550 X9.535 Y-8.552
N10555 X7.864 Y-8.928
N10560 X6.325 Y-9.428
N10565 X4.819 Y-10.09
N10570 X3.244 Y-10.955
N10575 X1.5 Y-12.061
N10580 X0.535 Y-12.716
N10585 X-0.511 Y-13.447
N10590 X-2.879 Y-15.103
N10595 X-3.457 Y-15.502
N10600 X-4.13 Y-15.964
N10605 X-4.871 Y-16.467
N10610 X-5.505 Y-16.886
N10615 X-7.385 Y-18.193
N10620 X-9.187 Y-19.548
N10625 X-12.622 Y-22.31
N10630 X-13.419 Y-23.022
N10635 X-14.248 Y-23.825
N10640 X-15.679 Y-25.292
N10645 X-18.42 Y-28.263
N10650 X-19.408 Y-29.354
N10655 X-19.907 Y-29.906
N10660 X-19.925 Y-29.926
N10665 Z5.
N10670 X-24.783 Y-39.511
N10675 Z1. F333.33
N10680 Z-3.175 F1000.
N10685 X-24.782
N10690 X-24.015 Y-39.426
N10695 X-23.981 Y-39.422
N10700 X-22.878 Y-39.259
N10705 X-20.57 Y-38.83
N10710 X-21.432 Y-38.947
N10715 X-22.294 Y-39.099
N10720 X-22.307 Y-39.101
N10725 X-22.969 Y-39.202
N10730 X-23.015 Y-39.208
N10735 X-23.468 Y-39.241
N10740 X-23.558
N10745 X-23.647 Y-39.228
N10750 X-23.888 Y-39.172
N10755 X-23.912 Y-39.166
N10760 G2 X-24.37 Y-38.638 I0.135 J0.58
N10765 G1 X-24.387 Y-38.439
N10770 Z1.
N10775 X-24.943 Y-39.731
N10780 Z-3.175
N10785 X-24.942
N10790 X-24.848 Y-39.717
N10795 X-24.833 Y-39.715
N10800 X-24.176 Y-39.642
N10805 X-23.956 Y-39.618
N10810 X-22.846 Y-39.454
N10815 X-20.373 Y-38.994
N10820 X-18.815 Y-38.683
N10825 X-18.8 Y-38.681
N10830 X-17.538 Y-38.481
N10835 X-17.511 Y-38.478
N10840 X-16.59 Y-38.394
N10845 X-16.544 Y-38.393
N10850 X-16.155 Y-38.402
N10855 X-16.1 Y-38.407
N10860 X-16.046 Y-38.42
N10865 X-15.995 Y-38.44
N10870 X-15.727 Y-38.566
N10875 G2 X-15.629 Y-39.22 I-0.17 J-0.36
N10880 G1 X-15.68 Y-39.266
N10885 G3 X-15.413 Y-39.565 I0.135 J-0.148
N10890 G1 X-14.621 Y-38.875
N10895 G3 X-14.752 Y-38.524 I-0.131 J0.151
N10900 G1 X-15.221 Y-38.522
N10905 X-15.293 Y-38.515
N10910 X-15.829 Y-38.415
N10915 X-16.866 Y-38.281
N10920 X-17.502 Y-38.276
N10925 X-18.237 Y-38.314
N10930 X-21.462 Y-38.752
N10935 X-22.328 Y-38.905
N10940 X-22.998 Y-39.008
N10945 X-23.029 Y-39.011
N10950 X-23.483 Y-39.045
N10955 X-23.543
N10960 X-23.602 Y-39.036
N10965 X-23.827 Y-38.983
N10970 X-23.867 Y-38.974
N10975 G2 X-24.174 Y-38.551 I0.09 J0.388
N10980 G1 X-24.159 Y-38.391
N10985 X-24.142 Y-38.192
N10990 Z1.
N10995 X-25.358 Y-39.973
N11000 Z-3.175
N11005 X-25.272 Y-39.976
N11010 X-25.187 Y-39.968
N11015 X-24.819 Y-39.913
N11020 X-24.423 Y-39.869
N11025 X-23.931 Y-39.814
N11030 X-22.813 Y-39.649
N11035 X-20.335 Y-39.188
N11040 X-18.777 Y-38.877
N11045 X-17.507 Y-38.677
N11050 X-17.494 Y-38.675
N11055 X-16.572 Y-38.591
N11060 X-16.549 Y-38.59
N11065 X-16.16 Y-38.6
N11070 X-16.118 Y-38.605
N11075 X-16.079 Y-38.619
N11080 X-15.812 Y-38.745
N11085 G2 X-15.762 Y-39.074 I-0.085 J-0.181
N11090 G1 X-16.062 Y-39.347
N11095 G3 X-15.813 Y-39.659 I0.135 J-0.148
N11100 G1 X-14.365 Y-38.644
N11105 G3 X-14.522 Y-38.285 I-0.115 J0.164
N11110 G1 X-14.692 Y-38.321
N11115 X-14.735 Y-38.326
N11120 X-15.221 Y-38.324
N11125 X-15.256 Y-38.32
N11130 X-15.798 Y-38.219
N11135 X-16.853 Y-38.083
N11140 X-17.506 Y-38.078
N11145 X-18.255 Y-38.117
N11150 X-21.493 Y-38.556
N11155 X-22.362 Y-38.71
N11160 X-23.028 Y-38.812
N11165 X-23.044 Y-38.814
N11170 X-23.497 Y-38.847
N11175 X-23.528
N11180 X-23.557 Y-38.843
N11185 X-23.79 Y-38.789
N11190 X-23.822 Y-38.781
N11195 G2 X-23.976 Y-38.569 I0.045 J0.195
N11200 G1 X-23.954 Y-38.315
N11205 X-23.947 Y-38.276
N11210 X-23.932 Y-38.24
N11215 X-23.91 Y-38.207
N11220 X-23.861 Y-38.146
N11225 Z5.
N11230 X-22.056 Y-45.065
N11235 Z1. F333.33
N11240 Z-3.175 F1000.
N11245 X-22.057 Y-45.066
N11250 X-22.2 Y-45.201
N11255 X-22.573 Y-45.575
N11260 X-22.642 Y-45.662
N11265 X-22.197 Y-46.223
N11270 X-22.117 Y-46.303
N11275 X-21.976 Y-46.446
N11280 Z1.
N11285 X-21.845 Y-44.621
N11290 Z-3.175
N11295 X-21.917 Y-44.667
N11300 X-21.982 Y-44.722
N11305 X-22.338 Y-45.059
N11310 X-22.536 Y-45.258
N11315 X-22.721 Y-45.444
N11320 X-22.895 Y-45.661
N11325 X-22.566 Y-46.075
N11330 X-22.345 Y-46.354
N11335 X-22.053 Y-46.649
N11340 Z5.
N11345 X-40.2 Y-46.932
N11350 Z1. F333.33
N11355 Z-3.175 F1000.
N11360 X-40.201 Y-46.93
N11365 X-40.336 Y-46.702
N11370 X-40.341 Y-46.693
N11375 X-40.585 Y-46.262
N11380 X-40.649 Y-46.15
N11385 X-40.663 Y-46.123
N11390 X-40.84 Y-45.77
N11395 G2 X-40.891 Y-45.381 I0.532 J0.267
N11400 G1 X-40.848 Y-45.18
N11405 G2 X-40.669 Y-44.865 I0.582 J-0.122
N11410 G1 X-40.522 Y-44.729
N11415 Z5.
N11420 X-39.935 Y-46.993
N11425 Z1. F333.33
N11430 Z-3.175 F1000.
N11435 X-39.936 Y-46.991
N11440 X-40.166 Y-46.602
N11445 X-40.323 Y-46.324
N11450 X-40.477 Y-46.053
N11455 X-40.487 Y-46.035
N11460 X-40.664 Y-45.682
N11465 G2 X-40.698 Y-45.421 I0.356 J0.178
N11470 G1 X-40.656 Y-45.221
N11475 G2 X-40.471 Y-44.962 I0.389 J-0.082
N11480 G1 X-40.357 Y-44.893
N11485 X-40.186 Y-44.79
N11490 Z5.
N11495 X-39.56 Y-47.276
N11500 Z1. F333.33
N11505 Z-3.175 F1000.
N11510 X-39.589 Y-47.2
N11515 X-39.626 Y-47.127
N11520 X-39.996 Y-46.501
N11525 X-40.017 Y-46.463
N11530 X-40.305 Y-45.955
N11535 X-40.31 Y-45.946
N11540 X-40.487 Y-45.593
N11545 X-40.502 Y-45.551
N11550 X-40.508 Y-45.507
N11555 X-40.504 Y-45.462
N11560 X-40.462 Y-45.262
N11565 X-40.443 Y-45.21
N11570 X-40.412 Y-45.166
N11575 X-40.369 Y-45.131
N11580 X-40.035 Y-44.931
N11585 X-40.007 Y-44.917
N11590 Z5.
N11595 X-41.349 Y-45.005
N11600 Z1. F333.33
N11605 Z-3.175 F1000.
N11610 X-41.347
N11615 G2 X-40.975 Y-45.831 I-0.165 J-0.572
N11620 G1 X-41.52 Y-46.984
N11625 X-41.605 Y-47.165
N11630 Z5.
N11635 X-41.631 Y-45.196
N11640 Z1. F333.33
N11645 Z-3.175 F1000.
N11650 X-41.63 Y-45.195
N11655 X-41.598 Y-45.188
N11660 G2 X-41.153 Y-45.747 I0.085 J-0.389
N11665 G1 X-41.778 Y-47.071
N11670 X-41.864 Y-47.251
N11675 Z5.
N11680 X-42.104 Y-45.481
N11685 Z1. F333.33
N11690 Z-3.175 F1000.
N11695 X-42.018 Y-45.478
N11700 X-41.934 Y-45.465
N11705 X-41.555 Y-45.382
N11710 G2 X-41.332 Y-45.662 I0.043 J-0.195
N11715 G1 X-41.747 Y-46.542
N11720 X-42.077 Y-47.239
N11725 Z5.
N11730 X-35.68 Y-67.132
N11735 Z1. F333.33
N11740 Z-3.175 F1000.
N11745 X-35.679 Y-67.133
N11750 X-35.559 Y-67.297
N11755 X-35.552 Y-67.307
N11760 X-35.237 Y-67.766
N11765 X-35.108 Y-67.953
N11770 X-34.333 Y-67.317
N11775 X-34.179 Y-67.19
N11780 Z1.
N11785 X-36.079 Y-66.89
N11790 Z-3.175
N11795 X-36.045 Y-66.961
N11800 X-36.002 Y-67.027
N11805 X-35.719 Y-67.414
N11810 X-35.553 Y-67.655
N11815 X-35.149 Y-68.243
N11820 X-33.991 Y-67.292
N11825 Z5.
N11830 X-67.104 Y-64.827
N11835 Z1. F333.33
N11840 Z-3.175 F1000.
N11845 Y-64.828
N11850 X-67.194 Y-65.575
N11855 X-67.251 Y-66.075
N11860 X-66.93 Y-65.711
N11865 X-66.696 Y-65.445
N11870 X-66.427 Y-65.126
N11875 X-66.298 Y-64.973
N11880 Z1.
N11885 X-67.29 Y-64.707
N11890 Z-3.175
N11895 Y-64.708
N11900 X-67.382 Y-65.474
N11905 X-67.391 Y-65.552
N11910 X-67.495 Y-66.466
N11915 X-67.517 Y-66.668
N11920 X-67.42 Y-66.567
N11925 X-66.714 Y-65.766
N11930 X-66.546 Y-65.575
N11935 X-66.213 Y-65.18
N11940 X-66.084 Y-65.027
N11945 Z1.
N11950 X-67.47 Y-64.549
N11955 Z-3.175
N11960 X-67.471 Y-64.551
N11965 X-67.563 Y-65.316
N11970 X-67.588 Y-65.529
N11975 X-67.692 Y-66.444
N11980 X-67.777 Y-67.225
N11985 X-67.275 Y-66.702
N11990 X-66.473 Y-65.792
N11995 X-66.396 Y-65.704
N12000 X-65.974 Y-65.204
N12005 X-65.845 Y-65.051
N12010 Z1.
N12015 X-67.644 Y-64.338
N12020 Z-3.175
N12025 Y-64.34
N12030 X-67.736 Y-65.105
N12035 X-67.784 Y-65.506
N12040 X-67.888 Y-66.422
N12045 X-67.999 Y-67.442
N12050 X-68.033 Y-67.775
N12055 X-67.13 Y-66.835
N12060 X-66.247 Y-65.833
N12065 X-65.7 Y-65.185
N12070 X-65.571 Y-65.032
N12075 Z1.
N12080 X-67.767 Y-63.872
N12085 Z-3.175
N12090 X-67.792 Y-63.954
N12095 X-67.807 Y-64.038
N12100 X-67.899 Y-64.804
N12105 X-67.98 Y-65.483
N12110 X-68.085 Y-66.4
N12115 X-68.196 Y-67.421
N12120 X-68.283 Y-68.282
N12125 X-68.287 Y-68.326
N12130 X-66.984 Y-66.969
N12135 X-66.097 Y-65.962
N12140 X-65.368 Y-65.098
N12145 Z5.
N12150 X-67.478 Y-60.04
N12155 Z1. F333.33
N12160 Z-3.175 F1000.
N12165 X-67.545 Y-60.094
N12170 X-67.604 Y-60.154
N12175 X-68.111 Y-60.736
N12180 X-68.133 Y-60.762
N12185 X-67.869 Y-61.523
N12190 Z5.
N12195 X-43.112 Y-23.836
N12200 Z1. F333.33
N12205 Z-3.175 F1000.
N12210 X-43.11
N12215 X-42.545 Y-23.84
N12220 X-42.455 Y-23.846
N12225 X-42.16 Y-23.889
N12230 X-42.191 Y-23.844
N12235 X-42.217 Y-23.796
N12240 X-42.534 Y-23.165
N12245 X-42.57 Y-23.079
N12250 X-42.585 Y-23.034
N12255 X-42.648 Y-22.844
N12260 Z5.
N12265 X-46.224 Y-36.518
N12270 Z1. F333.33
N12275 Z-3.175 F1000.
N12280 X-46.223 Y-36.517
N12285 X-46.14 Y-36.346
N12290 X-46.079 Y-36.22
N12295 X-45.886 Y-35.823
N12300 X-45.576 Y-35.187
N12305 X-44.528 Y-33.029
N12310 X-42.427 Y-28.71
N12315 X-41.387 Y-26.571
N12320 X-40.419 Y-24.583
N12325 X-39.522 Y-22.745
N12330 X-39.49 Y-22.68
N12335 X-39.798 Y-23.234
N12340 X-39.819 Y-23.269
N12345 X-40.194 Y-23.899
N12350 X-40.237 Y-23.966
N12355 X-40.283 Y-24.03
N12360 X-40.525 Y-24.347
N12365 G2 X-40.696 Y-24.533 I-1.107 J0.845
N12370 X-40.845 Y-25.188 I-1.392 J-0.028
N12375 G1 X-43.447 Y-30.356
N12380 X-43.455 Y-30.37
N12385 X-44.761 Y-32.892
N12390 X-46.101 Y-35.478
N12395 X-46.554 Y-36.351
N12400 X-46.561 Y-36.379
N12405 X-46.554 Y-36.407
N12410 X-46.535 Y-36.429
N12415 X-46.509 Y-36.441
N12420 X-46.48 Y-36.438
N12425 X-46.456 Y-36.423
N12430 X-46.306 Y-36.271
N12435 X-35.19 Y-14.17
N12440 X-35.162 Y-13.957
N12445 X-35.164 Y-13.929
N12450 X-35.178 Y-13.904
N12455 X-35.201 Y-13.888
N12460 X-35.229 Y-13.882
N12465 X-35.257 Y-13.888
N12470 X-35.279 Y-13.905
N12475 X-35.293 Y-13.93
N12480 X-35.311 Y-13.985
N12485 X-35.552 Y-14.657
N12490 X-35.731 Y-15.16
N12495 X-35.76 Y-15.231
N12500 X-35.792 Y-15.3
N12505 X-36.377 Y-16.446
N12510 X-36.391 Y-16.472
N12515 X-37.687 Y-18.866
N12520 X-38.908 Y-21.178
N12525 X-39.471 Y-22.236
N12530 X-39.482 Y-22.256
N12535 X-39.973 Y-23.136
N12540 X-39.991 Y-23.167
N12545 X-40.366 Y-23.796
N12550 X-40.442 Y-23.909
N12555 X-40.684 Y-24.226
N12560 G2 X-40.902 Y-24.445 I-0.948 J0.724
N12565 X-41.023 Y-25.098 I-1.187 J-0.117
N12570 G1 X-43.626 Y-30.266
N12575 X-43.632 Y-30.278
N12580 X-44.939 Y-32.8
N12585 X-46.279 Y-35.386
N12590 X-46.749 Y-36.293
N12595 G3 X-46.661 Y-36.563 I0.178 J-0.092
N12600 G1 X-46.329 Y-36.73
N12605 G3 X-46.06 Y-36.639 I0.09 J0.179
N12610 G1 X-45.96 Y-36.433
N12615 X-45.899 Y-36.307
N12620 X-45.723 Y-35.945
N12625 X-45.396 Y-35.275
N12630 X-44.348 Y-33.117
N12635 X-42.248 Y-28.797
N12640 X-41.207 Y-26.658
N12645 X-40.239 Y-24.671
N12650 X-39.342 Y-22.833
N12655 X-38.513 Y-21.143
N12660 X-37.75 Y-19.6
N12665 X-37.053 Y-18.2
N12670 X-36.419 Y-16.944
N12675 X-35.846 Y-15.827
N12680 X-35.841 Y-15.817
N12685 X-35.33 Y-14.844
N12690 X-35.324 Y-14.833
N12695 X-34.915 Y-14.074
N12700 X-34.909 Y-14.048
N12705 X-34.917 Y-14.023
N12710 X-34.936 Y-14.005
N12715 X-34.962 Y-14.
N12720 X-34.987 Y-14.008
N12725 X-35.004 Y-14.027
N12730 X-40.646 Y-25.278
N12735 X-46.105 Y-36.617
N12740 X-46.11 Y-36.635
N12745 X-46.107 Y-36.654
N12750 X-46.098 Y-36.671
N12755 X-45.992 Y-36.796
N12760 X-45.972 Y-36.811
N12765 X-45.947 Y-36.814
N12770 X-45.924 Y-36.805
N12775 X-45.908 Y-36.786
N12780 X-45.898 Y-36.765
N12785 X-45.779 Y-36.521
N12790 X-45.718 Y-36.395
N12795 X-45.571 Y-36.092
N12800 X-45.216 Y-35.362
N12805 X-44.167 Y-33.204
N12810 X-42.067 Y-28.885
N12815 X-41.027 Y-26.746
N12820 X-40.059 Y-24.759
N12825 X-39.161 Y-22.921
N12830 X-38.333 Y-21.232
N12835 X-37.571 Y-19.689
N12840 X-36.874 Y-18.29
N12845 X-36.24 Y-17.034
N12850 X-35.667 Y-15.918
N12855 X-35.153 Y-14.938
N12860 X-35.148 Y-14.928
N12865 X-34.708 Y-14.112
N12870 G3 X-34.82 Y-13.828 I-0.176 J0.095
N12875 G1 X-35.216 Y-13.694
N12880 G3 X-35.474 Y-13.833 I-0.064 J-0.189
N12885 G1 X-35.5 Y-13.917
N12890 X-35.73 Y-14.56
N12895 X-35.92 Y-15.092
N12900 X-35.944 Y-15.152
N12905 X-35.971 Y-15.209
N12910 X-36.556 Y-16.355
N12915 X-36.567 Y-16.377
N12920 X-37.864 Y-18.771
N12925 X-39.086 Y-21.085
N12930 X-39.648 Y-22.142
N12935 X-39.658 Y-22.158
N12940 X-40.148 Y-23.039
N12945 X-40.163 Y-23.064
N12950 X-40.539 Y-23.694
N12955 X-40.602 Y-23.787
N12960 X-40.844 Y-24.104
N12965 G2 X-41.119 Y-24.351 I-0.788 J0.602
N12970 X-41.203 Y-25.007 I-0.969 J-0.211
N12975 G1 X-43.805 Y-30.176
N12980 X-43.81 Y-30.186
N12985 X-45.117 Y-32.708
N12990 X-46.457 Y-35.294
N12995 X-46.957 Y-36.259
N13000 X-47.049 Y-36.437
N13005 Z1.
N13010 X-45.773 Y-36.961
N13015 Z-3.175
N13020 X-45.772 Y-36.96
N13025 X-45.72 Y-36.852
N13030 X-45.601 Y-36.608
N13035 X-45.54 Y-36.482
N13040 X-45.037 Y-35.449
N13045 X-43.989 Y-33.291
N13050 X-41.889 Y-28.972
N13055 X-40.848 Y-26.833
N13060 X-39.881 Y-24.846
N13065 X-38.983 Y-23.008
N13070 X-38.154 Y-21.319
N13075 X-37.393 Y-19.776
N13080 X-36.696 Y-18.378
N13085 X-36.063 Y-17.123
N13090 X-35.491 Y-16.009
N13095 X-34.977 Y-15.03
N13100 X-34.854 Y-14.802
N13105 X-34.507 Y-14.158
N13110 X-34.499 Y-14.144
N13115 X-34.488 Y-14.123
N13120 G3 X-34.595 Y-13.837 I-0.174 J0.098
N13125 G1 X-35.386 Y-13.554
N13130 G3 X-35.651 Y-13.71 I-0.067 J-0.188
N13135 G1 X-35.666 Y-13.781
N13140 X-35.687 Y-13.85
N13145 X-35.898 Y-14.44
N13150 X-36.107 Y-15.026
N13155 X-36.148 Y-15.119
N13160 X-36.732 Y-16.265
N13165 X-36.742 Y-16.282
N13170 X-38.039 Y-18.678
N13175 X-39.261 Y-20.992
N13180 X-39.824 Y-22.048
N13185 X-39.831 Y-22.062
N13190 X-40.322 Y-22.942
N13195 X-40.333 Y-22.962
N13200 X-40.709 Y-23.592
N13205 X-40.76 Y-23.667
N13210 X-41.002 Y-23.983
N13215 G2 X-41.36 Y-24.247 I-0.63 J0.481
N13220 X-41.38 Y-24.918 I-0.728 J-0.314
N13225 G1 X-43.983 Y-30.086
N13230 X-45.294 Y-32.616
N13235 X-46.634 Y-35.203
N13240 X-47.178 Y-36.254
N13245 X-47.27 Y-36.431
N13250 Z1.
N13255 X-45.654 Y-37.169
N13260 Z-3.175
N13265 X-45.653 Y-37.168
N13270 X-45.541 Y-36.938
N13275 X-45.423 Y-36.694
N13280 X-45.361 Y-36.568
N13285 X-44.859 Y-35.536
N13290 X-43.81 Y-33.378
N13295 X-41.71 Y-29.058
N13300 X-40.67 Y-26.92
N13305 X-39.702 Y-24.933
N13310 X-38.805 Y-23.095
N13315 X-37.977 Y-21.407
N13320 X-37.215 Y-19.864
N13325 X-36.519 Y-18.467
N13330 X-35.886 Y-17.213
N13335 X-35.314 Y-16.099
N13340 X-34.801 Y-15.122
N13345 X-34.617 Y-14.779
N13350 X-34.333 Y-14.252
N13355 X-34.327 Y-14.241
N13360 X-34.248 Y-14.101
N13365 G3 X-34.352 Y-13.816 I-0.174 J0.098
N13370 G1 X-35.57 Y-13.358
N13375 G3 X-35.84 Y-13.555 I-0.07 J-0.187
N13380 G1 X-35.841 Y-13.632
N13385 X-35.852 Y-13.709
N13390 X-35.874 Y-13.784
N13395 X-36.294 Y-14.959
N13400 X-36.324 Y-15.029
N13405 X-36.909 Y-16.175
N13410 X-36.916 Y-16.188
N13415 X-38.214 Y-18.584
N13420 X-39.436 Y-20.899
N13425 X-39.998 Y-21.955
N13430 X-40.004 Y-21.965
N13435 X-40.495 Y-22.846
N13440 X-40.503 Y-22.861
N13445 X-40.879 Y-23.49
N13450 X-40.917 Y-23.546
N13455 X-41.159 Y-23.863
N13460 G2 X-41.726 Y-24.09 I-0.473 J0.361
N13465 X-41.557 Y-24.829 I-0.363 J-0.472
N13470 G1 X-44.16 Y-29.997
N13475 X-45.469 Y-32.525
N13480 X-46.809 Y-35.112
N13485 X-47.416 Y-36.283
N13490 X-47.508 Y-36.461
N13495 Z1.
N13500 X-45.559 Y-37.425
N13505 Z-3.175
N13510 X-45.558 Y-37.424
N13515 X-45.364 Y-37.025
N13520 X-45.245 Y-36.78
N13525 X-45.184 Y-36.655
N13530 X-44.682 Y-35.622
N13535 X-43.633 Y-33.464
N13540 X-41.533 Y-29.144
N13545 X-40.493 Y-27.006
N13550 X-39.525 Y-25.019
N13555 X-38.628 Y-23.182
N13560 X-37.8 Y-21.493
N13565 X-37.038 Y-19.951
N13570 X-36.342 Y-18.555
N13575 X-35.71 Y-17.301
N13580 X-35.139 Y-16.189
N13585 X-34.627 Y-15.213
N13590 X-34.356 Y-14.711
N13595 X-34.159 Y-14.345
N13600 X-33.984 Y-14.035
N13605 G3 X-34.092 Y-13.748 I-0.174 J0.098
N13610 G1 X-35.806 Y-13.143
N13615 G3 X-36.069 Y-13.368 I-0.067 J-0.189
N13620 G1 X-36.043 Y-13.511
N13625 X-36.036 Y-13.581
N13630 X-36.042 Y-13.65
N13635 X-36.059 Y-13.717
N13640 X-36.479 Y-14.892
N13645 X-36.5 Y-14.939
N13650 X-37.084 Y-16.085
N13655 X-38.388 Y-18.491
N13660 X-39.611 Y-20.807
N13665 X-40.172 Y-21.863
N13670 X-40.667 Y-22.75
N13675 X-40.673 Y-22.76
N13680 X-41.048 Y-23.389
N13685 X-41.074 Y-23.427
N13690 X-41.316 Y-23.744
N13695 G2 X-41.988 Y-23.68 I-0.316 J0.242
N13700 G1 X-42.304 Y-23.05
N13705 X-42.326 Y-22.997
N13710 X-42.416 Y-22.726
N13715 G3 X-42.773 Y-22.679 I-0.19 J-0.063
N13720 G1 X-43.499 Y-23.782
N13725 G3 X-43.328 Y-24.092 I0.167 J-0.11
N13730 G1 X-43.31
N13735 X-43.299
N13740 X-42.557 Y-24.097
N13745 X-42.492 Y-24.101
N13750 X-42.031 Y-24.168
N13755 G2 X-41.733 Y-24.74 I-0.057 J-0.394
N13760 G1 X-44.336 Y-29.909
N13765 X-45.644 Y-32.435
N13770 X-46.984 Y-35.021
N13775 X-47.678 Y-36.36
N13780 X-47.77 Y-36.537
N13785 Z1.
N13790 X-45.595 Y-37.906
N13795 Z-3.175
N13800 X-45.545 Y-37.837
N13805 X-45.503 Y-37.763
N13810 X-45.447 Y-37.647
N13815 X-45.186 Y-37.111
N13820 X-45.067 Y-36.867
N13825 X-45.006 Y-36.741
N13830 X-44.504 Y-35.708
N13835 X-43.455 Y-33.551
N13840 X-41.355 Y-29.231
N13845 X-40.315 Y-27.092
N13850 X-39.347 Y-25.106
N13855 X-38.45 Y-23.269
N13860 X-37.622 Y-21.581
N13865 X-36.861 Y-20.039
N13870 X-36.165 Y-18.643
N13875 X-35.533 Y-17.391
N13880 X-34.963 Y-16.28
N13885 X-34.451 Y-15.305
N13890 X-34.053 Y-14.565
N13895 X-33.985 Y-14.439
N13900 X-33.676 Y-13.892
N13905 G3 X-33.753 Y-13.625 I-0.17 J0.096
N13910 G1 X-34.894 Y-13.003
N13915 X-34.934 Y-12.974
N13920 X-34.965 Y-12.935
N13925 X-34.986 Y-12.89
N13930 G3 X-35.202 Y-12.755 I-0.186 J-0.058
N13935 G1 X-36.152 Y-12.904
N13940 G3 X-36.314 Y-13.132 I0.03 J-0.193
N13945 G1 X-36.237 Y-13.547
N13950 X-36.235 Y-13.599
N13955 X-36.246 Y-13.651
N13960 X-36.666 Y-14.826
N13965 X-36.676 Y-14.849
N13970 X-37.261 Y-15.995
N13975 X-38.562 Y-18.398
N13980 X-39.786 Y-20.715
N13985 X-40.347 Y-21.77
N13990 X-40.84 Y-22.653
N13995 X-41.218 Y-23.288
N14000 X-41.231 Y-23.307
N14005 X-41.473 Y-23.623
N14010 G2 X-41.811 Y-23.592 I-0.159 J0.121
N14015 G1 X-42.039 Y-23.137
N14020 X-42.127 Y-22.961
N14025 X-42.138 Y-22.935
N14030 X-42.311 Y-22.416
N14035 G3 X-42.666 Y-22.367 I-0.19 J-0.063
N14040 G1 X-43.773 Y-23.984
N14045 G3 X-43.603 Y-24.297 I0.165 J-0.113
N14050 G1 X-43.306 Y-24.29
N14055 X-42.832 Y-24.293
N14060 X-42.548 Y-24.295
N14065 X-42.52 Y-24.297
N14070 X-42.06 Y-24.363
N14075 G2 X-41.91 Y-24.651 I-0.029 J-0.198
N14080 G1 X-44.512 Y-29.82
N14085 X-45.82 Y-32.344
N14090 X-47.16 Y-34.93
N14095 X-47.628 Y-35.832
N14100 X-47.982 Y-36.517
N14105 Z5.
N14110 X-62.945 Y-15.496
N14115 Z1. F333.33
N14120 Z-3.175 F1000.
N14125 X-62.946 Y-15.495
N14130 X-63.711 Y-15.395
N14135 X-63.871 Y-15.374
N14140 X-63.657 Y-15.647
N14145 X-63.65 Y-15.656
N14150 X-63.302 Y-16.112
N14155 X-63.181 Y-16.271
N14160 Z1.
N14165 X-62.754 Y-15.25
N14170 Z-3.175
N14175 X-62.756 Y-15.249
N14180 X-63.52 Y-15.149
N14185 X-64.249 Y-15.053
N14190 X-64.271 Y-15.05
N14195 X-64.5 Y-15.012
N14200 X-64.423 Y-15.107
N14205 X-64.3 Y-15.261
N14210 X-63.889 Y-15.787
N14215 X-63.869 Y-15.812
N14220 X-63.42 Y-16.4
N14225 X-63.299 Y-16.559
N14230 Z1.
N14235 X-62.489 Y-15.025
N14240 Z-3.175
N14245 X-62.491
N14250 X-64.215 Y-14.798
N14255 X-64.228 Y-14.796
N14260 X-65.132 Y-14.646
N14265 X-64.867 Y-14.967
N14270 X-64.623 Y-15.268
N14275 X-64.502 Y-15.421
N14280 X-64.071 Y-15.971
N14285 X-63.951 Y-16.128
N14290 X-63.483 Y-16.741
N14295 X-63.362 Y-16.9
N14300 Z1.
N14305 X-62.019 Y-14.89
N14310 Z-3.175
N14315 X-62.102 Y-14.872
N14320 X-62.187 Y-14.863
N14325 X-62.2
N14330 X-62.218 Y-14.861
N14335 X-64.189 Y-14.602
N14340 X-65.321 Y-14.414
N14345 X-65.639 Y-14.378
N14350 X-65.523 Y-14.507
N14355 X-65.309 Y-14.744
N14360 X-65.019 Y-15.093
N14365 X-64.778 Y-15.392
N14370 X-64.657 Y-15.545
N14375 X-64.227 Y-16.093
N14380 X-63.938 Y-16.471
N14385 X-63.47 Y-17.084
N14390 Z5.
N14395 X-2.013 Y-49.074
N14400 Z1. F333.33
N14405 Z-3.175 F1000.
N14410 X-1.972 Y-48.999
N14415 X-1.94 Y-48.92
N14420 X-1.691 Y-48.19
N14425 X-1.682 Y-48.164
N14430 X-2.205 Y-47.561
N14435 Z15.
N14440 X12.08 Y75.398
N14445 Z5.
N14450 Z1.
N14455 Z-3.175
N14460 X12.067 Y75.468
N14465 X12.044 Y75.534
N14470 X11.746 Y76.221
N14475 X11.478 Y76.715
N14480 X11.329 Y76.859
N14485 X11.203 Y76.814
N14490 X10.821 Y76.566
N14495 X10.673 Y76.47
N14500 X10.65 Y76.456
N14505 X10.149 Y76.219
N14510 X10.136 Y76.213
N14515 Z15.
N14520 X0.246 Y59.345
N14525 Z5.
N14530 Z1.
N14535 Z-3.175
N14540 X0.33 Y59.362
N14545 X0.411 Y59.39
N14550 X0.773 Y59.537
N14555 X1.117 Y59.698
N14560 X1.17 Y59.723
N14565 X1.383 Y59.854
N14570 X1.409 Y60.094
N14575 X1.283 Y60.573
N14580 X1.28 Y60.588
N14585 X1.212 Y60.963
N14590 Z5.
N14595 X1.85 Y63.011
N14600 Z1. F333.33
N14605 Z-3.175 F1000.
N14610 X1.851 Y63.012
N14615 G2 X2.104 Y63.303 I0.456 J-0.141
N14620 G1 X2.351 Y63.419
N14625 X2.418 Y63.444
N14630 X2.489 Y63.459
N14635 X2.375 Y63.589
N14640 X2.011 Y63.964
N14645 X1.913 Y64.059
N14650 X1.77 Y64.198
N14655 Z1.
N14660 X-1.433 Y62.582
N14665 Z-3.175 F333.33
N14670 X2.072 Y62.537 F1000.
N14675 X2.049 Y62.588
N14680 X2.041 Y62.643
N14685 X2.049 Y62.699
N14690 X2.114 Y62.926
N14695 X2.13 Y62.966
N14700 X2.154 Y63.001
N14705 X2.185 Y63.031
N14710 X2.221 Y63.053
N14715 X2.399 Y63.136
N14720 X2.468 Y63.168
N14725 X2.511 Y63.183
N14730 X2.556 Y63.187
N14735 X2.926 Y63.182
N14740 X3.043 Y63.19
N14745 X3.02 Y63.237
N14750 X2.851 Y63.467
N14755 X2.579 Y63.776
N14760 X2.385 Y63.976
N14765 X2.206 Y64.16
N14770 X1.837 Y64.518
N14775 G3 X1.5 Y64.408 I-0.139 J-0.144
N14780 G1 X1.103 Y62.048
N14785 G3 X1.456 Y61.89 I0.197 J-0.033
N14790 G1 X1.659 Y62.144
N14795 X1.685 Y62.172
N14800 X1.717 Y62.194
N14805 X1.752 Y62.209
N14810 X2.067 Y62.313
N14815 X2.192 Y62.354
N14820 X2.074 Y62.534
N14825 X2.054 Y62.572
N14830 X2.043 Y62.614
N14835 X2.042 Y62.657
N14840 X2.049 Y62.699
N14845 X2.114 Y62.926
N14850 X2.13 Y62.966
N14855 X2.154 Y63.001
N14860 X2.185 Y63.031
N14865 X2.221 Y63.053
N14870 X2.286 Y63.083
N14875 Z15.
N14880 X11.073 Y48.829
N14885 Z5.
N14890 Z1.
N14895 Z-3.175
N14900 X11.06 Y48.744
N14905 X11.057 Y48.659
N14910 X11.064 Y48.349
N14915 X11.063 Y48.333
N14920 X11.041 Y47.94
N14925 X11.039 Y47.926
N14930 X11.013 Y47.728
N14935 X11.034 Y47.666
N14940 X11.162 Y47.578
N14945 X11.514 Y47.431
N14950 X12.028 Y47.29
N14955 Z5.
N14960 X24.659 Y47.095
N14965 Z1. F333.33
N14970 Z-3.175 F1000.
N14975 X24.748 Y47.084
N14980 X24.838
N14985 X25.436 Y47.116
N14990 X25.928 Y47.145
N14995 X26.301 Y47.17
N15000 X26.368 Y47.178
N15005 X26.268 Y47.963
N15010 X26.238 Y48.204
N15015 X26.129 Y48.721
N15020 Z5.
N15025 X9.203 Y61.312
N15030 Z1. F333.33
N15035 Z-3.175 F1000.
N15040 X9.123 Y61.282
N15045 X9.047 Y61.244
N15050 X8.434 Y60.888
N15055 X8.208 Y60.67
N15060 X8.209 Y60.585
N15065 X8.304 Y60.337
N15070 X8.314 Y60.301
N15075 X8.413 Y59.748
N15080 Z15.
N15085 X-47.892 Y37.622
N15090 Z5.
N15095 Z1.
N15100 Z-3.175
N15105 X-47.893 Y37.623
N15110 X-48.146 Y37.783
N15115 X-48.544 Y38.025
N15120 X-48.876 Y38.21
N15125 X-48.951 Y37.859
N15130 X-49.008 Y37.597
N15135 X-49.111 Y37.104
N15140 X-49.152 Y36.908
N15145 Z1.
N15150 X-47.254 Y37.547
N15155 Z-3.175
N15160 X-47.316 Y37.607
N15165 X-47.383 Y37.658
N15170 X-47.676 Y37.855
N15175 X-47.982 Y38.048
N15180 X-48.387 Y38.294
N15185 X-48.854 Y38.556
N15190 X-49.098 Y38.659
N15195 X-49.313 Y37.662
N15200 X-49.498 Y36.778
N15205 Z5.
N15210 X-42.102 Y23.574
N15215 Z1. F333.33
N15220 Z-3.175 F1000.
N15225 X-42.022 Y23.546
N15230 X-41.939 Y23.527
N15235 X-41.724 Y23.492
N15240 X-41.683 Y23.481
N15245 X-41.207 Y23.294
N15250 X-41.021 Y23.222
N15255 X-40.834 Y23.223
N15260 X-40.677 Y23.303
N15265 X-40.393 Y23.694
N15270 X-40.19 Y24.259
N15275 X-40.151 Y24.441
N15280 Z15.
N15285 X-43.373 Y16.148
N15290 Z5.
N15295 Z1.
N15300 Z-3.175
N15305 X-43.326 Y16.218
N15310 X-43.288 Y16.293
N15315 X-43.018 Y16.911
N15320 X-42.975 Y16.998
N15325 X-42.894 Y17.16
N15330 X-42.899 Y17.259
N15335 X-43.05 Y17.435
N15340 X-43.484 Y17.777
N15345 X-43.693 Y17.946
N15350 Z5.
N15355 X-44.529 Y20.112
N15360 Z1. F333.33
N15365 Z-3.175 F1000.
N15370 X-44.522 Y20.168
N15375 X-44.529 Y20.223
N15380 X-44.549 Y20.275
N15385 X-44.569 Y20.314
N15390 X-44.578 Y20.334
N15395 X-44.715 Y20.687
N15400 X-44.727 Y20.741
N15405 X-44.724 Y20.797
N15410 X-44.706 Y20.85
N15415 X-44.674 Y20.896
N15420 X-44.442 Y21.145
N15425 X-44.403 Y21.177
N15430 X-44.323 Y21.228
N15435 X-44.483 Y21.347
N15440 X-45.002 Y21.518
N15445 X-45.017 Y21.523
N15450 X-45.754 Y21.69
N15455 Z15.
N15460 X-29.01 Y13.884
N15465 Z5.
N15470 Z1.
N15475 Z-3.175
N15480 X-28.974 Y13.807
N15485 X-28.928 Y13.734
N15490 X-28.48 Y13.107
N15495 X-28.441 Y13.054
N15500 X-28.311 Y12.9
N15505 X-28.123 Y12.885
N15510 X-27.915 Y12.954
N15515 X-27.571 Y13.106
N15520 X-27.208 Y13.285
N15525 Z5.
N15530 X-19.462 Y21.192
N15535 Z1. F333.33
N15540 Z-3.175 F1000.
N15545 X-19.396 Y21.246
N15550 X-19.337 Y21.308
N15555 X-19.224 Y21.44
N15560 X-18.835 Y21.894
N15565 X-18.725 Y22.023
N15570 X-18.531 Y22.245
N15575 X-18.579 Y22.363
N15580 X-18.84 Y22.657
N15585 X-19.439 Y23.222
N15590 Z5.
N15595 X-39.256 Y23.455
N15600 Z1. F333.33
N15605 Z-3.175 F1000.
N15610 X-39.284 Y23.375
N15615 X-39.303 Y23.292
N15620 X-39.399 Y22.723
N15625 X-39.416 Y22.529
N15630 X-39.418 Y22.498
N15635 X-39.386 Y22.387
N15640 X-39.322 Y22.324
N15645 X-39.277 Y22.28
N15650 X-39.001 Y22.126
N15655 X-38.991 Y22.12
N15660 X-38.671 Y21.914
N15665 Z15.
N15670 X3.085 Y-42.306
N15675 Z5.
N15680 Z1.
N15685 Z-3.175
N15690 X3.034 Y-42.374
N15695 X2.99 Y-42.447
N15700 X2.92 Y-42.583
N15705 X2.908 Y-42.605
N15710 X2.574 Y-43.096
N15715 X2.501 Y-43.203
N15720 X2.489 Y-43.219
N15725 X2.376 Y-43.353
N15730 X2.377 Y-43.394
N15735 X2.516 Y-43.571
N15740 X2.915 Y-43.933
N15745 X2.922 Y-43.94
N15750 X3.197 Y-44.217
N15755 Z5.
N15760 X3.798 Y-46.408
N15765 Z2.5 F333.33
N15770 Z-3.175
N15775 X3.867 Y-46.486 F1000.
N15780 X3.892 Y-46.522
N15785 X3.909 Y-46.562
N15790 X3.954 Y-46.717
N15795 X3.963 Y-46.768
N15800 X3.957 Y-46.819
N15805 X3.939 Y-46.867
N15810 X3.86 Y-47.017
N15815 X3.838 Y-47.049
N15820 X3.811 Y-47.076
N15825 X3.607 Y-47.247
N15830 X3.434 Y-47.386
N15835 X3.418 Y-47.411
N15840 X3.533 Y-47.51
N15845 X4.137 Y-47.774
N15850 X4.634 Y-47.991
N15855 X4.854 Y-48.053
N15860 Z15.
N15865 X5.067 Y-63.793
N15870 Z5.
N15875 Z1.
N15880 Z-3.175
N15885 X5.068 Y-63.794
N15890 X5.585 Y-64.169
N15895 X5.89 Y-64.368
N15900 X6.03 Y-63.964
N15905 X6.036 Y-63.946
N15910 X6.231 Y-63.444
N15915 X6.303 Y-63.257
N15920 Z1.
N15925 X4.433 Y-63.668
N15930 Z-3.175
N15935 X4.489 Y-63.733
N15940 X4.552 Y-63.79
N15945 X4.814 Y-63.999
N15950 X5.167 Y-64.255
N15955 X5.407 Y-64.429
N15960 X5.874 Y-64.733
N15965 X6.052 Y-64.804
N15970 X6.081 Y-64.782
N15975 X6.327 Y-64.067
N15980 X6.383 Y-63.923
N15985 X6.585 Y-63.402
N15990 X6.593 Y-63.385
N15995 X6.679 Y-63.212
N16000 Z5.
N16005 X0.733 Y-49.44
N16010 Z1. F333.33
N16015 Z-3.175 F1000.
N16020 X0.628 Y-49.387
N16025 X0.126 Y-49.131
N16030 X-0.071 Y-49.065
N16035 X-0.254 Y-49.004
N16040 X-0.531 Y-49.007
N16045 X-0.751 Y-49.139
N16050 X-0.949 Y-49.412
N16055 X-1.159 Y-49.878
N16060 X-1.241 Y-50.125
N16065 Z15.
N16070 X46.79 Y-7.813
N16075 Z5.
N16080 Z1.
N16085 Z-3.175
N16090 X46.805 Y-7.897
N16095 X46.829 Y-7.979
N16100 X46.94 Y-8.282
N16105 X47.106 Y-8.699
N16110 X47.118 Y-8.73
N16115 X47.216 Y-8.908
N16120 X47.423 Y-8.918
N16125 X47.869 Y-8.897
N16130 X48.216 Y-8.868
N16135 Z5.
N16140 X44.622 Y5.303
N16145 Z1. F333.33
N16150 Z-3.175 F1000.
N16155 X44.621
N16160 X43.886 Y5.491
N16165 X43.831 Y5.508
N16170 X43.763 Y5.534
N16175 X43.728 Y5.164
N16180 X43.707 Y4.694
N16185 X43.709 Y4.627
N16190 X43.713 Y4.427
N16195 Z1.
N16200 X45.22 Y5.53
N16205 Z-3.175
N16210 X45.138 Y5.554
N16215 X45.054 Y5.568
N16220 X44.718 Y5.603
N16225 X44.69 Y5.609
N16230 X44.298 Y5.709
N16235 X43.963 Y5.794
N16240 X43.942 Y5.801
N16245 X43.49 Y5.972
N16250 X43.415 Y5.186
N16255 X43.394 Y4.697
N16260 X43.405 Y4.201
N16265 Z15.
N16270 X53.512 Y14.449
N16275 Z5.
N16280 Z1.
N16285 Z-3.175
N16290 X53.544 Y14.37
N16295 X53.585 Y14.295
N16300 X53.743 Y14.042
N16305 X53.751 Y14.028
N16310 X53.96 Y13.622
N16315 X54.077 Y13.395
N16320 X54.703 Y13.554
N16325 X54.726 Y13.558
N16330 X55.075 Y13.605
N16335 Z5.
N16340 X57.899 Y12.689
N16345 Z1. F333.33
N16350 Z-3.175 F1000.
N16355 X57.9
N16360 X57.919 Y12.679
N16365 X57.987 Y12.636
N16370 X58.048 Y12.581
N16375 X58.098 Y12.517
N16380 X58.255 Y12.278
N16385 G2 X58.332 Y12.001 I-0.397 J-0.26
N16390 G1 X58.331 Y11.989
N16395 X58.744 Y12.334
N16400 X58.987 Y12.595
N16405 G3 X58.72 Y12.89 I-0.146 J0.136
N16410 G1 X58.071 Y12.396
N16415 G3 X58.025 Y12.127 I0.121 J-0.159
N16420 G1 X58.044 Y12.091
N16425 X58.055 Y12.051
N16430 X58.057 Y12.011
N16435 X58.047 Y11.728
N16440 X58.042 Y11.691
N16445 X58.007 Y11.536
N16450 X58.016 Y11.517
N16455 X58.085 Y11.516
N16460 X58.355 Y11.651
N16465 X58.933 Y12.135
N16470 X59.47 Y12.71
N16475 Z15.
N16480 X59.151 Y8.214
N16485 Z5.
N16490 Z1.
N16495 Z-3.175
N16500 X59.086 Y8.149
N16505 X59.027 Y8.078
N16510 X58.974 Y8.01
N16515 X58.952 Y7.986
N16520 X58.927 Y7.966
N16525 X58.633 Y7.772
N16530 X58.43 Y7.596
N16535 X58.242 Y7.432
N16540 X58.19 Y7.282
N16545 X58.21 Y7.079
N16550 X58.3 Y6.859
N16555 X58.33 Y6.788
N16560 X58.568 Y6.402
N16565 X58.712 Y6.209
N16570 Z5.
N16575 X73.337 Y1.568
N16580 Z1. F333.33
N16585 Z-3.175 F1000.
N16590 X73.339 Y1.569
N16595 X73.709 Y1.658
N16600 X74.618 Y1.923
N16605 X74.266 Y2.325
N16610 X74.2 Y2.4
N16615 X74.188 Y2.415
N16620 X73.777 Y2.922
N16625 X73.651 Y3.077
N16630 Z1.
N16635 X72.847 Y1.162
N16640 Z-3.175
N16645 X72.932 Y1.167
N16650 X73.016 Y1.183
N16655 X73.766 Y1.363
N16660 X73.786 Y1.368
N16665 X75.153 Y1.767
N16670 X74.426 Y2.598
N16675 X74.255 Y2.808
N16680 X73.769 Y3.407
N16685 Z15.
N16690 X-0.13 Y-47.667
N16695 Z5.
N16700 Z1.
N16705 Z-3.175
N16710 X-0.103 Y-47.706
N16715 X-0.067 Y-47.738
N16720 X-0.025 Y-47.759
N16725 X0.022 Y-47.769
N16730 X0.326 Y-47.793
N16735 X0.366 Y-47.801
N16740 X0.404 Y-47.816
N16745 X0.692 Y-47.971
N16750 X0.812 Y-48.021
N16755 X0.917 Y-47.918
N16760 X1.1 Y-47.703
N16765 X1.128 Y-47.677
N16770 X1.16 Y-47.656
N16775 X1.196 Y-47.641
N16780 X1.409 Y-47.579
N16785 X1.42 Y-47.576
N16790 X1.482 Y-47.561
N16795 Z5.
N16800 X-0.359 Y-44.661
N16805 Z1. F333.33
N16810 Z-3.175 F1000.
N16815 X-0.388 Y-44.644
N16820 X-0.421 Y-44.639
N16825 X-0.453 Y-44.647
N16830 X-1.152 Y-44.974
N16835 X-1.298 Y-45.042
N16840 X-1.593 Y-45.243
N16845 X-1.601 Y-45.256
N16850 X-1.585 Y-45.294
N16855 X-1.448 Y-45.548
N16860 X-1.433 Y-45.582
N16865 X-1.425 Y-45.618
N16870 X-1.388 Y-45.919
N16875 X-1.254 Y-46.311
N16880 Z15.
N16885 X54.229 Y10.562
N16890 Z5.
N16895 Z1.
N16900 Z-3.175
N16905 X54.21 Y10.479
N16910 X54.2 Y10.394
N16915 X54.189 Y10.204
N16920 X54.21 Y9.71
N16925 X54.207 Y9.672
N16930 X54.13 Y9.173
N16935 X54.122 Y9.138
N16940 X54.104 Y9.089
N16945 X54.417 Y8.999
N16950 X54.616 Y8.943
N16955 X54.725 Y8.913
N16960 X54.757 Y8.901
N16965 X54.787 Y8.883
N16970 X55.032 Y8.708
N16975 X55.292 Y8.584
N16980 Z5.
N16985 X55.926 Y8.401
N16990 Z1. F333.33
N16995 Z-3.175 F1000.
N17000 X56.004 Y8.364
N17005 X56.088 Y8.339
N17010 X56.159 Y8.323
N17015 X56.572 Y8.311
N17020 X56.851 Y8.369
N17025 X56.954 Y8.391
N17030 X57.265 Y8.584
N17035 X57.466 Y8.885
N17040 X57.549 Y9.262
N17045 X57.531 Y9.674
N17050 X57.502 Y9.803
N17055 Z5.
N17060 X56.429 Y11.635
N17065 Z1. F333.33
N17070 Z-3.175 F1000.
N17075 X56.393 Y11.69
N17080 X56.349 Y11.739
N17085 X56.298 Y11.78
N17090 X55.921 Y12.04
N17095 X55.623 Y12.136
N17100 X55.425 Y12.2
N17105 X55.249 Y12.187
N17110 X54.779 Y11.916
N17115 X54.435 Y11.459
N17120 X54.364 Y11.255
N17125 Z15.
N17130 X4.874 Y59.085
N17135 Z5.
N17140 Z1.
N17145 Z-3.175
N17150 X4.952 Y59.041
N17155 X5.035 Y59.007
N17160 X5.076 Y58.993
N17165 X5.443 Y58.978
N17170 X5.496 Y58.969
N17175 X5.788 Y58.874
N17180 X6.003 Y58.805
N17185 X6.353 Y58.689
N17190 X6.377 Y58.706
N17195 X6.393 Y58.849
N17200 X6.397 Y58.873
N17205 X6.482 Y59.235
N17210 X6.496 Y59.275
N17215 X6.518 Y59.311
N17220 X6.711 Y59.562
N17225 X6.797 Y60.012
N17230 X6.721 Y60.48
N17235 Z5.
N17240 X3.505 Y61.537
N17245 Z1. F333.33
N17250 Z-3.175 F1000.
N17255 X3.504 Y61.536
N17260 X3.272 Y61.327
N17265 X2.986 Y60.968
N17270 X2.965 Y60.942
N17275 Y60.931
N17280 X3.074 Y60.717
N17285 X3.353 Y60.361
N17290 X3.431 Y60.288
N17295 X3.462 Y60.27
N17300 X3.497 Y60.266
N17305 X3.531 Y60.279
N17310 X3.556 Y60.304
N17315 X3.568 Y60.338
N17320 X3.564 Y60.374
N17325 X3.545 Y60.404
N17330 X3.134 Y60.826
N17335 X3.117 Y60.851
N17340 X3.11 Y60.879
N17345 X3.114 Y60.908
N17350 X3.128 Y60.934
N17355 X3.559 Y61.475
N17360 X4.256 Y61.934
N17365 X4.279 Y61.956
N17370 X4.292 Y61.985
N17375 Y62.017
N17380 X4.281 Y62.046
N17385 X4.259 Y62.069
N17390 X4.23 Y62.082
N17395 X4.198 Y62.083
N17400 X3.694 Y61.998
N17405 X3.46 Y61.884
N17410 X3.335 Y61.823
N17415 X3.033 Y61.551
N17420 X2.642 Y61.06
N17425 X2.636 Y60.857
N17430 X2.797 Y60.54
N17435 X3.059 Y60.207
N17440 X3.111 Y60.141
N17445 X3.528 Y59.747
N17450 X3.624 Y59.685
N17455 Z15.
N17460 X-40.059 Y21.103
N17465 Z5.
N17470 Z1.
N17475 Z-3.175
N17480 X-40.094 Y21.181
N17485 X-40.139 Y21.253
N17490 X-40.484 Y21.748
N17495 X-40.497 Y21.769
N17500 X-40.564 Y21.896
N17505 X-40.622 Y22.005
N17510 X-40.711 Y21.963
N17515 X-40.73 Y21.953
N17520 X-40.777 Y21.935
N17525 X-41.051 Y21.869
N17530 X-41.104 Y21.863
N17535 X-41.157 Y21.872
N17540 X-41.453 Y21.964
N17545 Z5.
N17550 X-40.48 Y18.772
N17555 Z1. F333.33
N17560 Z-3.175 F1000.
N17565 X-40.432 Y18.777
N17570 X-40.385 Y18.788
N17575 X-40.34 Y18.807
N17580 X-39.792 Y19.095
N17585 X-39.277 Y19.435
N17590 X-39.258 Y19.575
N17595 X-39.314 Y19.789
N17600 X-39.415 Y20.043
N17605 X-39.491 Y20.235
N17610 X-39.79 Y20.714
N17615 Z15.
N17620 M9
(WHEN USING FUSION 360 FOR PERSONAL USE, THE FEEDRATE OF)
(RAPID MOVES IS REDUCED TO MATCH THE FEEDRATE OF CUTTING)
(MOVES, WHICH CAN INCREASE MACHINING TIME. UNRESTRICTED RAPID)
(MOVES ARE AVAILABLE WITH A FUSION 360 SUBSCRIPTION.)
(2D CONTOUR1)
N17625 S9000 M3
N17630 G0 X20.389 Y2.646
N17635 G1 Z15. F3000.
N17640 Z5.
N17645 Z1. F1000.
N17650 Z-2.575
N17655 X20.395 Y2.651 Z-2.669 F3000.
N17660 X20.412 Y2.665 Z-2.76
N17665 X20.441 Y2.687 Z-2.847
N17670 X20.479 Y2.717 Z-2.928
N17675 X20.527 Y2.755 Z-2.999
N17680 X20.583 Y2.8 Z-3.06
N17685 X20.646 Y2.849 Z-3.11
N17690 X20.715 Y2.903 Z-3.146
N17695 X20.787 Y2.96 Z-3.168
N17700 X20.86 Y3.018 Z-3.175
N17705 X21.331 Y3.39
N17710 G3 X21.431 Y4.232 I-0.372 J0.471
N17715 G1 X21.402 Y4.269
N17720 X21.121 Y4.611
N17725 X20.819 Y4.967
N17730 X20.497 Y5.335
N17735 X20.153 Y5.718
N17740 X19.788 Y6.116
N17745 X19.401 Y6.531
N17750 X18.991 Y6.962
N17755 X18.558 Y7.411
N17760 X18.341 Y7.635
N17765 X18.133 Y7.85
N17770 X17.935 Y8.056
N17775 X17.746 Y8.253
N17780 X17.566 Y8.442
N17785 X17.394 Y8.624
N17790 X17.23 Y8.798
N17795 X17.073 Y8.966
N17800 X17.072 Y8.968
N17805 X16.781 Y9.285
N17810 X16.779 Y9.286
N17815 X16.513 Y9.583
N17820 X16.511 Y9.585
N17825 X16.268 Y9.865
N17830 X16.265 Y9.868
N17835 X16.041 Y10.135
N17840 X16.038 Y10.138
N17845 X15.83 Y10.396
N17850 X15.827 Y10.4
N17855 X15.631 Y10.654
N17860 X15.627 Y10.659
N17865 X15.259 Y11.17
N17870 X15.255 Y11.175
N17875 X15.076 Y11.439
N17880 X15.074 Y11.442
N17885 X14.894 Y11.717
N17890 X14.892 Y11.72
N17895 X14.708 Y12.01
N17900 X14.707 Y12.011
N17905 X14.514 Y12.32
N17910 X14.513 Y12.322
N17915 X14.266 Y12.726
N17920 X14.265 Y12.727
N17925 X14.016 Y13.143
N17930 X14.015 Y13.145
N17935 X13.771 Y13.562
N17940 X13.77 Y13.564
N17945 X13.536 Y13.972
N17950 X13.535 Y13.974
N17955 X13.425 Y14.17
N17960 X13.424 Y14.171
N17965 X13.32 Y14.359
N17970 Y14.36
N17975 X13.224 Y14.537
N17980 X13.223 Y14.538
N17985 X13.135 Y14.703
N17990 X13.134 Y14.704
N17995 X13.056 Y14.855
N18000 X13.055 Y14.857
N18005 X12.986 Y14.992
N18010 X12.985 Y14.995
N18015 X12.928 Y15.113
N18020 X12.926 Y15.117
N18025 X12.881 Y15.217
N18030 X12.88 Y15.218
N18035 X12.753 Y15.507
N18040 X12.693 Y15.638
N18045 X12.637 Y15.759
N18050 X12.6 Y15.835
N18055 X12.594 Y15.824
N18060 X12.521 Y15.687
N18065 X12.449 Y15.548
N18070 X12.385 Y15.423
N18075 X12.265 Y15.18
N18080 X12.14 Y14.922
N18085 X12.012 Y14.653
N18090 X11.757 Y14.109
N18095 X11.636 Y13.845
N18100 X11.521 Y13.595
N18105 X11.296 Y13.096
N18110 X10.84 Y12.067
N18115 X10.617 Y11.555
N18120 X10.402 Y11.054
N18125 X10.2 Y10.574
N18130 X10.013 Y10.123
N18135 X9.927 Y9.91
N18140 X9.846 Y9.709
N18145 X9.698 Y9.331
N18150 X9.553 Y8.935
N18155 X9.494 Y8.758
N18160 X9.472 Y8.684
N18165 X9.455 Y8.622
N18170 X9.386 Y8.318
N18175 X9.328 Y8.02
N18180 X9.282 Y7.725
N18185 X9.248 Y7.435
N18190 X9.226 Y7.147
N18195 X9.217 Y6.86
N18200 X9.221 Y6.574
N18205 X9.238 Y6.288
N18210 X9.269 Y6.
N18215 X9.314 Y5.71
N18220 X9.374 Y5.417
N18225 X9.449 Y5.12
N18230 X9.54 Y4.817
N18235 X9.647 Y4.508
N18240 X9.77 Y4.191
N18245 X9.911 Y3.867
N18250 X10.068 Y3.534
N18255 X10.243 Y3.193
N18260 X10.436 Y2.841
N18265 X10.647 Y2.48
N18270 X10.876 Y2.107
N18275 X11.123 Y1.723
N18280 X11.388 Y1.327
N18285 X11.672 Y0.919
N18290 X11.975 Y0.496
N18295 X12.297 Y0.06
N18300 X12.638 Y-0.391
N18305 X12.999 Y-0.858
N18310 X13.379 Y-1.341
N18315 X13.779 Y-1.84
N18320 X14.199 Y-2.357
N18325 X14.639 Y-2.892
N18330 X14.861 Y-3.161
N18335 X15.075 Y-3.421
N18340 X15.282 Y-3.672
N18345 X15.48 Y-3.914
N18350 X15.669 Y-4.146
N18355 X15.851 Y-4.37
N18360 X16.024 Y-4.585
N18365 X16.19 Y-4.79
N18370 X16.347 Y-4.987
N18375 X16.496 Y-5.175
N18380 X16.637 Y-5.354
N18385 X16.769 Y-5.524
N18390 X16.77 Y-5.525
N18395 X16.894 Y-5.686
N18400 Y-5.687
N18405 X17.01 Y-5.839
N18410 X17.011 Y-5.84
N18415 X17.118 Y-5.984
N18420 X17.119 Y-5.985
N18425 X17.218 Y-6.12
N18430 X17.219 Y-6.121
N18435 X17.31 Y-6.247
N18440 X17.311 Y-6.249
N18445 X17.393 Y-6.366
N18450 X17.395 Y-6.368
N18455 X17.469 Y-6.477
N18460 X17.471 Y-6.48
N18465 X17.537 Y-6.58
N18470 X17.539 Y-6.583
N18475 X17.597 Y-6.676
N18480 X17.6 Y-6.68
N18485 X17.65 Y-6.765
N18490 X17.653 Y-6.77
N18495 X17.696 Y-6.848
N18500 X17.7 Y-6.854
N18505 X17.736 Y-6.925
N18510 X17.742 Y-6.938
N18515 X17.794 Y-7.06
N18520 X17.804 Y-7.09
N18525 X17.828 Y-7.189
N18530 X17.834 Y-7.232
N18535 X17.835 Y-7.28
N18540 X17.828 Y-7.335
N18545 X17.816 Y-7.38
N18550 X17.802 Y-7.419
N18555 X17.779 Y-7.454
N18560 X17.75 Y-7.49
N18565 X17.722 Y-7.519
N18570 X17.688 Y-7.542
N18575 X17.647 Y-7.564
N18580 X17.602 Y-7.581
N18585 X17.567 Y-7.59
N18590 X17.554 Y-7.593
N18595 X17.496 Y-7.603
N18600 X17.491 Y-7.604
N18605 X17.415 Y-7.616
N18610 X17.412 Y-7.617
N18615 X17.32 Y-7.63
N18620 X17.317
N18625 X17.101 Y-7.659
N18630 X17.099
N18635 X16.862 Y-7.688
N18640 X16.861
N18645 X16.633 Y-7.715
N18650 X16.53 Y-7.727
N18655 X16.439 Y-7.737
N18660 X16.365 Y-7.746
N18665 X16.31 Y-7.752
N18670 X16.211 Y-7.763
N18675 X15.804 Y-7.807
N18680 X15.382 Y-7.851
N18685 X14.521 Y-7.938
N18690 X13.674 Y-8.02
N18695 X13.079 Y-8.078
N18700 X12.509 Y-8.137
N18705 X11.962 Y-8.198
N18710 X11.439 Y-8.261
N18715 X10.935 Y-8.328
N18720 X10.451 Y-8.398
N18725 X9.985 Y-8.472
N18730 X9.535 Y-8.552
N18735 X9.099 Y-8.636
N18740 X8.676 Y-8.727
N18745 X8.265 Y-8.824
N18750 X7.864 Y-8.928
N18755 X7.471 Y-9.04
N18760 X7.084 Y-9.16
N18765 X6.703 Y-9.289
N18770 X6.325 Y-9.428
N18775 X5.95 Y-9.576
N18780 X5.574 Y-9.736
N18785 X5.198 Y-9.907
N18790 X4.819 Y-10.09
N18795 X4.436 Y-10.286
N18800 X4.046 Y-10.494
N18805 X3.65 Y-10.717
N18810 X3.244 Y-10.954
N18815 X2.828 Y-11.207
N18820 X2.4 Y-11.475
N18825 X1.958 Y-11.759
N18830 X1.501 Y-12.061
N18835 X1.027 Y-12.379
N18840 X0.535 Y-12.716
N18845 X0.023 Y-13.072
N18850 X-0.511 Y-13.447
N18855 X-1.089 Y-13.855
N18860 X-1.685 Y-14.272
N18865 X-2.879 Y-15.103
N18870 X-3.457 Y-15.502
N18875 X-3.609 Y-15.607
N18880 X-3.774 Y-15.72
N18885 X-4.13 Y-15.964
N18890 X-4.871 Y-16.467
N18895 X-4.872
N18900 X-5.047 Y-16.585
N18905 X-5.214 Y-16.695
N18910 X-5.368 Y-16.797
N18915 X-5.369 Y-16.798
N18920 X-5.507 Y-16.888
N18925 X-5.956 Y-17.185
N18930 X-6.423 Y-17.505
N18935 X-7.385 Y-18.193
N18940 X-7.86 Y-18.543
N18945 X-8.321 Y-18.887
N18950 X-8.759 Y-19.22
N18955 X-9.188 Y-19.549
N18960 X-10.054 Y-20.224
N18965 X-10.921 Y-20.915
N18970 X-11.781 Y-21.614
N18975 X-12.623 Y-22.311
N18980 X-12.812 Y-22.472
N18985 X-13.008 Y-22.645
N18990 X-13.418 Y-23.021
N18995 X-14.249 Y-23.826
N19000 X-14.64 Y-24.218
N19005 X-14.822 Y-24.404
N19010 X-14.995 Y-24.581
N19015 X-15.679 Y-25.292
N19020 X-16.374 Y-26.029
N19025 X-17.07 Y-26.779
N19030 X-17.755 Y-27.528
N19035 X-18.42 Y-28.262
N19040 X-18.813 Y-28.699
N19045 X-19.192 Y-29.118
N19050 X-19.557 Y-29.521
N19055 X-19.908 Y-29.906
N19060 X-20.245 Y-30.276
N19065 X-20.569 Y-30.63
N19070 X-20.882 Y-30.969
N19075 X-21.182 Y-31.293
N19080 X-21.471 Y-31.603
N19085 X-21.75 Y-31.9
N19090 X-22.018 Y-32.184
N19095 X-22.277 Y-32.455
N19100 X-22.527 Y-32.715
N19105 X-22.528
N19110 X-22.768 Y-32.963
N19115 X-22.769
N19120 X-23.002 Y-33.2
N19125 X-23.227 Y-33.426
N19130 X-23.229 Y-33.427
N19135 X-23.447 Y-33.643
N19140 X-23.448 Y-33.644
N19145 X-23.66 Y-33.851
N19150 X-23.662 Y-33.852
N19155 X-24.073 Y-34.243
N19160 X-24.076 Y-34.245
N19165 X-24.473 Y-34.609
N19170 X-24.477 Y-34.612
N19175 X-24.867 Y-34.954
N19180 X-24.87 Y-34.957
N19185 X-25.26 Y-35.282
N19190 X-25.263 Y-35.285
N19195 X-25.658 Y-35.6
N19200 X-25.661 Y-35.603
N19205 X-26.067 Y-35.911
N19210 X-26.07 Y-35.914
N19215 X-26.492 Y-36.222
N19220 X-26.496 Y-36.224
N19225 X-27.07 Y-36.625
N19230 X-27.074 Y-36.628
N19235 X-27.637 Y-37.
N19240 X-27.642 Y-37.003
N19245 X-28.205 Y-37.351
N19250 X-28.211 Y-37.354
N19255 X-28.785 Y-37.681
N19260 X-28.791 Y-37.684
N19265 X-29.385 Y-37.994
N19270 X-29.392 Y-37.997
N19275 X-30.017 Y-38.293
N19280 X-30.022 Y-38.296
N19285 X-30.349 Y-38.44
N19290 X-30.352 Y-38.442
N19295 X-30.692 Y-38.584
N19300 X-30.695 Y-38.586
N19305 X-31.047 Y-38.727
N19310 X-31.05 Y-38.728
N19315 X-31.417 Y-38.869
N19320 X-31.419 Y-38.87
N19325 X-31.801 Y-39.01
N19330 X-31.804 Y-39.011
N19335 X-32.202 Y-39.151
N19340 X-32.204 Y-39.152
N19345 X-32.62 Y-39.292
N19350 X-32.622 Y-39.293
N19355 X-33.056 Y-39.434
N19360 X-33.058 Y-39.435
N19365 X-33.511 Y-39.578
N19370 X-33.513
N19375 X-33.986 Y-39.722
N19380 X-33.988 Y-39.723
N19385 X-34.483 Y-39.869
N19390 X-34.484
N19395 X-35.002 Y-40.018
N19400 X-35.003
N19405 X-35.544 Y-40.17
N19410 X-35.546
N19415 X-36.111 Y-40.325
N19420 X-36.112 Y-40.326
N19425 X-36.704 Y-40.485
N19430 X-37.322 Y-40.648
N19435 X-37.969 Y-40.816
N19440 X-38.644 Y-40.989
N19445 X-39.349 Y-41.168
N19450 X-40.084 Y-41.353
N19455 X-40.485 Y-41.453
N19460 X-40.898 Y-41.557
N19465 X-41.745 Y-41.771
N19470 X-43.456 Y-42.208
N19475 X-43.872 Y-42.315
N19480 X-44.277 Y-42.42
N19485 X-44.669 Y-42.523
N19490 X-45.046 Y-42.622
N19495 X-45.405 Y-42.717
N19500 X-45.585 Y-42.765
N19505 X-45.693 Y-42.794
N19510 X-45.811 Y-42.825
N19515 X-46.311 Y-42.963
N19520 X-46.422 Y-42.995
N19525 X-46.52 Y-43.023
N19530 X-46.599 Y-43.047
N19535 X-46.658 Y-43.067
N19540 X-46.938 Y-43.158
N19545 X-46.945 Y-43.16
N19550 X-47.208 Y-43.235
N19555 X-47.214 Y-43.237
N19560 X-47.331 Y-43.267
N19565 X-47.337 Y-43.268
N19570 X-47.44 Y-43.291
N19575 X-47.456 Y-43.294
N19580 X-47.633 Y-43.319
N19585 X-47.687
N19590 X-47.739 Y-43.305
N19595 X-47.754 Y-43.299
N19600 X-47.793 Y-43.277
N19605 X-47.826 Y-43.247
N19610 X-47.851 Y-43.21
N19615 X-47.86 Y-43.195
N19620 X-47.875 Y-43.159
N19625 X-47.883 Y-43.12
N19630 X-47.887 Y-43.081
N19635 X-47.886 Y-43.033
N19640 X-47.872 Y-42.934
N19645 X-47.868 Y-42.913
N19650 X-47.839 Y-42.802
N19655 X-47.837 Y-42.792
N19660 X-47.8 Y-42.674
N19665 X-47.798 Y-42.668
N19670 X-47.759 Y-42.555
N19675 X-47.758 Y-42.551
N19680 X-47.721 Y-42.451
N19685 X-47.72 Y-42.447
N19690 X-47.636 Y-42.233
N19695 X-47.635 Y-42.229
N19700 X-47.536 Y-41.992
N19705 X-47.535 Y-41.988
N19710 X-47.422 Y-41.731
N19715 X-47.421 Y-41.728
N19720 X-47.296 Y-41.455
N19725 X-47.294 Y-41.452
N19730 X-47.158 Y-41.166
N19735 X-47.157 Y-41.165
N19740 X-47.113 Y-41.074
N19745 X-47.06 Y-40.965
N19750 X-46.999 Y-40.839
N19755 X-46.93 Y-40.697
N19760 X-46.854 Y-40.541
N19765 X-46.772 Y-40.373
N19770 X-46.594 Y-40.007
N19775 X-46.402 Y-39.612
N19780 X-46.201 Y-39.2
N19785 X-45.999 Y-38.784
N19790 X-45.802 Y-38.378
N19795 X-45.616 Y-37.995
N19800 X-45.529 Y-37.816
N19805 X-45.447 Y-37.647
N19810 X-45.371 Y-37.491
N19815 X-45.301 Y-37.348
N19820 X-45.24 Y-37.221
N19825 X-45.186 Y-37.111
N19830 X-45.142 Y-37.02
N19835 X-45.107 Y-36.949
N19840 X-45.083 Y-36.899
N19845 X-45.067 Y-36.867
N19850 X-45.006 Y-36.741
N19855 X-44.758 Y-36.23
N19860 X-44.504 Y-35.708
N19865 X-43.985 Y-34.641
N19870 X-43.455 Y-33.551
N19875 X-42.388 Y-31.357
N19880 X-41.864 Y-30.279
N19885 X-41.607 Y-29.75
N19890 X-41.355 Y-29.231
N19895 X-41.088 Y-28.682
N19900 X-40.826 Y-28.143
N19905 X-40.568 Y-27.613
N19910 X-40.315 Y-27.092
N19915 X-40.066 Y-26.581
N19920 X-39.822 Y-26.08
N19925 X-39.582 Y-25.588
N19930 X-39.347 Y-25.105
N19935 X-39.116 Y-24.632
N19940 X-38.89 Y-24.168
N19945 X-38.668 Y-23.714
N19950 X-38.45 Y-23.269
N19955 X-38.237 Y-22.833
N19960 X-38.027 Y-22.406
N19965 X-37.822 Y-21.989
N19970 X-37.622 Y-21.58
N19975 X-37.425 Y-21.181
N19980 X-37.233 Y-20.791
N19985 X-37.045 Y-20.411
N19990 X-36.861 Y-20.039
N19995 X-36.505 Y-19.323
N20000 X-36.165 Y-18.643
N20005 X-35.841 Y-17.999
N20010 X-35.533 Y-17.39
N20015 X-35.24 Y-16.817
N20020 X-34.963 Y-16.279
N20025 X-34.7 Y-15.777
N20030 X-34.451 Y-15.305
N20035 Y-15.304
N20040 X-34.213 Y-14.86
N20045 Y-14.859
N20050 X-33.985 Y-14.438
N20055 X-33.984 Y-14.437
N20060 X-33.763 Y-14.036
N20065 X-33.762 Y-14.035
N20070 X-33.546 Y-13.648
N20075 X-33.545 Y-13.646
N20080 X-33.118 Y-12.904
N20085 X-33.116 Y-12.902
N20090 X-32.683 Y-12.174
N20095 X-32.682 Y-12.172
N20100 X-32.458 Y-11.804
N20105 Y-11.803
N20110 X-32.226 Y-11.427
N20115 X-32.225 Y-11.426
N20120 X-31.983 Y-11.039
N20125 X-31.728 Y-10.634
N20130 X-31.459 Y-10.211
N20135 X-31.174 Y-9.764
N20140 X-30.831 Y-9.227
N20145 G2 X-30.525 Y-9.189 I0.168 J-0.108
N20150 G1 X-29.448 Y-10.202
N20155 X-28.726 Y-10.86
N20160 X-28.354 Y-11.183
N20165 X-27.973 Y-11.499
N20170 X-27.585 Y-11.807
N20175 X-27.191 Y-12.104
N20180 X-26.792 Y-12.388
N20185 X-26.389 Y-12.655
N20190 X-25.986 Y-12.903
N20195 X-25.586 Y-13.129
N20200 X-25.187 Y-13.334
N20205 X-24.789 Y-13.517
N20210 X-24.391 Y-13.678
N20215 X-23.992 Y-13.818
N20220 X-23.592 Y-13.935
N20225 X-23.191 Y-14.03
N20230 X-22.791 Y-14.102
N20235 X-22.391 Y-14.153
N20240 X-21.989 Y-14.181
N20245 X-21.585 Y-14.189
N20250 X-21.179 Y-14.175
N20255 X-20.769 Y-14.141
N20260 X-20.354 Y-14.086
N20265 X-19.934 Y-14.01
N20270 X-19.506 Y-13.914
N20275 X-19.07 Y-13.798
N20280 X-18.626 Y-13.661
N20285 X-18.173 Y-13.504
N20290 X-17.71 Y-13.326
N20295 X-17.237 Y-13.129
N20300 X-16.752 Y-12.911
N20305 X-16.255 Y-12.672
N20310 X-15.83 Y-12.46
N20315 X-15.418 Y-12.252
