%
(DRILLSPOON)
(T9  D=6.35 CR=0. TAPER=118DEG - ZMIN=-30.089 - DRILL)
N10 G90 G94 G17 G91.1
N15 G21
N20 G53 G0 Z0.
(DRILL1)
N25 T9 M6
N30 S5000 M3
N35 G54
N40 G0 X233.105 Y-26.827
N45 G43 Z15. H9
N50 G0 Z5.
N55 Z1.9
N60 Z-1.1
N65 G1 Z-4.688 F1000.
N70 G0 Z-4.561
N75 G1 Z-6.275 F1000.
N80 G0 Z-6.148
N85 G1 Z-7.863 F1000.
N90 G0 Z-7.736
N95 G1 Z-9.45 F1000.
N100 G0 Z-9.323
N105 G1 Z-11.038 F1000.
N110 G0 Z-10.911
N115 G1 Z-12.625 F1000.
N120 G0 Z-12.498
N125 G1 Z-14.213 F1000.
N130 G0 Z-14.086
N135 G1 Z-15.8 F1000.
N140 G0 Z-15.673
N145 G1 Z-17.388 F1000.
N150 G0 Z-17.261
N155 G1 Z-18.975 F1000.
N160 G0 Z-18.848
N165 G1 Z-20.563 F1000.
N170 G0 Z-20.436
N175 G1 Z-22.15 F1000.
N180 G0 Z5.
N185 Z-20.15
N190 G1 Z-23.738 F1000.
N195 G0 Z-23.611
N200 G1 Z-25.325 F1000.
N205 G0 Z-25.198
N210 G1 Z-26.913 F1000.
N215 G0 Z-26.786
N220 G1 Z-28.5 F1000.
N225 G0 Z-28.373
N230 G1 Z-30.088 F1000.
N235 G0 Z-29.961
N240 G1 Z-30.089 F1000.
N245 G0 Z5.
N250 X296.536
N255 Z1.9
N260 Z-1.1
N265 G1 Z-4.688 F1000.
N270 G0 Z-4.561
N275 G1 Z-6.275 F1000.
N280 G0 Z-6.148
N285 G1 Z-7.863 F1000.
N290 G0 Z-7.736
N295 G1 Z-9.45 F1000.
N300 G0 Z-9.323
N305 G1 Z-11.038 F1000.
N310 G0 Z-10.911
N315 G1 Z-12.625 F1000.
N320 G0 Z-12.498
N325 G1 Z-14.213 F1000.
N330 G0 Z-14.086
N335 G1 Z-15.8 F1000.
N340 G0 Z-15.673
N345 G1 Z-17.388 F1000.
N350 G0 Z-17.261
N355 G1 Z-18.975 F1000.
N360 G0 Z-18.848
N365 G1 Z-20.563 F1000.
N370 G0 Z-20.436
N375 G1 Z-22.15 F1000.
N380 G0 Z5.
N385 Z-20.15
N390 G1 Z-23.738 F1000.
N395 G0 Z-23.611
N400 G1 Z-25.325 F1000.
N405 G0 Z-25.198
N410 G1 Z-26.913 F1000.
N415 G0 Z-26.786
N420 G1 Z-28.5 F1000.
N425 G0 Z-28.373
N430 G1 Z-30.088 F1000.
N435 G0 Z-29.961
N440 G1 Z-30.089 F1000.
N445 G0 Z5.
N450 X318.27 Y0.
N455 Z1.9
N460 Z-1.1
N465 G1 Z-4.688 F1000.
N470 G0 Z-4.561
N475 G1 Z-6.275 F1000.
N480 G0 Z-6.148
N485 G1 Z-7.863 F1000.
N490 G0 Z-7.736
N495 G1 Z-9.45 F1000.
N500 G0 Z-9.323
N505 G1 Z-11.038 F1000.
N510 G0 Z-10.911
N515 G1 Z-12.625 F1000.
N520 G0 Z-12.498
N525 G1 Z-14.213 F1000.
N530 G0 Z-14.086
N535 G1 Z-15.8 F1000.
N540 G0 Z-15.673
N545 G1 Z-17.388 F1000.
N550 G0 Z-17.261
N555 G1 Z-18.975 F1000.
N560 G0 Z-18.848
N565 G1 Z-20.563 F1000.
N570 G0 Z-20.436
N575 G1 Z-22.15 F1000.
N580 G0 Z5.
N585 Z-20.15
N590 G1 Z-23.738 F1000.
N595 G0 Z-23.611
N600 G1 Z-25.325 F1000.
N605 G0 Z-25.198
N610 G1 Z-26.913 F1000.
N615 G0 Z-26.786
N620 G1 Z-28.5 F1000.
N625 G0 Z-28.373
N630 G1 Z-30.088 F1000.
N635 G0 Z-29.961
N640 G1 Z-30.089 F1000.
N645 G0 Z5.
N650 X268.485 Y26.827
N655 Z1.9
N660 Z-1.1
N665 G1 Z-4.688 F1000.
N670 G0 Z-4.561
N675 G1 Z-6.275 F1000.
N680 G0 Z-6.148
N685 G1 Z-7.863 F1000.
N690 G0 Z-7.736
N695 G1 Z-9.45 F1000.
N700 G0 Z-9.323
N705 G1 Z-11.038 F1000.
N710 G0 Z-10.911
N715 G1 Z-12.625 F1000.
N720 G0 Z-12.498
N725 G1 Z-14.213 F1000.
N730 G0 Z-14.086
N735 G1 Z-15.8 F1000.
N740 G0 Z-15.673
N745 G1 Z-17.388 F1000.
N750 G0 Z-17.261
N755 G1 Z-18.975 F1000.
N760 G0 Z-18.848
N765 G1 Z-20.563 F1000.
N770 G0 Z-20.436
N775 G1 Z-22.15 F1000.
N780 G0 Z5.
N785 Z-20.15
N790 G1 Z-23.738 F1000.
N795 G0 Z-23.611
N800 G1 Z-25.325 F1000.
N805 G0 Z-25.198
N810 G1 Z-26.913 F1000.
N815 G0 Z-26.786
N820 G1 Z-28.5 F1000.
N825 G0 Z-28.373
N830 G1 Z-30.088 F1000.
N835 G0 Z-29.961
N840 G1 Z-30.089 F1000.
N845 G0 Z5.
N850 X211.371
N855 Z1.9
N860 Z-1.1
N865 G1 Z-4.688 F1000.
N870 G0 Z-4.561
N875 G1 Z-6.275 F1000.
N880 G0 Z-6.148
N885 G1 Z-7.863 F1000.
N890 G0 Z-7.736
N895 G1 Z-9.45 F1000.
N900 G0 Z-9.323
N905 G1 Z-11.038 F1000.
N910 G0 Z-10.911
N915 G1 Z-12.625 F1000.
N920 G0 Z-12.498
N925 G1 Z-14.213 F1000.
N930 G0 Z-14.086
N935 G1 Z-15.8 F1000.
N940 G0 Z-15.673
N945 G1 Z-17.388 F1000.
N950 G0 Z-17.261
N955 G1 Z-18.975 F1000.
N960 G0 Z-18.848
N965 G1 Z-20.563 F1000.
N970 G0 Z-20.436
N975 G1 Z-22.15 F1000.
N980 G0 Z5.
N985 Z-20.15
N990 G1 Z-23.738 F1000.
N995 G0 Z-23.611
N1000 G1 Z-25.325 F1000.
N1005 G0 Z-25.198
N1010 G1 Z-26.913 F1000.
N1015 G0 Z-26.786
N1020 G1 Z-28.5 F1000.
N1025 G0 Z-28.373
N1030 G1 Z-30.088 F1000.
N1035 G0 Z-29.961
N1040 G1 Z-30.089 F1000.
N1045 G0 Z5.
N1050 Z15.
N1055 G53 Z0.
N1060 M30
%
