%
(DUSTCOLLECTORBASE)
(T1  D=6.35 CR=0. - ZMIN=-0.2 - FLAT END MILL)
N10 G90 G94 G17 G91.1
N15 G21
(WHEN USING FUSION 360 FOR PERSONAL USE, THE FEEDRATE OF)
(RAPID MOVES IS REDUCED TO MATCH THE FEEDRATE OF CUTTING)
(MOVES, WHICH CAN INCREASE MACHINING TIME. UNRESTRICTED RAPID)
(MOVES ARE AVAILABLE WITH A FUSION 360 SUBSCRIPTION.)
N20 G53 G0 Z0.
(2D POCKET1)
N25 T1 M6
N30 S10000 M3
N35 G54
N40 G0 X592.006 Y324.893
N45 G43 Z33.5 H1
N50 G1 Z23.5 F2500.
N55 Z21.635
N60 X591.996 Y324.866 Z21.443 F833.33
N65 X591.968 Y324.784 Z21.269
N70 X591.929 Y324.655 Z21.129
N75 X591.888 Y324.489 Z21.036
N80 X591.854 Y324.301 Z21.
N85 G3 X597.819 Y323.399 Z20.669 I2.982 J-0.451
N90 X591.854 Y324.301 Z20.338 I-2.982 J0.451
N95 X597.819 Y323.399 Z20.007 I2.982 J-0.451
N100 X591.854 Y324.301 Z19.676 I-2.982 J0.451
N105 X597.819 Y323.399 Z19.345 I2.982 J-0.451
N110 X591.854 Y324.301 Z19.015 I-2.982 J0.451
N115 X597.819 Y323.399 Z18.684 I2.982 J-0.451
N120 X591.854 Y324.301 Z18.353 I-2.982 J0.451
N125 X597.819 Y323.399 Z18.022 I2.982 J-0.451
N130 X591.854 Y324.301 Z17.691 I-2.982 J0.451
N135 X597.819 Y323.399 Z17.36 I2.982 J-0.451
N140 X591.854 Y324.301 Z17.029 I-2.982 J0.451
N145 X597.819 Y323.399 Z16.698 I2.982 J-0.451
N150 X591.854 Y324.301 Z16.367 I-2.982 J0.451
N155 X597.819 Y323.399 Z16.036 I2.982 J-0.451
N160 X591.854 Y324.301 Z15.706 I-2.982 J0.451
N165 X597.819 Y323.399 Z15.375 I2.982 J-0.451
N170 X591.854 Y324.301 Z15.044 I-2.982 J0.451
N175 X597.819 Y323.399 Z14.713 I2.982 J-0.451
N180 X591.854 Y324.301 Z14.382 I-2.982 J0.451
N185 X597.819 Y323.399 Z14.051 I2.982 J-0.451
N190 X591.854 Y324.301 Z13.72 I-2.982 J0.451
N195 X597.819 Y323.399 Z13.389 I2.982 J-0.451
N200 X591.854 Y324.301 Z13.058 I-2.982 J0.451
N205 X597.819 Y323.399 Z12.727 I2.982 J-0.451
N210 X591.854 Y324.301 Z12.397 I-2.982 J0.451
N215 X597.819 Y323.399 Z12.066 I2.982 J-0.451
N220 X591.854 Y324.301 Z11.735 I-2.982 J0.451
N225 X594.61 Y320.842 Z11.561 I2.982 J-0.451
N230 X597.852 Y323.85 Z11.388 I0.226 J3.008
N235 X595.948 I-0.952 J0. F2500.
N240 X603.885 I3.969 J0.
N245 X589.915 I-6.985 J0.
N250 X609.917 I10.001 J0.
N255 X583.883 I-13.017 J0.
N260 X615.95 I16.034 J0.
N265 X577.85 I-19.05 J0.
N270 X615.95 I19.05 J0.
N275 G1 X615.942 Y323.948 Z11.404
N280 X615.92 Y324.043 Z11.419
N285 X615.887 Y324.125 Z11.464
N290 X615.843 Y324.202 Z11.509
N295 X615.801 Y324.258 Z11.58
N300 X615.753 Y324.309 Z11.65
N305 X615.684 Y324.367 Z11.827
N310 X615.658 Y324.384 Z12.023
N315 Z23.5
N320 X592.006 Y51.843
N325 Z21.635
N330 X591.996 Y51.816 Z21.443 F833.33
N335 X591.968 Y51.734 Z21.269
N340 X591.929 Y51.605 Z21.129
N345 X591.888 Y51.439 Z21.036
N350 X591.854 Y51.251 Z21.
N355 G3 X597.819 Y50.349 Z20.669 I2.982 J-0.451
N360 X591.854 Y51.251 Z20.338 I-2.982 J0.451
N365 X597.819 Y50.349 Z20.007 I2.982 J-0.451
N370 X591.854 Y51.251 Z19.676 I-2.982 J0.451
N375 X597.819 Y50.349 Z19.345 I2.982 J-0.451
N380 X591.854 Y51.251 Z19.015 I-2.982 J0.451
N385 X597.819 Y50.349 Z18.684 I2.982 J-0.451
N390 X591.854 Y51.251 Z18.353 I-2.982 J0.451
N395 X597.819 Y50.349 Z18.022 I2.982 J-0.451
N400 X591.854 Y51.251 Z17.691 I-2.982 J0.451
N405 X597.819 Y50.349 Z17.36 I2.982 J-0.451
N410 X591.854 Y51.251 Z17.029 I-2.982 J0.451
N415 X597.819 Y50.349 Z16.698 I2.982 J-0.451
N420 X591.854 Y51.251 Z16.367 I-2.982 J0.451
N425 X597.819 Y50.349 Z16.036 I2.982 J-0.451
N430 X591.854 Y51.251 Z15.706 I-2.982 J0.451
N435 X597.819 Y50.349 Z15.375 I2.982 J-0.451
N440 X591.854 Y51.251 Z15.044 I-2.982 J0.451
N445 X597.819 Y50.349 Z14.713 I2.982 J-0.451
N450 X591.854 Y51.251 Z14.382 I-2.982 J0.451
N455 X597.819 Y50.349 Z14.051 I2.982 J-0.451
N460 X591.854 Y51.251 Z13.72 I-2.982 J0.451
N465 X597.819 Y50.349 Z13.389 I2.982 J-0.451
N470 X591.854 Y51.251 Z13.058 I-2.982 J0.451
N475 X597.819 Y50.349 Z12.727 I2.982 J-0.451
N480 X591.854 Y51.251 Z12.397 I-2.982 J0.451
N485 X597.819 Y50.349 Z12.066 I2.982 J-0.451
N490 X591.854 Y51.251 Z11.735 I-2.982 J0.451
N495 X594.61 Y47.792 Z11.561 I2.982 J-0.451
N500 X597.852 Y50.8 Z11.388 I0.226 J3.008
N505 X595.948 I-0.952 J0. F2500.
N510 X603.885 I3.969 J0.
N515 X589.915 I-6.985 J0.
N520 X609.917 I10.001 J0.
N525 X583.883 I-13.017 J0.
N530 X615.95 I16.034 J0.
N535 X577.85 I-19.05 J0.
N540 X615.95 I19.05 J0.
N545 G1 X615.942 Y50.898 Z11.404
N550 X615.92 Y50.993 Z11.419
N555 X615.887 Y51.075 Z11.464
N560 X615.843 Y51.152 Z11.509
N565 X615.801 Y51.208 Z11.58
N570 X615.753 Y51.259 Z11.65
N575 X615.684 Y51.317 Z11.827
N580 X615.658 Y51.334 Z12.023
N585 Z33.5
(WHEN USING FUSION 360 FOR PERSONAL USE, THE FEEDRATE OF)
(RAPID MOVES IS REDUCED TO MATCH THE FEEDRATE OF CUTTING)
(MOVES, WHICH CAN INCREASE MACHINING TIME. UNRESTRICTED RAPID)
(MOVES ARE AVAILABLE WITH A FUSION 360 SUBSCRIPTION.)
(2D CONTOUR3)
N590 G0 X603.885 Y-5.08
N595 G1 Z33.5 F2500.
N600 Z23.5
N605 Z12.785 F833.33
N610 G19 G3 Y-4.445 Z12.15 J0.635 K0. F2500.
N615 G1 Y-3.81
N620 G17 G3 X603.25 Y-3.175 I-0.635 J0.
N625 G1 X558.8
N630 G2 X555.625 Y0. I0. J3.175
N635 G1 Y15.705
N640 X460.375
N645 Y0.
N650 G2 X457.2 Y-3.175 I-3.175 J0.
N655 G1 X44.45
N660 G2 X-3.175 Y44.45 I0. J47.625
N665 G1 Y142.875
N670 G2 X0. Y146.05 I3.175 J0.
N675 G1 X22.225
N680 Y228.6
N685 X0.
N690 G2 X-3.175 Y231.775 I0. J3.175
N695 G1 Y330.2
N700 G2 X44.45 Y377.825 I47.625 J0.
N705 G1 X457.2
N710 G2 X460.375 Y374.65 I0. J-3.175
N715 G1 Y358.944
N720 X555.625
N725 Y374.65
N730 G2 X558.8 Y377.825 I3.175 J0.
N735 G1 X603.25
N740 G2 X650.875 Y330.2 I0. J-47.625
N745 G1 Y44.45
N750 G2 X603.25 Y-3.175 I-47.625 J0.
N755 G3 X602.615 Y-3.81 I0. J-0.635
N760 G1 Y-4.445
N765 G19 G2 Y-5.08 Z12.785 J0. K0.635
N770 G1 Z23.5
N775 X603.885
N780 Z17.15 F833.33
N785 Z6.435
N790 G3 Y-4.445 Z5.8 J0.635 K0. F2500.
N795 G1 Y-3.81
N800 G17 G3 X603.25 Y-3.175 I-0.635 J0.
N805 G1 X558.8
N810 G2 X555.625 Y0. I0. J3.175
N815 G1 Y15.705
N820 X460.375
N825 Y0.
N830 G2 X457.2 Y-3.175 I-3.175 J0.
N835 G1 X44.45
N840 G2 X-3.175 Y44.45 I0. J47.625
N845 G1 Y142.875
N850 G2 X0. Y146.05 I3.175 J0.
N855 G1 X22.225
N860 Y228.6
N865 X0.
N870 G2 X-3.175 Y231.775 I0. J3.175
N875 G1 Y330.2
N880 G2 X44.45 Y377.825 I47.625 J0.
N885 G1 X457.2
N890 G2 X460.375 Y374.65 I0. J-3.175
N895 G1 Y358.944
N900 X555.625
N905 Y374.65
N910 G2 X558.8 Y377.825 I3.175 J0.
N915 G1 X603.25
N920 G2 X650.875 Y330.2 I0. J-47.625
N925 G1 Y44.45
N930 G2 X603.25 Y-3.175 I-47.625 J0.
N935 G3 X602.615 Y-3.81 I0. J-0.635
N940 G1 Y-4.445
N945 G19 G2 Y-5.08 Z6.435 J0. K0.635
N950 G1 Z23.5
N955 X603.885
N960 Z10.8 F833.33
N965 Z0.435
N970 G3 Y-4.445 Z-0.2 J0.635 K0. F2500.
N975 G1 Y-3.81
N980 G17 G3 X603.25 Y-3.175 I-0.635 J0.
N985 G1 X558.8
N990 G2 X555.625 Y0. I0. J3.175
N995 G1 Y15.705
N1000 X460.375
N1005 Y0.
N1010 G2 X457.2 Y-3.175 I-3.175 J0.
N1015 G1 X44.45
N1020 G2 X-3.175 Y44.45 I0. J47.625
N1025 G1 Y142.875
N1030 G2 X0. Y146.05 I3.175 J0.
N1035 G1 X22.225
N1040 Y228.6
N1045 X0.
N1050 G2 X-3.175 Y231.775 I0. J3.175
N1055 G1 Y330.2
N1060 G2 X44.45 Y377.825 I47.625 J0.
N1065 G1 X457.2
N1070 G2 X460.375 Y374.65 I0. J-3.175
N1075 G1 Y358.944
N1080 X555.625
N1085 Y374.65
N1090 G2 X558.8 Y377.825 I3.175 J0.
N1095 G1 X603.25
N1100 G2 X650.875 Y330.2 I0. J-47.625
N1105 G1 Y44.45
N1110 G2 X603.25 Y-3.175 I-47.625 J0.
N1115 G3 X602.615 Y-3.81 I0. J-0.635
N1120 G1 Y-4.445
N1125 G19 G2 Y-5.08 Z0.435 J0. K0.635
N1130 G1 Z33.5
N1135 G17
N1140 G53 G0 Z0.
N1145 M30
%
