%
(ENGRAVETEST)
(T1  D=12.7 CR=0. TAPER=45DEG - ZMIN=-15.411 - CHAMFER MILL)
N10 G90 G94 G17 G91.1
N15 G21
(WHEN USING FUSION 360 FOR PERSONAL USE, THE FEEDRATE OF)
(RAPID MOVES IS REDUCED TO MATCH THE FEEDRATE OF CUTTING)
(MOVES, WHICH CAN INCREASE MACHINING TIME. UNRESTRICTED RAPID)
(MOVES ARE AVAILABLE WITH A FUSION 360 SUBSCRIPTION.)
N20 G53 G0 Z0.
(ENGRAVE3)
N25 T1 M6
N30 S5000 M3
N35 G54
N40 G0 X-18.873 Y7.473
N45 G43 Z15. H1
N50 G1 Z5. F1000.
N55 Z0.
N60 X-18.675 Y7.519 Z-0.08
N65 X-18.557 Y7.542 Z-0.131
N70 X-18.443 Y7.562 Z-0.178
N75 X-18.239 Y7.591 Z-0.268
N80 X-17.926 Y7.622 Z-0.404
N85 X-17.619 Y7.64 Z-0.535
N90 X-17.322 Y7.645 Z-0.66
N95 X-17.037 Y7.64 Z-0.775
N100 X-16.762 Y7.627 Z-0.881
N105 X-16.563 Y7.611 Z-0.954
N110 X-16.231 Y7.576 Z-1.071
N115 X-15.974 Y7.541 Z-1.155
N120 X-15.723 Y7.5 Z-1.232
N125 X-15.482 Y7.456 Z-1.303
N130 X-14.961 Y7.35 Z-1.444
N135 X-14.421 Y7.231 Z-1.58
N140 X-14.338 Y7.214 Z-1.602
N145 X-14.181 Y7.189 Z-1.647
N150 X-14.021 Y7.17 Z-1.7
N155 X-13.857 Y7.159 Z-1.761
N160 X-13.69 Y7.155 Z-1.83
N165 X-13.52 Y7.157 Z-1.907
N170 X-13.348 Y7.169 Z-1.988
N175 X-13.174 Y7.188 Z-2.077
N180 X-12.996 Y7.213 Z-2.174
N185 X-12.815 Y7.245 Z-2.278
N190 X-12.631 Y7.285 Z-2.39
N195 X-12.495 Y7.32 Z-2.475
N200 X-12.357 Y7.36 Z-2.564
N205 X-11.895 Y7.089 Z-2.49
N210 X-11.457 Y6.844 Z-2.412
N215 X-11.197 Y6.704 Z-2.363
N220 X-10.923 Y6.562 Z-2.31
N225 X-10.631 Y6.416 Z-2.251
N230 X-10.314 Y6.267 Z-2.182
N235 X-9.997 Y6.127 Z-2.111
N240 X-9.677 Y5.995 Z-2.033
N245 X-9.327 Y5.863 Z-1.943
N250 X-8.985 Y5.747 Z-1.848
N255 X-8.735 Y5.67 Z-1.775
N260 X-8.415 Y5.583 Z-1.675
N265 X-8.036 Y5.494 Z-1.549
N270 X-7.915 Y5.464 Z-1.511
N275 X-7.763 Y5.419 Z-1.47
N280 X-7.639 Y5.377 Z-1.444
N285 X-7.518 Y5.33 Z-1.423
N290 X-7.4 Y5.277 Z-1.408
N295 X-7.285 Y5.22 Z-1.399
N300 X-7.173 Y5.158 Z-1.397
N305 X-7.019 Y5.061 Z-1.403
N310 X-6.912 Y4.987 Z-1.416
N315 X-6.807 Y4.908 Z-1.436
N320 X-6.705 Y4.823 Z-1.462
N325 X-6.606 Y4.733 Z-1.493
N330 X-6.51 Y4.638 Z-1.531
N335 X-6.38 Y4.496 Z-1.594
N340 X-6.289 Y4.389 Z-1.649
N345 X-6.201 Y4.277 Z-1.709
N350 X-6.116 Y4.16 Z-1.776
N355 X-6.033 Y4.036 Z-1.848
N360 X-5.953 Y3.908 Z-1.927
N365 X-5.836 Y3.703 Z-2.059
N370 X-5.751 Y3.544 Z-2.167
N375 X-5.67 Y3.378 Z-2.283
N380 X-5.591 Y3.206 Z-2.407
N385 X-5.708 Y3.132 Z-2.321
N390 X-5.825 Y3.063 Z-2.239
N395 X-5.978 Y2.979 Z-2.136
N400 X-6.131 Y2.902 Z-2.04
N405 X-6.282 Y2.831 Z-1.952
N410 X-6.433 Y2.768 Z-1.87
N415 X-6.582 Y2.712 Z-1.795
N420 X-6.727 Y2.665 Z-1.728
N425 X-6.871 Y2.624 Z-1.668
N430 X-7.014 Y2.59 Z-1.615
N435 X-7.156 Y2.562 Z-1.568
N440 X-7.297 Y2.541 Z-1.527
N445 X-7.405 Y2.53 Z-1.5
N450 X-7.512 Y2.522 Z-1.477
N455 X-7.618 Y2.518 Z-1.458
N460 X-7.965 Y2.512 Z-1.401
N465 X-8.214 Y2.501 Z-1.353
N470 X-8.481 Y2.481 Z-1.293
N475 X-8.747 Y2.454 Z-1.226
N480 X-9.015 Y2.418 Z-1.152
N485 X-9.286 Y2.375 Z-1.069
N490 X-9.562 Y2.323 Z-0.979
N495 X-9.844 Y2.263 Z-0.88
N500 X-10.133 Y2.193 Z-0.774
N505 X-10.424 Y2.115 Z-0.664
N510 X-10.816 Y1.997 Z-0.508
N515 X-11.052 Y1.921 Z-0.416
N520 X-11.263 Y1.846 Z-0.331
N525 X-11.459 Y1.773 Z-0.255
N530 X-11.643 Y1.7 Z-0.187
N535 X-11.803 Y1.629 Z-0.128
N540 X-11.955 Y1.557 Z-0.076
N545 X-12.094 Y1.485 Z-0.033
N550 X-12.217 Y1.414 Z0.
N555 X-12.094 Y1.485 Z-0.033
N560 X-11.955 Y1.557 Z-0.076
N565 X-11.803 Y1.629 Z-0.128
N570 X-11.643 Y1.7 Z-0.187
N575 X-11.459 Y1.773 Z-0.255
N580 X-11.263 Y1.846 Z-0.331
N585 X-11.052 Y1.921 Z-0.416
N590 X-10.816 Y1.997 Z-0.508
N595 X-10.424 Y2.115 Z-0.664
N600 X-10.133 Y2.193 Z-0.774
N605 X-9.844 Y2.263 Z-0.88
N610 X-9.562 Y2.323 Z-0.979
N615 X-9.286 Y2.375 Z-1.069
N620 X-9.015 Y2.418 Z-1.152
N625 X-8.747 Y2.454 Z-1.226
N630 X-8.481 Y2.481 Z-1.293
N635 X-8.214 Y2.501 Z-1.353
N640 X-7.965 Y2.512 Z-1.401
N645 X-7.618 Y2.518 Z-1.458
N650 X-7.512 Y2.522 Z-1.477
N655 X-7.405 Y2.53 Z-1.5
N660 X-7.297 Y2.541 Z-1.527
N665 X-7.156 Y2.562 Z-1.568
N670 X-7.014 Y2.59 Z-1.615
N675 X-6.871 Y2.624 Z-1.668
N680 X-6.727 Y2.665 Z-1.728
N685 X-6.582 Y2.712 Z-1.795
N690 X-6.433 Y2.768 Z-1.87
N695 X-6.282 Y2.831 Z-1.952
N700 X-6.131 Y2.902 Z-2.04
N705 X-5.978 Y2.979 Z-2.136
N710 X-5.825 Y3.063 Z-2.239
N715 X-5.708 Y3.132 Z-2.321
N720 X-5.591 Y3.206 Z-2.407
N725 X-5.182 Y3.092 Z-2.339
N730 X-5.092 Y3.068 Z-2.326
N735 X-4.353 Y2.883 Z-2.21
N740 X-3.524 Y2.699 Z-2.085
N745 X-2.694 Y2.54 Z-1.963
N750 X-1.863 Y2.408 Z-1.846
N755 X-1.03 Y2.301 Z-1.73
N760 X-0.196 Y2.222 Z-1.617
N765 X0.641 Y2.17 Z-1.504
N770 X1.472 Y2.146 Z-1.393
N775 X2.297 Y2.15 Z-1.282
N780 X3.147 Y2.183 Z-1.167
N785 X4.012 Y2.247 Z-1.049
N790 X4.729 Y2.324 Z-0.948
N795 X4.879 Y2.342 Z-0.929
N800 X5.526 Y2.433 Z-0.835
N805 X5.744 Y2.467 Z-0.807
N810 X6.315 Y2.568 Z-0.721
N815 X6.605 Y2.623 Z-0.682
N820 X7.097 Y2.727 Z-0.605
N825 X7.465 Y2.81 Z-0.554
N830 X7.871 Y2.909 Z-0.488
N835 X8.322 Y3.027 Z-0.422
N840 X8.637 Y3.115 Z-0.369
N845 X9.179 Y3.274 Z-0.286
N850 X9.396 Y3.342 Z-0.248
N855 X10.034 Y3.552 Z-0.145
N860 X10.146 Y3.591 Z-0.125
N865 X10.888 Y3.86 Z0.
N870 X10.146 Y3.591 Z-0.125
N875 X10.034 Y3.552 Z-0.145
N880 X9.396 Y3.342 Z-0.248
N885 X9.179 Y3.274 Z-0.286
N890 X8.637 Y3.115 Z-0.369
N895 X8.322 Y3.027 Z-0.422
N900 X7.871 Y2.909 Z-0.488
N905 X7.465 Y2.81 Z-0.554
N910 X7.097 Y2.727 Z-0.605
N915 X6.605 Y2.623 Z-0.682
N920 X6.315 Y2.568 Z-0.721
N925 X5.744 Y2.467 Z-0.807
N930 X5.526 Y2.433 Z-0.835
N935 X4.879 Y2.342 Z-0.929
N940 X4.729 Y2.324 Z-0.948
N945 X4.012 Y2.247 Z-1.049
N950 X3.147 Y2.183 Z-1.167
N955 X2.297 Y2.15 Z-1.282
N960 X1.472 Y2.146 Z-1.393
N965 X0.641 Y2.17 Z-1.504
N970 X-0.196 Y2.222 Z-1.617
N975 X-1.03 Y2.301 Z-1.73
N980 X-1.863 Y2.408 Z-1.846
N985 X-2.694 Y2.54 Z-1.963
N990 X-3.524 Y2.699 Z-2.085
N995 X-4.353 Y2.883 Z-2.21
N1000 X-5.092 Y3.068 Z-2.326
N1005 X-5.182 Y3.092 Z-2.339
N1010 X-5.591 Y3.206 Z-2.407
N1015 X-5.67 Y3.378 Z-2.283
N1020 X-5.751 Y3.544 Z-2.167
N1025 X-5.836 Y3.703 Z-2.059
N1030 X-5.953 Y3.908 Z-1.927
N1035 X-6.033 Y4.036 Z-1.848
N1040 X-6.116 Y4.16 Z-1.776
N1045 X-6.201 Y4.277 Z-1.709
N1050 X-6.289 Y4.389 Z-1.649
N1055 X-6.38 Y4.496 Z-1.594
N1060 X-6.51 Y4.638 Z-1.531
N1065 X-6.606 Y4.733 Z-1.493
N1070 X-6.705 Y4.823 Z-1.462
N1075 X-6.807 Y4.908 Z-1.436
N1080 X-6.912 Y4.987 Z-1.416
N1085 X-7.019 Y5.061 Z-1.403
N1090 X-7.173 Y5.158 Z-1.397
N1095 X-7.285 Y5.22 Z-1.399
N1100 X-7.4 Y5.277 Z-1.408
N1105 X-7.518 Y5.33 Z-1.423
N1110 X-7.639 Y5.377 Z-1.444
N1115 X-7.763 Y5.419 Z-1.47
N1120 X-7.915 Y5.464 Z-1.511
N1125 X-8.036 Y5.494 Z-1.549
N1130 X-8.415 Y5.583 Z-1.675
N1135 X-8.735 Y5.67 Z-1.775
N1140 X-8.985 Y5.747 Z-1.848
N1145 X-9.327 Y5.863 Z-1.943
N1150 X-9.677 Y5.995 Z-2.033
N1155 X-9.997 Y6.127 Z-2.111
N1160 X-10.314 Y6.267 Z-2.182
N1165 X-10.631 Y6.416 Z-2.251
N1170 X-10.923 Y6.562 Z-2.31
N1175 X-11.197 Y6.704 Z-2.363
N1180 X-11.457 Y6.844 Z-2.412
N1185 X-11.895 Y7.089 Z-2.49
N1190 X-12.357 Y7.36 Z-2.564
N1195 X-12.379 Y7.494 Z-2.471
N1200 X-12.424 Y7.735 Z-2.312
N1205 X-12.445 Y7.841 Z-2.246
N1210 X-12.465 Y7.945 Z-2.185
N1215 X-12.484 Y8.046 Z-2.128
N1220 X-12.504 Y8.146 Z-2.077
N1225 X-12.522 Y8.243 Z-2.029
N1230 X-12.541 Y8.339 Z-1.987
N1235 X-12.559 Y8.433 Z-1.948
N1240 X-12.577 Y8.526 Z-1.915
N1245 X-12.595 Y8.618 Z-1.886
N1250 X-12.613 Y8.709 Z-1.861
N1255 X-12.63 Y8.799 Z-1.841
N1260 X-12.648 Y8.888 Z-1.825
N1265 X-12.665 Y8.977 Z-1.814
N1270 X-12.682 Y9.065 Z-1.807
N1275 X-12.699 Y9.154 Z-1.805
N1280 X-12.724 Y9.282 Z-1.81
N1285 X-12.749 Y9.41 Z-1.824
N1290 X-12.774 Y9.539 Z-1.847
N1295 X-12.799 Y9.668 Z-1.879
N1300 X-12.824 Y9.798 Z-1.921
N1305 X-12.85 Y9.93 Z-1.971
N1310 X-12.875 Y10.063 Z-2.029
N1315 X-12.902 Y10.198 Z-2.095
N1320 X-12.928 Y10.334 Z-2.169
N1325 X-12.955 Y10.473 Z-2.25
N1330 X-12.982 Y10.615 Z-2.339
N1335 X-13.01 Y10.758 Z-2.435
N1340 X-13.039 Y10.905 Z-2.538
N1345 X-13.068 Y11.056 Z-2.648
N1350 X-13.098 Y11.209 Z-2.765
N1355 X-13.153 Y11.501 Z-2.995
N1360 X-13.309 Y11.553 Z-2.969
N1365 X-13.578 Y11.64 Z-2.921
N1370 X-14.013 Y11.791 Z-2.831
N1375 X-14.433 Y11.949 Z-2.732
N1380 X-14.925 Y12.153 Z-2.596
N1385 X-15.029 Y12.2 Z-2.565
N1390 X-15.216 Y12.289 Z-2.506
N1395 X-15.399 Y12.38 Z-2.445
N1400 X-15.598 Y12.486 Z-2.373
N1405 X-15.752 Y12.575 Z-2.315
N1410 X-15.923 Y12.679 Z-2.245
N1415 X-16.125 Y12.81 Z-2.155
N1420 X-16.257 Y12.902 Z-2.094
N1425 X-16.419 Y13.023 Z-2.014
N1430 X-16.581 Y13.152 Z-1.928
N1435 X-16.745 Y13.289 Z-1.833
N1440 X-16.906 Y13.439 Z-1.736
N1445 X-17.071 Y13.601 Z-1.63
N1450 X-17.269 Y13.807 Z-1.491
N1455 X-17.413 Y13.971 Z-1.385
N1460 X-17.585 Y14.179 Z-1.251
N1465 X-17.784 Y14.442 Z-1.085
N1470 X-17.923 Y14.642 Z-0.962
N1475 X-18.028 Y14.802 Z-0.863
N1480 X-18.088 Y14.896 Z-0.808
N1485 X-18.246 Y15.159 Z-0.652
N1490 X-18.393 Y15.432 Z-0.493
N1495 X-18.549 Y15.739 Z-0.322
N1500 X-18.686 Y16.048 Z-0.155
N1505 X-18.811 Y16.348 Z-0.001
N1510 X-18.686 Y16.048 Z-0.155
N1515 X-18.549 Y15.739 Z-0.322
N1520 X-18.393 Y15.432 Z-0.493
N1525 X-18.246 Y15.159 Z-0.652
N1530 X-18.088 Y14.896 Z-0.808
N1535 X-18.028 Y14.802 Z-0.863
N1540 X-17.923 Y14.642 Z-0.962
N1545 X-17.784 Y14.442 Z-1.085
N1550 X-17.585 Y14.179 Z-1.251
N1555 X-17.413 Y13.971 Z-1.385
N1560 X-17.269 Y13.807 Z-1.491
N1565 X-17.071 Y13.601 Z-1.63
N1570 X-16.906 Y13.439 Z-1.736
N1575 X-16.745 Y13.289 Z-1.833
N1580 X-16.581 Y13.152 Z-1.928
N1585 X-16.419 Y13.023 Z-2.014
N1590 X-16.257 Y12.902 Z-2.094
N1595 X-16.125 Y12.81 Z-2.155
N1600 X-15.923 Y12.679 Z-2.245
N1605 X-15.752 Y12.575 Z-2.315
N1610 X-15.598 Y12.486 Z-2.373
N1615 X-15.399 Y12.38 Z-2.445
N1620 X-15.216 Y12.289 Z-2.506
N1625 X-15.029 Y12.2 Z-2.565
N1630 X-14.925 Y12.153 Z-2.596
N1635 X-14.433 Y11.949 Z-2.732
N1640 X-14.013 Y11.791 Z-2.831
N1645 X-13.578 Y11.64 Z-2.921
N1650 X-13.309 Y11.553 Z-2.969
N1655 X-13.153 Y11.501 Z-2.995
N1660 X-12.982 Y11.558 Z-2.91
N1665 X-12.811 Y11.61 Z-2.831
N1670 X-12.653 Y11.651 Z-2.76
N1675 X-12.495 Y11.687 Z-2.693
N1680 X-12.339 Y11.718 Z-2.631
N1685 X-12.185 Y11.74 Z-2.571
N1690 X-12.032 Y11.757 Z-2.515
N1695 X-11.88 Y11.77 Z-2.464
N1700 X-11.698 Y11.775 Z-2.404
N1705 X-11.505 Y11.769 Z-2.344
N1710 X-11.321 Y11.753 Z-2.289
N1715 X-11.203 Y11.735 Z-2.255
N1720 X-11.087 Y11.715 Z-2.224
N1725 X-10.95 Y11.69 Z-2.193
N1730 X-10.823 Y11.666 Z-2.172
N1735 X-10.701 Y11.644 Z-2.158
N1740 X-10.583 Y11.622 Z-2.152
N1745 X-10.487 Y11.605 Z-2.151
N1750 X-10.329 Y11.583 Z-2.154
N1755 X-10.17 Y11.566 Z-2.163
N1760 X-10.01 Y11.555 Z-2.178
N1765 X-9.85 Y11.55 Z-2.198
N1770 X-9.688 Y11.551 Z-2.225
N1775 X-9.525 Y11.557 Z-2.258
N1780 X-9.332 Y11.572 Z-2.304
N1785 X-9.146 Y11.594 Z-2.356
N1790 X-8.959 Y11.623 Z-2.416
N1795 X-8.77 Y11.66 Z-2.483
N1800 X-8.581 Y11.704 Z-2.557
N1805 X-8.39 Y11.755 Z-2.639
N1810 X-8.171 Y11.822 Z-2.743
N1815 X-7.979 Y11.888 Z-2.841
N1820 X-7.786 Y11.96 Z-2.946
N1825 X-7.592 Y12.041 Z-3.058
N1830 X-7.604 Y12.141 Z-2.994
N1835 X-7.646 Y12.399 Z-2.828
N1840 X-7.697 Y12.631 Z-2.681
N1845 X-7.738 Y12.78 Z-2.585
N1850 X-7.79 Y12.929 Z-2.484
N1855 X-7.872 Y13.125 Z-2.35
N1860 X-7.928 Y13.242 Z-2.267
N1865 X-7.986 Y13.356 Z-2.189
N1870 X-8.07 Y13.506 Z-2.085
N1875 X-8.156 Y13.65 Z-1.988
N1880 X-8.246 Y13.787 Z-1.898
N1885 X-8.353 Y13.938 Z-1.802
N1890 X-8.432 Y14.042 Z-1.739
N1895 X-8.512 Y14.141 Z-1.681
N1900 X-8.595 Y14.236 Z-1.629
N1905 X-8.714 Y14.368 Z-1.557
N1910 X-8.79 Y14.46 Z-1.504
N1915 X-8.872 Y14.571 Z-1.442
N1920 X-8.96 Y14.701 Z-1.367
N1925 X-9.057 Y14.854 Z-1.276
N1930 X-9.144 Y15.007 Z-1.187
N1935 X-9.264 Y15.238 Z-1.051
N1940 X-9.344 Y15.404 Z-0.958
N1945 X-9.44 Y15.624 Z-0.832
N1950 X-9.527 Y15.843 Z-0.715
N1955 X-9.584 Y16.002 Z-0.629
N1960 X-9.699 Y16.369 Z-0.443
N1965 X-9.788 Y16.72 Z-0.277
N1970 X-9.814 Y16.845 Z-0.223
N1975 X-9.855 Y17.053 Z-0.131
N1980 X-9.905 Y17.374 Z0.
N1985 X-9.855 Y17.053 Z-0.131
N1990 X-9.814 Y16.845 Z-0.223
N1995 X-9.788 Y16.72 Z-0.277
N2000 X-9.699 Y16.369 Z-0.443
N2005 X-9.584 Y16.002 Z-0.629
N2010 X-9.527 Y15.843 Z-0.715
N2015 X-9.44 Y15.624 Z-0.832
N2020 X-9.344 Y15.404 Z-0.958
N2025 X-9.264 Y15.238 Z-1.051
N2030 X-9.144 Y15.007 Z-1.187
N2035 X-9.057 Y14.854 Z-1.276
N2040 X-8.96 Y14.701 Z-1.367
N2045 X-8.872 Y14.571 Z-1.442
N2050 X-8.79 Y14.46 Z-1.504
N2055 X-8.714 Y14.368 Z-1.557
N2060 X-8.595 Y14.236 Z-1.629
N2065 X-8.512 Y14.141 Z-1.681
N2070 X-8.432 Y14.042 Z-1.739
N2075 X-8.353 Y13.938 Z-1.802
N2080 X-8.246 Y13.787 Z-1.898
N2085 X-8.156 Y13.65 Z-1.988
N2090 X-8.07 Y13.506 Z-2.085
N2095 X-7.986 Y13.356 Z-2.189
N2100 X-7.928 Y13.242 Z-2.267
N2105 X-7.872 Y13.125 Z-2.35
N2110 X-7.79 Y12.929 Z-2.484
N2115 X-7.738 Y12.78 Z-2.585
N2120 X-7.697 Y12.631 Z-2.681
N2125 X-7.646 Y12.399 Z-2.828
N2130 X-7.604 Y12.141 Z-2.994
N2135 X-7.592 Y12.041 Z-3.058
N2140 X-7.186 Y11.833 Z-2.925
N2145 X-6.678 Y11.554 Z-2.747
N2150 X-6.117 Y11.232 Z-2.54
N2155 X-5.11 Y10.625 Z-2.162
N2160 X-4.869 Y10.475 Z-2.075
N2165 X-4.095 Y9.996 Z-1.798
N2170 X-3.551 Y9.653 Z-1.616
N2175 X-3.439 Y9.585 Z-1.583
N2180 X-3.326 Y9.521 Z-1.555
N2185 X-3.212 Y9.463 Z-1.533
N2190 X-3.063 Y9.396 Z-1.512
N2195 X-2.936 Y9.344 Z-1.502
N2200 X-2.807 Y9.298 Z-1.499
N2205 X-2.679 Y9.259 Z-1.502
N2210 X-2.51 Y9.217 Z-1.515
N2215 X-2.376 Y9.189 Z-1.534
N2220 X-2.241 Y9.167 Z-1.559
N2225 X-2.103 Y9.15 Z-1.59
N2230 X-1.912 Y9.137 Z-1.642
N2235 X-1.766 Y9.132 Z-1.691
N2240 X-1.618 Y9.133 Z-1.746
N2245 X-1.467 Y9.14 Z-1.807
N2250 X-1.313 Y9.153 Z-1.875
N2255 X-1.158 Y9.171 Z-1.95
N2260 X-0.999 Y9.196 Z-2.031
N2265 X-0.77 Y9.242 Z-2.157
N2270 X-0.634 Y9.272 Z-2.238
N2275 X-0.497 Y9.306 Z-2.324
N2280 X-0.357 Y9.345 Z-2.413
N2285 X-0.363 Y9.479 Z-2.334
N2290 X-0.372 Y9.61 Z-2.259
N2295 X-0.395 Y9.8 Z-2.152
N2300 X-0.423 Y9.985 Z-2.053
N2305 X-0.458 Y10.164 Z-1.962
N2310 X-0.502 Y10.338 Z-1.876
N2315 X-0.553 Y10.506 Z-1.799
N2320 X-0.61 Y10.669 Z-1.73
N2325 X-0.646 Y10.755 Z-1.693
N2330 X-0.683 Y10.839 Z-1.66
N2335 X-0.818 Y11.131 Z-1.545
N2340 X-1.044 Y11.594 Z-1.348
N2345 X-1.117 Y11.735 Z-1.282
N2350 X-1.276 Y12.072 Z-1.117
N2355 X-1.321 Y12.165 Z-1.066
N2360 X-1.396 Y12.327 Z-0.976
N2365 X-1.508 Y12.592 Z-0.823
N2370 X-1.559 Y12.705 Z-0.752
N2375 X-1.655 Y12.932 Z-0.608
N2380 X-1.758 Y13.19 Z-0.441
N2385 X-1.881 Y13.486 Z-0.236
N2390 X-2.012 Y13.821 Z0.
N2395 X-1.881 Y13.486 Z-0.236
N2400 X-1.758 Y13.19 Z-0.441
N2405 X-1.655 Y12.932 Z-0.608
N2410 X-1.559 Y12.705 Z-0.752
N2415 X-1.508 Y12.592 Z-0.823
N2420 X-1.396 Y12.327 Z-0.976
N2425 X-1.321 Y12.165 Z-1.066
N2430 X-1.276 Y12.072 Z-1.117
N2435 X-1.117 Y11.735 Z-1.282
N2440 X-1.044 Y11.594 Z-1.348
N2445 X-0.818 Y11.131 Z-1.545
N2450 X-0.683 Y10.839 Z-1.66
N2455 X-0.646 Y10.755 Z-1.693
N2460 X-0.61 Y10.669 Z-1.73
N2465 X-0.553 Y10.506 Z-1.799
N2470 X-0.502 Y10.338 Z-1.876
N2475 X-0.458 Y10.164 Z-1.962
N2480 X-0.423 Y9.985 Z-2.053
N2485 X-0.395 Y9.8 Z-2.152
N2490 X-0.372 Y9.61 Z-2.259
N2495 X-0.363 Y9.479 Z-2.334
N2500 X-0.357 Y9.345 Z-2.413
N2505 X-0.137 Y9.178 Z-2.346
N2510 X0.262 Y8.866 Z-2.217
N2515 X1.108 Y8.173 Z-1.932
N2520 X1.976 Y7.443 Z-1.633
N2525 X2.857 Y6.711 Z-1.337
N2530 X3.308 Y6.35 Z-1.192
N2535 X3.837 Y5.944 Z-1.033
N2540 X4.224 Y5.664 Z-0.92
N2545 X4.543 Y5.444 Z-0.836
N2550 X4.69 Y5.346 Z-0.796
N2555 X5.161 Y5.05 Z-0.68
N2560 X5.268 Y4.988 Z-0.658
N2565 X5.639 Y4.779 Z-0.576
N2570 X6.09 Y4.552 Z-0.486
N2575 X6.124 Y4.537 Z-0.48
N2580 X6.399 Y4.416 Z-0.434
N2585 X6.609 Y4.328 Z-0.396
N2590 X6.792 Y4.259 Z-0.371
N2595 X7.09 Y4.154 Z-0.325
N2600 X7.193 Y4.121 Z-0.313
N2605 X7.336 Y4.078 Z-0.292
N2610 X7.601 Y4.005 Z-0.262
N2615 X7.835 Y3.951 Z-0.234
N2620 X8.088 Y3.899 Z-0.209
N2625 X8.427 Y3.844 Z-0.178
N2630 X8.608 Y3.822 Z-0.161
N2635 X8.876 Y3.795 Z-0.14
N2640 X9.15 Y3.779 Z-0.118
N2645 X9.257 Y3.775 Z-0.112
N2650 X9.43 Y3.772 Z-0.098
N2655 X9.717 Y3.774 Z-0.079
N2660 X10.093 Y3.793 Z-0.055
N2665 X10.313 Y3.812 Z-0.039
N2670 X10.515 Y3.833 Z-0.028
N2675 X10.622 Y3.847 Z-0.02
N2680 X10.938 Y3.893 Z0.
N2685 Z5.
N2690 X-10.099 Y33.559
N2695 Z-0.001
N2700 X-10.091 Y33.543 Z-0.011
N2705 X-10.084 Y33.551 Z-0.001
N2710 X-10.091 Y33.543 Z-0.011
N2715 X-10.087 Y33.52 Z-0.02
N2720 X-10.067 Y33.445 Z-0.035
N2725 X-10.03 Y33.292 Z-0.055
N2730 X-9.985 Y33.114 Z-0.073
N2735 X-9.894 Y32.765 Z-0.099
N2740 X-9.774 Y32.325 Z-0.126
N2745 X-9.644 Y31.876 Z-0.148
N2750 X-9.51 Y31.43 Z-0.168
N2755 X-9.374 Y30.997 Z-0.185
N2760 X-9.217 Y30.518 Z-0.202
N2765 X-9.098 Y30.166 Z-0.212
N2770 X-8.865 Y29.504 Z-0.232
N2775 X-8.662 Y28.953 Z-0.247
N2780 X-8.517 Y28.57 Z-0.255
N2785 X-8.202 Y27.77 Z-0.273
N2790 X-7.849 Y26.923 Z-0.289
N2795 X-7.478 Y26.083 Z-0.304
N2800 X-7.091 Y25.251 Z-0.316
N2805 X-6.687 Y24.427 Z-0.328
N2810 X-6.266 Y23.611 Z-0.338
N2815 X-5.829 Y22.803 Z-0.347
N2820 X-5.375 Y22.004 Z-0.355
N2825 X-4.905 Y21.214 Z-0.362
N2830 X-4.419 Y20.434 Z-0.368
N2835 X-3.917 Y19.664 Z-0.373
N2840 X-3.4 Y18.905 Z-0.377
N2845 X-2.868 Y18.156 Z-0.38
N2850 X-2.32 Y17.419 Z-0.383
N2855 X-1.757 Y16.692 Z-0.385
N2860 X-1.179 Y15.977 Z-0.386
N2865 X-0.586 Y15.273 Z-0.387
N2870 X-0.354 Y15.006
N2875 X-0.044 Y14.656 Z-0.386
N2880 X0.628 Y13.921 Z-0.385
N2885 X1.236 Y13.284 Z-0.383
N2890 X1.856 Y12.66 Z-0.381
N2895 X2.487 Y12.048 Z-0.378
N2900 X3.13 Y11.45 Z-0.374
N2905 X3.785 Y10.863 Z-0.369
N2910 X4.451 Y10.29 Z-0.363
N2915 X5.129 Y9.73 Z-0.357
N2920 X5.817 Y9.183 Z-0.35
N2925 X6.516 Y8.649 Z-0.342
N2930 X7.226 Y8.128 Z-0.333
N2935 X7.946 Y7.621 Z-0.322
N2940 X8.674 Y7.13 Z-0.311
N2945 X9.412 Y6.652 Z-0.298
N2950 X10.159 Y6.189 Z-0.284
N2955 X10.916 Y5.74 Z-0.268
N2960 X11.34 Y5.496 Z-0.258
N2965 X11.75 Y5.267 Z-0.247
N2970 X12.149 Y5.048 Z-0.236
N2975 X12.54 Y4.838 Z-0.224
N2980 X13.102 Y4.546 Z-0.207
N2985 X13.305 Y4.442 Z-0.199
N2990 X13.85 Y4.173 Z-0.179
N2995 X14.069 Y4.067 Z-0.169
N3000 X14.516 Y3.856 Z-0.149
N3005 X14.818 Y3.717 Z-0.133
N3010 X15.034 Y3.62 Z-0.12
N3015 X15.206 Y3.544 Z-0.109
N3020 X15.506 Y3.414 Z-0.088
N3025 X15.723 Y3.322 Z-0.069
N3030 X15.845 Y3.272 Z-0.056
N3035 X15.982 Y3.215 Z-0.038
N3040 X16.045 Y3.189 Z-0.026
N3045 X16.076 Y3.176 Z-0.017
N3050 X16.077 Y3.175 Z-0.016
N3055 X16.102 Y3.163 Z-0.001
N3060 Z5.
N3065 X6.499 Y23.65
N3070 Z-0.001
N3075 X6.508 Y23.635 Z-0.012
N3080 X6.514 Y23.644 Z-0.001
N3085 X6.508 Y23.635 Z-0.012
N3090 X6.516 Y23.61 Z-0.022
N3095 X6.548 Y23.522 Z-0.04
N3100 X6.602 Y23.378 Z-0.059
N3105 X6.677 Y23.178 Z-0.079
N3110 X6.772 Y22.931 Z-0.099
N3115 X6.953 Y22.477 Z-0.129
N3120 X7.025 Y22.3 Z-0.139
N3125 X7.112 Y22.092 Z-0.15
N3130 X7.322 Y21.599 Z-0.172
N3135 X7.407 Y21.406 Z-0.182
N3140 X7.577 Y21.029 Z-0.197
N3145 X7.76 Y20.629 Z-0.211
N3150 X7.957 Y20.207 Z-0.223
N3155 X8.171 Y19.766 Z-0.236
N3160 X8.455 Y19.198 Z-0.252
N3165 X8.647 Y18.823 Z-0.261
N3170 X9.025 Y18.106 Z-0.277
N3175 X9.416 Y17.399 Z-0.291
N3180 X9.819 Y16.699 Z-0.304
N3185 X10.235 Y16.006 Z-0.316
N3190 X10.664 Y15.319 Z-0.326
N3195 X11.105 Y14.64 Z-0.336
N3200 X11.558 Y13.97 Z-0.344
N3205 X12.022 Y13.308 Z-0.352
N3210 X12.498 Y12.655 Z-0.358
N3215 X12.985 Y12.01 Z-0.364
N3220 X13.484 Y11.375 Z-0.369
N3225 X13.995 Y10.748 Z-0.374
N3230 X14.516 Y10.131 Z-0.378
N3235 X15.049 Y9.524 Z-0.381
N3240 X15.594 Y8.925 Z-0.383
N3245 X16.241 Y8.24 Z-0.385
N3250 X16.616 Y7.857 Z-0.386
N3255 X16.995 Y7.478
N3260 X17.379 Y7.104 Z-0.387
N3265 X17.476 Y7.011
N3270 X17.809 Y6.698 Z-0.385
N3275 X18.124 Y6.407 Z-0.388
N3280 X18.813 Y5.783 Z-0.385
N3285 X19.454 Y5.231
N3290 X19.848 Y4.9 Z-0.381
N3295 X20.136 Y4.664 Z-0.382
N3300 X20.91 Y4.045 Z-0.376
N3305 X21.534 Y3.57 Z-0.375
N3310 X22.001 Y3.222 Z-0.369
N3315 X22.248 Y3.044
N3320 X23.119 Y2.43 Z-0.36
N3325 X23.707 Y2.034 Z-0.357
N3330 X24.264 Y1.669 Z-0.348
N3335 X24.452 Y1.55
N3340 X25.207 Y1.08 Z-0.339
N3345 X25.437 Y0.941 Z-0.334
N3350 X25.972 Y0.626 Z-0.33
N3355 X26.744 Y0.185 Z-0.317
N3360 X27.525 Y-0.238 Z-0.306
N3365 X27.86 Y-0.415 Z-0.297
N3370 X28.314 Y-0.646 Z-0.292
N3375 X29.108 Y-1.041 Z-0.273
N3380 X29.605 Y-1.276 Z-0.262
N3385 X30.085 Y-1.498 Z-0.25
N3390 X30.548 Y-1.705 Z-0.238
N3395 X30.992 Y-1.898 Z-0.225
N3400 X31.658 Y-2.177 Z-0.202
N3405 X31.821 Y-2.243 Z-0.198
N3410 X32.466 Y-2.498 Z-0.172
N3415 X32.566 Y-2.536 Z-0.168
N3420 X32.905 Y-2.664 Z-0.153
N3425 X33.283 Y-2.802 Z-0.133
N3430 X33.647 Y-2.931 Z-0.111
N3435 X33.955 Y-3.036 Z-0.089
N3440 X34.203 Y-3.118 Z-0.068
N3445 X34.389 Y-3.178 Z-0.047
N3450 X34.51 Y-3.218 Z-0.026
N3455 X34.542 Y-3.228 Z-0.017
N3460 X34.543 Y-3.229
N3465 X34.57 Y-3.24 Z-0.001
N3470 Z5.
N3475 X20.901 Y9.756
N3480 Z0.
N3485 X21.142 Y9.757 Z-0.094
N3490 X21.261 Y9.752 Z-0.144
N3495 X21.421 Y9.743 Z-0.208
N3500 X21.616 Y9.726 Z-0.292
N3505 X21.732 Y9.713 Z-0.339
N3510 X21.96 Y9.683 Z-0.437
N3515 X22.293 Y9.627 Z-0.576
N3520 X22.614 Y9.56 Z-0.706
N3525 X22.92 Y9.485 Z-0.826
N3530 X23.191 Y9.409 Z-0.928
N3535 X23.499 Y9.312 Z-1.04
N3540 X23.78 Y9.214 Z-1.135
N3545 X23.987 Y9.136 Z-1.202
N3550 X24.321 Y9.002 Z-1.305
N3555 X24.58 Y8.892 Z-1.38
N3560 X25.132 Y8.643 Z-1.529
N3565 X25.626 Y8.41 Z-1.654
N3570 X25.816 Y8.324 Z-1.703
N3575 X25.935 Y8.277 Z-1.739
N3580 X26.057 Y8.233 Z-1.779
N3585 X26.212 Y8.184 Z-1.835
N3590 X26.372 Y8.142 Z-1.898
N3595 X26.536 Y8.105 Z-1.969
N3600 X26.705 Y8.074 Z-2.047
N3605 X26.878 Y8.049 Z-2.132
N3610 X27.056 Y8.029 Z-2.224
N3615 X27.233 Y8.018 Z-2.32
N3620 X27.415 Y8.013 Z-2.423
N3625 X27.601 Z-2.532
N3630 X27.792 Y8.019 Z-2.649
N3635 X27.986 Y8.03 Z-2.773
N3640 X28.097 Y7.928 Z-2.755
N3645 X28.771 Y7.33 Z-2.641
N3650 X29.135 Y7.02 Z-2.574
N3655 X29.424 Y6.779 Z-2.519
N3660 X29.754 Y6.512 Z-2.453
N3665 X30.084 Y6.256 Z-2.384
N3670 X30.415 Y6.008 Z-2.311
N3675 X30.75 Y5.769 Z-2.234
N3680 X31.087 Y5.54 Z-2.152
N3685 X31.426 Y5.322 Z-2.064
N3690 X31.767 Y5.115 Z-1.97
N3695 X32.112 Y4.921 Z-1.87
N3700 X32.504 Y4.718 Z-1.747
N3705 X32.953 Y4.503 Z-1.599
N3710 X33.076 Y4.438 Z-1.566
N3715 X33.194 Y4.369 Z-1.539
N3720 X33.308 Y4.296 Z-1.518
N3725 X33.419 Y4.218 Z-1.503
N3730 X33.525 Y4.135 Z-1.494
N3735 X33.628 Y4.048 Z-1.49
N3740 X33.734 Y3.949 Z-1.494
N3745 X33.841 Y3.841 Z-1.508
N3750 X33.944 Y3.728 Z-1.529
N3755 X34.041 Y3.608 Z-1.558
N3760 X34.133 Y3.483 Z-1.594
N3765 X34.221 Y3.351 Z-1.638
N3770 X34.329 Y3.169 Z-1.709
N3775 X34.407 Y3.025 Z-1.773
N3780 X34.48 Y2.875 Z-1.845
N3785 X34.549 Y2.719 Z-1.925
N3790 X34.613 Y2.557 Z-2.012
N3795 X34.672 Y2.388 Z-2.107
N3800 X34.748 Y2.137 Z-2.257
N3805 X34.797 Y1.958 Z-2.371
N3810 X34.842 Y1.773 Z-2.493
N3815 X34.882 Y1.582 Z-2.622
N3820 X34.719 Y1.527 Z-2.514
N3825 X34.558 Y1.478 Z-2.412
N3830 X34.399 Y1.434 Z-2.315
N3835 X34.243 Y1.396 Z-2.225
N3840 X34.06 Y1.358 Z-2.124
N3845 X33.881 Y1.328 Z-2.032
N3850 X33.704 Y1.306 Z-1.948
N3855 X33.53 Y1.291 Z-1.871
N3860 X33.359 Y1.283 Z-1.803
N3865 X33.223 Z-1.753
N3870 X33.09 Y1.288 Z-1.708
N3875 X32.958 Y1.297 Z-1.669
N3880 X32.83 Y1.311 Z-1.635
N3885 X32.703 Y1.33 Z-1.606
N3890 X32.535 Y1.363 Z-1.575
N3895 X32.175 Y1.444 Z-1.517
N3900 X31.865 Y1.505 Z-1.458
N3905 X31.514 Y1.561 Z-1.381
N3910 X31.277 Y1.593 Z-1.323
N3915 X30.981 Y1.624 Z-1.243
N3920 X30.682 Y1.647 Z-1.154
N3925 X30.376 Y1.661 Z-1.058
N3930 X30.064 Y1.667 Z-0.953
N3935 X29.744 Y1.665 Z-0.84
N3940 X29.415 Y1.654 Z-0.72
N3945 X29.247 Y1.645 Z-0.656
N3950 X28.955 Y1.625 Z-0.546
N3955 X28.676 Y1.599 Z-0.44
N3960 X28.412 Y1.567 Z-0.34
N3965 X28.165 Y1.533 Z-0.25
N3970 X27.939 Y1.496 Z-0.171
N3975 X27.73 Y1.453 Z-0.101
N3980 X27.538 Y1.406 Z-0.043
N3985 X27.368 Y1.355 Z0.
N3990 X27.538 Y1.406 Z-0.043
N3995 X27.73 Y1.453 Z-0.101
N4000 X27.939 Y1.496 Z-0.171
N4005 X28.165 Y1.533 Z-0.25
N4010 X28.412 Y1.567 Z-0.34
N4015 X28.676 Y1.599 Z-0.44
N4020 X28.955 Y1.625 Z-0.546
N4025 X29.247 Y1.645 Z-0.656
N4030 X29.415 Y1.654 Z-0.72
N4035 X29.744 Y1.665 Z-0.84
N4040 X30.064 Y1.667 Z-0.953
N4045 X30.376 Y1.661 Z-1.058
N4050 X30.682 Y1.647 Z-1.154
N4055 X30.981 Y1.624 Z-1.243
N4060 X31.277 Y1.593 Z-1.323
N4065 X31.514 Y1.561 Z-1.381
N4070 X31.865 Y1.505 Z-1.458
N4075 X32.175 Y1.444 Z-1.517
N4080 X32.535 Y1.363 Z-1.575
N4085 X32.703 Y1.33 Z-1.606
N4090 X32.83 Y1.311 Z-1.635
N4095 X32.958 Y1.297 Z-1.669
N4100 X33.09 Y1.288 Z-1.708
N4105 X33.223 Y1.283 Z-1.753
N4110 X33.359 Z-1.803
N4115 X33.53 Y1.291 Z-1.871
N4120 X33.704 Y1.306 Z-1.948
N4125 X33.881 Y1.328 Z-2.032
N4130 X34.06 Y1.358 Z-2.124
N4135 X34.243 Y1.396 Z-2.225
N4140 X34.399 Y1.434 Z-2.315
N4145 X34.558 Y1.478 Z-2.412
N4150 X34.719 Y1.527 Z-2.514
N4155 X34.882 Y1.582 Z-2.622
N4160 X35.292 Y1.36 Z-2.554
N4165 X35.36 Y1.324 Z-2.543
N4170 X35.871 Y1.06 Z-2.466
N4175 X36.233 Y0.877 Z-2.408
N4180 X36.649 Y0.674 Z-2.349
N4185 X37.113 Y0.455 Z-2.278
N4190 X37.459 Y0.296 Z-2.231
N4195 X38. Y0.057 Z-2.153
N4200 X38.302 Y-0.071 Z-2.114
N4205 X38.896 Y-0.315 Z-2.03
N4210 X39.175 Y-0.425 Z-1.995
N4215 X39.8 Y-0.66 Z-1.91
N4220 X40.079 Y-0.76 Z-1.876
N4225 X40.714 Y-0.978 Z-1.791
N4230 X40.995 Y-1.07 Z-1.758
N4235 X41.637 Y-1.268 Z-1.672
N4240 X41.918 Y-1.351 Z-1.64
N4245 X42.561 Y-1.528 Z-1.555
N4250 X42.85 Y-1.603 Z-1.521
N4255 X43.485 Y-1.756 Z-1.437
N4260 X43.79 Y-1.825 Z-1.402
N4265 X44.411 Y-1.953 Z-1.319
N4270 X44.741 Y-2.016 Z-1.28
N4275 X45.336 Y-2.119 Z-1.2
N4280 X45.703 Y-2.177 Z-1.156
N4285 X46.262 Y-2.255 Z-1.079
N4290 X46.675 Y-2.307 Z-1.028
N4295 X47.188 Y-2.361 Z-0.955
N4300 X47.652 Y-2.403 Z-0.896
N4305 X48.113 Y-2.436 Z-0.829
N4310 X48.632 Y-2.466 Z-0.761
N4315 X49.037 Y-2.482 Z-0.7
N4320 X49.618 Y-2.496 Z-0.621
N4325 X49.96 Y-2.498 Z-0.568
N4330 X50.61 Y-2.492 Z-0.476
N4335 X50.881 Y-2.485 Z-0.432
N4340 X51.609 Y-2.455 Z-0.324
N4345 X51.8 Y-2.443 Z-0.292
N4350 X52.714 Y-2.374 Z-0.149
N4355 X52.717 Z-0.148
N4360 X53.63 Y-2.277 Z0.
N4365 X52.717 Y-2.374 Z-0.148
N4370 X52.714 Z-0.149
N4375 X51.8 Y-2.443 Z-0.292
N4380 X51.609 Y-2.455 Z-0.324
N4385 X50.881 Y-2.485 Z-0.432
N4390 X50.61 Y-2.492 Z-0.476
N4395 X49.96 Y-2.498 Z-0.568
N4400 X49.618 Y-2.496 Z-0.621
N4405 X49.037 Y-2.482 Z-0.7
N4410 X48.632 Y-2.466 Z-0.761
N4415 X48.113 Y-2.436 Z-0.829
N4420 X47.652 Y-2.403 Z-0.896
N4425 X47.188 Y-2.361 Z-0.955
N4430 X46.675 Y-2.307 Z-1.028
N4435 X46.262 Y-2.255 Z-1.079
N4440 X45.703 Y-2.177 Z-1.156
N4445 X45.336 Y-2.119 Z-1.2
N4450 X44.741 Y-2.016 Z-1.28
N4455 X44.411 Y-1.953 Z-1.319
N4460 X43.79 Y-1.825 Z-1.402
N4465 X43.485 Y-1.756 Z-1.437
N4470 X42.85 Y-1.603 Z-1.521
N4475 X42.561 Y-1.528 Z-1.555
N4480 X41.918 Y-1.351 Z-1.64
N4485 X41.637 Y-1.268 Z-1.672
N4490 X40.995 Y-1.07 Z-1.758
N4495 X40.714 Y-0.978 Z-1.791
N4500 X40.079 Y-0.76 Z-1.876
N4505 X39.8 Y-0.66 Z-1.91
N4510 X39.175 Y-0.425 Z-1.995
N4515 X38.896 Y-0.315 Z-2.03
N4520 X38.302 Y-0.071 Z-2.114
N4525 X38. Y0.057 Z-2.153
N4530 X37.459 Y0.296 Z-2.231
N4535 X37.113 Y0.455 Z-2.278
N4540 X36.649 Y0.674 Z-2.349
N4545 X36.233 Y0.877 Z-2.408
N4550 X35.871 Y1.06 Z-2.466
N4555 X35.36 Y1.324 Z-2.543
N4560 X35.292 Y1.36 Z-2.554
N4565 X34.882 Y1.582 Z-2.622
N4570 X34.842 Y1.773 Z-2.493
N4575 X34.797 Y1.958 Z-2.371
N4580 X34.748 Y2.137 Z-2.257
N4585 X34.672 Y2.388 Z-2.107
N4590 X34.613 Y2.557 Z-2.012
N4595 X34.549 Y2.719 Z-1.925
N4600 X34.48 Y2.875 Z-1.845
N4605 X34.407 Y3.025 Z-1.773
N4610 X34.329 Y3.169 Z-1.709
N4615 X34.221 Y3.351 Z-1.638
N4620 X34.133 Y3.483 Z-1.594
N4625 X34.041 Y3.608 Z-1.558
N4630 X33.944 Y3.728 Z-1.529
N4635 X33.841 Y3.841 Z-1.508
N4640 X33.734 Y3.949 Z-1.494
N4645 X33.628 Y4.048 Z-1.49
N4650 X33.525 Y4.135 Z-1.494
N4655 X33.419 Y4.218 Z-1.503
N4660 X33.308 Y4.296 Z-1.518
N4665 X33.194 Y4.369 Z-1.539
N4670 X33.076 Y4.438 Z-1.566
N4675 X32.953 Y4.503 Z-1.599
N4680 X32.504 Y4.718 Z-1.747
N4685 X32.112 Y4.921 Z-1.87
N4690 X31.767 Y5.115 Z-1.97
N4695 X31.426 Y5.322 Z-2.064
N4700 X31.087 Y5.54 Z-2.152
N4705 X30.75 Y5.769 Z-2.234
N4710 X30.415 Y6.008 Z-2.311
N4715 X30.084 Y6.256 Z-2.384
N4720 X29.754 Y6.512 Z-2.453
N4725 X29.424 Y6.779 Z-2.519
N4730 X29.135 Y7.02 Z-2.574
N4735 X28.771 Y7.33 Z-2.641
N4740 X28.097 Y7.928 Z-2.755
N4745 X27.986 Y8.03 Z-2.773
N4750 X27.993 Y8.162 Z-2.685
N4755 X28. Y8.291 Z-2.603
N4760 X28.006 Y8.417 Z-2.527
N4765 X28.013 Y8.54 Z-2.456
N4770 X28.02 Y8.662 Z-2.391
N4775 X28.026 Y8.781 Z-2.331
N4780 X28.032 Y8.898 Z-2.276
N4785 X28.038 Y9.014 Z-2.228
N4790 X28.045 Y9.128 Z-2.184
N4795 X28.051 Y9.241 Z-2.147
N4800 X28.057 Y9.353 Z-2.115
N4805 X28.062 Y9.464 Z-2.089
N4810 X28.068 Y9.575 Z-2.068
N4815 X28.074 Y9.684 Z-2.054
N4820 X28.08 Y9.794 Z-2.045
N4825 X28.086 Y9.903 Z-2.042
N4830 X28.094 Y10.051 Z-2.048
N4835 X28.102 Y10.199 Z-2.064
N4840 X28.11 Y10.348 Z-2.09
N4845 X28.118 Y10.497 Z-2.127
N4850 X28.126 Y10.648 Z-2.174
N4855 X28.134 Y10.799 Z-2.231
N4860 X28.142 Y10.952 Z-2.297
N4865 X28.15 Y11.107 Z-2.372
N4870 X28.159 Y11.264 Z-2.455
N4875 X28.167 Y11.423 Z-2.547
N4880 X28.176 Y11.585 Z-2.647
N4885 X28.185 Y11.749 Z-2.755
N4890 X28.194 Y11.917 Z-2.87
N4895 X28.203 Y12.088 Z-2.993
N4900 X28.212 Y12.262 Z-3.123
N4905 X28.222 Y12.441 Z-3.261
N4910 X28.093 Y12.523 Z-3.239
N4915 X27.557 Y12.842 Z-3.148
N4920 X27.049 Y13.153 Z-3.043
N4925 X26.62 Y13.427 Z-2.941
N4930 X26.16 Y13.738 Z-2.815
N4935 X25.902 Y13.922 Z-2.735
N4940 X25.756 Y14.031 Z-2.689
N4945 X25.554 Y14.188 Z-2.62
N4950 X25.3 Y14.395 Z-2.524
N4955 X25.167 Y14.509 Z-2.472
N4960 X24.982 Y14.676 Z-2.395
N4965 X24.8 Y14.847 Z-2.312
N4970 X24.625 Y15.022 Z-2.227
N4975 X24.457 Y15.203 Z-2.139
N4980 X24.291 Y15.39 Z-2.046
N4985 X24.097 Y15.624 Z-1.924
N4990 X23.97 Y15.79 Z-1.84
N4995 X23.813 Y16.008 Z-1.727
N5000 X23.632 Y16.281 Z-1.584
N5005 X23.504 Y16.491 Z-1.475
N5010 X23.354 Y16.756 Z-1.335
N5015 X23.18 Y17.095 Z-1.157
N5020 X23.07 Y17.331 Z-1.034
N5025 X23.002 Y17.486 Z-0.952
N5030 X22.938 Y17.641 Z-0.873
N5035 X22.847 Y17.874 Z-0.751
N5040 X22.813 Y17.966 Z-0.706
N5045 X22.696 Y18.305 Z-0.533
N5050 X22.59 Y18.657 Z-0.356
N5055 X22.495 Y19.02 Z-0.178
N5060 X22.413 Y19.391 Z0.
N5065 X22.495 Y19.02 Z-0.178
N5070 X22.59 Y18.657 Z-0.356
N5075 X22.696 Y18.305 Z-0.533
N5080 X22.813 Y17.966 Z-0.706
N5085 X22.847 Y17.874 Z-0.751
N5090 X22.938 Y17.641 Z-0.873
N5095 X23.002 Y17.486 Z-0.952
N5100 X23.07 Y17.331 Z-1.034
N5105 X23.18 Y17.095 Z-1.157
N5110 X23.354 Y16.756 Z-1.335
N5115 X23.504 Y16.491 Z-1.475
N5120 X23.632 Y16.281 Z-1.584
N5125 X23.813 Y16.008 Z-1.727
N5130 X23.97 Y15.79 Z-1.84
N5135 X24.097 Y15.624 Z-1.924
N5140 X24.291 Y15.39 Z-2.046
N5145 X24.457 Y15.203 Z-2.139
N5150 X24.625 Y15.022 Z-2.227
N5155 X24.8 Y14.847 Z-2.312
N5160 X24.982 Y14.676 Z-2.395
N5165 X25.167 Y14.509 Z-2.472
N5170 X25.3 Y14.395 Z-2.524
N5175 X25.554 Y14.188 Z-2.62
N5180 X25.756 Y14.031 Z-2.689
N5185 X25.902 Y13.922 Z-2.735
N5190 X26.16 Y13.738 Z-2.815
N5195 X26.62 Y13.427 Z-2.941
N5200 X27.049 Y13.153 Z-3.043
N5205 X27.557 Y12.842 Z-3.148
N5210 X28.093 Y12.523 Z-3.239
N5215 X28.222 Y12.441 Z-3.261
N5220 X28.441 Y12.459 Z-3.153
N5225 X28.657 Y12.471 Z-3.053
N5230 X28.853 Y12.47 Z-2.963
N5235 X29.046 Y12.464 Z-2.88
N5240 X29.236 Y12.452 Z-2.803
N5245 X29.354 Y12.439 Z-2.755
N5250 X29.47 Y12.424 Z-2.71
N5255 X29.593 Y12.403 Z-2.663
N5260 X29.715 Y12.379 Z-2.618
N5265 X29.832 Y12.352 Z-2.574
N5270 X29.948 Y12.321 Z-2.534
N5275 X30.089 Y12.278 Z-2.484
N5280 X30.228 Y12.23 Z-2.439
N5285 X30.322 Y12.197 Z-2.411
N5290 X30.412 Y12.165 Z-2.388
N5295 X30.499 Y12.134 Z-2.37
N5300 X30.583 Y12.104 Z-2.355
N5305 X30.666 Y12.074 Z-2.344
N5310 X30.748 Y12.045 Z-2.336
N5315 X30.828 Y12.016 Z-2.331
N5320 X30.908 Y11.988 Z-2.329
N5325 X31.01 Y11.951 Z-2.332
N5330 X31.155 Y11.902 Z-2.342
N5335 X31.302 Y11.858 Z-2.356
N5340 X31.45 Y11.818 Z-2.376
N5345 X31.601 Y11.783 Z-2.4
N5350 X31.757 Y11.752 Z-2.431
N5355 X31.914 Y11.726 Z-2.466
N5360 X32.073 Y11.704 Z-2.507
N5365 X32.234 Y11.688 Z-2.553
N5370 X32.433 Y11.674 Z-2.616
N5375 X32.625 Y11.667 Z-2.683
N5380 X32.82 Y11.666 Z-2.757
N5385 X33.018 Y11.672 Z-2.839
N5390 X33.219 Y11.685 Z-2.927
N5395 X33.422 Y11.704 Z-3.023
N5400 X33.628 Y11.73 Z-3.125
N5405 X33.856 Y11.764 Z-3.246
N5410 X34.053 Y11.799 Z-3.356
N5415 X34.061 Y12.067 Z-3.176
N5420 X34.055 Y12.285 Z-3.031
N5425 X34.035 Y12.508 Z-2.88
N5430 X34.015 Y12.649 Z-2.784
N5435 X33.992 Y12.788 Z-2.691
N5440 X33.959 Y12.951 Z-2.581
N5445 X33.923 Y13.11 Z-2.476
N5450 X33.867 Y13.311 Z-2.344
N5455 X33.806 Y13.505 Z-2.221
N5460 X33.741 Y13.691 Z-2.108
N5465 X33.66 Y13.891 Z-1.991
N5470 X33.592 Y14.046 Z-1.906
N5475 X33.519 Y14.195 Z-1.828
N5480 X33.442 Y14.338 Z-1.758
N5485 X33.36 Y14.475 Z-1.695
N5490 X33.256 Y14.644 Z-1.621
N5495 X33.19 Y14.765 Z-1.567
N5500 X33.121 Y14.903 Z-1.502
N5505 X33.05 Y15.061 Z-1.424
N5510 X32.98 Y15.239 Z-1.337
N5515 X32.909 Y15.435 Z-1.237
N5520 X32.844 Y15.648 Z-1.13
N5525 X32.776 Y15.893 Z-1.004
N5530 X32.758 Y15.971 Z-0.964
N5535 X32.663 Y16.427 Z-0.737
N5540 X32.599 Y16.871 Z-0.525
N5545 X32.594 Y16.922 Z-0.502
N5550 X32.563 Y17.295 Z-0.33
N5555 X32.553 Y17.496 Z-0.244
N5560 X32.547 Y17.696 Z-0.157
N5565 X32.549 Y18.081 Z-0.001
N5570 X32.547 Y17.696 Z-0.157
N5575 X32.553 Y17.496 Z-0.244
N5580 X32.563 Y17.295 Z-0.33
N5585 X32.594 Y16.922 Z-0.502
N5590 X32.599 Y16.871 Z-0.525
N5595 X32.663 Y16.427 Z-0.737
N5600 X32.758 Y15.971 Z-0.964
N5605 X32.776 Y15.893 Z-1.004
N5610 X32.844 Y15.648 Z-1.13
N5615 X32.909 Y15.435 Z-1.237
N5620 X32.98 Y15.239 Z-1.337
N5625 X33.05 Y15.061 Z-1.424
N5630 X33.121 Y14.903 Z-1.502
N5635 X33.19 Y14.765 Z-1.567
N5640 X33.256 Y14.644 Z-1.621
N5645 X33.36 Y14.475 Z-1.695
N5650 X33.442 Y14.338 Z-1.758
N5655 X33.519 Y14.195 Z-1.828
N5660 X33.592 Y14.046 Z-1.906
N5665 X33.66 Y13.891 Z-1.991
N5670 X33.741 Y13.691 Z-2.108
N5675 X33.806 Y13.505 Z-2.221
N5680 X33.867 Y13.311 Z-2.344
N5685 X33.923 Y13.11 Z-2.476
N5690 X33.959 Y12.951 Z-2.581
N5695 X33.992 Y12.788 Z-2.691
N5700 X34.015 Y12.649 Z-2.784
N5705 X34.035 Y12.508 Z-2.88
N5710 X34.055 Y12.285 Z-3.031
N5715 X34.061 Y12.067 Z-3.176
N5720 X34.053 Y11.799 Z-3.356
N5725 X34.081 Y11.779 Z-3.348
N5730 X34.309 Y11.605 Z-3.277
N5735 X34.548 Y11.417 Z-3.198
N5740 X34.857 Y11.167 Z-3.089
N5745 X35.339 Y10.76 Z-2.912
N5750 X35.915 Y10.257 Z-2.688
N5755 X36.922 Y9.344 Z-2.29
N5760 X37.434 Y8.87 Z-2.093
N5765 X37.942 Y8.394 Z-1.903
N5770 X38.485 Y7.884 Z-1.711
N5775 X38.596 Y7.782 Z-1.677
N5780 X38.71 Y7.687 Z-1.65
N5785 X38.828 Y7.597 Z-1.629
N5790 X38.977 Y7.493 Z-1.612
N5795 X39.048 Y7.447 Z-1.609
N5800 X39.12 Y7.404 Z-1.608
N5805 X39.256 Y7.328 Z-1.612
N5810 X39.395 Y7.258 Z-1.623
N5815 X39.574 Y7.181 Z-1.648
N5820 X39.725 Y7.123 Z-1.678
N5825 X39.879 Y7.072 Z-1.717
N5830 X40.038 Y7.028 Z-1.763
N5835 X40.252 Y6.979 Z-1.836
N5840 X40.424 Y6.947 Z-1.904
N5845 X40.6 Y6.921 Z-1.98
N5850 X40.781 Y6.903 Z-2.065
N5855 X40.967 Y6.891 Z-2.157
N5860 X41.157 Y6.887 Z-2.258
N5865 X41.351 Y6.889 Z-2.367
N5870 X41.629 Y6.902 Z-2.532
N5875 X41.796 Y6.914 Z-2.638
N5880 X41.816 Y7.094 Z-2.529
N5885 X41.831 Y7.271 Z-2.426
N5890 X41.838 Y7.442 Z-2.328
N5895 X41.839 Y7.611 Z-2.236
N5900 X41.835 Y7.775 Z-2.15
N5905 X41.826 Y7.937 Z-2.07
N5910 X41.808 Y8.098 Z-1.993
N5915 X41.785 Y8.256 Z-1.921
N5920 X41.756 Y8.41 Z-1.856
N5925 X41.722 Y8.56 Z-1.798
N5930 X41.695 Y8.654 Z-1.762
N5935 X41.546 Y9.155 Z-1.575
N5940 X41.472 Y9.381 Z-1.484
N5945 X41.37 Y9.706 Z-1.35
N5950 X41.35 Y9.779 Z-1.318
N5955 X41.256 Y10.093 Z-1.173
N5960 X41.224 Y10.204 Z-1.118
N5965 X41.163 Y10.436 Z-0.998
N5970 X41.123 Y10.591 Z-0.914
N5975 X41.069 Y10.817 Z-0.788
N5980 X41.011 Y11.072 Z-0.637
N5985 X40.986 Y11.194 Z-0.564
N5990 X40.948 Y11.362 Z-0.46
N5995 X40.881 Y11.692 Z-0.249
N6000 X40.808 Y12.067 Z-0.001
N6005 X40.881 Y11.692 Z-0.249
N6010 X40.948 Y11.362 Z-0.46
N6015 X40.986 Y11.194 Z-0.564
N6020 X41.011 Y11.072 Z-0.637
N6025 X41.069 Y10.817 Z-0.788
N6030 X41.123 Y10.591 Z-0.914
N6035 X41.163 Y10.436 Z-0.998
N6040 X41.224 Y10.204 Z-1.118
N6045 X41.256 Y10.093 Z-1.173
N6050 X41.35 Y9.779 Z-1.318
N6055 X41.37 Y9.706 Z-1.35
N6060 X41.472 Y9.381 Z-1.484
N6065 X41.546 Y9.155 Z-1.575
N6070 X41.695 Y8.654 Z-1.762
N6075 X41.722 Y8.56 Z-1.798
N6080 X41.756 Y8.41 Z-1.856
N6085 X41.785 Y8.256 Z-1.921
N6090 X41.808 Y8.098 Z-1.993
N6095 X41.826 Y7.937 Z-2.07
N6100 X41.835 Y7.775 Z-2.15
N6105 X41.839 Y7.611 Z-2.236
N6110 X41.838 Y7.442 Z-2.328
N6115 X41.831 Y7.271 Z-2.426
N6120 X41.816 Y7.094 Z-2.529
N6125 X41.796 Y6.914 Z-2.638
N6130 X41.987 Y6.708 Z-2.579
N6135 X42.474 Y6.166 Z-2.412
N6140 X42.773 Y5.822 Z-2.308
N6145 X43.253 Y5.253 Z-2.129
N6150 X43.584 Y4.857 Z-2.008
N6155 X44.406 Y3.859 Z-1.697
N6160 X44.672 Y3.541 Z-1.6
N6165 X45.239 Y2.864 Z-1.392
N6170 X45.362 Y2.721 Z-1.35
N6175 X45.668 Y2.37 Z-1.243
N6180 X46.103 Y1.886 Z-1.1
N6185 X46.547 Y1.416 Z-0.963
N6190 X46.753 Y1.207 Z-0.906
N6195 X47.001 Y0.964 Z-0.834
N6200 X47.479 Y0.515 Z-0.714
N6205 X47.938 Y0.122 Z-0.608
N6210 X48.244 Y-0.12 Z-0.548
N6215 X48.422 Y-0.257 Z-0.511
N6220 X48.645 Y-0.417 Z-0.474
N6225 X48.91 Y-0.601 Z-0.426
N6230 X49.149 Y-0.757 Z-0.389
N6235 X49.161 Y-0.765 Z-0.387
N6240 X49.481 Y-0.958 Z-0.343
N6245 X49.676 Y-1.067 Z-0.316
N6250 X49.939 Y-1.208 Z-0.285
N6255 X50.209 Y-1.34 Z-0.255
N6260 X50.364 Y-1.413 Z-0.24
N6265 X50.483 Y-1.465 Z-0.227
N6270 X50.818 Y-1.604 Z-0.197
N6275 X51.054 Y-1.692 Z-0.176
N6280 X51.35 Y-1.794 Z-0.153
N6285 X51.746 Y-1.914 Z-0.125
N6290 X51.97 Y-1.972 Z-0.108
N6295 X52.294 Y-2.049 Z-0.087
N6300 X52.703 Y-2.129 Z-0.063
N6305 X52.972 Y-2.172 Z-0.044
N6310 X53.194 Y-2.203 Z-0.032
N6315 X53.328 Y-2.218 Z-0.022
N6320 X53.693 Y-2.255 Z0.
N6325 Z5.
N6330 X47.445 Y22.328
N6335 Z0.
N6340 X47.457 Y22.309 Z-0.003
N6345 Z5.
N6350 X29.39 Y33.718
N6355 Z0.
N6360 X29.749 Y33.712 Z-0.15
N6365 X30.12 Y33.704 Z-0.321
N6370 X30.505 Y33.694 Z-0.511
N6375 X30.902 Y33.681 Z-0.719
N6380 X31.055 Y33.674 Z-0.803
N6385 X31.707 Y33.653 Z-1.171
N6390 X31.939 Y33.642 Z-1.306
N6395 X32.544 Y33.622 Z-1.667
N6400 X33.334 Y33.594 Z-2.145
N6405 X34.02 Y33.575 Z-2.555
N6410 X34.488 Y33.571 Z-2.827
N6415 X34.615 Y33.568 Z-2.899
N6420 X34.816 Y33.569 Z-3.009
N6425 X35.008 Y33.573 Z-3.11
N6430 X35.146 Y33.58 Z-3.18
N6435 X35.3 Y33.588 Z-3.252
N6440 X35.382 Y33.595 Z-3.288
N6445 X35.506 Y33.607 Z-3.337
N6450 X35.595 Y33.62 Z-3.369
N6455 X35.684 Y33.634 Z-3.397
N6460 X35.783 Y33.653 Z-3.424
N6465 X35.903 Y33.678 Z-3.45
N6470 X36.045 Y33.711 Z-3.473
N6475 X36.19 Y33.744 Z-3.486
N6480 X36.297 Y33.767 Z-3.49
N6485 X36.398 Y33.786 Z-3.489
N6490 X36.501 Y33.803 Z-3.483
N6495 X36.614 Y33.82 Z-3.471
N6500 X36.744 Y33.836 Z-3.45
N6505 X36.9 Y33.853 Z-3.418
N6510 X37.091 Y33.869 Z-3.37
N6515 X37.322 Y33.884 Z-3.302
N6520 X37.603 Y33.897 Z-3.208
N6525 X37.863 Y33.906 Z-3.11
N6530 X38.122 Y33.915 Z-3.007
N6535 X38.338 Y33.92 Z-2.916
N6540 X38.562 Y33.921 Z-2.819
N6545 X38.697 Y33.917 Z-2.763
N6550 X38.831 Y33.91 Z-2.71
N6555 X38.955 Y33.902 Z-2.664
N6560 X39.079 Y33.894 Z-2.624
N6565 X39.205 Y33.885 Z-2.588
N6570 X39.332 Y33.877 Z-2.558
N6575 X39.462 Y33.869 Z-2.534
N6580 X39.596 Y33.86 Z-2.515
N6585 X39.733 Y33.851 Z-2.504
N6590 X39.875 Y33.842 Z-2.5
N6595 X40.03 Y33.831 Z-2.504
N6600 X40.184 Y33.821 Z-2.519
N6605 X40.34 Y33.811 Z-2.543
N6610 X40.496 Y33.801 Z-2.576
N6615 X40.652 Y33.791 Z-2.618
N6620 X40.81 Y33.78 Z-2.67
N6625 X40.969 Y33.77 Z-2.73
N6630 X41.13 Y33.759 Z-2.798
N6635 X41.292 Y33.749 Z-2.875
N6640 X41.457 Y33.738 Z-2.96
N6645 X41.623 Y33.727 Z-3.053
N6650 X41.792 Y33.716 Z-3.153
N6655 X41.964 Y33.705 Z-3.261
N6660 X42.139 Y33.693 Z-3.376
N6665 X42.316 Y33.682 Z-3.498
N6670 X42.498 Y33.67 Z-3.627
N6675 X42.473 Y33.487 Z-3.493
N6680 X42.449 Y33.307 Z-3.366
N6685 X42.425 Y33.13 Z-3.247
N6690 X42.402 Y32.957 Z-3.135
N6695 X42.379 Y32.786 Z-3.03
N6700 X42.356 Y32.618 Z-2.934
N6705 X42.334 Y32.452 Z-2.845
N6710 X42.312 Y32.288 Z-2.765
N6715 X42.29 Y32.125 Z-2.693
N6720 X42.269 Y31.965 Z-2.63
N6725 X42.247 Y31.805 Z-2.576
N6730 X42.226 Y31.647 Z-2.532
N6735 X42.205 Y31.49 Z-2.497
N6740 X42.184 Y31.333 Z-2.472
N6745 X42.163 Y31.177 Z-2.457
N6750 X42.142 Y31.021 Z-2.452
N6755 X42.121 Y30.869 Z-2.457
N6760 X42.102 Y30.721 Z-2.47
N6765 X42.082 Y30.579 Z-2.492
N6770 X42.064 Y30.439 Z-2.521
N6775 X42.045 Y30.302 Z-2.557
N6780 X42.027 Y30.168 Z-2.599
N6785 X42.009 Y30.035 Z-2.646
N6790 X41.992 Y29.902 Z-2.699
N6795 X41.961 Y29.701 Z-2.787
N6800 X41.924 Y29.499 Z-2.883
N6805 X41.879 Y29.293 Z-2.986
N6810 X41.845 Y29.16 Z-3.055
N6815 X41.807 Y29.026 Z-3.127
N6820 X41.717 Y28.714 Z-3.298
N6825 X41.649 Y28.488 Z-3.421
N6830 X41.508 Y28.014 Z-3.671
N6835 X41.376 Y27.575 Z-3.894
N6840 X41.241 Y27.131 Z-4.11
N6845 X41.099 Y26.674 Z-4.32
N6850 X41.029 Y26.456 Z-4.416
N6855 X40.968 Y26.261 Z-4.498
N6860 X40.928 Y26.143 Z-4.546
N6865 X40.835 Y25.859 Z-4.657
N6870 X40.734 Y25.557 Z-4.764
N6875 X40.633 Y25.27 Z-4.853
N6880 X40.592 Y25.161 Z-4.883
N6885 X40.524 Y24.972 Z-4.931
N6890 X40.465 Y24.821 Z-4.961
N6895 X40.43 Y24.735 Z-4.975
N6900 X40.397 Y24.657 Z-4.986
N6905 X40.336 Y24.519 Z-4.998
N6910 X40.277 Y24.393 Z-5.001
N6915 X40.212 Y24.263 Z-4.995
N6920 X40.154 Y24.151 Z-4.981
N6925 X40.118 Y24.082 Z-4.97
N6930 X40.059 Y23.966 Z-4.944
N6935 X40.031 Y23.91 Z-4.928
N6940 X39.968 Y23.774 Z-4.882
N6945 X39.923 Y23.662 Z-4.84
N6950 X39.881 Y23.56 Z-4.795
N6955 X39.827 Y23.411 Z-4.726
N6960 X39.8 Y23.332 Z-4.688
N6965 X39.759 Y23.217 Z-4.628
N6970 X39.662 Y22.917 Z-4.466
N6975 X39.577 Y22.655 Z-4.316
N6980 X39.463 Y22.282 Z-4.094
N6985 X39.327 Y21.829 Z-3.816
N6990 X39.133 Y21.172 Z-3.399
N6995 X38.699 Y19.699 Z-2.454
N7000 X38.472 Y18.921 Z-1.961
N7005 X38.259 Y18.202 Z-1.518
N7010 X38.244 Y18.151 Z-1.487
N7015 X38.107 Y17.684 Z-1.21
N7020 X38.02 Y17.401 Z-1.045
N7025 X37.923 Y17.067 Z-0.858
N7030 X37.802 Y16.679 Z-0.646
N7035 X37.742 Y16.47 Z-0.537
N7040 X37.594 Y15.993 Z-0.296
N7045 X37.566 Y15.896 Z-0.25
N7050 X37.394 Y15.344 Z0.
N7055 X37.566 Y15.896 Z-0.25
N7060 X37.594 Y15.993 Z-0.296
N7065 X37.742 Y16.47 Z-0.537
N7070 X37.802 Y16.679 Z-0.646
N7075 X37.923 Y17.067 Z-0.858
N7080 X38.02 Y17.401 Z-1.045
N7085 X38.107 Y17.684 Z-1.21
N7090 X38.244 Y18.151 Z-1.487
N7095 X38.259 Y18.202 Z-1.518
N7100 X38.472 Y18.921 Z-1.961
N7105 X38.699 Y19.699 Z-2.454
N7110 X39.133 Y21.172 Z-3.399
N7115 X39.327 Y21.829 Z-3.816
N7120 X39.463 Y22.282 Z-4.094
N7125 X39.577 Y22.655 Z-4.316
N7130 X39.662 Y22.917 Z-4.466
N7135 X39.759 Y23.217 Z-4.628
N7140 X39.8 Y23.332 Z-4.688
N7145 X39.827 Y23.411 Z-4.726
N7150 X39.881 Y23.56 Z-4.795
N7155 X39.923 Y23.662 Z-4.84
N7160 X39.968 Y23.774 Z-4.882
N7165 X40.031 Y23.91 Z-4.928
N7170 X40.059 Y23.966 Z-4.944
N7175 X40.118 Y24.082 Z-4.97
N7180 X40.154 Y24.151 Z-4.981
N7185 X40.212 Y24.263 Z-4.995
N7190 X40.277 Y24.393 Z-5.001
N7195 X40.336 Y24.519 Z-4.998
N7200 X40.397 Y24.657 Z-4.986
N7205 X40.43 Y24.735 Z-4.975
N7210 X40.465 Y24.821 Z-4.961
N7215 X40.524 Y24.972 Z-4.931
N7220 X40.592 Y25.161 Z-4.883
N7225 X40.633 Y25.27 Z-4.853
N7230 X40.734 Y25.557 Z-4.764
N7235 X40.835 Y25.859 Z-4.657
N7240 X40.928 Y26.143 Z-4.546
N7245 X40.968 Y26.261 Z-4.498
N7250 X41.029 Y26.456 Z-4.416
N7255 X41.099 Y26.674 Z-4.32
N7260 X41.241 Y27.131 Z-4.11
N7265 X41.376 Y27.575 Z-3.894
N7270 X41.508 Y28.014 Z-3.671
N7275 X41.649 Y28.488 Z-3.421
N7280 X41.717 Y28.714 Z-3.298
N7285 X41.807 Y29.026 Z-3.127
N7290 X41.845 Y29.16 Z-3.055
N7295 X41.879 Y29.293 Z-2.986
N7300 X41.924 Y29.499 Z-2.883
N7305 X41.961 Y29.701 Z-2.787
N7310 X41.992 Y29.902 Z-2.699
N7315 X42.009 Y30.035 Z-2.646
N7320 X42.027 Y30.168 Z-2.599
N7325 X42.045 Y30.302 Z-2.557
N7330 X42.064 Y30.439 Z-2.521
N7335 X42.082 Y30.579 Z-2.492
N7340 X42.102 Y30.721 Z-2.47
N7345 X42.121 Y30.869 Z-2.457
N7350 X42.142 Y31.021 Z-2.452
N7355 X42.163 Y31.177 Z-2.457
N7360 X42.184 Y31.333 Z-2.472
N7365 X42.205 Y31.49 Z-2.497
N7370 X42.226 Y31.647 Z-2.532
N7375 X42.247 Y31.805 Z-2.576
N7380 X42.269 Y31.965 Z-2.63
N7385 X42.29 Y32.125 Z-2.693
N7390 X42.312 Y32.288 Z-2.765
N7395 X42.334 Y32.452 Z-2.845
N7400 X42.356 Y32.618 Z-2.934
N7405 X42.379 Y32.786 Z-3.03
N7410 X42.402 Y32.957 Z-3.135
N7415 X42.425 Y33.13 Z-3.247
N7420 X42.449 Y33.307 Z-3.366
N7425 X42.473 Y33.487 Z-3.493
N7430 X42.498 Y33.67 Z-3.627
N7435 X42.641 Y33.786 Z-3.644
N7440 X42.786 Y33.902 Z-3.671
N7445 X42.932 Y34.019 Z-3.707
N7450 X43.079 Y34.137 Z-3.752
N7455 X43.229 Y34.257 Z-3.808
N7460 X43.381 Y34.38 Z-3.873
N7465 X43.537 Y34.505 Z-3.949
N7470 X43.697 Y34.634 Z-4.036
N7475 X43.632 Y34.817 Z-3.902
N7480 X43.568 Y34.996 Z-3.776
N7485 X43.505 Y35.172 Z-3.657
N7490 X43.443 Y35.346 Z-3.546
N7495 X43.381 Y35.517 Z-3.442
N7500 X43.321 Y35.687 Z-3.346
N7505 X43.261 Y35.854 Z-3.259
N7510 X43.202 Y36.019 Z-3.18
N7515 X43.143 Y36.183 Z-3.109
N7520 X43.085 Y36.346 Z-3.047
N7525 X43.027 Y36.507 Z-2.994
N7530 X42.97 Y36.668 Z-2.951
N7535 X42.913 Y36.827 Z-2.917
N7540 X42.856 Y36.986 Z-2.892
N7545 X42.799 Y37.145 Z-2.877
N7550 X42.743 Y37.303 Z-2.872
N7555 X42.707 Y37.403 Z-2.874
N7560 X42.672 Y37.501 Z-2.88
N7565 X42.637 Y37.598 Z-2.889
N7570 X42.603 Y37.693 Z-2.902
N7575 X42.57 Y37.787 Z-2.918
N7580 X42.536 Y37.88 Z-2.937
N7585 X42.503 Y37.973 Z-2.959
N7590 X42.471 Y38.064 Z-2.984
N7595 X42.406 Y38.244 Z-3.041
N7600 X42.342 Y38.422 Z-3.109
N7605 X42.279 Y38.599 Z-3.185
N7610 X42.216 Y38.775 Z-3.27
N7615 X42.157 Y38.948 Z-3.36
N7620 X42.079 Y39.194 Z-3.485
N7625 X42.04 Y39.331 Z-3.551
N7630 X42.007 Y39.45 Z-3.603
N7635 X41.986 Y39.533 Z-3.637
N7640 X41.981 Y39.558 Z-3.646
N7645 X41.985 Y39.584
N7650 X41.998 Y39.66 Z-3.642
N7655 X42.021 Y39.78 Z-3.633
N7660 X42.051 Y39.936 Z-3.613
N7665 X42.084 Y40.121 Z-3.58
N7670 X42.047 Y40.243 Z-3.5
N7675 X41.986 Y40.429 Z-3.373
N7680 X41.912 Y40.652 Z-3.216
N7685 X41.681 Y41.317 Z-2.734
N7690 X41.399 Y42.112 Z-2.145
N7695 X41.086 Y42.997 Z-1.499
N7700 X40.795 Y43.835 Z-0.913
N7705 X40.653 Y44.245 Z-0.641
N7710 X40.521 Y44.634 Z-0.398
N7715 X40.399 Y45.001 Z-0.184
N7720 X40.286 Y45.343 Z-0.001
N7725 X40.399 Y45.001 Z-0.184
N7730 X40.521 Y44.634 Z-0.398
N7735 X40.653 Y44.245 Z-0.641
N7740 X40.795 Y43.835 Z-0.913
N7745 X41.086 Y42.997 Z-1.499
N7750 X41.399 Y42.112 Z-2.145
N7755 X41.681 Y41.317 Z-2.734
N7760 X41.912 Y40.652 Z-3.216
N7765 X41.986 Y40.429 Z-3.373
N7770 X42.047 Y40.243 Z-3.5
N7775 X42.084 Y40.121 Z-3.58
N7780 X42.134 Y40.148 Z-3.528
N7785 X42.387 Y40.29 Z-3.258
N7790 X42.397 Y40.296 Z-3.247
N7795 X42.564 Y40.391 Z-3.059
N7800 X42.397 Y40.296 Z-3.247
N7805 X42.387 Y40.29 Z-3.258
N7810 X42.134 Y40.148 Z-3.528
N7815 X42.084 Y40.121 Z-3.58
N7820 X42.051 Y39.936 Z-3.613
N7825 X42.021 Y39.78 Z-3.633
N7830 X41.998 Y39.66 Z-3.642
N7835 X41.985 Y39.584 Z-3.646
N7840 X41.981 Y39.558
N7845 X41.781 Y39.515 Z-3.453
N7850 X41.662 Y39.491 Z-3.334
N7855 X41.609 Y39.481 Z-3.281
N7860 X41.662 Y39.491 Z-3.334
N7865 X41.781 Y39.515 Z-3.453
N7870 X41.981 Y39.558 Z-3.646
N7875 X41.986 Y39.533 Z-3.637
N7880 X42.007 Y39.45 Z-3.603
N7885 X42.04 Y39.331 Z-3.551
N7890 X42.079 Y39.194 Z-3.485
N7895 X42.157 Y38.948 Z-3.36
N7900 X42.216 Y38.775 Z-3.27
N7905 X42.279 Y38.599 Z-3.185
N7910 X42.342 Y38.422 Z-3.109
N7915 X42.406 Y38.244 Z-3.041
N7920 X42.471 Y38.064 Z-2.984
N7925 X42.503 Y37.973 Z-2.959
N7930 X42.536 Y37.88 Z-2.937
N7935 X42.57 Y37.787 Z-2.918
N7940 X42.603 Y37.693 Z-2.902
N7945 X42.637 Y37.598 Z-2.889
N7950 X42.672 Y37.501 Z-2.88
N7955 X42.707 Y37.403 Z-2.874
N7960 X42.743 Y37.303 Z-2.872
N7965 X42.799 Y37.145 Z-2.877
N7970 X42.856 Y36.986 Z-2.892
N7975 X42.913 Y36.827 Z-2.917
N7980 X42.97 Y36.668 Z-2.951
N7985 X43.027 Y36.507 Z-2.994
N7990 X43.085 Y36.346 Z-3.047
N7995 X43.143 Y36.183 Z-3.109
N8000 X43.202 Y36.019 Z-3.18
N8005 X43.261 Y35.854 Z-3.259
N8010 X43.321 Y35.687 Z-3.346
N8015 X43.381 Y35.517 Z-3.442
N8020 X43.443 Y35.346 Z-3.546
N8025 X43.505 Y35.172 Z-3.657
N8030 X43.568 Y34.996 Z-3.776
N8035 X43.632 Y34.817 Z-3.902
N8040 X43.697 Y34.634 Z-4.036
N8045 X43.872 Y34.614 Z-3.981
N8050 X44.042 Y34.594 Z-3.936
N8055 X44.209 Y34.575 Z-3.897
N8060 X44.373 Y34.556 Z-3.867
N8065 X44.534 Y34.537 Z-3.843
N8070 X44.694 Y34.519 Z-3.827
N8075 X44.852 Y34.501 Z-3.817
N8080 X45.01 Y34.483 Z-3.813
N8085 X45.125 Y34.469 Z-3.815
N8090 X45.241 Y34.456 Z-3.82
N8095 X45.358 Y34.442 Z-3.829
N8100 X45.477 Y34.429 Z-3.842
N8105 X45.597 Y34.415 Z-3.859
N8110 X45.719 Y34.401 Z-3.88
N8115 X45.844 Y34.386 Z-3.905
N8120 X45.972 Y34.371 Z-3.934
N8125 X46.088 Y34.514 Z-3.811
N8130 X46.202 Y34.653 Z-3.695
N8135 X46.315 Y34.791 Z-3.586
N8140 X46.426 Y34.927 Z-3.484
N8145 X46.535 Y35.061 Z-3.389
N8150 X46.643 Y35.193 Z-3.302
N8155 X46.749 Y35.323 Z-3.222
N8160 X46.855 Y35.452 Z-3.15
N8165 X46.959 Y35.58 Z-3.086
N8170 X47.063 Y35.707 Z-3.03
N8175 X47.165 Y35.833 Z-2.982
N8180 X47.268 Y35.958 Z-2.943
N8185 X47.369 Y36.082 Z-2.912
N8190 X47.47 Y36.207 Z-2.89
N8195 X47.572 Y36.33 Z-2.877
N8200 X47.672 Y36.454 Z-2.873
N8205 X47.779 Y36.584 Z-2.877
N8210 X47.877 Y36.705 Z-2.891
N8215 X47.999 Y36.849 Z-2.915
N8220 X48.125 Y36.989 Z-2.945
N8225 X48.242 Y37.109 Z-2.975
N8230 X48.362 Y37.226 Z-3.01
N8235 X48.481 Y37.333 Z-3.046
N8240 X48.603 Y37.438 Z-3.086
N8245 X48.723 Y37.534 Z-3.126
N8250 X48.846 Y37.627 Z-3.17
N8255 X48.964 Y37.711 Z-3.213
N8260 X49.086 Y37.794 Z-3.259
N8265 X49.325 Y37.948 Z-3.349
N8270 X49.535 Y38.083 Z-3.423
N8275 X49.737 Y38.213 Z-3.488
N8280 X49.925 Y38.335 Z-3.544
N8285 X50.205 Y38.514 Z-3.616
N8290 X50.264 Y38.553 Z-3.629
N8295 X50.486 Y38.694 Z-3.674
N8300 X50.669 Y38.811 Z-3.701
N8305 X50.735 Y38.852 Z-3.709
N8310 X50.955 Y38.992 Z-3.727
N8315 X51.152 Y39.118 Z-3.731
N8320 X51.346 Y39.242 Z-3.721
N8325 X51.531 Y39.359 Z-3.698
N8330 X51.711 Y39.474 Z-3.662
N8335 X51.826 Y39.546 Z-3.633
N8340 X51.893 Y39.591 Z-3.613
N8345 X51.992 Y39.653 Z-3.582
N8350 X52.083 Y39.713 Z-3.55
N8355 X52.167 Y39.765 Z-3.518
N8360 X52.356 Y39.886 Z-3.44
N8365 X52.562 Y40.019 Z-3.345
N8370 X52.788 Y40.164 Z-3.231
N8375 X53.037 Y40.323 Z-3.097
N8380 X53.321 Y40.507 Z-2.934
N8385 X53.635 Y40.709 Z-2.745
N8390 X53.926 Y40.891 Z-2.568
N8395 X54.369 Y41.177 Z-2.29
N8400 X55.379 Y41.818 Z-1.652
N8405 X56.012 Y42.216 Z-1.261
N8410 X56.162 Y42.314 Z-1.17
N8415 X56.901 Y42.779 Z-0.741
N8420 X56.928 Y42.796 Z-0.726
N8425 X57.312 Y43.038 Z-0.519
N8430 X57.69 Y43.276 Z-0.329
N8435 X58.062 Y43.51 Z-0.155
N8440 X58.428 Y43.741 Z0.
N8445 X58.062 Y43.51 Z-0.155
N8450 X57.69 Y43.276 Z-0.329
N8455 X57.312 Y43.038 Z-0.519
N8460 X56.928 Y42.796 Z-0.726
N8465 X56.901 Y42.779 Z-0.741
N8470 X56.162 Y42.314 Z-1.17
N8475 X56.012 Y42.216 Z-1.261
N8480 X55.379 Y41.818 Z-1.652
N8485 X54.369 Y41.177 Z-2.29
N8490 X53.926 Y40.891 Z-2.568
N8495 X53.635 Y40.709 Z-2.745
N8500 X53.321 Y40.507 Z-2.934
N8505 X53.037 Y40.323 Z-3.097
N8510 X52.788 Y40.164 Z-3.231
N8515 X52.562 Y40.019 Z-3.345
N8520 X52.356 Y39.886 Z-3.44
N8525 X52.167 Y39.765 Z-3.518
N8530 X52.083 Y39.713 Z-3.55
N8535 X51.992 Y39.653 Z-3.582
N8540 X51.893 Y39.591 Z-3.613
N8545 X51.826 Y39.546 Z-3.633
N8550 X51.711 Y39.474 Z-3.662
N8555 X51.531 Y39.359 Z-3.698
N8560 X51.346 Y39.242 Z-3.721
N8565 X51.152 Y39.118 Z-3.731
N8570 X50.955 Y38.992 Z-3.727
N8575 X50.735 Y38.852 Z-3.709
N8580 X50.669 Y38.811 Z-3.701
N8585 X50.486 Y38.694 Z-3.674
N8590 X50.264 Y38.553 Z-3.629
N8595 X50.205 Y38.514 Z-3.616
N8600 X49.925 Y38.335 Z-3.544
N8605 X49.737 Y38.213 Z-3.488
N8610 X49.535 Y38.083 Z-3.423
N8615 X49.325 Y37.948 Z-3.349
N8620 X49.086 Y37.794 Z-3.259
N8625 X48.964 Y37.711 Z-3.213
N8630 X48.846 Y37.627 Z-3.17
N8635 X48.723 Y37.534 Z-3.126
N8640 X48.603 Y37.438 Z-3.086
N8645 X48.481 Y37.333 Z-3.046
N8650 X48.362 Y37.226 Z-3.01
N8655 X48.242 Y37.109 Z-2.975
N8660 X48.125 Y36.989 Z-2.945
N8665 X47.999 Y36.849 Z-2.915
N8670 X47.877 Y36.705 Z-2.891
N8675 X47.779 Y36.584 Z-2.877
N8680 X47.672 Y36.454 Z-2.873
N8685 X47.572 Y36.33 Z-2.877
N8690 X47.47 Y36.207 Z-2.89
N8695 X47.369 Y36.082 Z-2.912
N8700 X47.268 Y35.958 Z-2.943
N8705 X47.165 Y35.833 Z-2.982
N8710 X47.063 Y35.707 Z-3.03
N8715 X46.959 Y35.58 Z-3.086
N8720 X46.855 Y35.452 Z-3.15
N8725 X46.749 Y35.323 Z-3.222
N8730 X46.643 Y35.193 Z-3.302
N8735 X46.535 Y35.061 Z-3.389
N8740 X46.426 Y34.927 Z-3.484
N8745 X46.315 Y34.791 Z-3.586
N8750 X46.202 Y34.653 Z-3.695
N8755 X46.088 Y34.514 Z-3.811
N8760 X45.972 Y34.371 Z-3.934
N8765 X46.058 Y34.256 Z-3.859
N8770 X46.142 Y34.142 Z-3.788
N8775 X46.225 Y34.03 Z-3.723
N8780 X46.306 Y33.92 Z-3.662
N8785 X46.387 Y33.811 Z-3.606
N8790 X46.467 Y33.703 Z-3.556
N8795 X46.546 Y33.596 Z-3.509
N8800 X46.625 Y33.49 Z-3.468
N8805 X46.702 Y33.385 Z-3.432
N8810 X46.779 Y33.281 Z-3.4
N8815 X46.856 Y33.177 Z-3.374
N8820 X46.932 Y33.074 Z-3.352
N8825 X47.008 Y32.972 Z-3.335
N8830 X47.084 Y32.87 Z-3.323
N8835 X47.159 Y32.768 Z-3.316
N8840 X47.235 Y32.666 Z-3.313
N8845 X47.308 Y32.567 Z-3.315
N8850 X47.377 Y32.473 Z-3.322
N8855 X47.445 Y32.382 Z-3.332
N8860 X47.511 Y32.293 Z-3.346
N8865 X47.615 Y32.156 Z-3.372
N8870 X47.722 Y32.022 Z-3.402
N8875 X47.834 Y31.889 Z-3.437
N8880 X47.993 Y31.714 Z-3.489
N8885 X48.159 Y31.543 Z-3.549
N8890 X48.323 Y31.386 Z-3.612
N8895 X48.495 Y31.233 Z-3.682
N8900 X48.663 Y31.093 Z-3.753
N8905 X48.837 Y30.957 Z-3.83
N8910 X49.006 Y30.833 Z-3.907
N8915 X49.18 Y30.713 Z-3.989
N8920 X49.348 Y30.605 Z-4.07
N8925 X49.521 Y30.5 Z-4.155
N8930 X49.886 Y30.292 Z-4.336
N8935 X50.155 Y30.139 Z-4.464
N8940 X50.433 Y29.979 Z-4.588
N8945 X50.462 Y29.963 Z-4.6
N8950 X50.686 Y29.831 Z-4.693
N8955 X50.773 Y29.78 Z-4.727
N8960 X51. Y29.643 Z-4.81
N8965 X51.117 Y29.57 Z-4.849
N8970 X51.241 Y29.494 Z-4.887
N8975 X51.415 Y29.383 Z-4.934
N8980 X51.555 Y29.29 Z-4.965
N8985 X51.67 Y29.211 Z-4.984
N8990 X51.77 Y29.14 Z-4.996
N8995 X51.86 Y29.072 Z-5.001
N9000 X51.947 Y29.004 Z-5.
N9005 X52.04 Y28.93 Z-4.993
N9010 X52.16 Y28.831 Z-4.975
N9015 X52.277 Y28.737 Z-4.947
N9020 X52.429 Y28.623 Z-4.895
N9025 X52.487 Y28.579 Z-4.871
N9030 X52.625 Y28.487 Z-4.809
N9035 X52.702 Y28.437 Z-4.77
N9040 X52.871 Y28.333 Z-4.68
N9045 X53.071 Y28.213 Z-4.564
N9050 X53.17 Y28.157 Z-4.505
N9055 X53.338 Y28.059 Z-4.401
N9060 X53.52 Y27.959 Z-4.286
N9065 X53.667 Y27.875 Z-4.19
N9070 X53.905 Y27.745 Z-4.033
N9075 X54.058 Y27.658 Z-3.929
N9080 X54.5 Y27.416 Z-3.626
N9085 X54.863 Y27.223 Z-3.376
N9090 X55.932 Y26.643 Z-2.627
N9095 X56.753 Y26.203 Z-2.059
N9100 X57.045 Y26.043 Z-1.858
N9105 X57.359 Y25.874 Z-1.646
N9110 X57.607 Y25.738 Z-1.482
N9115 X57.959 Y25.548 Z-1.253
N9120 X58.156 Y25.438 Z-1.127
N9125 X58.544 Y25.228 Z-0.886
N9130 X58.69 Y25.146 Z-0.798
N9135 X59.107 Y24.918 Z-0.553
N9140 X59.203 Y24.862 Z-0.499
N9145 X59.696 Y24.589 Z-0.232
N9150 X60.168 Y24.327 Z0.
N9155 Z5.
N9160 X72.179 Y22.687
N9165 Z-0.001
N9170 X72.182 Y22.657 Z-0.021
N9175 X72.199 Y22.669 Z-0.001
N9180 X72.182 Y22.657 Z-0.021
N9185 X72.181 Y22.65 Z-0.025
N9190 X72.182 Y22.618 Z-0.036
N9195 X72.181 Y22.533 Z-0.055
N9200 X72.18 Y22.406 Z-0.077
N9205 X72.181 Y22.244 Z-0.099
N9210 X72.184 Y22.047 Z-0.12
N9215 X72.19 Y21.816 Z-0.142
N9220 X72.201 Y21.552 Z-0.163
N9225 X72.218 Y21.257 Z-0.184
N9230 X72.242 Y20.934 Z-0.204
N9235 X72.274 Y20.588 Z-0.224
N9240 X72.315 Y20.22 Z-0.242
N9245 X72.345 Y19.985 Z-0.252
N9250 X72.407 Y19.557 Z-0.269
N9255 X72.482 Y19.1 Z-0.286
N9260 X72.572 Y18.62 Z-0.301
N9265 X72.679 Y18.119 Z-0.316
N9270 X72.803 Y17.597 Z-0.328
N9275 X72.992 Y16.904 Z-0.345
N9280 X73.072 Y16.636 Z-0.346
N9285 X73.204 Y16.221 Z-0.357
N9290 X73.366 Y15.746 Z-0.361
N9295 X73.439 Y15.545 Z-0.367
N9300 X73.696 Y14.879 Z-0.373
N9305 X73.979 Y14.223 Z-0.381
N9310 X74.079 Y14.004 Z-0.379
N9315 X74.284 Y13.576 Z-0.386
N9320 X74.496 Y13.155 Z-0.384
N9325 X74.61 Y12.941 Z-0.388
N9330 X74.952 Y12.322 Z-0.387
N9335 X75.203 Y11.904 Z-0.389
N9340 X75.452 Y11.501 Z-0.385
N9345 X75.72 Y11.097 Z-0.386
N9350 X75.987 Y10.704 Z-0.381
N9355 X76.272 Y10.315 Z-0.38
N9360 X76.558 Y9.933 Z-0.373
N9365 X76.859 Y9.558 Z-0.37
N9370 X77.164 Y9.188 Z-0.362
N9375 X77.48 Y8.828 Z-0.357
N9380 X77.802 Y8.471 Z-0.347
N9385 X78.135 Y8.125 Z-0.34
N9390 X78.472 Y7.784 Z-0.328
N9395 X78.823 Y7.451 Z-0.319
N9400 X79.171 Y7.13 Z-0.304
N9405 X79.538 Y6.811 Z-0.292
N9410 X79.9 Y6.507 Z-0.274
N9415 X80.132 Y6.32 Z-0.263
N9420 X80.173 Y6.288 Z-0.26
N9425 X80.433 Y6.086 Z-0.247
N9430 X80.682 Y5.899 Z-0.232
N9435 X80.919 Y5.725 Z-0.217
N9440 X81.161 Y5.554 Z-0.201
N9445 X81.355 Y5.421 Z-0.186
N9450 X81.673 Y5.209 Z-0.158
N9455 X81.961 Y5.026 Z-0.128
N9460 X82.172 Y4.898 Z-0.1
N9465 X82.282 Y4.833 Z-0.082
N9470 X82.372 Y4.781 Z-0.064
N9475 X82.441 Y4.742 Z-0.047
N9480 X82.489 Y4.714 Z-0.03
N9485 X82.496 Y4.71 Z-0.026
N9490 X82.506 Y4.705 Z-0.02
N9495 X82.525 Y4.711 Z-0.001
N9500 X82.506 Y4.705 Z-0.02
N9505 X82.526 Y4.69 Z-0.001
N9510 Z5.
N9515 X84.24 Y35.251
N9520 Z0.
N9525 X84.239 Y35.232 Z-0.007
N9530 X84.245 Y35.233 Z-0.001
N9535 X84.239 Y35.232 Z-0.007
N9540 X84.229 Y35.203 Z-0.013
N9545 X84.187 Y35.101 Z-0.025
N9550 X84.069 Y34.83 Z-0.049
N9555 X83.915 Y34.476 Z-0.073
N9560 X83.804 Y34.211 Z-0.089
N9565 X83.687 Y33.924 Z-0.105
N9570 X83.565 Y33.616 Z-0.119
N9575 X83.44 Y33.288 Z-0.135
N9580 X83.311 Y32.938 Z-0.149
N9585 X83.181 Y32.569 Z-0.163
N9590 X83.05 Y32.178 Z-0.178
N9595 X82.919 Y31.768 Z-0.192
N9600 X82.787 Y31.338 Z-0.206
N9605 X82.658 Y30.889 Z-0.22
N9610 X82.53 Y30.425 Z-0.232
N9615 X82.349 Y29.709 Z-0.248
N9620 X82.295 Y29.485 Z-0.255
N9625 X82.154 Y28.853 Z-0.267
N9630 X82.087 Y28.538 Z-0.276
N9635 X81.981 Y27.991 Z-0.283
N9640 X81.907 Y27.584 Z-0.293
N9645 X81.83 Y27.124 Z-0.298
N9650 X81.753 Y26.624 Z-0.309
N9655 X81.701 Y26.254 Z-0.311
N9660 X81.625 Y25.66 Z-0.322
N9665 X81.594 Y25.38
N9670 X81.525 Y24.692 Z-0.333
N9675 X81.509 Y24.503
N9680 X81.445 Y23.624 Z-0.342
N9685 X81.403 Y22.745 Z-0.35
N9690 X81.388 Y22.152 Z-0.355
N9695 X81.383 Y21.558 Z-0.359
N9700 X81.39 Y20.965 Z-0.363
N9705 X81.407 Y20.371 Z-0.366
N9710 X81.435 Y19.778 Z-0.37
N9715 X81.474 Y19.186 Z-0.372
N9720 X81.524 Y18.594 Z-0.375
N9725 X81.583 Y18.003 Z-0.378
N9730 X81.654 Y17.414 Z-0.38
N9735 X81.735 Y16.823 Z-0.381
N9740 X81.827 Y16.242 Z-0.386
N9745 X81.927 Y15.651 Z-0.384
N9750 X82.039 Y15.075 Z-0.388
N9755 X82.16 Y14.487 Z-0.386
N9760 X82.292 Y13.915 Z-0.389
N9765 X82.432 Y13.332 Z-0.387
N9770 X82.689 Y12.374 Z-0.386
N9775 X82.974 Y11.424 Z-0.385
N9780 X83.284 Y10.483 Z-0.384
N9785 X83.62 Y9.552 Z-0.381
N9790 X83.983 Y8.632 Z-0.378
N9795 X84.371 Y7.722 Z-0.373
N9800 X84.784 Y6.822 Z-0.368
N9805 X85.223 Y5.935 Z-0.362
N9810 X85.687 Y5.059 Z-0.355
N9815 X86.175 Y4.196 Z-0.347
N9820 X86.686 Y3.348 Z-0.338
N9825 X87.221 Y2.514 Z-0.328
N9830 X87.779 Y1.696 Z-0.317
N9835 X88.359 Y0.895 Z-0.304
N9840 X88.961 Y0.112 Z-0.289
N9845 X89.582 Y-0.65 Z-0.273
N9850 X89.965 Y-1.097 Z-0.263
N9855 X90.339 Y-1.523 Z-0.251
N9860 X90.706 Y-1.926 Z-0.239
N9865 X91.063 Y-2.307 Z-0.226
N9870 X91.477 Y-2.733 Z-0.21
N9875 X91.745 Y-3.002 Z-0.199
N9880 X92.091 Y-3.339 Z-0.183
N9885 X92.464 Y-3.691 Z-0.165
N9890 X92.803 Y-4. Z-0.146
N9895 X93.107 Y-4.269 Z-0.128
N9900 X93.373 Y-4.498 Z-0.111
N9905 X93.607 Y-4.694 Z-0.093
N9910 X93.809 Y-4.859 Z-0.076
N9915 X94.022 Y-5.031 Z-0.054
N9920 X94.158 Y-5.137 Z-0.035
N9925 X94.233 Y-5.197 Z-0.019
N9930 X94.252 Y-5.212 Z-0.012
N9935 X94.262 Y-5.208 Z-0.001
N9940 X94.252 Y-5.212 Z-0.012
N9945 X94.266 Y-5.229 Z-0.001
N9950 Z5.
N9955 X59.602 Y4.694
N9960 Z0.
N9965 X59.82 Y4.629 Z-0.062
N9970 X60.003 Y4.57 Z-0.119
N9975 X60.322 Y4.452 Z-0.219
N9980 X60.598 Y4.339 Z-0.309
N9985 X60.735 Y4.28 Z-0.355
N9990 X61.067 Y4.128 Z-0.463
N9995 X61.381 Y3.973 Z-0.564
N10000 X61.678 Y3.817 Z-0.656
N10005 X61.961 Y3.66 Z-0.741
N10010 X62.15 Y3.551 Z-0.795
N10015 X62.483 Y3.352 Z-0.887
N10020 X62.746 Y3.189 Z-0.956
N10025 X63.25 Y2.862 Z-1.079
N10030 X63.742 Y2.532 Z-1.188
N10035 X64.243 Y2.193 Z-1.29
N10040 X64.351 Y2.124 Z-1.315
N10045 X64.464 Y2.059 Z-1.346
N10050 X64.58 Y1.999 Z-1.383
N10055 X64.718 Y1.938 Z-1.432
N10060 X64.862 Y1.882 Z-1.488
N10065 X65.011 Y1.833 Z-1.553
N10070 X65.165 Y1.79 Z-1.626
N10075 X65.325 Y1.752 Z-1.706
N10080 X65.491 Y1.721 Z-1.795
N10085 X65.669 Y1.697 Z-1.894
N10090 X65.853 Y1.68 Z-2.002
N10095 X66.042 Y1.669 Z-2.119
N10100 X66.237 Y1.665 Z-2.244
N10105 X66.438 Y1.668 Z-2.378
N10110 X66.494 Y1.569 Z-2.34
N10115 X66.597 Y1.407 Z-2.28
N10120 X66.705 Y1.251 Z-2.227
N10125 X66.908 Y0.969 Z-2.137
N10130 X67.01 Y0.833 Z-2.096
N10135 X67.298 Y0.477 Z-1.988
N10140 X67.596 Y0.137 Z-1.889
N10145 X67.892 Y-0.177 Z-1.8
N10150 X68.185 Y-0.467 Z-1.718
N10155 X68.5 Y-0.759 Z-1.635
N10160 X68.829 Y-1.044 Z-1.553
N10165 X69.081 Y-1.25 Z-1.49
N10170 X69.167 Y-1.318 Z-1.471
N10175 X69.512 Y-1.58 Z-1.387
N10180 X69.684 Y-1.705 Z-1.343
N10185 X69.866 Y-1.832 Z-1.301
N10190 X70.296 Y-2.12 Z-1.193
N10195 X70.405 Y-2.198 Z-1.175
N10200 X70.508 Y-2.281 Z-1.163
N10205 X70.606 Y-2.369 Z-1.16
N10210 X70.671 Y-2.434 Z-1.161
N10215 X70.734 Y-2.501 Z-1.167
N10220 X70.819 Y-2.601 Z-1.181
N10225 X70.891 Y-2.694 Z-1.202
N10230 X70.96 Y-2.791 Z-1.228
N10235 X71.025 Y-2.892 Z-1.26
N10240 X71.086 Y-2.998 Z-1.298
N10245 X71.143 Y-3.108 Z-1.342
N10250 X71.215 Y-3.265 Z-1.411
N10255 X71.268 Y-3.391 Z-1.474
N10260 X71.316 Y-3.522 Z-1.543
N10265 X71.36 Y-3.657 Z-1.618
N10270 X71.4 Y-3.798 Z-1.7
N10275 X71.435 Y-3.944 Z-1.789
N10280 X71.48 Y-4.162 Z-1.928
N10285 X71.509 Y-4.33 Z-2.041
N10290 X71.534 Y-4.504 Z-2.161
N10295 X71.554 Y-4.683 Z-2.288
N10300 X71.57 Y-4.868 Z-2.423
N10305 X71.396 Y-4.885 Z-2.312
N10310 X71.226 Y-4.897 Z-2.207
N10315 X71.059 Y-4.903 Z-2.109
N10320 X70.879 Z-2.007
N10325 X70.704 Y-4.897 Z-1.913
N10330 X70.533 Y-4.884 Z-1.827
N10335 X70.369 Y-4.864 Z-1.749
N10340 X70.21 Y-4.837 Z-1.679
N10345 X70.055 Y-4.805 Z-1.617
N10350 X69.908 Y-4.766 Z-1.562
N10355 X69.765 Y-4.722 Z-1.515
N10360 X69.627 Y-4.671 Z-1.475
N10365 X69.487 Y-4.612 Z-1.44
N10370 X69.351 Y-4.545 Z-1.413
N10375 X68.998 Y-4.36 Z-1.351
N10380 X68.676 Y-4.198 Z-1.287
N10385 X68.361 Y-4.045 Z-1.216
N10390 X68.049 Y-3.901 Z-1.14
N10395 X67.739 Y-3.764 Z-1.059
N10400 X67.43 Y-3.634 Z-0.972
N10405 X67.12 Y-3.51 Z-0.879
N10410 X66.807 Y-3.392 Z-0.782
N10415 X66.492 Y-3.279 Z-0.68
N10420 X66.177 Y-3.173 Z-0.576
N10425 X65.947 Y-3.102 Z-0.497
N10430 X65.527 Y-2.976 Z-0.359
N10435 X65.416 Y-2.946 Z-0.322
N10440 X65.173 Y-2.884 Z-0.244
N10445 X64.874 Y-2.815 Z-0.154
N10450 X64.739 Y-2.788 Z-0.116
N10455 X64.549 Y-2.755 Z-0.066
N10460 X64.376 Y-2.732 Z-0.028
N10465 X64.222 Y-2.718 Z0.
N10470 X64.376 Y-2.732 Z-0.028
N10475 X64.549 Y-2.755 Z-0.066
N10480 X64.739 Y-2.788 Z-0.116
N10485 X64.874 Y-2.815 Z-0.154
N10490 X65.173 Y-2.884 Z-0.244
N10495 X65.416 Y-2.946 Z-0.322
N10500 X65.527 Y-2.976 Z-0.359
N10505 X65.947 Y-3.102 Z-0.497
N10510 X66.177 Y-3.173 Z-0.576
N10515 X66.492 Y-3.279 Z-0.68
N10520 X66.807 Y-3.392 Z-0.782
N10525 X67.12 Y-3.51 Z-0.879
N10530 X67.43 Y-3.634 Z-0.972
N10535 X67.739 Y-3.764 Z-1.059
N10540 X68.049 Y-3.901 Z-1.14
N10545 X68.361 Y-4.045 Z-1.216
N10550 X68.676 Y-4.198 Z-1.287
N10555 X68.998 Y-4.36 Z-1.351
N10560 X69.351 Y-4.545 Z-1.413
N10565 X69.487 Y-4.612 Z-1.44
N10570 X69.627 Y-4.671 Z-1.475
N10575 X69.765 Y-4.722 Z-1.515
N10580 X69.908 Y-4.766 Z-1.562
N10585 X70.055 Y-4.805 Z-1.617
N10590 X70.21 Y-4.837 Z-1.679
N10595 X70.369 Y-4.864 Z-1.749
N10600 X70.533 Y-4.884 Z-1.827
N10605 X70.704 Y-4.897 Z-1.913
N10610 X70.879 Y-4.903 Z-2.007
N10615 X71.059 Z-2.109
N10620 X71.226 Y-4.897 Z-2.207
N10625 X71.396 Y-4.885 Z-2.312
N10630 X71.57 Y-4.868 Z-2.423
N10635 X71.823 Y-5.05 Z-2.409
N10640 X71.986 Y-5.164 Z-2.402
N10645 X72.521 Y-5.532 Z-2.373
N10650 X72.783 Y-5.705 Z-2.362
N10655 X73.254 Y-6.011 Z-2.336
N10660 X73.636 Y-6.249 Z-2.318
N10665 X74.085 Y-6.523 Z-2.292
N10670 X74.55 Y-6.795 Z-2.267
N10675 X74.826 Y-6.953 Z-2.249
N10680 X75.03 Y-7.067 Z-2.239
N10685 X75.665 Y-7.413 Z-2.198
N10690 X76.04 Y-7.609 Z-2.175
N10695 X76.57 Y-7.879 Z-2.138
N10700 X77.109 Y-8.141 Z-2.1
N10705 X77.447 Y-8.302 Z-2.073
N10710 X77.652 Y-8.397 Z-2.059
N10715 X78.354 Y-8.712 Z-2.001
N10720 X78.751 Y-8.883 Z-1.97
N10725 X79.362 Y-9.137 Z-1.915
N10730 X79.868 Y-9.338 Z-1.871
N10735 X80.433 Y-9.556 Z-1.817
N10740 X81.003 Y-9.765 Z-1.762
N10745 X81.577 Y-9.968 Z-1.704
N10750 X82.156 Y-10.163 Z-1.643
N10755 X82.471 Y-10.266 Z-1.608
N10760 X82.74 Y-10.352 Z-1.58
N10765 X83.541 Y-10.597 Z-1.489
N10770 X83.921 Y-10.708 Z-1.447
N10775 X84.666 Y-10.916 Z-1.357
N10780 X84.688 Y-10.922 Z-1.354
N10785 X85.837 Y-11.219 Z-1.214
N10790 X87.011 Y-11.494 Z-1.064
N10795 X88.209 Y-11.747 Z-0.906
N10800 X89.43 Y-11.976 Z-0.739
N10805 X90.684 Y-12.183 Z-0.563
N10810 X91.952 Y-12.365 Z-0.38
N10815 X93.228 Y-12.522 Z-0.192
N10820 X94.511 Y-12.652 Z0.
N10825 X93.228 Y-12.522 Z-0.192
N10830 X91.952 Y-12.365 Z-0.38
N10835 X90.684 Y-12.183 Z-0.563
N10840 X89.43 Y-11.976 Z-0.739
N10845 X88.209 Y-11.747 Z-0.906
N10850 X87.011 Y-11.494 Z-1.064
N10855 X85.837 Y-11.219 Z-1.214
N10860 X84.688 Y-10.922 Z-1.354
N10865 X84.666 Y-10.916 Z-1.357
N10870 X83.921 Y-10.708 Z-1.447
N10875 X83.541 Y-10.597 Z-1.489
N10880 X82.74 Y-10.352 Z-1.58
N10885 X82.471 Y-10.266 Z-1.608
N10890 X82.156 Y-10.163 Z-1.643
N10895 X81.577 Y-9.968 Z-1.704
N10900 X81.003 Y-9.765 Z-1.762
N10905 X80.433 Y-9.556 Z-1.817
N10910 X79.868 Y-9.338 Z-1.871
N10915 X79.362 Y-9.137 Z-1.915
N10920 X78.751 Y-8.883 Z-1.97
N10925 X78.354 Y-8.712 Z-2.001
N10930 X77.652 Y-8.397 Z-2.059
N10935 X77.447 Y-8.302 Z-2.073
N10940 X77.109 Y-8.141 Z-2.1
N10945 X76.57 Y-7.879 Z-2.138
N10950 X76.04 Y-7.609 Z-2.175
N10955 X75.665 Y-7.413 Z-2.198
N10960 X75.03 Y-7.067 Z-2.239
N10965 X74.826 Y-6.953 Z-2.249
N10970 X74.55 Y-6.795 Z-2.267
N10975 X74.085 Y-6.523 Z-2.292
N10980 X73.636 Y-6.249 Z-2.318
N10985 X73.254 Y-6.011 Z-2.336
N10990 X72.783 Y-5.705 Z-2.362
N10995 X72.521 Y-5.532 Z-2.373
N11000 X71.986 Y-5.164 Z-2.402
N11005 X71.823 Y-5.05 Z-2.409
N11010 X71.57 Y-4.868 Z-2.423
N11015 X71.554 Y-4.683 Z-2.288
N11020 X71.534 Y-4.504 Z-2.161
N11025 X71.509 Y-4.33 Z-2.041
N11030 X71.48 Y-4.162 Z-1.928
N11035 X71.435 Y-3.944 Z-1.789
N11040 X71.4 Y-3.798 Z-1.7
N11045 X71.36 Y-3.657 Z-1.618
N11050 X71.316 Y-3.522 Z-1.543
N11055 X71.268 Y-3.391 Z-1.474
N11060 X71.215 Y-3.265 Z-1.411
N11065 X71.143 Y-3.108 Z-1.342
N11070 X71.086 Y-2.998 Z-1.298
N11075 X71.025 Y-2.892 Z-1.26
N11080 X70.96 Y-2.791 Z-1.228
N11085 X70.891 Y-2.694 Z-1.202
N11090 X70.819 Y-2.601 Z-1.181
N11095 X70.734 Y-2.501 Z-1.167
N11100 X70.671 Y-2.434 Z-1.161
N11105 X70.606 Y-2.369 Z-1.16
N11110 X70.508 Y-2.281 Z-1.163
N11115 X70.405 Y-2.198 Z-1.175
N11120 X70.296 Y-2.12 Z-1.193
N11125 X69.866 Y-1.832 Z-1.301
N11130 X69.684 Y-1.705 Z-1.343
N11135 X69.512 Y-1.58 Z-1.387
N11140 X69.167 Y-1.318 Z-1.471
N11145 X69.081 Y-1.25 Z-1.49
N11150 X68.829 Y-1.044 Z-1.553
N11155 X68.5 Y-0.759 Z-1.635
N11160 X68.185 Y-0.467 Z-1.718
N11165 X67.892 Y-0.177 Z-1.8
N11170 X67.596 Y0.137 Z-1.889
N11175 X67.298 Y0.477 Z-1.988
N11180 X67.01 Y0.833 Z-2.096
N11185 X66.908 Y0.969 Z-2.137
N11190 X66.705 Y1.251 Z-2.227
N11195 X66.597 Y1.407 Z-2.28
N11200 X66.494 Y1.569 Z-2.34
N11205 X66.438 Y1.668 Z-2.378
N11210 X66.486 Y1.811 Z-2.312
N11215 X66.532 Y1.949 Z-2.257
N11220 X66.576 Y2.083 Z-2.212
N11225 X66.618 Y2.212 Z-2.175
N11230 X66.66 Y2.338 Z-2.147
N11235 X66.701 Y2.461 Z-2.128
N11240 X66.741 Y2.583 Z-2.116
N11245 X66.781 Y2.704 Z-2.112
N11250 X66.81 Y2.79 Z-2.114
N11255 X66.838 Y2.876 Z-2.12
N11260 X66.867 Y2.962 Z-2.13
N11265 X66.896 Y3.049 Z-2.143
N11270 X66.925 Y3.136 Z-2.161
N11275 X66.954 Y3.224 Z-2.182
N11280 X66.983 Y3.313 Z-2.208
N11285 X67.013 Y3.403 Z-2.237
N11290 X67.043 Y3.494 Z-2.27
N11295 X67.073 Y3.586 Z-2.308
N11300 X67.104 Y3.68 Z-2.349
N11305 X67.136 Y3.775 Z-2.395
N11310 X67.168 Y3.872 Z-2.445
N11315 X67.201 Y3.971 Z-2.499
N11320 X67.234 Y4.072 Z-2.557
N11325 X67.268 Y4.175 Z-2.62
N11330 X67.163 Y4.304 Z-2.564
N11335 X67.055 Y4.428 Z-2.513
N11340 X66.944 Y4.547 Z-2.468
N11345 X66.82 Y4.672 Z-2.424
N11350 X66.692 Y4.791 Z-2.387
N11355 X66.562 Y4.904 Z-2.356
N11360 X66.428 Y5.013 Z-2.331
N11365 X66.038 Y5.317 Z-2.269
N11370 X65.899 Y5.429 Z-2.244
N11375 X65.68 Y5.607 Z-2.206
N11380 X65.335 Y5.9 Z-2.138
N11385 X65.01 Y6.193 Z-2.067
N11390 X64.809 Y6.384 Z-2.016
N11395 X64.708 Y6.483 Z-1.992
N11400 X64.413 Y6.79 Z-1.906
N11405 X64.292 Y6.924 Z-1.867
N11410 X64.171 Y7.069 Z-1.824
N11415 X64.057 Y7.211 Z-1.778
N11420 X63.951 Y7.351 Z-1.73
N11425 X63.829 Y7.526 Z-1.667
N11430 X63.765 Y7.626 Z-1.631
N11435 X63.685 Y7.763 Z-1.578
N11440 X63.611 Y7.899 Z-1.521
N11445 X63.541 Y8.041 Z-1.457
N11450 X63.474 Y8.195 Z-1.384
N11455 X63.42 Y8.342 Z-1.313
N11460 X63.359 Y8.534 Z-1.213
N11465 X63.317 Y8.695 Z-1.128
N11470 X63.264 Y8.943 Z-0.99
N11475 X63.232 Y9.137 Z-0.88
N11480 X63.199 Y9.402 Z-0.725
N11485 X63.179 Y9.67 Z-0.567
N11490 X63.173 Y9.814 Z-0.478
N11495 X63.169 Y9.966 Z-0.388
N11500 X63.171 Y10.279 Z-0.198
N11505 X63.185 Y10.603 Z0.
N11510 X63.171 Y10.279 Z-0.198
N11515 X63.169 Y9.966 Z-0.388
N11520 X63.173 Y9.814 Z-0.478
N11525 X63.179 Y9.67 Z-0.567
N11530 X63.199 Y9.402 Z-0.725
N11535 X63.232 Y9.137 Z-0.88
N11540 X63.264 Y8.943 Z-0.99
N11545 X63.317 Y8.695 Z-1.128
N11550 X63.359 Y8.534 Z-1.213
N11555 X63.42 Y8.342 Z-1.313
N11560 X63.474 Y8.195 Z-1.384
N11565 X63.541 Y8.041 Z-1.457
N11570 X63.611 Y7.899 Z-1.521
N11575 X63.685 Y7.763 Z-1.578
N11580 X63.765 Y7.626 Z-1.631
N11585 X63.829 Y7.526 Z-1.667
N11590 X63.951 Y7.351 Z-1.73
N11595 X64.057 Y7.211 Z-1.778
N11600 X64.171 Y7.069 Z-1.824
N11605 X64.292 Y6.924 Z-1.867
N11610 X64.413 Y6.79 Z-1.906
N11615 X64.708 Y6.483 Z-1.992
N11620 X64.809 Y6.384 Z-2.016
N11625 X65.01 Y6.193 Z-2.067
N11630 X65.335 Y5.9 Z-2.138
N11635 X65.68 Y5.607 Z-2.206
N11640 X65.899 Y5.429 Z-2.244
N11645 X66.038 Y5.317 Z-2.269
N11650 X66.428 Y5.013 Z-2.331
N11655 X66.562 Y4.904 Z-2.356
N11660 X66.692 Y4.791 Z-2.387
N11665 X66.82 Y4.672 Z-2.424
N11670 X66.944 Y4.547 Z-2.468
N11675 X67.055 Y4.428 Z-2.513
N11680 X67.163 Y4.304 Z-2.564
N11685 X67.268 Y4.175 Z-2.62
N11690 X67.457 Y4.179 Z-2.519
N11695 X67.632 Y4.176 Z-2.428
N11700 X67.803 Y4.168 Z-2.344
N11705 X67.972 Y4.155 Z-2.267
N11710 X68.137 Y4.137 Z-2.195
N11715 X68.292 Y4.112 Z-2.13
N11720 X68.444 Y4.082 Z-2.07
N11725 X68.593 Y4.048 Z-2.017
N11730 X68.739 Y4.009 Z-1.969
N11735 X68.875 Y3.964 Z-1.926
N11740 X69.007 Y3.916 Z-1.888
N11745 X69.137 Y3.863 Z-1.856
N11750 X69.263 Y3.805 Z-1.828
N11755 X69.38 Y3.744 Z-1.804
N11760 X69.494 Y3.678 Z-1.784
N11765 X69.604 Y3.609 Z-1.769
N11770 X69.712 Y3.536 Z-1.759
N11775 X69.905 Y3.394 Z-1.739
N11780 X70.118 Y3.23 Z-1.712
N11785 X70.21 Y3.162 Z-1.702
N11790 X70.305 Y3.097 Z-1.697
N11795 X70.401 Y3.035 Z-1.695
N11800 X70.502 Y2.974 Z-1.697
N11805 X70.606 Y2.918 Z-1.703
N11810 X70.711 Y2.864 Z-1.713
N11815 X70.856 Y2.798 Z-1.733
N11820 X71. Y2.74 Z-1.76
N11825 X71.147 Y2.688 Z-1.794
N11830 X71.299 Y2.642 Z-1.834
N11835 X71.453 Y2.601 Z-1.882
N11840 X71.612 Y2.567 Z-1.936
N11845 X71.774 Y2.538 Z-1.997
N11850 X71.94 Y2.515 Z-2.065
N11855 X72.116 Y2.497 Z-2.144
N11860 X72.281 Y2.485 Z-2.223
N11865 X72.449 Y2.479 Z-2.308
N11870 X72.621 Z-2.399
N11875 X72.795 Y2.484 Z-2.496
N11880 X72.974 Y2.494 Z-2.599
N11885 Y2.71 Z-2.439
N11890 X72.968 Y2.919 Z-2.288
N11895 X72.956 Y3.121 Z-2.146
N11900 X72.928 Y3.407 Z-1.954
N11905 X72.912 Y3.536 Z-1.872
N11910 X72.893 Y3.663 Z-1.795
N11915 X72.855 Y3.864 Z-1.678
N11920 X72.83 Y3.98 Z-1.616
N11925 X72.803 Y4.094 Z-1.558
N11930 X72.772 Y4.204 Z-1.504
N11935 X72.748 Y4.285 Z-1.468
N11940 X72.675 Y4.51 Z-1.376
N11945 X72.667 Y4.546 Z-1.358
N11950 X72.658 Y4.606 Z-1.326
N11955 X72.648 Y4.707 Z-1.271
N11960 X72.646 Y4.772 Z-1.233
N11965 Y5.084 Z-1.046
N11970 X72.653 Y5.182 Z-0.984
N11975 X72.676 Y5.448 Z-0.821
N11980 X72.703 Y5.644 Z-0.696
N11985 X72.742 Y5.875 Z-0.555
N11990 X72.781 Y6.071 Z-0.432
N11995 X72.871 Y6.428 Z-0.215
N12000 X72.878 Y6.453 Z-0.2
N12005 X72.987 Y6.795 Z-0.001
N12010 X72.878 Y6.453 Z-0.2
N12015 X72.871 Y6.428 Z-0.215
N12020 X72.781 Y6.071 Z-0.432
N12025 X72.742 Y5.875 Z-0.555
N12030 X72.703 Y5.644 Z-0.696
N12035 X72.676 Y5.448 Z-0.821
N12040 X72.653 Y5.182 Z-0.984
N12045 X72.646 Y5.084 Z-1.046
N12050 Y4.772 Z-1.233
N12055 X72.648 Y4.707 Z-1.271
N12060 X72.658 Y4.606 Z-1.326
N12065 X72.667 Y4.546 Z-1.358
N12070 X72.675 Y4.51 Z-1.376
N12075 X72.748 Y4.285 Z-1.468
N12080 X72.772 Y4.204 Z-1.504
N12085 X72.803 Y4.094 Z-1.558
N12090 X72.83 Y3.98 Z-1.616
N12095 X72.855 Y3.864 Z-1.678
N12100 X72.893 Y3.663 Z-1.795
N12105 X72.912 Y3.536 Z-1.872
N12110 X72.928 Y3.407 Z-1.954
N12115 X72.956 Y3.121 Z-2.146
N12120 X72.968 Y2.919 Z-2.288
N12125 X72.974 Y2.71 Z-2.439
N12130 Y2.494 Z-2.599
N12135 X73.26 Y2.276 Z-2.568
N12140 X73.463 Y2.12 Z-2.548
N12145 X73.64 Y1.98 Z-2.526
N12150 X73.791 Y1.857 Z-2.505
N12155 X73.912 Y1.753 Z-2.483
N12160 X74.024 Y1.65 Z-2.458
N12165 X74.177 Y1.502 Z-2.417
N12170 X74.336 Y1.341 Z-2.37
N12175 X74.702 Y0.952 Z-2.251
N12180 X75.072 Y0.539 Z-2.114
N12185 X75.457 Y0.086 Z-1.963
N12190 X75.959 Y-0.519 Z-1.755
N12195 X76.723 Y-1.466 Z-1.45
N12200 X77.177 Y-2.028 Z-1.284
N12205 X77.222 Y-2.083 Z-1.268
N12210 X77.315 Y-2.187 Z-1.245
N12215 X77.394 Y-2.269 Z-1.232
N12220 X77.477 Y-2.347 Z-1.224
N12225 X77.563 Y-2.42 Z-1.222
N12230 X77.627 Y-2.47 Z-1.223
N12235 X77.692 Y-2.518 Z-1.227
N12240 X77.803 Y-2.593 Z-1.239
N12245 X77.919 Y-2.662 Z-1.259
N12250 X78.04 Y-2.725 Z-1.286
N12255 X78.166 Y-2.783 Z-1.321
N12260 X78.296 Y-2.833 Z-1.361
N12265 X78.431 Y-2.878 Z-1.409
N12270 X78.57 Y-2.917 Z-1.464
N12275 X78.714 Y-2.951 Z-1.526
N12280 X78.865 Y-2.978 Z-1.595
N12285 X79.02 Y-2.998 Z-1.672
N12290 X79.18 Y-3.013 Z-1.757
N12295 X79.344 Y-3.021 Z-1.849
N12300 X79.51 Y-3.023 Z-1.945
N12305 X79.679 Y-3.018 Z-2.049
N12310 X79.853 Y-3.007 Z-2.159
N12315 X80.031 Y-2.991 Z-2.277
N12320 X80.029 Y-2.787 Z-2.144
N12325 X80.018 Y-2.593 Z-2.022
N12330 X80. Y-2.405 Z-1.909
N12335 X79.976 Y-2.224 Z-1.805
N12340 X79.953 Y-2.077 Z-1.723
N12345 X79.885 Y-1.657 Z-1.487
N12350 X79.855 Y-1.446 Z-1.364
N12355 X79.831 Y-1.23 Z-1.231
N12360 X79.825 Y-1.144 Z-1.176
N12365 X79.82 Y-1.026 Z-1.097
N12370 X79.817 Y-0.885 Z-1.001
N12375 X79.82 Y-0.715 Z-0.88
N12380 X79.828 Y-0.505 Z-0.727
N12385 X79.842 Y-0.248 Z-0.533
N12390 X79.868 Y0.064 Z-0.293
N12395 X79.907 Y0.435 Z-0.001
N12400 X79.868 Y0.064 Z-0.293
N12405 X79.842 Y-0.248 Z-0.533
N12410 X79.828 Y-0.505 Z-0.727
N12415 X79.82 Y-0.715 Z-0.88
N12420 X79.817 Y-0.885 Z-1.001
N12425 X79.82 Y-1.026 Z-1.097
N12430 X79.825 Y-1.144 Z-1.176
N12435 X79.831 Y-1.23 Z-1.231
N12440 X79.855 Y-1.446 Z-1.364
N12445 X79.885 Y-1.657 Z-1.487
N12450 X79.953 Y-2.077 Z-1.723
N12455 X79.976 Y-2.224 Z-1.805
N12460 X80. Y-2.405 Z-1.909
N12465 X80.018 Y-2.593 Z-2.022
N12470 X80.029 Y-2.787 Z-2.144
N12475 X80.031 Y-2.991 Z-2.277
N12480 X80.044 Y-3.003 Z-2.275
N12485 X80.468 Y-3.385 Z-2.206
N12490 X80.904 Y-3.777 Z-2.127
N12495 X81.351 Y-4.178 Z-2.039
N12500 X81.81 Y-4.585 Z-1.943
N12505 X82.504 Y-5.194 Z-1.789
N12510 X82.754 Y-5.412 Z-1.732
N12515 X83.402 Y-5.967 Z-1.579
N12520 X83.743 Y-6.257 Z-1.501
N12525 X84.318 Y-6.733 Z-1.363
N12530 X84.764 Y-7.094 Z-1.263
N12535 X85.249 Y-7.478 Z-1.149
N12540 X85.815 Y-7.914 Z-1.027
N12545 X86.215 Y-8.212 Z-0.941
N12550 X86.71 Y-8.571 Z-0.842
N12555 X86.893 Y-8.7 Z-0.809
N12560 X87.215 Y-8.924 Z-0.746
N12565 X87.73 Y-9.271 Z-0.655
N12570 X87.99 Y-9.441 Z-0.613
N12575 X88.256 Y-9.612 Z-0.568
N12580 X88.795 Y-9.946 Z-0.486
N12585 X89.101 Y-10.129 Z-0.446
N12590 X89.348 Y-10.274 Z-0.41
N12595 X89.918 Y-10.595 Z-0.34
N12600 X90.216 Y-10.757 Z-0.309
N12605 X90.504 Y-10.911 Z-0.276
N12610 X90.771 Y-11.048 Z-0.251
N12615 X91.11 Y-11.219 Z-0.217
N12620 X91.324 Y-11.323 Z-0.2
N12625 X91.738 Y-11.521 Z-0.164
N12630 X91.873 Y-11.583 Z-0.155
N12635 X92.416 Y-11.828 Z-0.115
N12640 X93.068 Y-12.103 Z-0.074
N12645 X93.483 Y-12.269 Z-0.052
N12650 X93.774 Y-12.382 Z-0.035
N12655 X94.003 Y-12.467 Z-0.025
N12660 X94.511 Y-12.652 Z0.
N12665 Z5.
N12670 X47.457 Y22.309
N12675 Z-0.003
N12680 X47.469 Y22.267 Z-0.006
N12685 X47.487 Y22.179 Z-0.012
N12690 X47.575 Y21.678 Z-0.035
N12695 X47.714 Y20.903 Z-0.066
N12700 X47.824 Y20.353 Z-0.085
N12705 X47.882 Y20.074 Z-0.097
N12710 X47.938 Y19.818 Z-0.104
N12715 X48.072 Y19.24 Z-0.124
N12720 X48.176 Y18.808 Z-0.136
N12725 X48.291 Y18.367 Z-0.15
N12730 X48.412 Y17.916 Z-0.162
N12735 X48.461 Y17.74 Z-0.165
N12740 X48.542 Y17.456 Z-0.174
N12745 X48.681 Y16.987 Z-0.186
N12750 X48.768 Y16.699 Z-0.191
N12755 X48.984 Y16.024 Z-0.208
N12760 X49.103 Y15.663 Z-0.214
N12765 X49.324 Y15.028 Z-0.229
N12770 X49.464 Y14.634 Z-0.235
N12775 X49.702 Y14.002 Z-0.248
N12780 X49.852 Y13.613 Z-0.253
N12785 X50.121 Y12.947 Z-0.266
N12790 X50.265 Y12.6 Z-0.269
N12795 X50.582 Y11.867 Z-0.282
N12800 X50.702 Y11.596 Z-0.284
N12805 X50.83 Y11.317 Z-0.29
N12810 X51.088 Y10.761 Z-0.296
N12815 X51.164 Y10.602 Z-0.297
N12820 X51.359 Y10.201 Z-0.304
N12825 X51.64 Y9.634 Z-0.309
N12830 X51.936 Y9.063 Z-0.316
N12835 X52.156 Y8.645 Z-0.319
N12840 X52.562 Y7.906 Z-0.327
N12845 X52.686 Y7.684
N12850 X52.895 Y7.321 Z-0.333
N12855 X53.237 Y6.734 Z-0.336
N12860 X53.771 Y5.862 Z-0.342
N12865 X54.325 Y5.001 Z-0.348
N12870 X54.899 Y4.152 Z-0.354
N12875 X55.492 Y3.316 Z-0.359
N12880 X56.103 Y2.493 Z-0.363
N12885 X56.733 Y1.684 Z-0.368
N12890 X57.38 Y0.89 Z-0.371
N12895 X58.045 Y0.11 Z-0.374
N12900 X58.727 Y-0.655 Z-0.377
N12905 X59.425 Y-1.405 Z-0.38
N12910 X60.139 Y-2.139 Z-0.382
N12915 X60.87 Y-2.856 Z-0.384
N12920 X61.616 Y-3.558 Z-0.385
N12925 X62.378 Y-4.243 Z-0.386
N12930 X63.155 Y-4.911
N12935 X63.947 Y-5.563
N12940 X64.768 Y-6.209
N12945 X65.605 Y-6.836
N12950 X66.455 Y-7.444 Z-0.385
N12955 X67.319 Y-8.033 Z-0.383
N12960 X68.196 Y-8.602 Z-0.382
N12965 X69.086 Y-9.15 Z-0.379
N12970 X69.988 Y-9.678 Z-0.377
N12975 X70.902 Y-10.185 Z-0.374
N12980 X71.885 Y-10.699 Z-0.37
N12985 X72.88 Y-11.189 Z-0.366
N12990 X73.885 Y-11.654 Z-0.362
N12995 X74.9 Y-12.094 Z-0.356
N13000 X75.925 Y-12.51 Z-0.351
N13005 X76.96 Y-12.9 Z-0.345
N13010 X78.004 Y-13.265 Z-0.338
N13015 X79.057 Y-13.606 Z-0.33
N13020 X80.119 Y-13.921 Z-0.322
N13025 X81.189 Y-14.211 Z-0.313
N13030 X82.266 Y-14.476 Z-0.303
N13035 X83.349 Y-14.716 Z-0.292
N13040 X84.436 Y-14.929 Z-0.281
N13045 X85.527 Y-15.116 Z-0.268
N13050 X86.622 Y-15.277 Z-0.254
N13055 X87.719 Y-15.412 Z-0.238
N13060 X88.12 Y-15.454 Z-0.232
N13065 X88.857 Y-15.525 Z-0.22
N13070 X89.257 Y-15.558 Z-0.212
N13075 X89.912 Y-15.606 Z-0.199
N13080 X90.3 Y-15.629 Z-0.19
N13085 X90.626 Y-15.647 Z-0.183
N13090 X91.244 Y-15.673 Z-0.168
N13095 X91.536 Y-15.683 Z-0.16
N13100 X92.085 Y-15.695 Z-0.144
N13105 X92.581 Y-15.7 Z-0.128
N13110 X93.247 Y-15.696 Z-0.104
N13115 X93.948 Y-15.678 Z-0.072
N13120 X94.335 Y-15.662 Z-0.049
N13125 X94.582 Y-15.65 Z-0.03
N13130 X94.657 Y-15.645 Z-0.02
N13135 X94.733 Y-15.642 Z-0.008
N13140 X94.736 Y-15.636 Z-0.001
N13145 Z5.
N13150 X28.45 Y-7.677
N13155 Z-0.001
N13160 X28.484 Y-7.668 Z-0.02
N13165 X28.485 Z-0.021
N13170 X28.526 Y-7.655 Z-0.032
N13175 X28.602 Y-7.63 Z-0.046
N13180 X28.778 Y-7.572 Z-0.069
N13185 X28.912 Y-7.529 Z-0.083
N13190 X29.206 Y-7.436 Z-0.107
N13195 X29.386 Y-7.38 Z-0.12
N13200 X29.802 Y-7.256 Z-0.145
N13205 X30.036 Y-7.187 Z-0.157
N13210 X30.533 Y-7.048 Z-0.18
N13215 X30.678 Y-7.008 Z-0.187
N13220 X31.081 Y-6.901 Z-0.203
N13225 X31.511 Y-6.79 Z-0.218
N13230 X31.967 Y-6.678 Z-0.233
N13235 X32.448 Y-6.565 Z-0.248
N13240 X32.954 Y-6.451 Z-0.261
N13245 X33.712 Y-6.291 Z-0.278
N13250 X34.038 Y-6.226 Z-0.287
N13255 X34.619 Y-6.114 Z-0.297
N13260 X35.307 Y-5.994 Z-0.312
N13265 X36.006 Y-5.878 Z-0.321
N13270 X36.697 Y-5.777 Z-0.333
N13275 X37.397 Y-5.681 Z-0.339
N13280 X38.094 Y-5.601 Z-0.35
N13285 X38.793 Y-5.525 Z-0.354
N13290 X39.494 Y-5.464 Z-0.363
N13295 X40.195 Y-5.409 Z-0.366
N13300 X40.896 Y-5.368 Z-0.374
N13305 X41.6 Y-5.333 Z-0.375
N13310 X42.301 Y-5.312 Z-0.381
N13315 X43.006 Y-5.296 Z-0.382
N13320 X43.706 Z-0.386
N13325 X44.413 Y-5.3 Z-0.385
N13330 X45.112 Y-5.319 Z-0.389
N13335 X45.817 Y-5.343 Z-0.387
N13340 X46.596 Y-5.384 Z-0.386
N13345 X47.373 Y-5.437 Z-0.385
N13350 X48.148 Y-5.501 Z-0.383
N13355 X48.923 Y-5.578 Z-0.381
N13360 X49.696 Y-5.667 Z-0.377
N13365 X50.467 Y-5.768 Z-0.373
N13370 X51.238 Y-5.881 Z-0.368
N13375 X52.006 Y-6.006 Z-0.362
N13380 X52.773 Y-6.143 Z-0.355
N13385 X53.537 Y-6.291 Z-0.347
N13390 X54.297 Y-6.452 Z-0.338
N13395 X55.053 Y-6.623 Z-0.328
N13400 X55.807 Y-6.807 Z-0.316
N13405 X56.561 Y-7.003 Z-0.304
N13410 X57.31 Y-7.211 Z-0.289
N13415 X58.056 Y-7.43 Z-0.273
N13420 X58.558 Y-7.584 Z-0.261
N13425 X59.248 Y-7.805 Z-0.241
N13430 X59.609 Y-7.926 Z-0.23
N13435 X59.924 Y-8.034 Z-0.221
N13440 X60.329 Y-8.176 Z-0.207
N13445 X60.985 Y-8.413 Z-0.178
N13450 X61.337 Y-8.546 Z-0.161
N13455 X61.395 Y-8.568 Z-0.159
N13460 X61.87 Y-8.753 Z-0.131
N13465 X62.166 Y-8.873 Z-0.11
N13470 X62.294 Y-8.925 Z-0.1
N13475 X62.515 Y-9.017 Z-0.079
N13480 X62.699 Y-9.095 Z-0.057
N13485 X62.778 Y-9.129 Z-0.045
N13490 X62.841 Y-9.156 Z-0.032
N13495 X62.871 Y-9.168 Z-0.023
N13500 X62.884 Y-9.175 Z-0.018
N13505 X62.886 Y-9.192 Z-0.001
N13510 X62.884 Y-9.175 Z-0.018
N13515 X62.912 Y-9.184 Z-0.001
N13520 Z5.
N13525 X34.111 Y-13.711
N13530 Z-0.001
N13535 X34.135 Y-13.713 Z-0.024
N13540 X34.115 Y-13.732 Z-0.001
N13545 X34.135 Y-13.713 Z-0.024
N13550 X34.146 Y-13.706 Z-0.033
N13555 X34.147 Y-13.739 Z-0.001
N13560 X34.146 Y-13.706 Z-0.033
N13565 X34.168 Y-13.687 Z-0.046
N13570 X34.191 Y-13.664 Z-0.056
N13575 X34.237 Y-13.624 Z-0.072
N13580 X34.275 Y-13.588 Z-0.084
N13585 X34.352 Y-13.518 Z-0.104
N13590 X34.445 Y-13.436 Z-0.123
N13595 X34.585 Y-13.313 Z-0.147
N13600 X34.749 Y-13.172 Z-0.171
N13605 X34.938 Y-13.014 Z-0.194
N13610 X34.997 Y-12.965 Z-0.201
N13615 X35.19 Y-12.809 Z-0.22
N13620 X35.4 Y-12.644 Z-0.239
N13625 X35.645 Y-12.456 Z-0.258
N13630 X35.926 Y-12.248 Z-0.277
N13635 X36.23 Y-12.032 Z-0.294
N13640 X36.551 Y-11.81 Z-0.31
N13645 X36.69 Y-11.717 Z-0.317
N13650 X36.995 Y-11.518 Z-0.33
N13655 X37.315 Y-11.317 Z-0.341
N13660 X37.655 Y-11.111 Z-0.351
N13665 X38.223 Y-10.787 Z-0.365
N13670 X38.351 Y-10.717 Z-0.366
N13675 X38.965 Y-10.395 Z-0.377
N13680 X39.061 Y-10.348
N13685 X39.784 Y-10.006 Z-0.384
N13690 X40.519 Y-9.69 Z-0.387
N13695 X41.162 Y-9.442 Z-0.386
N13700 X41.277 Y-9.4 Z-0.384
N13705 X41.798 Y-9.219 Z-0.382
N13710 X42.017 Y-9.148 Z-0.378
N13715 X42.418 Y-9.023 Z-0.376
N13720 X42.732 Y-8.931 Z-0.368
N13725 X43.08 Y-8.835 Z-0.363
N13730 X43.601 Y-8.702 Z-0.352
N13735 X44.072 Y-8.594 Z-0.339
N13740 X44.159 Y-8.575 Z-0.337
N13745 X44.691 Y-8.467 Z-0.319
N13750 X45.261 Y-8.366 Z-0.295
N13755 X45.781 Y-8.287 Z-0.27
N13760 X46.101 Y-8.244 Z-0.251
N13765 X46.497 Y-8.198 Z-0.224
N13770 X46.872 Y-8.162 Z-0.194
N13775 X47.157 Y-8.14 Z-0.166
N13780 X47.416 Y-8.123 Z-0.135
N13785 X47.576 Y-8.115 Z-0.11
N13790 X47.698 Y-8.111 Z-0.087
N13795 X47.785 Y-8.106 Z-0.065
N13800 X47.85 Y-8.105 Z-0.044
N13805 X47.87 Z-0.034
N13810 X47.893 Y-8.131 Z-0.001
N13815 X47.87 Y-8.105 Z-0.034
N13820 X47.874 Y-8.104 Z-0.032
N13825 X47.895 Y-8.08 Z-0.001
N13830 X47.874 Y-8.104 Z-0.032
N13835 X47.912 Y-8.103 Z-0.001
N13840 Z5.
N13845 X30.14 Y-35.125
N13850 Z-0.001
N13855 X30.145 Y-35.108 Z-0.008
N13860 X30.152 Y-35.112 Z-0.001
N13865 X30.145 Y-35.108 Z-0.008
N13870 X30.148 Y-35.087 Z-0.013
N13875 X30.15 Y-35.026 Z-0.023
N13880 Y-34.854 Z-0.043
N13885 X30.149 Y-34.599 Z-0.064
N13890 X30.157 Y-34.069 Z-0.099
N13895 X30.177 Y-33.538 Z-0.129
N13900 X30.203 Y-33.102 Z-0.149
N13905 X30.21 Y-32.998 Z-0.155
N13910 X30.251 Y-32.506 Z-0.175
N13915 X30.255 Y-32.46 Z-0.177
N13920 X30.313 Y-31.919 Z-0.198
N13925 X30.323 Y-31.84 Z-0.2
N13930 X30.386 Y-31.351 Z-0.217
N13935 X30.422 Y-31.109 Z-0.224
N13940 X30.483 Y-30.72 Z-0.237
N13945 X30.588 Y-30.13 Z-0.254
N13950 X30.634 Y-29.9 Z-0.258
N13955 X30.722 Y-29.468 Z-0.27
N13960 X30.875 Y-28.802 Z-0.285
N13965 X30.933 Y-28.569 Z-0.289
N13970 X31.054 Y-28.101 Z-0.299
N13975 X31.188 Y-27.622 Z-0.306
N13980 X31.259 Y-27.379 Z-0.312
N13985 X31.335 Y-27.133 Z-0.315
N13990 X31.492 Y-26.633 Z-0.323
N13995 X31.666 Y-26.125 Z-0.329
N14000 X31.756 Y-25.869 Z-0.335
N14005 X31.853 Y-25.608 Z-0.336
N14010 X32.052 Y-25.082 Z-0.344
N14015 X32.257 Y-24.577 Z-0.349
N14020 X32.471 Y-24.077 Z-0.354
N14025 X32.695 Y-23.581 Z-0.359
N14030 X32.93 Y-23.089 Z-0.363
N14035 X33.174 Y-22.602 Z-0.367
N14040 X33.427 Y-22.12 Z-0.37
N14045 X33.69 Y-21.643 Z-0.374
N14050 X33.963 Y-21.171 Z-0.376
N14055 X34.245 Y-20.705 Z-0.379
N14060 X34.535 Y-20.244 Z-0.381
N14065 X34.835 Y-19.79 Z-0.383
N14070 X35.143 Y-19.341 Z-0.384
N14075 X35.46 Y-18.898 Z-0.385
N14080 X35.786 Y-18.462 Z-0.386
N14085 X36.121 Y-18.032
N14090 X36.464 Y-17.607
N14095 X36.878 Y-17.117
N14100 X37.304 Y-16.636
N14105 X37.741 Y-16.166 Z-0.384
N14110 X38.188 Y-15.706 Z-0.383
N14115 X38.646 Y-15.256 Z-0.381
N14120 X39.115 Y-14.817 Z-0.378
N14125 X39.594 Y-14.389 Z-0.375
N14130 X40.082 Y-13.973 Z-0.372
N14135 X40.565 Y-13.581 Z-0.368
N14140 X41.056 Y-13.2 Z-0.364
N14145 X41.555 Y-12.831 Z-0.359
N14150 X42.062 Y-12.474 Z-0.354
N14155 X42.577 Y-12.128 Z-0.348
N14160 X43.099 Y-11.795 Z-0.342
N14165 X43.629 Y-11.472 Z-0.335
N14170 X44.165 Y-11.162 Z-0.327
N14175 X44.709 Y-10.864 Z-0.319
N14180 X45.26 Y-10.578 Z-0.31
N14185 X45.815 Y-10.305 Z-0.3
N14190 X46.376 Y-10.044 Z-0.289
N14195 X46.943 Y-9.795 Z-0.278
N14200 X47.515 Y-9.56 Z-0.265
N14205 X48.093 Y-9.337 Z-0.251
N14210 X48.675 Y-9.127 Z-0.235
N14215 X49.051 Y-8.999 Z-0.224
N14220 X49.412 Y-8.881 Z-0.213
N14225 X49.758 Y-8.772 Z-0.201
N14230 X50.088 Y-8.674 Z-0.188
N14235 X50.401 Y-8.584 Z-0.175
N14240 X50.877 Y-8.457 Z-0.153
N14245 X51.145 Y-8.389 Z-0.139
N14250 X51.405 Y-8.327 Z-0.123
N14255 X51.649 Y-8.271 Z-0.107
N14260 X51.886 Y-8.22 Z-0.09
N14265 X52.193 Y-8.158 Z-0.06
N14270 X52.328 Y-8.133 Z-0.042
N14275 X52.426 Y-8.114 Z-0.022
N14280 X52.433 Y-8.113 Z-0.02
N14285 X52.454 Y-8.11 Z-0.011
N14290 X52.462 Y-8.118 Z-0.001
N14295 X52.454 Y-8.11 Z-0.011
N14300 X52.471 Y-8.103 Z-0.001
N14305 Z5.
N14310 X24.12 Y-18.753
N14315 Z-0.001
N14320 X24.205 Y-18.809 Z-0.046
N14325 X24.274 Y-18.847 Z-0.076
N14330 X24.418 Y-18.909 Z-0.136
N14335 X24.563 Y-18.953 Z-0.188
N14340 X24.63 Y-18.969 Z-0.208
N14345 X24.726 Y-18.987 Z-0.241
N14350 X24.821 Y-18.999 Z-0.268
N14355 X24.889 Y-19.006 Z-0.29
N14360 X25.016 Y-19.011 Z-0.325
N14365 X25.212 Y-19.007 Z-0.379
N14370 X25.377 Y-18.991 Z-0.423
N14375 X25.54 Y-18.968 Z-0.463
N14380 X25.588 Y-18.959 Z-0.473
N14385 X25.711 Y-18.932 Z-0.503
N14390 X25.889 Y-18.883 Z-0.543
N14395 X25.913 Y-18.876 Z-0.547
N14400 X26.074 Y-18.817 Z-0.585
N14405 X26.256 Y-18.741 Z-0.623
N14410 X26.431 Y-18.65 Z-0.664
N14415 X26.548 Y-18.583 Z-0.688
N14420 X26.601 Y-18.551 Z-0.701
N14425 X26.759 Y-18.44 Z-0.74
N14430 X26.852 Y-18.37 Z-0.761
N14435 X26.915 Y-18.32 Z-0.776
N14440 X27.107 Y-18.149 Z-0.827
N14445 X27.173 Y-18.09 Z-0.849
N14450 X27.24 Y-18.033 Z-0.877
N14455 X27.311 Y-17.978 Z-0.909
N14460 X27.386 Y-17.925 Z-0.946
N14465 X27.447 Y-17.884 Z-0.979
N14470 X27.531 Y-17.831 Z-1.029
N14475 X27.619 Y-17.779 Z-1.084
N14480 X27.711 Y-17.73 Z-1.144
N14485 X27.865 Y-17.655 Z-1.25
N14490 X27.974 Y-17.607 Z-1.329
N14495 X28.088 Y-17.562 Z-1.413
N14500 X28.299 Y-17.484 Z-1.576
N14505 X28.427 Y-17.441 Z-1.678
N14510 X28.608 Y-17.387 Z-1.825
N14515 X28.55 Y-17.674 Z-1.563
N14520 X28.517 Y-17.834 Z-1.423
N14525 X28.489 Y-17.963 Z-1.312
N14530 X28.458 Y-18.085 Z-1.208
N14535 X28.398 Y-18.295 Z-1.035
N14540 X28.375 Y-18.372 Z-0.975
N14545 X28.341 Y-18.48 Z-0.895
N14550 X28.304 Y-18.581 Z-0.821
N14555 X28.242 Y-18.723 Z-0.724
N14560 X28.215 Y-18.781 Z-0.689
N14565 X28.175 Y-18.863 Z-0.644
N14570 X28.131 Y-18.94 Z-0.606
N14575 X28.084 Y-19.011 Z-0.574
N14580 X28.039 Y-19.075 Z-0.552
N14585 X27.902 Y-19.267 Z-0.497
N14590 X27.872 Y-19.315 Z-0.484
N14595 X27.834 Y-19.379 Z-0.469
N14600 X27.751 Y-19.535 Z-0.425
N14605 X27.735 Y-19.572 Z-0.414
N14610 X27.682 Y-19.701 Z-0.381
N14615 X27.613 Y-19.893 Z-0.325
N14620 X27.585 Y-19.997 Z-0.299
N14625 X27.542 Y-20.187 Z-0.243
N14630 X27.538 Y-20.214 Z-0.235
N14635 X27.529 Y-20.286 Z-0.216
N14640 X27.521 Y-20.382 Z-0.185
N14645 X27.52 Y-20.423 Z-0.174
N14650 X27.526 Y-20.563 Z-0.126
N14655 X27.551 Y-20.708 Z-0.07
N14660 X27.601 Y-20.859 Z-0.001
N14665 X27.551 Y-20.708 Z-0.07
N14670 X27.526 Y-20.563 Z-0.126
N14675 X27.52 Y-20.423 Z-0.174
N14680 X27.521 Y-20.382 Z-0.185
N14685 X27.529 Y-20.286 Z-0.216
N14690 X27.538 Y-20.214 Z-0.235
N14695 X27.542 Y-20.187 Z-0.243
N14700 X27.585 Y-19.997 Z-0.299
N14705 X27.613 Y-19.893 Z-0.325
N14710 X27.682 Y-19.701 Z-0.381
N14715 X27.735 Y-19.572 Z-0.414
N14720 X27.751 Y-19.535 Z-0.425
N14725 X27.834 Y-19.379 Z-0.469
N14730 X27.872 Y-19.315 Z-0.484
N14735 X27.902 Y-19.267 Z-0.497
N14740 X28.039 Y-19.075 Z-0.552
N14745 X28.084 Y-19.011 Z-0.574
N14750 X28.131 Y-18.94 Z-0.606
N14755 X28.175 Y-18.863 Z-0.644
N14760 X28.215 Y-18.781 Z-0.689
N14765 X28.242 Y-18.723 Z-0.724
N14770 X28.304 Y-18.581 Z-0.821
N14775 X28.341 Y-18.48 Z-0.895
N14780 X28.375 Y-18.372 Z-0.975
N14785 X28.398 Y-18.295 Z-1.035
N14790 X28.458 Y-18.085 Z-1.208
N14795 X28.489 Y-17.963 Z-1.312
N14800 X28.517 Y-17.834 Z-1.423
N14805 X28.55 Y-17.674 Z-1.563
N14810 X28.608 Y-17.387 Z-1.825
N14815 X28.75 Y-17.259 Z-1.913
N14820 X28.872 Y-17.153 Z-1.991
N14825 X29.067 Y-16.989 Z-2.118
N14830 X29.35 Y-16.758 Z-2.304
N14835 X29.669 Y-16.516 Z-2.514
N14840 X29.749 Y-16.457 Z-2.566
N14845 X29.991 Y-16.291 Z-2.719
N14850 X30.358 Y-16.058 Z-2.934
N14855 X30.435 Y-16.011 Z-2.977
N14860 X30.492 Y-15.979 Z-3.006
N14865 X30.601 Y-15.919 Z-3.058
N14870 X30.659 Y-15.889 Z-3.084
N14875 X30.746 Y-15.847 Z-3.119
N14880 X30.878 Y-15.78 Z-3.169
N14885 X30.939 Y-15.751 Z-3.189
N14890 X30.969 Y-15.553 Z-3.06
N14895 X30.992 Y-15.455 Z-2.992
N14900 X31.017 Y-15.361 Z-2.925
N14905 X31.047 Y-15.267 Z-2.857
N14910 X31.081 Y-15.173 Z-2.787
N14915 X31.119 Y-15.079 Z-2.714
N14920 X31.161 Y-14.984 Z-2.639
N14925 X31.208 Y-14.891 Z-2.562
N14930 X31.26 Y-14.798 Z-2.483
N14935 X31.317 Y-14.706 Z-2.401
N14940 X31.38 Y-14.615 Z-2.316
N14945 X31.446 Y-14.528 Z-2.231
N14950 X31.512 Y-14.45 Z-2.15
N14955 X31.577 Y-14.379 Z-2.073
N14960 X31.658 Y-14.301 Z-1.981
N14965 X31.719 Y-14.251 Z-1.913
N14970 X31.799 Y-14.197 Z-1.827
N14975 X31.838 Y-14.178 Z-1.785
N14980 X31.924 Y-14.144 Z-1.694
N14985 X31.838 Y-14.178 Z-1.785
N14990 X31.799 Y-14.197 Z-1.827
N14995 X31.719 Y-14.251 Z-1.913
N15000 X31.658 Y-14.301 Z-1.981
N15005 X31.577 Y-14.379 Z-2.073
N15010 X31.512 Y-14.45 Z-2.15
N15015 X31.446 Y-14.528 Z-2.231
N15020 X31.38 Y-14.615 Z-2.316
N15025 X31.317 Y-14.706 Z-2.401
N15030 X31.26 Y-14.798 Z-2.483
N15035 X31.208 Y-14.891 Z-2.562
N15040 X31.161 Y-14.984 Z-2.639
N15045 X31.119 Y-15.079 Z-2.714
N15050 X31.081 Y-15.173 Z-2.787
N15055 X31.047 Y-15.267 Z-2.857
N15060 X31.017 Y-15.361 Z-2.925
N15065 X30.992 Y-15.455 Z-2.992
N15070 X30.969 Y-15.553 Z-3.06
N15075 X30.939 Y-15.751 Z-3.189
N15080 X31.063 Y-15.802 Z-3.114
N15085 X31.224 Y-15.864 Z-3.02
N15090 X31.395 Y-15.909 Z-2.916
N15095 X31.557 Y-15.939 Z-2.815
N15100 X31.751 Y-15.961 Z-2.692
N15105 X31.823 Y-15.963 Z-2.643
N15110 X31.892 Y-15.961 Z-2.596
N15115 X31.959 Y-15.958 Z-2.549
N15120 X32.093 Y-15.942 Z-2.452
N15125 X32.16 Y-15.931 Z-2.402
N15130 X32.229 Y-15.917 Z-2.349
N15135 X32.299 Y-15.899 Z-2.294
N15140 X32.371 Y-15.878 Z-2.236
N15145 X32.444 Y-15.853 Z-2.175
N15150 X32.518 Y-15.825 Z-2.111
N15155 X32.591 Y-15.793 Z-2.047
N15160 X32.661 Y-15.758 Z-1.982
N15165 X32.749 Y-15.709 Z-1.897
N15170 X32.799 Y-15.675 Z-1.844
N15175 X32.865 Y-15.621 Z-1.766
N15180 X32.895 Y-15.592 Z-1.727
N15185 X32.939 Y-15.533 Z-1.655
N15190 X32.959 Y-15.503 Z-1.619
N15195 Z5.
N15200 X3.371 Y-11.415
N15205 Z-0.001
N15210 X3.669 Y-11.503 Z-0.158
N15215 X3.988 Y-11.595 Z-0.342
N15220 X4.328 Y-11.692 Z-0.552
N15225 X4.687 Y-11.793 Z-0.785
N15230 X5.423 Y-11.996 Z-1.29
N15235 X6.202 Y-12.208 Z-1.845
N15240 X6.902 Y-12.398 Z-2.35
N15245 X7.452 Y-12.55 Z-2.741
N15250 X7.685 Y-12.621 Z-2.903
N15255 X7.873 Y-12.673 Z-3.029
N15260 X7.945 Y-12.696 Z-3.076
N15265 X7.95 Y-12.657 Z-3.04
N15270 X7.974 Y-12.397 Z-2.797
N15275 X7.989 Y-12.231 Z-2.634
N15280 X7.974 Y-12.397 Z-2.797
N15285 X7.95 Y-12.657 Z-3.04
N15290 X7.945 Y-12.696 Z-3.076
N15295 X8.065 Y-12.815 Z-3.107
N15300 X8.157 Y-12.91 Z-3.124
N15305 X8.23 Y-12.985 Z-3.132
N15310 X8.282 Y-13.035 Z-3.135
N15315 X8.294 Y-13.046
N15320 X8.228 Y-13.206 Z-2.972
N15325 X8.171 Y-13.339 Z-2.83
N15330 X8.228 Y-13.206 Z-2.972
N15335 X8.294 Y-13.046 Z-3.135
N15340 X8.316 Y-13.055 Z-3.127
N15345 X8.387 Y-13.082 Z-3.097
N15350 X8.491 Y-13.118 Z-3.05
N15355 X8.605 Y-13.156 Z-2.995
N15360 X8.819 Y-13.222 Z-2.885
N15365 X8.97 Y-13.265 Z-2.809
N15370 X9.124 Y-13.306 Z-2.736
N15375 X9.279 Y-13.347 Z-2.67
N15380 X9.435 Y-13.389 Z-2.612
N15385 X9.594 Y-13.431 Z-2.563
N15390 X9.756 Y-13.475 Z-2.522
N15395 X9.839 Y-13.497 Z-2.506
N15400 X9.922 Y-13.519 Z-2.492
N15405 X10.007 Y-13.541 Z-2.481
N15410 X10.093 Y-13.564 Z-2.473
N15415 X10.18 Y-13.588 Z-2.468
N15420 X10.338 Y-13.63 Z-2.467
N15425 X10.477 Y-13.667 Z-2.475
N15430 X10.616 Y-13.704 Z-2.492
N15435 X10.686 Y-13.723 Z-2.503
N15440 X10.826 Y-13.76 Z-2.532
N15445 X10.967 Y-13.798 Z-2.569
N15450 X11.108 Y-13.836 Z-2.614
N15455 X11.251 Y-13.874 Z-2.667
N15460 X11.395 Y-13.912 Z-2.728
N15465 X11.541 Y-13.951 Z-2.796
N15470 X11.689 Y-13.991 Z-2.871
N15475 X11.838 Y-14.031 Z-2.953
N15480 X11.99 Y-14.071 Z-3.042
N15485 X12.145 Y-14.112 Z-3.138
N15490 X12.301 Y-14.154 Z-3.241
N15495 X12.461 Y-14.197 Z-3.351
N15500 X12.624 Y-14.24 Z-3.467
N15505 X12.637 Y-14.418 Z-3.392
N15510 X12.649 Y-14.591 Z-3.327
N15515 X12.662 Y-14.759 Z-3.271
N15520 X12.673 Y-14.924 Z-3.224
N15525 X12.685 Y-15.085 Z-3.185
N15530 X12.697 Y-15.245 Z-3.154
N15535 X12.708 Y-15.403 Z-3.132
N15540 X12.719 Y-15.56 Z-3.117
N15545 X12.621 Y-15.684 Z-3.004
N15550 X12.525 Y-15.805 Z-2.898
N15555 X12.43 Y-15.924 Z-2.799
N15560 X12.338 Y-16.041 Z-2.706
N15565 X12.247 Y-16.155 Z-2.619
N15570 X12.158 Y-16.268 Z-2.54
N15575 X12.069 Y-16.379 Z-2.467
N15580 X11.983 Y-16.488 Z-2.401
N15585 X11.897 Y-16.596 Z-2.343
N15590 X11.812 Y-16.703 Z-2.292
N15595 X11.728 Y-16.809 Z-2.248
N15600 X11.644 Y-16.914 Z-2.212
N15605 X11.561 Y-17.018 Z-2.184
N15610 X11.479 Y-17.122 Z-2.164
N15615 X11.397 Y-17.226 Z-2.152
N15620 X11.314 Y-17.329 Z-2.148
N15625 X11.24 Y-17.423 Z-2.151
N15630 X11.168 Y-17.513 Z-2.16
N15635 X11.099 Y-17.6 Z-2.175
N15640 X11.032 Y-17.685 Z-2.195
N15645 X10.966 Y-17.768 Z-2.219
N15650 X10.901 Y-17.849 Z-2.248
N15655 X10.838 Y-17.93 Z-2.28
N15660 X10.774 Y-18.01 Z-2.317
N15665 X10.661 Y-18.158 Z-2.39
N15670 X10.508 Y-18.376 Z-2.504
N15675 X10.319 Y-18.664 Z-2.647
N15680 X10.283 Y-18.722 Z-2.673
N15685 X10.163 Y-18.909 Z-2.757
N15690 X10.034 Y-19.114 Z-2.838
N15695 X9.931 Y-19.286 Z-2.897
N15700 X9.9 Y-19.342 Z-2.913
N15705 X9.849 Y-19.429 Z-2.938
N15710 X9.766 Y-19.585 Z-2.973
N15715 X9.731 Y-19.649 Z-2.983
N15720 X9.688 Y-19.738 Z-2.994
N15725 X9.65 Y-19.82 Z-3.
N15730 X9.614 Y-19.901 Z-3.001
N15735 X9.578 Y-19.987 Z-2.998
N15740 X9.531 Y-20.105 Z-2.986
N15745 X9.484 Y-20.223 Z-2.967
N15750 X9.443 Y-20.32 Z-2.944
N15755 X9.388 Y-20.442 Z-2.907
N15760 X9.375 Y-20.47 Z-2.897
N15765 X9.341 Y-20.54 Z-2.868
N15770 X9.302 Y-20.614 Z-2.835
N15775 X9.254 Y-20.696 Z-2.794
N15780 X9.169 Y-20.83 Z-2.721
N15785 X9.12 Y-20.908 Z-2.674
N15790 X9.029 Y-21.046 Z-2.587
N15795 X8.931 Y-21.189 Z-2.493
N15800 X8.871 Y-21.271 Z-2.435
N15805 X8.641 Y-21.599 Z-2.202
N15810 X7.881 Y-22.627 Z-1.433
N15815 X7.57 Y-23.045 Z-1.124
N15820 X7.449 Y-23.204 Z-1.007
N15825 X7.116 Y-23.655 Z-0.691
N15830 X7.036 Y-23.76 Z-0.619
N15835 X6.832 Y-24.035 Z-0.439
N15840 X6.636 Y-24.303 Z-0.276
N15845 X6.449 Y-24.562 Z-0.129
N15850 X6.27 Y-24.812 Z0.
N15855 X6.449 Y-24.562 Z-0.129
N15860 X6.636 Y-24.303 Z-0.276
N15865 X6.832 Y-24.035 Z-0.439
N15870 X7.036 Y-23.76 Z-0.619
N15875 X7.116 Y-23.655 Z-0.691
N15880 X7.449 Y-23.204 Z-1.007
N15885 X7.57 Y-23.045 Z-1.124
N15890 X7.881 Y-22.627 Z-1.433
N15895 X8.641 Y-21.599 Z-2.202
N15900 X8.871 Y-21.271 Z-2.435
N15905 X8.931 Y-21.189 Z-2.493
N15910 X9.029 Y-21.046 Z-2.587
N15915 X9.12 Y-20.908 Z-2.674
N15920 X9.169 Y-20.83 Z-2.721
N15925 X9.254 Y-20.696 Z-2.794
N15930 X9.302 Y-20.614 Z-2.835
N15935 X9.341 Y-20.54 Z-2.868
N15940 X9.375 Y-20.47 Z-2.897
N15945 X9.388 Y-20.442 Z-2.907
N15950 X9.443 Y-20.32 Z-2.944
N15955 X9.484 Y-20.223 Z-2.967
N15960 X9.531 Y-20.105 Z-2.986
N15965 X9.578 Y-19.987 Z-2.998
N15970 X9.614 Y-19.901 Z-3.001
N15975 X9.65 Y-19.82 Z-3.
N15980 X9.688 Y-19.738 Z-2.994
N15985 X9.731 Y-19.649 Z-2.983
N15990 X9.766 Y-19.585 Z-2.973
N15995 X9.849 Y-19.429 Z-2.938
N16000 X9.9 Y-19.342 Z-2.913
N16005 X9.931 Y-19.286 Z-2.897
N16010 X10.034 Y-19.114 Z-2.838
N16015 X10.163 Y-18.909 Z-2.757
N16020 X10.283 Y-18.722 Z-2.673
N16025 X10.319 Y-18.664 Z-2.647
N16030 X10.508 Y-18.376 Z-2.504
N16035 X10.661 Y-18.158 Z-2.39
N16040 X10.774 Y-18.01 Z-2.317
N16045 X10.838 Y-17.93 Z-2.28
N16050 X10.901 Y-17.849 Z-2.248
N16055 X10.966 Y-17.768 Z-2.219
N16060 X11.032 Y-17.685 Z-2.195
N16065 X11.099 Y-17.6 Z-2.175
N16070 X11.168 Y-17.513 Z-2.16
N16075 X11.24 Y-17.423 Z-2.151
N16080 X11.314 Y-17.329 Z-2.148
N16085 X11.397 Y-17.226 Z-2.152
N16090 X11.479 Y-17.122 Z-2.164
N16095 X11.561 Y-17.018 Z-2.184
N16100 X11.644 Y-16.914 Z-2.212
N16105 X11.728 Y-16.809 Z-2.248
N16110 X11.812 Y-16.703 Z-2.292
N16115 X11.897 Y-16.596 Z-2.343
N16120 X11.983 Y-16.488 Z-2.401
N16125 X12.069 Y-16.379 Z-2.467
N16130 X12.158 Y-16.268 Z-2.54
N16135 X12.247 Y-16.155 Z-2.619
N16140 X12.338 Y-16.041 Z-2.706
N16145 X12.43 Y-15.924 Z-2.799
N16150 X12.525 Y-15.805 Z-2.898
N16155 X12.621 Y-15.684 Z-3.004
N16160 X12.719 Y-15.56 Z-3.117
N16165 X12.838 Y-15.668 Z-3.001
N16170 X12.955 Y-15.774 Z-2.891
N16175 X13.069 Y-15.878 Z-2.787
N16180 X13.181 Y-15.98 Z-2.691
N16185 X13.291 Y-16.08 Z-2.601
N16190 X13.399 Y-16.179 Z-2.519
N16195 X13.505 Y-16.276 Z-2.443
N16200 X13.61 Y-16.371 Z-2.374
N16205 X13.714 Y-16.466 Z-2.313
N16210 X13.816 Y-16.559 Z-2.26
N16215 X13.918 Y-16.651 Z-2.214
N16220 X14.018 Y-16.743 Z-2.177
N16225 X14.118 Y-16.834 Z-2.147
N16230 X14.218 Y-16.925 Z-2.126
N16235 X14.317 Y-17.015 Z-2.113
N16240 X14.416 Y-17.105 Z-2.109
N16245 X14.515 Y-17.196 Z-2.113
N16250 X14.61 Y-17.282 Z-2.125
N16255 X14.702 Y-17.366 Z-2.144
N16260 X14.792 Y-17.448 Z-2.169
N16265 X14.879 Y-17.527 Z-2.2
N16270 X14.965 Y-17.606 Z-2.236
N16275 X15.05 Y-17.683 Z-2.277
N16280 X15.135 Y-17.76 Z-2.322
N16285 X15.262 Y-17.88 Z-2.398
N16290 X15.387 Y-18.006 Z-2.48
N16295 X15.511 Y-18.138 Z-2.569
N16300 X15.587 Y-18.226 Z-2.628
N16305 X15.842 Y-18.536 Z-2.838
N16310 X16.156 Y-18.926 Z-3.095
N16315 X16.452 Y-19.297 Z-3.329
N16320 X16.706 Y-19.618 Z-3.52
N16325 X16.913 Y-19.882 Z-3.669
