%
(FILAMENTSHELF2)
(T1  D=6.35 CR=0. - ZMIN=-0.5 - FLAT END MILL)
N10 G90 G94 G17 G91.1
N15 G21
(WHEN USING FUSION 360 FOR PERSONAL USE, THE FEEDRATE OF)
(RAPID MOVES IS REDUCED TO MATCH THE FEEDRATE OF CUTTING)
(MOVES, WHICH CAN INCREASE MACHINING TIME. UNRESTRICTED RAPID)
(MOVES ARE AVAILABLE WITH A FUSION 360 SUBSCRIPTION.)
N20 G53 G0 Z0.
(2D CONTOUR1)
N25 T1 M6
N30 S10000 M3
N35 G54
N40 G0 X4.185 Y-1.89
N45 G43 Z33.74 H1
N50 G1 Z23.74 F5500.
N55 Z8.875 F508.
N60 G19 G3 Y-1.255 Z8.24 J0.635 K0. F2500.
N65 G1 Y-0.62
N70 G17 G3 X3.55 Y0.015 I-0.635 J0.
N75 G2 X0.375 Y3.19 I0. J3.175 F5500.
N80 G1 Y180.99
N85 G2 X3.55 Y184.165 I3.175 J0.
N90 G1 X36.389
N95 G2 X47.615 Y179.515 I0. J-15.875
N100 G1 X78.275 Y148.855
N105 G2 X82.925 Y137.629 I-11.226 J-11.225
N110 G1 Y116.843
N115 G3 X89.435 Y101.127 I22.225 J0.
N120 G1 X126.887 Y63.674
N125 G3 X142.603 Y57.165 I15.716 J15.716
N130 G1 X255.372
N135 G3 X271.087 Y63.674 I0. J22.225
N140 G1 X285.966 Y78.553
N145 G3 X292.475 Y94.268 I-15.716 J15.715
N150 G1 Y115.31
N155 G3 X285.966 Y131.025 I-22.225 J0.
N160 G1 X262.333 Y154.658
N165 G2 X257.683 Y165.883 I11.225 J11.226
N170 G1 Y173.855
N175 G2 X262.333 Y185.081 I15.875 J0.
N180 G1 X272.587 Y195.335
N185 G2 X283.813 Y199.985 I11.226 J-11.225
N190 G1 X291.252
N195 G2 X302.477 Y195.335 I0. J-15.875
N200 G1 X333.816 Y163.997
N205 G2 X349.625 Y125.831 I-38.166 J-38.166
N210 G1 Y83.747
N215 G2 X333.816 Y45.581 I-53.975 J0.
N220 G1 X304.059 Y15.824
N225 G2 X265.893 Y0.015 I-38.166 J38.166
N230 G1 X3.55
N235 G3 X2.915 Y-0.62 I0. J-0.635 F2500.
N240 G1 Y-1.255
N245 G19 G2 Y-1.89 Z8.875 J0. K0.635
N250 G1 Z23.74 F5500.
N255 X4.185
N260 Z13.24 F508.
N265 Z0.135
N270 G3 Y-1.255 Z-0.5 J0.635 K0. F2500.
N275 G1 Y-0.62
N280 G17 G3 X3.55 Y0.015 I-0.635 J0.
N285 G2 X0.375 Y3.19 I0. J3.175 F5500.
N290 G1 Y38.687
N295 Z1.5
N300 Y53.037
N305 Z-0.5 F508.
N310 Y86.103 F5500.
N315 Z1.5
N320 Y100.453
N325 Z-0.5 F508.
N330 Y128.159 F5500.
N335 Z1.5
N340 Y142.509
N345 Z-0.5 F508.
N350 Y180.99 F5500.
N355 G2 X3.55 Y184.165 I3.175 J0.
N360 G1 X11.653
N365 Z1.5
N370 X26.003
N375 Z-0.5 F508.
N380 X36.389 F5500.
N385 G2 X47.615 Y179.515 I0. J-15.875
N390 G1 X57.537 Y169.593
N395 Z1.5
N400 X67.684 Y159.446
N405 Z-0.5 F508.
N410 X78.275 Y148.855 F5500.
N415 G2 X82.925 Y137.629 I-11.226 J-11.225
N420 G1 Y116.843
N425 G3 X89.435 Y101.127 I22.225 J0.
N430 G1 X105.587 Y84.974
N435 Z1.5
N440 X115.734 Y74.827
N445 Z-0.5 F508.
N450 X126.887 Y63.674 F5500.
N455 G3 X142.603 Y57.165 I15.716 J15.716
N460 G1 X156.635
N465 Z1.5
N470 X170.985
N475 Z-0.5 F508.
N480 X210.998 F5500.
N485 Z1.5
N490 X227.775
N495 Z-0.5 F508.
N500 X255.372 F5500.
N505 G3 X271.087 Y63.674 I0. J22.225
N510 G1 X273.446 Y66.034
N515 Z1.5
N520 X283.594 Y76.181
N525 Z-0.5 F508.
N530 X285.966 Y78.553 F5500.
N535 G3 X292.475 Y94.268 I-15.716 J15.715
N540 G1 Y98.081
N545 Z1.5
N550 Y112.431
N555 Z-0.5 F508.
N560 Y115.31 F5500.
N565 G3 X285.966 Y131.025 I-22.225 J0.
N570 G1 X262.333 Y154.658
N575 G2 X257.683 Y165.883 I11.225 J11.226
N580 G1 Y173.855
N585 G2 X262.333 Y185.081 I15.875 J0.
N590 G1 X262.394 Y185.143
N595 Z1.5
N600 X272.541 Y195.29
N605 Z-0.5 F508.
N610 X272.587 Y195.335 F5500.
N615 G2 X283.813 Y199.985 I11.226 J-11.225
N620 G1 X291.252
N625 G2 X302.477 Y195.335 I0. J-15.875
N630 G1 X312.472 Y185.34
N635 Z1.5
N640 X322.619 Y175.193
N645 Z-0.5 F508.
N650 X333.816 Y163.997 F5500.
N655 G2 X349.625 Y125.831 I-38.166 J-38.166
N660 G1 Y111.203
N665 Z1.5
N670 Y96.853
N675 Z-0.5 F508.
N680 Y83.747 F5500.
N685 G2 X333.816 Y45.581 I-53.975 J0.
N690 G1 X320.1 Y31.865
N695 Z1.5
N700 X309.953 Y21.718
N705 Z-0.5 F508.
N710 X304.059 Y15.824 F5500.
N715 G2 X265.893 Y0.015 I-38.166 J38.166
N720 G1 X249.364
N725 Z1.5
N730 X235.014
N735 Z-0.5 F508.
N740 X194.519 F5500.
N745 Z1.5
N750 X180.169
N755 Z-0.5 F508.
N760 X127.634 F5500.
N765 Z1.5
N770 X113.284
N775 Z-0.5 F508.
N780 X53.393 F5500.
N785 Z1.5
N790 X39.043
N795 Z-0.5 F508.
N800 X3.55 F5500.
N805 G3 X2.915 Y-0.62 I0. J-0.635 F2500.
N810 G1 Y-1.255
N815 G19 G2 Y-1.89 Z0.135 J0. K0.635
N820 G1 Z33.74 F5500.
N825 G17
N830 G53 G0 Z0.
N835 M30
%
