%
(FILAMENTSHELF2)
(T1  D=6.35 CR=0. - ZMIN=-0.5 - FLAT END MILL)
N10 G90 G94 G17 G91.1
N15 G21
(WHEN USING FUSION 360 FOR PERSONAL USE, THE FEEDRATE OF)
(RAPID MOVES IS REDUCED TO MATCH THE FEEDRATE OF CUTTING)
(MOVES, WHICH CAN INCREASE MACHINING TIME. UNRESTRICTED RAPID)
(MOVES ARE AVAILABLE WITH A FUSION 360 SUBSCRIPTION.)
N20 G53 G0 Z0.
(2D CONTOUR1)
N25 T1 M6
N30 S10000 M3
N35 G54
N40 G0 X112.545 Y18.11
N45 G43 Z33.74 H1
N50 G1 Z23.74 F5500.
N55 Z21.875 F508.
N60 G19 G3 Y18.745 Z21.24 J0.635 K0. F2500.
N65 G1 Y19.38
N70 G17 G3 X111.91 Y20.015 I-0.635 J0.
N75 G1 X28.55 Z18.329 F508.
N80 G2 X25.375 Y23.19 Z18.155 I0. J3.175
N85 G1 Y200.99 Z11.946
N90 G2 X28.55 Y204.165 Z11.772 I3.175 J0.
N95 G1 X61.389 Z10.625
N100 G2 X72.615 Y199.515 Z10.19 I0. J-15.875
N105 G1 X103.275 Y168.855 Z8.675
N110 G2 X107.925 Y157.629 Z8.24 I-11.225 J-11.226
N115 G1 Y136.843 F5500.
N120 G3 X114.434 Y121.127 I22.225 J-0.001
N125 G1 X151.887 Y83.674
N130 G3 X167.603 Y77.165 I15.716 J15.716
N135 G1 X280.372
N140 G3 X296.087 Y83.674 I0. J22.225
N145 G1 X310.966 Y98.553
N150 G3 X317.475 Y114.268 I-15.716 J15.715
N155 G1 Y135.31
N160 G3 X310.966 Y151.025 I-22.225 J0.
N165 G1 X287.333 Y174.658
N170 G2 X282.683 Y185.883 I11.225 J11.226
N175 G1 Y193.855
N180 G2 X287.333 Y205.081 I15.875 J0.
N185 G1 X297.587 Y215.335
N190 G2 X308.813 Y219.985 I11.226 J-11.225
N195 G1 X316.252
N200 G2 X327.477 Y215.335 I0. J-15.875
N205 G1 X358.816 Y183.997
N210 G2 X374.625 Y145.831 I-38.166 J-38.166
N215 G1 Y103.747
N220 G2 X358.816 Y65.581 I-53.975 J0.
N225 G1 X329.059 Y35.824
N230 G2 X290.893 Y20.015 I-38.166 J38.166
N235 G1 X28.55
N240 G2 X25.375 Y23.19 I0. J3.175
N245 G1 Y200.99
N250 G2 X28.55 Y204.165 I3.175 J0.
N255 G1 X61.389
N260 G2 X72.615 Y199.515 I0. J-15.875
N265 G1 X103.275 Y168.855
N270 G2 X107.925 Y157.629 I-11.225 J-11.226
N275 G1 Y136.843 Z7.813 F508.
N280 G3 X114.434 Y121.127 Z7.454 I22.225 J-0.001
N285 G1 X151.887 Y83.674 Z6.366
N290 G3 X167.603 Y77.165 Z6.007 I15.716 J15.716
N295 G1 X280.372 Z3.69
N300 G3 X296.087 Y83.674 Z3.331 I0. J22.225
N305 G1 X310.966 Y98.553 Z2.898
N310 G3 X317.475 Y114.268 Z2.54 I-15.716 J15.715
N315 G1 Y135.31 Z2.107
N320 G3 X310.966 Y151.025 Z1.749 I-22.225 J0.
N325 G1 X287.333 Y174.658 Z1.062
N330 G2 X282.683 Y185.883 Z0.806 I11.225 J11.226
N335 G1 Y193.855 Z0.642
N340 G2 X287.333 Y205.081 Z0.386 I15.875 J0.
N345 G1 X287.394 Y205.143 Z0.384
N350 Z1.5
N355 X297.541 Y215.29
N360 Z0.089
N365 X297.587 Y215.335 Z0.088
N370 G2 X308.813 Y219.985 Z-0.169 I11.226 J-11.225
N375 G1 X316.252 Z-0.322
N380 G2 X324.507 Y217.67 Z-0.5 I0. J-15.875
N385 X327.477 Y215.335 I-8.255 J-13.56 F5500.
N390 G1 X337.472 Y205.34
N395 Z1.5
N400 X347.619 Y195.193
N405 Z-0.5 F508.
N410 X358.816 Y183.997 F5500.
N415 G2 X374.625 Y145.831 I-38.166 J-38.166
N420 G1 Y131.203
N425 Z1.5
N430 Y116.853
N435 Z-0.5 F508.
N440 Y103.747 F5500.
N445 G2 X358.816 Y65.581 I-53.975 J0.
N450 G1 X345.1 Y51.865
N455 Z1.5
N460 X334.953 Y41.718
N465 Z-0.5 F508.
N470 X329.059 Y35.824 F5500.
N475 G2 X290.893 Y20.015 I-38.166 J38.166
N480 G1 X274.364
N485 Z1.5
N490 X260.014
N495 Z-0.5 F508.
N500 X219.519 F5500.
N505 Z1.5
N510 X205.169
N515 Z-0.5 F508.
N520 X152.634 F5500.
N525 Z1.5
N530 X138.284
N535 Z-0.5 F508.
N540 X78.393 F5500.
N545 Z1.5
N550 X64.043
N555 Z-0.5 F508.
N560 X28.55 F5500.
N565 G2 X25.375 Y23.19 I0. J3.175
N570 G1 Y58.687
N575 Z1.5
N580 Y73.037
N585 Z-0.5 F508.
N590 Y106.103 F5500.
N595 Z1.5
N600 Y120.453
N605 Z-0.5 F508.
N610 Y148.159 F5500.
N615 Z1.5
N620 Y162.509
N625 Z-0.5 F508.
N630 Y200.99 F5500.
N635 G2 X28.55 Y204.165 I3.175 J0.
N640 G1 X36.653
N645 Z1.5
N650 X51.003
N655 Z-0.5 F508.
N660 X61.389 F5500.
N665 G2 X72.615 Y199.515 I0. J-15.875
N670 G1 X82.537 Y189.593
N675 Z1.5
N680 X92.684 Y179.446
N685 Z-0.5 F508.
N690 X103.275 Y168.855 F5500.
N695 G2 X107.925 Y157.629 I-11.225 J-11.226
N700 G1 Y136.843
N705 G3 X114.434 Y121.127 I22.225 J-0.001
N710 G1 X130.587 Y104.974
N715 Z1.5
N720 X140.734 Y94.827
N725 Z-0.5 F508.
N730 X151.887 Y83.674 F5500.
N735 G3 X167.603 Y77.165 I15.716 J15.716
N740 G1 X181.635
N745 Z1.5
N750 X195.985
N755 Z-0.5 F508.
N760 X235.998 F5500.
N765 Z1.5
N770 X252.775
N775 Z-0.5 F508.
N780 X280.372 F5500.
N785 G3 X296.087 Y83.674 I0. J22.225
N790 G1 X298.446 Y86.034
N795 Z1.5
N800 X308.594 Y96.181
N805 Z-0.5 F508.
N810 X310.966 Y98.553 F5500.
N815 G3 X317.475 Y114.268 I-15.716 J15.715
N820 G1 Y118.081
N825 Z1.5
N830 Y132.431
N835 Z-0.5 F508.
N840 Y135.31 F5500.
N845 G3 X310.966 Y151.025 I-22.225 J0.
N850 G1 X287.333 Y174.658
N855 G2 X282.683 Y185.883 I11.225 J11.226
N860 G1 Y193.855
N865 G2 X287.333 Y205.081 I15.875 J0.
N870 G1 X287.394 Y205.143
N875 Z1.5
N880 X297.541 Y215.29
N885 Z-0.5 F508.
N890 X297.587 Y215.335 F5500.
N895 G2 X308.813 Y219.985 I11.226 J-11.225
N900 G1 X316.252
N905 G2 X324.507 Y217.67 I0. J-15.875
N910 G3 X325.379 Y217.882 I0.33 J0.542 F2500.
N915 G1 X325.71 Y218.424
N920 X325.761 Y218.509 Z-0.492
N925 X325.812 Y218.592 Z-0.469
N930 X325.859 Y218.671 Z-0.431
N935 X325.904 Y218.743 Z-0.379
N940 X325.943 Y218.808 Z-0.314
N945 X325.977 Y218.863 Z-0.238
N950 X326.004 Y218.908 Z-0.153
N955 X326.024 Y218.94 Z-0.061
N960 X326.036 Y218.96 Z0.036
N965 X326.04 Y218.967 Z0.135
N970 Z33.74 F5500.
N975 G53 G0 Z0.
N980 M30
%
