%
(FILAMENTSHELF)
(T4  D=0.2362 CR=0. - ZMIN=0. - FLAT END MILL)
N10 G90 G94 G17 G91.1
N15 G20
(WHEN USING FUSION 360 FOR PERSONAL USE, THE FEEDRATE OF)
(RAPID MOVES IS REDUCED TO MATCH THE FEEDRATE OF CUTTING)
(MOVES, WHICH CAN INCREASE MACHINING TIME. UNRESTRICTED RAPID)
(MOVES ARE AVAILABLE WITH A FUSION 360 SUBSCRIPTION.)
N20 G53 G0 Z0.
(2D CONTOUR1)
N25 T4 M6
N30 S7500 M3
N35 G54
N40 G0 X7.8352 Y6.4705
N45 G43 Z2.4035 H4
N50 G1 Z2.128 F133.858
N55 Z2.0886 F44.619
N60 Z1.8366
N65 X7.835 Y6.4704 Z1.8329 F133.858
N70 X7.8341 Y6.4701 Z1.8293
N75 X7.8328 Y6.4697 Z1.8259
N80 X7.831 Y6.4691 Z1.8227
N85 X7.8287 Y6.4683 Z1.8199
N90 X7.826 Y6.4675 Z1.8175
N95 X7.823 Y6.4665 Z1.8156
N100 X7.8197 Y6.4654 Z1.8141
N105 X7.8163 Y6.4643 Z1.8133
N110 X7.8128 Y6.4632 Z1.813
N115 X7.7903 Y6.4559
N120 G3 X7.7751 Y6.4262 I0.0073 J-0.0225
N125 X8.7166 Y5.249 I2.0281 J0.657
N130 G2 X7.5768 Y3.325 I-0.5699 J-0.962
N135 X7.308 Y3.4978 I2.2264 J3.7581
N140 X7.292 Y3.6783 I0.0675 J0.0969
N145 G1 X7.7388 Y4.1251
N150 X6.8452 Y5.0188
N155 X6.3984 Y4.5719
N160 G2 X6.2179 Y4.588 I-0.0835 J0.0835
N165 X5.5037 Y6.3123 I3.5853 J2.4952
N170 X5.6199 Y6.4513 I0.1163 J0.0208
N175 G1 X6.2518
N180 Y7.715
N185 X5.6199
N190 G2 X5.5037 Y7.854 I0. J0.1181
N195 X6.2179 Y9.5783 I4.2996 J-0.7708
N200 X6.3984 Y9.5944 I0.0969 J-0.0675
N205 G1 X6.8452 Y9.1475
N210 X7.7388 Y10.0412
N215 X7.292 Y10.488
N220 G2 X7.308 Y10.6685 I0.0835 J0.0835
N225 X9.0324 Y11.3827 I2.4952 J-3.5853
N230 X9.1713 Y11.2665 I0.0208 J-0.1163
N235 G1 Y10.7013
N240 X10.4351
N245 Y11.3331
N250 G2 X10.5532 Y11.4513 I0.1181 J0.
N255 G1 X13.5532
N260 G2 X13.6713 Y11.3331 I0. J-0.1181
N265 G1 Y10.7013
N270 X16.9351
N275 Y11.3331
N280 G2 X17.0532 Y11.4513 I0.1181 J0.
N285 G1 X19.0532
N290 G2 X19.1713 Y11.3331 I0. J-0.1181
N295 G1 Y4.8331
N300 G2 X19.0532 Y4.715 I-0.1181 J0.
N305 G1 X16.6782
N310 G2 X15.5601 Y5.8331 I0. J1.1181
N315 G1 Y8.2272
N320 G3 X14.5782 Y9.2091 I-0.9819 J0.
N325 G1 X13.3289
N330 X9.9666
N335 X9.958 Y9.2094
N340 G3 X7.7751 Y6.4262 I-0.1548 J-2.1263
N345 X7.8049 Y6.411 I0.0225 J0.0073
N350 G1 X7.8273 Y6.4182
N355 X7.8308 Y6.4194 Z1.8133
N360 X7.8343 Y6.4205 Z1.8141
N365 X7.8375 Y6.4215 Z1.8156
N370 X7.8405 Y6.4225 Z1.8175
N375 X7.8432 Y6.4234 Z1.8199
N380 X7.8455 Y6.4241 Z1.8227
N385 X7.8474 Y6.4247 Z1.8259
N390 X7.8487 Y6.4252 Z1.8293
N395 X7.8495 Y6.4254 Z1.8329
N400 X7.8498 Y6.4255 Z1.8366
N405 Z2.128
N410 X7.8352 Y6.4705
N415 Z1.9705 F44.619
N420 Z1.7185
N425 X7.835 Y6.4704 Z1.7148 F133.858
N430 X7.8341 Y6.4701 Z1.7112
N435 X7.8328 Y6.4697 Z1.7078
N440 X7.831 Y6.4691 Z1.7046
N445 X7.8287 Y6.4683 Z1.7018
N450 X7.826 Y6.4675 Z1.6994
N455 X7.823 Y6.4665 Z1.6975
N460 X7.8197 Y6.4654 Z1.696
N465 X7.8163 Y6.4643 Z1.6952
N470 X7.8128 Y6.4632 Z1.6949
N475 X7.7903 Y6.4559
N480 G3 X7.7751 Y6.4262 I0.0073 J-0.0225
N485 X8.7166 Y5.249 I2.0281 J0.657
N490 G2 X7.5768 Y3.325 I-0.5699 J-0.962
N495 X7.308 Y3.4978 I2.2264 J3.7581
N500 X7.292 Y3.6783 I0.0675 J0.0969
N505 G1 X7.7388 Y4.1251
N510 X6.8452 Y5.0188
N515 X6.3984 Y4.5719
N520 G2 X6.2179 Y4.588 I-0.0835 J0.0835
N525 X5.5037 Y6.3123 I3.5853 J2.4952
N530 X5.6199 Y6.4513 I0.1163 J0.0208
N535 G1 X6.2518
N540 Y7.715
N545 X5.6199
N550 G2 X5.5037 Y7.854 I0. J0.1181
N555 X6.2179 Y9.5783 I4.2996 J-0.7708
N560 X6.3984 Y9.5944 I0.0969 J-0.0675
N565 G1 X6.8452 Y9.1475
N570 X7.7388 Y10.0412
N575 X7.292 Y10.488
N580 G2 X7.308 Y10.6685 I0.0835 J0.0835
N585 X9.0324 Y11.3827 I2.4952 J-3.5853
N590 X9.1713 Y11.2665 I0.0208 J-0.1163
N595 G1 Y10.7013
N600 X10.4351
N605 Y11.3331
N610 G2 X10.5532 Y11.4513 I0.1181 J0.
N615 G1 X13.5532
N620 G2 X13.6713 Y11.3331 I0. J-0.1181
N625 G1 Y10.7013
N630 X16.9351
N635 Y11.3331
N640 G2 X17.0532 Y11.4513 I0.1181 J0.
N645 G1 X19.0532
N650 G2 X19.1713 Y11.3331 I0. J-0.1181
N655 G1 Y4.8331
N660 G2 X19.0532 Y4.715 I-0.1181 J0.
N665 G1 X16.6782
N670 G2 X15.5601 Y5.8331 I0. J1.1181
N675 G1 Y8.2272
N680 G3 X14.5782 Y9.2091 I-0.9819 J0.
N685 G1 X13.3289
N690 X9.9666
N695 X9.958 Y9.2094
N700 G3 X7.7751 Y6.4262 I-0.1548 J-2.1263
N705 X7.8049 Y6.411 I0.0225 J0.0073
N710 G1 X7.8273 Y6.4182
N715 X7.8308 Y6.4194 Z1.6952
N720 X7.8343 Y6.4205 Z1.696
N725 X7.8375 Y6.4215 Z1.6975
N730 X7.8405 Y6.4225 Z1.6994
N735 X7.8432 Y6.4234 Z1.7018
N740 X7.8455 Y6.4241 Z1.7046
N745 X7.8474 Y6.4247 Z1.7078
N750 X7.8487 Y6.4252 Z1.7112
N755 X7.8495 Y6.4254 Z1.7148
N760 X7.8498 Y6.4255 Z1.7185
N765 Z2.128
N770 X7.8352 Y6.4705
N775 Z1.8524 F44.619
N780 Z1.6004
N785 X7.835 Y6.4704 Z1.5967 F133.858
N790 X7.8341 Y6.4701 Z1.5931
N795 X7.8328 Y6.4697 Z1.5897
N800 X7.831 Y6.4691 Z1.5865
N805 X7.8287 Y6.4683 Z1.5837
N810 X7.826 Y6.4675 Z1.5813
N815 X7.823 Y6.4665 Z1.5793
N820 X7.8197 Y6.4654 Z1.5779
N825 X7.8163 Y6.4643 Z1.5771
N830 X7.8128 Y6.4632 Z1.5768
N835 X7.7903 Y6.4559
N840 G3 X7.7751 Y6.4262 I0.0073 J-0.0225
N845 X8.7166 Y5.249 I2.0281 J0.657
N850 G2 X7.5768 Y3.325 I-0.5699 J-0.962
N855 X7.308 Y3.4978 I2.2264 J3.7581
N860 X7.292 Y3.6783 I0.0675 J0.0969
N865 G1 X7.7388 Y4.1251
N870 X6.8452 Y5.0188
N875 X6.3984 Y4.5719
N880 G2 X6.2179 Y4.588 I-0.0835 J0.0835
N885 X5.5037 Y6.3123 I3.5853 J2.4952
N890 X5.6199 Y6.4513 I0.1163 J0.0208
N895 G1 X6.2518
N900 Y7.715
N905 X5.6199
N910 G2 X5.5037 Y7.854 I0. J0.1181
N915 X6.2179 Y9.5783 I4.2996 J-0.7708
N920 X6.3984 Y9.5944 I0.0969 J-0.0675
N925 G1 X6.8452 Y9.1475
N930 X7.7388 Y10.0412
N935 X7.292 Y10.488
N940 G2 X7.308 Y10.6685 I0.0835 J0.0835
N945 X9.0324 Y11.3827 I2.4952 J-3.5853
N950 X9.1713 Y11.2665 I0.0208 J-0.1163
N955 G1 Y10.7013
N960 X10.4351
N965 Y11.3331
N970 G2 X10.5532 Y11.4513 I0.1181 J0.
N975 G1 X13.5532
N980 G2 X13.6713 Y11.3331 I0. J-0.1181
N985 G1 Y10.7013
N990 X16.9351
N995 Y11.3331
N1000 G2 X17.0532 Y11.4513 I0.1181 J0.
N1005 G1 X19.0532
N1010 G2 X19.1713 Y11.3331 I0. J-0.1181
N1015 G1 Y4.8331
N1020 G2 X19.0532 Y4.715 I-0.1181 J0.
N1025 G1 X16.6782
N1030 G2 X15.5601 Y5.8331 I0. J1.1181
N1035 G1 Y8.2272
N1040 G3 X14.5782 Y9.2091 I-0.9819 J0.
N1045 G1 X13.3289
N1050 X9.9666
N1055 X9.958 Y9.2094
N1060 G3 X7.7751 Y6.4262 I-0.1548 J-2.1263
N1065 X7.8049 Y6.411 I0.0225 J0.0073
N1070 G1 X7.8273 Y6.4182
N1075 X7.8308 Y6.4194 Z1.5771
N1080 X7.8343 Y6.4205 Z1.5779
N1085 X7.8375 Y6.4215 Z1.5793
N1090 X7.8405 Y6.4225 Z1.5813
N1095 X7.8432 Y6.4234 Z1.5837
N1100 X7.8455 Y6.4241 Z1.5865
N1105 X7.8474 Y6.4247 Z1.5897
N1110 X7.8487 Y6.4252 Z1.5931
N1115 X7.8495 Y6.4254 Z1.5967
N1120 X7.8498 Y6.4255 Z1.6004
N1125 Z2.128
N1130 X7.8352 Y6.4705
N1135 Z1.7343 F44.619
N1140 Z1.4823
N1145 X7.835 Y6.4704 Z1.4786 F133.858
N1150 X7.8341 Y6.4701 Z1.475
N1155 X7.8328 Y6.4697 Z1.4716
N1160 X7.831 Y6.4691 Z1.4684
N1165 X7.8287 Y6.4683 Z1.4656
N1170 X7.826 Y6.4675 Z1.4632
N1175 X7.823 Y6.4665 Z1.4612
N1180 X7.8197 Y6.4654 Z1.4598
N1185 X7.8163 Y6.4643 Z1.459
N1190 X7.8128 Y6.4632 Z1.4587
N1195 X7.7903 Y6.4559
N1200 G3 X7.7751 Y6.4262 I0.0073 J-0.0225
N1205 X8.7166 Y5.249 I2.0281 J0.657
N1210 G2 X7.5768 Y3.325 I-0.5699 J-0.962
N1215 X7.308 Y3.4978 I2.2264 J3.7581
N1220 X7.292 Y3.6783 I0.0675 J0.0969
N1225 G1 X7.7388 Y4.1251
N1230 X6.8452 Y5.0188
N1235 X6.3984 Y4.5719
N1240 G2 X6.2179 Y4.588 I-0.0835 J0.0835
N1245 X5.5037 Y6.3123 I3.5853 J2.4952
N1250 X5.6199 Y6.4513 I0.1163 J0.0208
N1255 G1 X6.2518
N1260 Y7.715
N1265 X5.6199
N1270 G2 X5.5037 Y7.854 I0. J0.1181
N1275 X6.2179 Y9.5783 I4.2996 J-0.7708
N1280 X6.3984 Y9.5944 I0.0969 J-0.0675
N1285 G1 X6.8452 Y9.1475
N1290 X7.7388 Y10.0412
N1295 X7.292 Y10.488
N1300 G2 X7.308 Y10.6685 I0.0835 J0.0835
N1305 X9.0324 Y11.3827 I2.4952 J-3.5853
N1310 X9.1713 Y11.2665 I0.0208 J-0.1163
N1315 G1 Y10.7013
N1320 X10.4351
N1325 Y11.3331
N1330 G2 X10.5532 Y11.4513 I0.1181 J0.
N1335 G1 X13.5532
N1340 G2 X13.6713 Y11.3331 I0. J-0.1181
N1345 G1 Y10.7013
N1350 X16.9351
N1355 Y11.3331
N1360 G2 X17.0532 Y11.4513 I0.1181 J0.
N1365 G1 X19.0532
N1370 G2 X19.1713 Y11.3331 I0. J-0.1181
N1375 G1 Y4.8331
N1380 G2 X19.0532 Y4.715 I-0.1181 J0.
N1385 G1 X16.6782
N1390 G2 X15.5601 Y5.8331 I0. J1.1181
N1395 G1 Y8.2272
N1400 G3 X14.5782 Y9.2091 I-0.9819 J0.
N1405 G1 X13.3289
N1410 X9.9666
N1415 X9.958 Y9.2094
N1420 G3 X7.7751 Y6.4262 I-0.1548 J-2.1263
N1425 X7.8049 Y6.411 I0.0225 J0.0073
N1430 G1 X7.8273 Y6.4182
N1435 X7.8308 Y6.4194 Z1.459
N1440 X7.8343 Y6.4205 Z1.4598
N1445 X7.8375 Y6.4215 Z1.4612
N1450 X7.8405 Y6.4225 Z1.4632
N1455 X7.8432 Y6.4234 Z1.4656
N1460 X7.8455 Y6.4241 Z1.4684
N1465 X7.8474 Y6.4247 Z1.4716
N1470 X7.8487 Y6.4252 Z1.475
N1475 X7.8495 Y6.4254 Z1.4786
N1480 X7.8498 Y6.4255 Z1.4823
N1485 Z2.128
N1490 X7.8352 Y6.4705
N1495 Z1.6161 F44.619
N1500 Z1.3642
N1505 X7.835 Y6.4704 Z1.3605 F133.858
N1510 X7.8341 Y6.4701 Z1.3569
N1515 X7.8328 Y6.4697 Z1.3534
N1520 X7.831 Y6.4691 Z1.3503
N1525 X7.8287 Y6.4683 Z1.3475
N1530 X7.826 Y6.4675 Z1.3451
N1535 X7.823 Y6.4665 Z1.3431
N1540 X7.8197 Y6.4654 Z1.3417
N1545 X7.8163 Y6.4643 Z1.3408
N1550 X7.8128 Y6.4632 Z1.3406
N1555 X7.7903 Y6.4559
N1560 G3 X7.7751 Y6.4262 I0.0073 J-0.0225
N1565 X8.7166 Y5.249 I2.0281 J0.657
N1570 G2 X7.5768 Y3.325 I-0.5699 J-0.962
N1575 X7.308 Y3.4978 I2.2264 J3.7581
N1580 X7.292 Y3.6783 I0.0675 J0.0969
N1585 G1 X7.7388 Y4.1251
N1590 X6.8452 Y5.0188
N1595 X6.3984 Y4.5719
N1600 G2 X6.2179 Y4.588 I-0.0835 J0.0835
N1605 X5.5037 Y6.3123 I3.5853 J2.4952
N1610 X5.6199 Y6.4513 I0.1163 J0.0208
N1615 G1 X6.2518
N1620 Y7.715
N1625 X5.6199
N1630 G2 X5.5037 Y7.854 I0. J0.1181
N1635 X6.2179 Y9.5783 I4.2996 J-0.7708
N1640 X6.3984 Y9.5944 I0.0969 J-0.0675
N1645 G1 X6.8452 Y9.1475
N1650 X7.7388 Y10.0412
N1655 X7.292 Y10.488
N1660 G2 X7.308 Y10.6685 I0.0835 J0.0835
N1665 X9.0324 Y11.3827 I2.4952 J-3.5853
N1670 X9.1713 Y11.2665 I0.0208 J-0.1163
N1675 G1 Y10.7013
N1680 X10.4351
N1685 Y11.3331
N1690 G2 X10.5532 Y11.4513 I0.1181 J0.
N1695 G1 X13.5532
N1700 G2 X13.6713 Y11.3331 I0. J-0.1181
N1705 G1 Y10.7013
N1710 X16.9351
N1715 Y11.3331
N1720 G2 X17.0532 Y11.4513 I0.1181 J0.
N1725 G1 X19.0532
N1730 G2 X19.1713 Y11.3331 I0. J-0.1181
N1735 G1 Y4.8331
N1740 G2 X19.0532 Y4.715 I-0.1181 J0.
N1745 G1 X16.6782
N1750 G2 X15.5601 Y5.8331 I0. J1.1181
N1755 G1 Y8.2272
N1760 G3 X14.5782 Y9.2091 I-0.9819 J0.
N1765 G1 X13.3289
N1770 X9.9666
N1775 X9.958 Y9.2094
N1780 G3 X7.7751 Y6.4262 I-0.1548 J-2.1263
N1785 X7.8049 Y6.411 I0.0225 J0.0073
N1790 G1 X7.8273 Y6.4182
N1795 X7.8308 Y6.4194 Z1.3408
N1800 X7.8343 Y6.4205 Z1.3417
N1805 X7.8375 Y6.4215 Z1.3431
N1810 X7.8405 Y6.4225 Z1.3451
N1815 X7.8432 Y6.4234 Z1.3475
N1820 X7.8455 Y6.4241 Z1.3503
N1825 X7.8474 Y6.4247 Z1.3534
N1830 X7.8487 Y6.4252 Z1.3569
N1835 X7.8495 Y6.4254 Z1.3605
N1840 X7.8498 Y6.4255 Z1.3642
N1845 Z2.128
N1850 X7.8352 Y6.4705
N1855 Z1.498 F44.619
N1860 Z1.2461
N1865 X7.835 Y6.4704 Z1.2424 F133.858
N1870 X7.8341 Y6.4701 Z1.2388
N1875 X7.8328 Y6.4697 Z1.2353
N1880 X7.831 Y6.4691 Z1.2322
N1885 X7.8287 Y6.4683 Z1.2294
N1890 X7.826 Y6.4675 Z1.227
N1895 X7.823 Y6.4665 Z1.225
N1900 X7.8197 Y6.4654 Z1.2236
N1905 X7.8163 Y6.4643 Z1.2227
N1910 X7.8128 Y6.4632 Z1.2224
N1915 X7.7903 Y6.4559
N1920 G3 X7.7751 Y6.4262 I0.0073 J-0.0225
N1925 X8.7166 Y5.249 I2.0281 J0.657
N1930 G2 X7.5768 Y3.325 I-0.5699 J-0.962
N1935 X7.308 Y3.4978 I2.2264 J3.7581
N1940 X7.292 Y3.6783 I0.0675 J0.0969
N1945 G1 X7.7388 Y4.1251
N1950 X6.8452 Y5.0188
N1955 X6.3984 Y4.5719
N1960 G2 X6.2179 Y4.588 I-0.0835 J0.0835
N1965 X5.5037 Y6.3123 I3.5853 J2.4952
N1970 X5.6199 Y6.4513 I0.1163 J0.0208
N1975 G1 X6.2518
N1980 Y7.715
N1985 X5.6199
N1990 G2 X5.5037 Y7.854 I0. J0.1181
N1995 X6.2179 Y9.5783 I4.2996 J-0.7708
N2000 X6.3984 Y9.5944 I0.0969 J-0.0675
N2005 G1 X6.8452 Y9.1475
N2010 X7.7388 Y10.0412
N2015 X7.292 Y10.488
N2020 G2 X7.308 Y10.6685 I0.0835 J0.0835
N2025 X9.0324 Y11.3827 I2.4952 J-3.5853
N2030 X9.1713 Y11.2665 I0.0208 J-0.1163
N2035 G1 Y10.7013
N2040 X10.4351
N2045 Y11.3331
N2050 G2 X10.5532 Y11.4513 I0.1181 J0.
N2055 G1 X13.5532
N2060 G2 X13.6713 Y11.3331 I0. J-0.1181
N2065 G1 Y10.7013
N2070 X16.9351
N2075 Y11.3331
N2080 G2 X17.0532 Y11.4513 I0.1181 J0.
N2085 G1 X19.0532
N2090 G2 X19.1713 Y11.3331 I0. J-0.1181
N2095 G1 Y4.8331
N2100 G2 X19.0532 Y4.715 I-0.1181 J0.
N2105 G1 X16.6782
N2110 G2 X15.5601 Y5.8331 I0. J1.1181
N2115 G1 Y8.2272
N2120 G3 X14.5782 Y9.2091 I-0.9819 J0.
N2125 G1 X13.3289
N2130 X9.9666
N2135 X9.958 Y9.2094
N2140 G3 X7.7751 Y6.4262 I-0.1548 J-2.1263
N2145 X7.8049 Y6.411 I0.0225 J0.0073
N2150 G1 X7.8273 Y6.4182
N2155 X7.8308 Y6.4194 Z1.2227
N2160 X7.8343 Y6.4205 Z1.2236
N2165 X7.8375 Y6.4215 Z1.225
N2170 X7.8405 Y6.4225 Z1.227
N2175 X7.8432 Y6.4234 Z1.2294
N2180 X7.8455 Y6.4241 Z1.2322
N2185 X7.8474 Y6.4247 Z1.2353
N2190 X7.8487 Y6.4252 Z1.2388
N2195 X7.8495 Y6.4254 Z1.2424
N2200 X7.8498 Y6.4255 Z1.2461
N2205 Z2.128
N2210 X7.8352 Y6.4705
N2215 Z1.3799 F44.619
N2220 Z1.128
N2225 X7.835 Y6.4704 Z1.1243 F133.858
N2230 X7.8341 Y6.4701 Z1.1207
N2235 X7.8328 Y6.4697 Z1.1172
N2240 X7.831 Y6.4691 Z1.1141
N2245 X7.8287 Y6.4683 Z1.1112
N2250 X7.826 Y6.4675 Z1.1088
N2255 X7.823 Y6.4665 Z1.1069
N2260 X7.8197 Y6.4654 Z1.1055
N2265 X7.8163 Y6.4643 Z1.1046
N2270 X7.8128 Y6.4632 Z1.1043
N2275 X7.7903 Y6.4559
N2280 G3 X7.7751 Y6.4262 I0.0073 J-0.0225
N2285 X8.7166 Y5.249 I2.0281 J0.657
N2290 G2 X7.5768 Y3.325 I-0.5699 J-0.962
N2295 X7.308 Y3.4978 I2.2264 J3.7581
N2300 X7.292 Y3.6783 I0.0675 J0.0969
N2305 G1 X7.7388 Y4.1251
N2310 X6.8452 Y5.0188
N2315 X6.3984 Y4.5719
N2320 G2 X6.2179 Y4.588 I-0.0835 J0.0835
N2325 X5.5037 Y6.3123 I3.5853 J2.4952
N2330 X5.6199 Y6.4513 I0.1163 J0.0208
N2335 G1 X6.2518
N2340 Y7.715
N2345 X5.6199
N2350 G2 X5.5037 Y7.854 I0. J0.1181
N2355 X6.2179 Y9.5783 I4.2996 J-0.7708
N2360 X6.3984 Y9.5944 I0.0969 J-0.0675
N2365 G1 X6.8452 Y9.1475
N2370 X7.7388 Y10.0412
N2375 X7.292 Y10.488
N2380 G2 X7.308 Y10.6685 I0.0835 J0.0835
N2385 X9.0324 Y11.3827 I2.4952 J-3.5853
N2390 X9.1713 Y11.2665 I0.0208 J-0.1163
N2395 G1 Y10.7013
N2400 X10.4351
N2405 Y11.3331
N2410 G2 X10.5532 Y11.4513 I0.1181 J0.
N2415 G1 X13.5532
N2420 G2 X13.6713 Y11.3331 I0. J-0.1181
N2425 G1 Y10.7013
N2430 X16.9351
N2435 Y11.3331
N2440 G2 X17.0532 Y11.4513 I0.1181 J0.
N2445 G1 X19.0532
N2450 G2 X19.1713 Y11.3331 I0. J-0.1181
N2455 G1 Y4.8331
N2460 G2 X19.0532 Y4.715 I-0.1181 J0.
N2465 G1 X16.6782
N2470 G2 X15.5601 Y5.8331 I0. J1.1181
N2475 G1 Y8.2272
N2480 G3 X14.5782 Y9.2091 I-0.9819 J0.
N2485 G1 X13.3289
N2490 X9.9666
N2495 X9.958 Y9.2094
N2500 G3 X7.7751 Y6.4262 I-0.1548 J-2.1263
N2505 X7.8049 Y6.411 I0.0225 J0.0073
N2510 G1 X7.8273 Y6.4182
N2515 X7.8308 Y6.4194 Z1.1046
N2520 X7.8343 Y6.4205 Z1.1055
N2525 X7.8375 Y6.4215 Z1.1069
N2530 X7.8405 Y6.4225 Z1.1088
N2535 X7.8432 Y6.4234 Z1.1112
N2540 X7.8455 Y6.4241 Z1.1141
N2545 X7.8474 Y6.4247 Z1.1172
N2550 X7.8487 Y6.4252 Z1.1207
N2555 X7.8495 Y6.4254 Z1.1243
N2560 X7.8498 Y6.4255 Z1.128
N2565 Z2.128
N2570 X7.8352 Y6.4705
N2575 Z1.2618 F44.619
N2580 Z1.0098
N2585 X7.835 Y6.4704 Z1.0061 F133.858
N2590 X7.8341 Y6.4701 Z1.0025
N2595 X7.8328 Y6.4697 Z0.9991
N2600 X7.831 Y6.4691 Z0.996
N2605 X7.8287 Y6.4683 Z0.9931
N2610 X7.826 Y6.4675 Z0.9907
N2615 X7.823 Y6.4665 Z0.9888
N2620 X7.8197 Y6.4654 Z0.9874
N2625 X7.8163 Y6.4643 Z0.9865
N2630 X7.8128 Y6.4632 Z0.9862
N2635 X7.7903 Y6.4559
N2640 G3 X7.7751 Y6.4262 I0.0073 J-0.0225
N2645 X8.7166 Y5.249 I2.0281 J0.657
N2650 G2 X7.5768 Y3.325 I-0.5699 J-0.962
N2655 X7.308 Y3.4978 I2.2264 J3.7581
N2660 X7.292 Y3.6783 I0.0675 J0.0969
N2665 G1 X7.7388 Y4.1251
N2670 X6.8452 Y5.0188
N2675 X6.3984 Y4.5719
N2680 G2 X6.2179 Y4.588 I-0.0835 J0.0835
N2685 X5.5037 Y6.3123 I3.5853 J2.4952
N2690 X5.6199 Y6.4513 I0.1163 J0.0208
N2695 G1 X6.2518
N2700 Y7.715
N2705 X5.6199
N2710 G2 X5.5037 Y7.854 I0. J0.1181
N2715 X6.2179 Y9.5783 I4.2996 J-0.7708
N2720 X6.3984 Y9.5944 I0.0969 J-0.0675
N2725 G1 X6.8452 Y9.1475
N2730 X7.7388 Y10.0412
N2735 X7.292 Y10.488
N2740 G2 X7.308 Y10.6685 I0.0835 J0.0835
N2745 X9.0324 Y11.3827 I2.4952 J-3.5853
N2750 X9.1713 Y11.2665 I0.0208 J-0.1163
N2755 G1 Y10.7013
N2760 X10.4351
N2765 Y11.3331
N2770 G2 X10.5532 Y11.4513 I0.1181 J0.
N2775 G1 X13.5532
N2780 G2 X13.6713 Y11.3331 I0. J-0.1181
N2785 G1 Y10.7013
N2790 X16.9351
N2795 Y11.3331
N2800 G2 X17.0532 Y11.4513 I0.1181 J0.
N2805 G1 X19.0532
N2810 G2 X19.1713 Y11.3331 I0. J-0.1181
N2815 G1 Y4.8331
N2820 G2 X19.0532 Y4.715 I-0.1181 J0.
N2825 G1 X16.6782
N2830 G2 X15.5601 Y5.8331 I0. J1.1181
N2835 G1 Y8.2272
N2840 G3 X14.5782 Y9.2091 I-0.9819 J0.
N2845 G1 X13.3289
N2850 X9.9666
N2855 X9.958 Y9.2094
N2860 G3 X7.7751 Y6.4262 I-0.1548 J-2.1263
N2865 X7.8049 Y6.411 I0.0225 J0.0073
N2870 G1 X7.8273 Y6.4182
N2875 X7.8308 Y6.4194 Z0.9865
N2880 X7.8343 Y6.4205 Z0.9874
N2885 X7.8375 Y6.4215 Z0.9888
N2890 X7.8405 Y6.4225 Z0.9907
N2895 X7.8432 Y6.4234 Z0.9931
N2900 X7.8455 Y6.4241 Z0.996
N2905 X7.8474 Y6.4247 Z0.9991
N2910 X7.8487 Y6.4252 Z1.0025
N2915 X7.8495 Y6.4254 Z1.0061
N2920 X7.8498 Y6.4255 Z1.0098
N2925 Z2.128
N2930 X7.8352 Y6.4705
N2935 Z1.1437 F44.619
N2940 Z0.8917
N2945 X7.835 Y6.4704 Z0.888 F133.858
N2950 X7.8341 Y6.4701 Z0.8844
N2955 X7.8328 Y6.4697 Z0.881
N2960 X7.831 Y6.4691 Z0.8778
N2965 X7.8287 Y6.4683 Z0.875
N2970 X7.826 Y6.4675 Z0.8726
N2975 X7.823 Y6.4665 Z0.8707
N2980 X7.8197 Y6.4654 Z0.8693
N2985 X7.8163 Y6.4643 Z0.8684
N2990 X7.8128 Y6.4632 Z0.8681
N2995 X7.7903 Y6.4559
N3000 G3 X7.7751 Y6.4262 I0.0073 J-0.0225
N3005 X8.7166 Y5.249 I2.0281 J0.657
N3010 G2 X7.5768 Y3.325 I-0.5699 J-0.962
N3015 X7.308 Y3.4978 I2.2264 J3.7581
N3020 X7.292 Y3.6783 I0.0675 J0.0969
N3025 G1 X7.7388 Y4.1251
N3030 X6.8452 Y5.0188
N3035 X6.3984 Y4.5719
N3040 G2 X6.2179 Y4.588 I-0.0835 J0.0835
N3045 X5.5037 Y6.3123 I3.5853 J2.4952
N3050 X5.6199 Y6.4513 I0.1163 J0.0208
N3055 G1 X6.2518
N3060 Y7.715
N3065 X5.6199
N3070 G2 X5.5037 Y7.854 I0. J0.1181
N3075 X6.2179 Y9.5783 I4.2996 J-0.7708
N3080 X6.3984 Y9.5944 I0.0969 J-0.0675
N3085 G1 X6.8452 Y9.1475
N3090 X7.7388 Y10.0412
N3095 X7.292 Y10.488
N3100 G2 X7.308 Y10.6685 I0.0835 J0.0835
N3105 X9.0324 Y11.3827 I2.4952 J-3.5853
N3110 X9.1713 Y11.2665 I0.0208 J-0.1163
N3115 G1 Y10.7013
N3120 X10.4351
N3125 Y11.3331
N3130 G2 X10.5532 Y11.4513 I0.1181 J0.
N3135 G1 X13.5532
N3140 G2 X13.6713 Y11.3331 I0. J-0.1181
N3145 G1 Y10.7013
N3150 X16.9351
N3155 Y11.3331
N3160 G2 X17.0532 Y11.4513 I0.1181 J0.
N3165 G1 X19.0532
N3170 G2 X19.1713 Y11.3331 I0. J-0.1181
N3175 G1 Y4.8331
N3180 G2 X19.0532 Y4.715 I-0.1181 J0.
N3185 G1 X16.6782
N3190 G2 X15.5601 Y5.8331 I0. J1.1181
N3195 G1 Y8.2272
N3200 G3 X14.5782 Y9.2091 I-0.9819 J0.
N3205 G1 X13.3289
N3210 X9.9666
N3215 X9.958 Y9.2094
N3220 G3 X7.7751 Y6.4262 I-0.1548 J-2.1263
N3225 X7.8049 Y6.411 I0.0225 J0.0073
N3230 G1 X7.8273 Y6.4182
N3235 X7.8308 Y6.4194 Z0.8684
N3240 X7.8343 Y6.4205 Z0.8693
N3245 X7.8375 Y6.4215 Z0.8707
N3250 X7.8405 Y6.4225 Z0.8726
N3255 X7.8432 Y6.4234 Z0.875
N3260 X7.8455 Y6.4241 Z0.8778
N3265 X7.8474 Y6.4247 Z0.881
N3270 X7.8487 Y6.4252 Z0.8844
N3275 X7.8495 Y6.4254 Z0.888
N3280 X7.8498 Y6.4255 Z0.8917
N3285 Z2.128
N3290 X7.8352 Y6.4705
N3295 Z1.0256 F44.619
N3300 Z0.7736
N3305 X7.835 Y6.4704 Z0.7699 F133.858
N3310 X7.8341 Y6.4701 Z0.7663
N3315 X7.8328 Y6.4697 Z0.7629
N3320 X7.831 Y6.4691 Z0.7597
N3325 X7.8287 Y6.4683 Z0.7569
N3330 X7.826 Y6.4675 Z0.7545
N3335 X7.823 Y6.4665 Z0.7526
N3340 X7.8197 Y6.4654 Z0.7512
N3345 X7.8163 Y6.4643 Z0.7503
N3350 X7.8128 Y6.4632 Z0.75
N3355 X7.7903 Y6.4559
N3360 G3 X7.7751 Y6.4262 I0.0073 J-0.0225
N3365 X8.7166 Y5.249 I2.0281 J0.657
N3370 G2 X7.5768 Y3.325 I-0.5699 J-0.962
N3375 X7.308 Y3.4978 I2.2264 J3.7581
N3380 X7.292 Y3.6783 I0.0675 J0.0969
N3385 G1 X7.7388 Y4.1251
N3390 X6.8452 Y5.0188
N3395 X6.3984 Y4.5719
N3400 G2 X6.2179 Y4.588 I-0.0835 J0.0835
N3405 X5.5037 Y6.3123 I3.5853 J2.4952
N3410 X5.6199 Y6.4513 I0.1163 J0.0208
N3415 G1 X6.2518
N3420 Y7.715
N3425 X5.6199
N3430 G2 X5.5037 Y7.854 I0. J0.1181
N3435 X6.2179 Y9.5783 I4.2996 J-0.7708
N3440 X6.3984 Y9.5944 I0.0969 J-0.0675
N3445 G1 X6.8452 Y9.1475
N3450 X7.7388 Y10.0412
N3455 X7.292 Y10.488
N3460 G2 X7.308 Y10.6685 I0.0835 J0.0835
N3465 X9.0324 Y11.3827 I2.4952 J-3.5853
N3470 X9.1713 Y11.2665 I0.0208 J-0.1163
N3475 G1 Y10.7013
N3480 X10.4351
N3485 Y11.3331
N3490 G2 X10.5532 Y11.4513 I0.1181 J0.
N3495 G1 X13.5532
N3500 G2 X13.6713 Y11.3331 I0. J-0.1181
N3505 G1 Y10.7013
N3510 X16.9351
N3515 Y11.3331
N3520 G2 X17.0532 Y11.4513 I0.1181 J0.
N3525 G1 X19.0532
N3530 G2 X19.1713 Y11.3331 I0. J-0.1181
N3535 G1 Y4.8331
N3540 G2 X19.0532 Y4.715 I-0.1181 J0.
N3545 G1 X16.6782
N3550 G2 X15.5601 Y5.8331 I0. J1.1181
N3555 G1 Y8.2272
N3560 G3 X14.5782 Y9.2091 I-0.9819 J0.
N3565 G1 X13.3289
N3570 X9.9666
N3575 X9.958 Y9.2094
N3580 G3 X7.7751 Y6.4262 I-0.1548 J-2.1263
N3585 X7.8049 Y6.411 I0.0225 J0.0073
N3590 G1 X7.8273 Y6.4182
N3595 X7.8308 Y6.4194 Z0.7503
N3600 X7.8343 Y6.4205 Z0.7512
N3605 X7.8375 Y6.4215 Z0.7526
N3610 X7.8405 Y6.4225 Z0.7545
N3615 X7.8432 Y6.4234 Z0.7569
N3620 X7.8455 Y6.4241 Z0.7597
N3625 X7.8474 Y6.4247 Z0.7629
N3630 X7.8487 Y6.4252 Z0.7663
N3635 X7.8495 Y6.4254 Z0.7699
N3640 X7.8498 Y6.4255 Z0.7736
N3645 Z2.128
N3650 X7.8352 Y6.4705
N3655 Z0.9075 F44.619
N3660 Z0.6555
N3665 X7.835 Y6.4704 Z0.6518 F133.858
N3670 X7.8341 Y6.4701 Z0.6482
N3675 X7.8328 Y6.4697 Z0.6448
N3680 X7.831 Y6.4691 Z0.6416
N3685 X7.8287 Y6.4683 Z0.6388
N3690 X7.826 Y6.4675 Z0.6364
N3695 X7.823 Y6.4665 Z0.6345
N3700 X7.8197 Y6.4654 Z0.633
N3705 X7.8163 Y6.4643 Z0.6322
N3710 X7.8128 Y6.4632 Z0.6319
N3715 X7.7903 Y6.4559
N3720 G3 X7.7751 Y6.4262 I0.0073 J-0.0225
N3725 X8.7166 Y5.249 I2.0281 J0.657
N3730 G2 X7.5768 Y3.325 I-0.5699 J-0.962
N3735 X7.308 Y3.4978 I2.2264 J3.7581
N3740 X7.292 Y3.6783 I0.0675 J0.0969
N3745 G1 X7.7388 Y4.1251
N3750 X6.8452 Y5.0188
N3755 X6.3984 Y4.5719
N3760 G2 X6.2179 Y4.588 I-0.0835 J0.0835
N3765 X5.5037 Y6.3123 I3.5853 J2.4952
N3770 X5.6199 Y6.4513 I0.1163 J0.0208
N3775 G1 X6.2518
N3780 Y7.715
N3785 X5.6199
N3790 G2 X5.5037 Y7.854 I0. J0.1181
N3795 X6.2179 Y9.5783 I4.2996 J-0.7708
N3800 X6.3984 Y9.5944 I0.0969 J-0.0675
N3805 G1 X6.8452 Y9.1475
N3810 X7.7388 Y10.0412
N3815 X7.292 Y10.488
N3820 G2 X7.308 Y10.6685 I0.0835 J0.0835
N3825 X9.0324 Y11.3827 I2.4952 J-3.5853
N3830 X9.1713 Y11.2665 I0.0208 J-0.1163
N3835 G1 Y10.7013
N3840 X10.4351
N3845 Y11.3331
N3850 G2 X10.5532 Y11.4513 I0.1181 J0.
N3855 G1 X13.5532
N3860 G2 X13.6713 Y11.3331 I0. J-0.1181
N3865 G1 Y10.7013
N3870 X16.9351
N3875 Y11.3331
N3880 G2 X17.0532 Y11.4513 I0.1181 J0.
N3885 G1 X19.0532
N3890 G2 X19.1713 Y11.3331 I0. J-0.1181
N3895 G1 Y4.8331
N3900 G2 X19.0532 Y4.715 I-0.1181 J0.
N3905 G1 X16.6782
N3910 G2 X15.5601 Y5.8331 I0. J1.1181
N3915 G1 Y8.2272
N3920 G3 X14.5782 Y9.2091 I-0.9819 J0.
N3925 G1 X13.3289
N3930 X9.9666
N3935 X9.958 Y9.2094
N3940 G3 X7.7751 Y6.4262 I-0.1548 J-2.1263
N3945 X7.8049 Y6.411 I0.0225 J0.0073
N3950 G1 X7.8273 Y6.4182
N3955 X7.8308 Y6.4194 Z0.6322
N3960 X7.8343 Y6.4205 Z0.633
N3965 X7.8375 Y6.4215 Z0.6345
N3970 X7.8405 Y6.4225 Z0.6364
N3975 X7.8432 Y6.4234 Z0.6388
N3980 X7.8455 Y6.4241 Z0.6416
N3985 X7.8474 Y6.4247 Z0.6448
N3990 X7.8487 Y6.4252 Z0.6482
N3995 X7.8495 Y6.4254 Z0.6518
N4000 X7.8498 Y6.4255 Z0.6555
N4005 Z2.128
N4010 X7.8352 Y6.4705
N4015 Z0.7894 F44.619
N4020 Z0.5374
N4025 X7.835 Y6.4704 Z0.5337 F133.858
N4030 X7.8341 Y6.4701 Z0.5301
N4035 X7.8328 Y6.4697 Z0.5267
N4040 X7.831 Y6.4691 Z0.5235
N4045 X7.8287 Y6.4683 Z0.5207
N4050 X7.826 Y6.4675 Z0.5183
N4055 X7.823 Y6.4665 Z0.5164
N4060 X7.8197 Y6.4654 Z0.5149
N4065 X7.8163 Y6.4643 Z0.5141
N4070 X7.8128 Y6.4632 Z0.5138
N4075 X7.7903 Y6.4559
N4080 G3 X7.7751 Y6.4262 I0.0073 J-0.0225
N4085 X8.7166 Y5.249 I2.0281 J0.657
N4090 G2 X7.5768 Y3.325 I-0.5699 J-0.962
N4095 X7.308 Y3.4978 I2.2264 J3.7581
N4100 X7.292 Y3.6783 I0.0675 J0.0969
N4105 G1 X7.7388 Y4.1251
N4110 X6.8452 Y5.0188
N4115 X6.3984 Y4.5719
N4120 G2 X6.2179 Y4.588 I-0.0835 J0.0835
N4125 X5.5037 Y6.3123 I3.5853 J2.4952
N4130 X5.6199 Y6.4513 I0.1163 J0.0208
N4135 G1 X6.2518
N4140 Y7.715
N4145 X5.6199
N4150 G2 X5.5037 Y7.854 I0. J0.1181
N4155 X6.2179 Y9.5783 I4.2996 J-0.7708
N4160 X6.3984 Y9.5944 I0.0969 J-0.0675
N4165 G1 X6.8452 Y9.1475
N4170 X7.7388 Y10.0412
N4175 X7.292 Y10.488
N4180 G2 X7.308 Y10.6685 I0.0835 J0.0835
N4185 X9.0324 Y11.3827 I2.4952 J-3.5853
N4190 X9.1713 Y11.2665 I0.0208 J-0.1163
N4195 G1 Y10.7013
N4200 X10.4351
N4205 Y11.3331
N4210 G2 X10.5532 Y11.4513 I0.1181 J0.
N4215 G1 X13.5532
N4220 G2 X13.6713 Y11.3331 I0. J-0.1181
N4225 G1 Y10.7013
N4230 X16.9351
N4235 Y11.3331
N4240 G2 X17.0532 Y11.4513 I0.1181 J0.
N4245 G1 X19.0532
N4250 G2 X19.1713 Y11.3331 I0. J-0.1181
N4255 G1 Y4.8331
N4260 G2 X19.0532 Y4.715 I-0.1181 J0.
N4265 G1 X16.6782
N4270 G2 X15.5601 Y5.8331 I0. J1.1181
N4275 G1 Y8.2272
N4280 G3 X14.5782 Y9.2091 I-0.9819 J0.
N4285 G1 X13.3289
N4290 X9.9666
N4295 X9.958 Y9.2094
N4300 G3 X7.7751 Y6.4262 I-0.1548 J-2.1263
N4305 X7.8049 Y6.411 I0.0225 J0.0073
N4310 G1 X7.8273 Y6.4182
N4315 X7.8308 Y6.4194 Z0.5141
N4320 X7.8343 Y6.4205 Z0.5149
N4325 X7.8375 Y6.4215 Z0.5164
N4330 X7.8405 Y6.4225 Z0.5183
N4335 X7.8432 Y6.4234 Z0.5207
N4340 X7.8455 Y6.4241 Z0.5235
N4345 X7.8474 Y6.4247 Z0.5267
N4350 X7.8487 Y6.4252 Z0.5301
N4355 X7.8495 Y6.4254 Z0.5337
N4360 X7.8498 Y6.4255 Z0.5374
N4365 Z2.128
N4370 X7.8352 Y6.4705
N4375 Z0.6713 F44.619
N4380 Z0.4193
N4385 X7.835 Y6.4704 Z0.4156 F133.858
N4390 X7.8341 Y6.4701 Z0.412
N4395 X7.8328 Y6.4697 Z0.4086
N4400 X7.831 Y6.4691 Z0.4054
N4405 X7.8287 Y6.4683 Z0.4026
N4410 X7.826 Y6.4675 Z0.4002
N4415 X7.823 Y6.4665 Z0.3982
N4420 X7.8197 Y6.4654 Z0.3968
N4425 X7.8163 Y6.4643 Z0.396
N4430 X7.8128 Y6.4632 Z0.3957
N4435 X7.7903 Y6.4559
N4440 G3 X7.7751 Y6.4262 I0.0073 J-0.0225
N4445 X8.7166 Y5.249 I2.0281 J0.657
N4450 G2 X7.5768 Y3.325 I-0.5699 J-0.962
N4455 X7.308 Y3.4978 I2.2264 J3.7581
N4460 X7.292 Y3.6783 I0.0675 J0.0969
N4465 G1 X7.7388 Y4.1251
N4470 X6.8452 Y5.0188
N4475 X6.3984 Y4.5719
N4480 G2 X6.2179 Y4.588 I-0.0835 J0.0835
N4485 X5.5037 Y6.3123 I3.5853 J2.4952
N4490 X5.6199 Y6.4513 I0.1163 J0.0208
N4495 G1 X6.2518
N4500 Y7.715
N4505 X5.6199
N4510 G2 X5.5037 Y7.854 I0. J0.1181
N4515 X6.2179 Y9.5783 I4.2996 J-0.7708
N4520 X6.3984 Y9.5944 I0.0969 J-0.0675
N4525 G1 X6.8452 Y9.1475
N4530 X7.7388 Y10.0412
N4535 X7.292 Y10.488
N4540 G2 X7.308 Y10.6685 I0.0835 J0.0835
N4545 X9.0324 Y11.3827 I2.4952 J-3.5853
N4550 X9.1713 Y11.2665 I0.0208 J-0.1163
N4555 G1 Y10.7013
N4560 X10.4351
N4565 Y11.3331
N4570 G2 X10.5532 Y11.4513 I0.1181 J0.
N4575 G1 X13.5532
N4580 G2 X13.6713 Y11.3331 I0. J-0.1181
N4585 G1 Y10.7013
N4590 X16.9351
N4595 Y11.3331
N4600 G2 X17.0532 Y11.4513 I0.1181 J0.
N4605 G1 X19.0532
N4610 G2 X19.1713 Y11.3331 I0. J-0.1181
N4615 G1 Y4.8331
N4620 G2 X19.0532 Y4.715 I-0.1181 J0.
N4625 G1 X16.6782
N4630 G2 X15.5601 Y5.8331 I0. J1.1181
N4635 G1 Y8.2272
N4640 G3 X14.5782 Y9.2091 I-0.9819 J0.
N4645 G1 X13.3289
N4650 X9.9666
N4655 X9.958 Y9.2094
N4660 G3 X7.7751 Y6.4262 I-0.1548 J-2.1263
N4665 X7.8049 Y6.411 I0.0225 J0.0073
N4670 G1 X7.8273 Y6.4182
N4675 X7.8308 Y6.4194 Z0.396
N4680 X7.8343 Y6.4205 Z0.3968
N4685 X7.8375 Y6.4215 Z0.3982
N4690 X7.8405 Y6.4225 Z0.4002
N4695 X7.8432 Y6.4234 Z0.4026
N4700 X7.8455 Y6.4241 Z0.4054
N4705 X7.8474 Y6.4247 Z0.4086
N4710 X7.8487 Y6.4252 Z0.412
N4715 X7.8495 Y6.4254 Z0.4156
N4720 X7.8498 Y6.4255 Z0.4193
N4725 Z2.128
N4730 X7.8352 Y6.4705
N4735 Z0.5531 F44.619
N4740 Z0.3012
N4745 X7.835 Y6.4704 Z0.2975 F133.858
N4750 X7.8341 Y6.4701 Z0.2939
N4755 X7.8328 Y6.4697 Z0.2905
N4760 X7.831 Y6.4691 Z0.2873
N4765 X7.8287 Y6.4683 Z0.2845
N4770 X7.826 Y6.4675 Z0.2821
N4775 X7.823 Y6.4665 Z0.2801
N4780 X7.8197 Y6.4654 Z0.2787
N4785 X7.8163 Y6.4643 Z0.2778
N4790 X7.8128 Y6.4632 Z0.2776
N4795 X7.7903 Y6.4559
N4800 G3 X7.7751 Y6.4262 I0.0073 J-0.0225
N4805 X8.7166 Y5.249 I2.0281 J0.657
N4810 G2 X7.5768 Y3.325 I-0.5699 J-0.962
N4815 X7.308 Y3.4978 I2.2264 J3.7581
N4820 X7.292 Y3.6783 I0.0675 J0.0969
N4825 G1 X7.7388 Y4.1251
N4830 X6.8452 Y5.0188
N4835 X6.3984 Y4.5719
N4840 G2 X6.2179 Y4.588 I-0.0835 J0.0835
N4845 X5.5037 Y6.3123 I3.5853 J2.4952
N4850 X5.6199 Y6.4513 I0.1163 J0.0208
N4855 G1 X6.2518
N4860 Y7.715
N4865 X5.6199
N4870 G2 X5.5037 Y7.854 I0. J0.1181
N4875 X6.2179 Y9.5783 I4.2996 J-0.7708
N4880 X6.3984 Y9.5944 I0.0969 J-0.0675
N4885 G1 X6.8452 Y9.1475
N4890 X7.7388 Y10.0412
N4895 X7.292 Y10.488
N4900 G2 X7.308 Y10.6685 I0.0835 J0.0835
N4905 X9.0324 Y11.3827 I2.4952 J-3.5853
N4910 X9.1713 Y11.2665 I0.0208 J-0.1163
N4915 G1 Y10.7013
N4920 X10.4351
N4925 Y11.3331
N4930 G2 X10.5532 Y11.4513 I0.1181 J0.
N4935 G1 X13.5532
N4940 G2 X13.6713 Y11.3331 I0. J-0.1181
N4945 G1 Y10.7013
N4950 X16.9351
N4955 Y11.3331
N4960 G2 X17.0532 Y11.4513 I0.1181 J0.
N4965 G1 X19.0532
N4970 G2 X19.1713 Y11.3331 I0. J-0.1181
N4975 G1 Y4.8331
N4980 G2 X19.0532 Y4.715 I-0.1181 J0.
N4985 G1 X16.6782
N4990 G2 X15.5601 Y5.8331 I0. J1.1181
N4995 G1 Y8.2272
N5000 G3 X14.5782 Y9.2091 I-0.9819 J0.
N5005 G1 X13.3289
N5010 X9.9666
N5015 X9.958 Y9.2094
N5020 G3 X7.7751 Y6.4262 I-0.1548 J-2.1263
N5025 X7.8049 Y6.411 I0.0225 J0.0073
N5030 G1 X7.8273 Y6.4182
N5035 X7.8308 Y6.4194 Z0.2778
N5040 X7.8343 Y6.4205 Z0.2787
N5045 X7.8375 Y6.4215 Z0.2801
N5050 X7.8405 Y6.4225 Z0.2821
N5055 X7.8432 Y6.4234 Z0.2845
N5060 X7.8455 Y6.4241 Z0.2873
N5065 X7.8474 Y6.4247 Z0.2905
N5070 X7.8487 Y6.4252 Z0.2939
N5075 X7.8495 Y6.4254 Z0.2975
N5080 X7.8498 Y6.4255 Z0.3012
N5085 Z2.128
N5090 X7.8352 Y6.4705
N5095 Z0.435 F44.619
N5100 Z0.1831
N5105 X7.835 Y6.4704 Z0.1794 F133.858
N5110 X7.8341 Y6.4701 Z0.1758
N5115 X7.8328 Y6.4697 Z0.1723
N5120 X7.831 Y6.4691 Z0.1692
N5125 X7.8287 Y6.4683 Z0.1664
N5130 X7.826 Y6.4675 Z0.164
N5135 X7.823 Y6.4665 Z0.162
N5140 X7.8197 Y6.4654 Z0.1606
N5145 X7.8163 Y6.4643 Z0.1597
N5150 X7.8128 Y6.4632 Z0.1594
N5155 X7.7903 Y6.4559
N5160 G3 X7.7751 Y6.4262 I0.0073 J-0.0225
N5165 X8.7166 Y5.249 I2.0281 J0.657
N5170 G2 X7.5768 Y3.325 I-0.5699 J-0.962
N5175 X7.308 Y3.4978 I2.2264 J3.7581
N5180 X7.292 Y3.6783 I0.0675 J0.0969
N5185 G1 X7.7388 Y4.1251
N5190 X6.8452 Y5.0188
N5195 X6.3984 Y4.5719
N5200 G2 X6.2179 Y4.588 I-0.0835 J0.0835
N5205 X5.5037 Y6.3123 I3.5853 J2.4952
N5210 X5.6199 Y6.4513 I0.1163 J0.0208
N5215 G1 X6.2518
N5220 Y7.715
N5225 X5.6199
N5230 G2 X5.5037 Y7.854 I0. J0.1181
N5235 X6.2179 Y9.5783 I4.2996 J-0.7708
N5240 X6.3984 Y9.5944 I0.0969 J-0.0675
N5245 G1 X6.8452 Y9.1475
N5250 X7.7388 Y10.0412
N5255 X7.292 Y10.488
N5260 G2 X7.308 Y10.6685 I0.0835 J0.0835
N5265 X9.0324 Y11.3827 I2.4952 J-3.5853
N5270 X9.1713 Y11.2665 I0.0208 J-0.1163
N5275 G1 Y10.7013
N5280 X10.4351
N5285 Y11.3331
N5290 G2 X10.5532 Y11.4513 I0.1181 J0.
N5295 G1 X13.5532
N5300 G2 X13.6713 Y11.3331 I0. J-0.1181
N5305 G1 Y10.7013
N5310 X16.9351
N5315 Y11.3331
N5320 G2 X17.0532 Y11.4513 I0.1181 J0.
N5325 G1 X19.0532
N5330 G2 X19.1713 Y11.3331 I0. J-0.1181
N5335 G1 Y4.8331
N5340 G2 X19.0532 Y4.715 I-0.1181 J0.
N5345 G1 X16.6782
N5350 G2 X15.5601 Y5.8331 I0. J1.1181
N5355 G1 Y8.2272
N5360 G3 X14.5782 Y9.2091 I-0.9819 J0.
N5365 G1 X13.3289
N5370 X9.9666
N5375 X9.958 Y9.2094
N5380 G3 X7.7751 Y6.4262 I-0.1548 J-2.1263
N5385 X7.8049 Y6.411 I0.0225 J0.0073
N5390 G1 X7.8273 Y6.4182
N5395 X7.8308 Y6.4194 Z0.1597
N5400 X7.8343 Y6.4205 Z0.1606
N5405 X7.8375 Y6.4215 Z0.162
N5410 X7.8405 Y6.4225 Z0.164
N5415 X7.8432 Y6.4234 Z0.1664
N5420 X7.8455 Y6.4241 Z0.1692
N5425 X7.8474 Y6.4247 Z0.1723
N5430 X7.8487 Y6.4252 Z0.1758
N5435 X7.8495 Y6.4254 Z0.1794
N5440 X7.8498 Y6.4255 Z0.1831
N5445 Z2.128
N5450 X7.8352 Y6.4705
N5455 Z0.3169 F44.619
N5460 Z0.065
N5465 X7.835 Y6.4704 Z0.0613 F133.858
N5470 X7.8341 Y6.4701 Z0.0577
N5475 X7.8328 Y6.4697 Z0.0542
N5480 X7.831 Y6.4691 Z0.0511
N5485 X7.8287 Y6.4683 Z0.0483
N5490 X7.826 Y6.4675 Z0.0458
N5495 X7.823 Y6.4665 Z0.0439
N5500 X7.8197 Y6.4654 Z0.0425
N5505 X7.8163 Y6.4643 Z0.0416
N5510 X7.8128 Y6.4632 Z0.0413
N5515 X7.7903 Y6.4559
N5520 G3 X7.7751 Y6.4262 I0.0073 J-0.0225
N5525 X8.7166 Y5.249 I2.0281 J0.657
N5530 G2 X9.2206 Y4.5983 I-0.5699 J-0.962
N5535 G1 Z0.0787
N5540 G2 X9.2533 Y4.127 I-1.0739 J-0.3113
N5545 G1 Z0.0413 F44.619
N5550 G2 X7.5768 Y3.325 I-1.1066 J0.16 F133.858
N5555 X7.308 Y3.4978 I2.2264 J3.7581
N5560 X7.292 Y3.6783 I0.0675 J0.0969
N5565 G1 X7.7388 Y4.1251
N5570 X6.8452 Y5.0188
N5575 X6.3984 Y4.5719
N5580 G2 X6.2179 Y4.588 I-0.0835 J0.0835
N5585 X5.5037 Y6.3123 I3.5853 J2.4952
N5590 X5.6199 Y6.4513 I0.1163 J0.0208
N5595 G1 X6.2518
N5600 Y7.715
N5605 X5.6199
N5610 G2 X5.5037 Y7.854 I0. J0.1181
N5615 X5.7007 Y8.5831 I4.2996 J-0.7708
N5620 G1 Z0.0787
N5625 G2 X5.8867 Y9.0173 I4.1025 J-1.4999
N5630 G1 Z0.0413 F44.619
N5635 G2 X6.2179 Y9.5783 I3.9166 J-1.9342 F133.858
N5640 X6.3984 Y9.5944 I0.0969 J-0.0675
N5645 G1 X6.8452 Y9.1475
N5650 X7.7388 Y10.0412
N5655 X7.292 Y10.488
N5660 G2 X7.308 Y10.6685 I0.0835 J0.0835
N5665 X9.0324 Y11.3827 I2.4952 J-3.5853
N5670 X9.1713 Y11.2665 I0.0208 J-0.1163
N5675 G1 Y10.7013
N5680 X10.4351
N5685 Y11.3331
N5690 G2 X10.5532 Y11.4513 I0.1181 J0.
N5695 G1 X11.8042
N5700 Z0.0787
N5705 X12.2766
N5710 Z0.0413 F44.619
N5715 X13.5532 F133.858
N5720 G2 X13.6713 Y11.3331 I0. J-0.1181
N5725 G1 Y10.7013
N5730 X16.9351
N5735 Y11.3331
N5740 G2 X17.0532 Y11.4513 I0.1181 J0.
N5745 G1 X17.8688
N5750 Z0.0787
N5755 X18.3412
N5760 Z0.0413 F44.619
N5765 X19.0532 F133.858
N5770 G2 X19.1713 Y11.3331 I0. J-0.1181
N5775 G1 Y7.8674
N5780 Z0.0787
N5785 Y7.3949
N5790 Z0.0413 F44.619
N5795 Y4.8331 F133.858
N5800 G2 X19.0532 Y4.715 I-0.1181 J0.
N5805 G1 X17.8991
N5810 Z0.0787
N5815 X17.4267
N5820 Z0.0413 F44.619
N5825 X16.6782 F133.858
N5830 G2 X15.5601 Y5.8331 I0. J1.1181
N5835 G1 Y8.2272
N5840 G3 X14.5782 Y9.2091 I-0.9819 J0.
N5845 G1 X13.3289
N5850 X12.6119
N5855 Z0.0787
N5860 X12.1395
N5865 Z0.0413 F44.619
N5870 X9.9666 F133.858
N5875 X9.958 Y9.2094
N5880 G3 X7.7751 Y6.4262 I-0.1548 J-2.1263
N5885 X7.8049 Y6.411 I0.0225 J0.0073
N5890 G1 X7.8273 Y6.4182
N5895 X7.8308 Y6.4194 Z0.0416
N5900 X7.8343 Y6.4205 Z0.0425
N5905 X7.8375 Y6.4215 Z0.0439
N5910 X7.8405 Y6.4225 Z0.0459
N5915 X7.8432 Y6.4234 Z0.0483
N5920 X7.8455 Y6.4241 Z0.0511
N5925 X7.8474 Y6.4247 Z0.0542
N5930 X7.8487 Y6.4252 Z0.0577
N5935 X7.8495 Y6.4254 Z0.0613
N5940 X7.8498 Y6.4255 Z0.065
N5945 Z2.128
N5950 X7.8352 Y6.4705
N5955 Z0.1988 F44.619
N5960 Z0.0236
N5965 X7.835 Y6.4704 Z0.0199 F133.858
N5970 X7.8341 Y6.4701 Z0.0163
N5975 X7.8328 Y6.4697 Z0.0129
N5980 X7.831 Y6.4691 Z0.0097
N5985 X7.8287 Y6.4683 Z0.0069
N5990 X7.826 Y6.4675 Z0.0045
N5995 X7.823 Y6.4665 Z0.0026
N6000 X7.8197 Y6.4654 Z0.0012
N6005 X7.8163 Y6.4643 Z0.0003
N6010 X7.8128 Y6.4632 Z0.
N6015 X7.7903 Y6.4559
N6020 G3 X7.7751 Y6.4262 I0.0073 J-0.0225
N6025 X8.7166 Y5.249 I2.0281 J0.657
N6030 G2 X9.2206 Y4.5983 I-0.5699 J-0.962
N6035 G1 Z0.0787
N6040 G2 X9.2533 Y4.127 I-1.0739 J-0.3113
N6045 G1 Z0. F44.619
N6050 G2 X7.5768 Y3.325 I-1.1066 J0.16 F133.858
N6055 X7.308 Y3.4978 I2.2264 J3.7581
N6060 X7.292 Y3.6783 I0.0675 J0.0969
N6065 G1 X7.7388 Y4.1251
N6070 X6.8452 Y5.0188
N6075 X6.3984 Y4.5719
N6080 G2 X6.2179 Y4.588 I-0.0835 J0.0835
N6085 X5.5037 Y6.3123 I3.5853 J2.4952
N6090 X5.6199 Y6.4513 I0.1163 J0.0208
N6095 G1 X6.2518
N6100 Y7.715
N6105 X5.6199
N6110 G2 X5.5037 Y7.854 I0. J0.1181
N6115 X5.7007 Y8.5831 I4.2996 J-0.7708
N6120 G1 Z0.0787
N6125 G2 X5.8867 Y9.0173 I4.1025 J-1.4999
N6130 G1 Z0. F44.619
N6135 G2 X6.2179 Y9.5783 I3.9166 J-1.9342 F133.858
N6140 X6.3984 Y9.5944 I0.0969 J-0.0675
N6145 G1 X6.8452 Y9.1475
N6150 X7.7388 Y10.0412
N6155 X7.292 Y10.488
N6160 G2 X7.308 Y10.6685 I0.0835 J0.0835
N6165 X9.0324 Y11.3827 I2.4952 J-3.5853
N6170 X9.1713 Y11.2665 I0.0208 J-0.1163
N6175 G1 Y10.7013
N6180 X10.4351
N6185 Y11.3331
N6190 G2 X10.5532 Y11.4513 I0.1181 J0.
N6195 G1 X11.8042
N6200 Z0.0787
N6205 X12.2766
N6210 Z0. F44.619
N6215 X13.5532 F133.858
N6220 G2 X13.6713 Y11.3331 I0. J-0.1181
N6225 G1 Y10.7013
N6230 X16.9351
N6235 Y11.3331
N6240 G2 X17.0532 Y11.4513 I0.1181 J0.
N6245 G1 X17.8688
N6250 Z0.0787
N6255 X18.3412
N6260 Z0. F44.619
N6265 X19.0532 F133.858
N6270 G2 X19.1713 Y11.3331 I0. J-0.1181
N6275 G1 Y7.8674
N6280 Z0.0787
N6285 Y7.3949
N6290 Z0. F44.619
N6295 Y4.8331 F133.858
N6300 G2 X19.0532 Y4.715 I-0.1181 J0.
N6305 G1 X17.8991
N6310 Z0.0787
N6315 X17.4267
N6320 Z0. F44.619
N6325 X16.6782 F133.858
N6330 G2 X15.5601 Y5.8331 I0. J1.1181
N6335 G1 Y8.2272
N6340 G3 X14.5782 Y9.2091 I-0.9819 J0.
N6345 G1 X13.3289
N6350 X12.6119
N6355 Z0.0787
N6360 X12.1395
N6365 Z0. F44.619
N6370 X9.9666 F133.858
N6375 X9.958 Y9.2094
N6380 G3 X7.7751 Y6.4262 I-0.1548 J-2.1263
N6385 X7.8049 Y6.411 I0.0225 J0.0073
N6390 G1 X7.8273 Y6.4182
N6395 X7.8308 Y6.4194 Z0.0003
N6400 X7.8343 Y6.4205 Z0.0012
N6405 X7.8375 Y6.4215 Z0.0026
N6410 X7.8405 Y6.4225 Z0.0045
N6415 X7.8432 Y6.4234 Z0.0069
N6420 X7.8455 Y6.4241 Z0.0097
N6425 X7.8474 Y6.4247 Z0.0129
N6430 X7.8487 Y6.4252 Z0.0163
N6435 X7.8495 Y6.4254 Z0.0199
N6440 X7.8498 Y6.4255 Z0.0236
N6445 Z2.128
N6450 X10.374 Y7.2457
N6455 Z2.0886 F44.619
N6460 Z1.8366
N6465 X10.3742 Y7.2458 Z1.8329 F133.858
N6470 X10.3751 Y7.2461 Z1.8293
N6475 X10.3764 Y7.2465 Z1.8259
N6480 X10.3783 Y7.2471 Z1.8227
N6485 X10.3805 Y7.2479 Z1.8199
N6490 X10.3832 Y7.2488 Z1.8175
N6495 X10.3862 Y7.2497 Z1.8156
N6500 X10.3895 Y7.2508 Z1.8141
N6505 X10.3929 Y7.2519 Z1.8133
N6510 X10.3964 Y7.2531 Z1.813
N6515 X10.4189 Y7.2604
N6520 G3 X10.434 Y7.2902 I-0.0073 J0.0225
N6525 G2 X12.067 Y8.5987 I1.0631 J0.3465
N6530 X12.3357 Y8.4259 I-2.2262 J-3.7583
N6535 X12.3518 Y8.2454 I-0.0675 J-0.0969
N6540 G1 X11.9049 Y7.7986
N6545 X12.7986 Y6.9049
N6550 X13.2454 Y7.3518
N6555 G2 X13.4259 Y7.3357 I0.0835 J-0.0835
N6560 X14.1401 Y5.6114 I-3.5853 J-2.4952
N6565 X14.0239 Y5.4724 I-0.1163 J-0.0208
N6570 G1 X13.392
N6575 Y4.2087
N6580 X14.0239
N6585 G2 X14.1401 Y4.0697 I0. J-0.1181
N6590 X13.4259 Y2.3454 I-4.2996 J0.7708
N6595 X13.2454 Y2.3293 I-0.0969 J0.0675
N6600 G1 X12.7986 Y2.7761
N6605 X11.9049 Y1.8825
N6610 X12.3518 Y1.4357
N6615 G2 X12.3357 Y1.2552 I-0.0835 J-0.0835
N6620 X10.6114 Y0.541 I-2.4952 J3.5853
N6625 X10.4724 Y0.6573 I-0.0208 J0.1163
N6630 G1 Y1.2224
N6635 X9.2087
N6640 Y0.5906
N6645 G2 X9.0906 Y0.4724 I-0.1181 J0.
N6650 G1 X6.0906
N6655 G2 X5.9724 Y0.5906 I0. J0.1181
N6660 G1 Y1.2224
N6665 X2.7087
N6670 Y0.5906
N6675 G2 X2.5906 Y0.4724 I-0.1181 J0.
N6680 G1 X0.5906
N6685 G2 X0.4724 Y0.5906 I0. J0.1181
N6690 G1 Y7.0906
N6695 G2 X0.5906 Y7.2087 I0.1181 J0.
N6700 G1 X2.9656
N6705 G2 X4.0837 Y6.0906 I0. J-1.1181
N6710 G1 Y3.6965
N6715 G3 X5.0656 Y2.7146 I0.9819 J0.
N6720 G1 X9.6772
N6725 X9.6857 Y2.7143
N6730 G3 X10.9272 Y6.6747 I0.1548 J2.1263
N6735 G2 X10.434 Y7.2902 I0.5699 J0.962
N6740 G3 X10.4042 Y7.3053 I-0.0225 J-0.0073
N6745 G1 X10.3818 Y7.298
N6750 X10.3783 Y7.2968 Z1.8133
N6755 X10.3748 Y7.2957 Z1.8141
N6760 X10.3716 Y7.2947 Z1.8156
N6765 X10.3686 Y7.2937 Z1.8175
N6770 X10.3659 Y7.2928 Z1.8199
N6775 X10.3636 Y7.2921 Z1.8227
N6780 X10.3618 Y7.2915 Z1.8259
N6785 X10.3604 Y7.291 Z1.8293
N6790 X10.3596 Y7.2908 Z1.8329
N6795 X10.3593 Y7.2907 Z1.8366
N6800 Z2.128
N6805 X10.374 Y7.2457
N6810 Z1.9705 F44.619
N6815 Z1.7185
N6820 X10.3742 Y7.2458 Z1.7148 F133.858
N6825 X10.3751 Y7.2461 Z1.7112
N6830 X10.3764 Y7.2465 Z1.7078
N6835 X10.3783 Y7.2471 Z1.7046
N6840 X10.3805 Y7.2479 Z1.7018
N6845 X10.3832 Y7.2488 Z1.6994
N6850 X10.3862 Y7.2497 Z1.6975
N6855 X10.3895 Y7.2508 Z1.696
N6860 X10.3929 Y7.2519 Z1.6952
N6865 X10.3964 Y7.2531 Z1.6949
N6870 X10.4189 Y7.2604
N6875 G3 X10.434 Y7.2902 I-0.0073 J0.0225
N6880 G2 X12.067 Y8.5987 I1.0631 J0.3465
N6885 X12.3357 Y8.4259 I-2.2262 J-3.7583
N6890 X12.3518 Y8.2454 I-0.0675 J-0.0969
N6895 G1 X11.9049 Y7.7986
N6900 X12.7986 Y6.9049
N6905 X13.2454 Y7.3518
N6910 G2 X13.4259 Y7.3357 I0.0835 J-0.0835
N6915 X14.1401 Y5.6114 I-3.5853 J-2.4952
N6920 X14.0239 Y5.4724 I-0.1163 J-0.0208
N6925 G1 X13.392
N6930 Y4.2087
N6935 X14.0239
N6940 G2 X14.1401 Y4.0697 I0. J-0.1181
N6945 X13.4259 Y2.3454 I-4.2996 J0.7708
N6950 X13.2454 Y2.3293 I-0.0969 J0.0675
N6955 G1 X12.7986 Y2.7761
N6960 X11.9049 Y1.8825
N6965 X12.3518 Y1.4357
N6970 G2 X12.3357 Y1.2552 I-0.0835 J-0.0835
N6975 X10.6114 Y0.541 I-2.4952 J3.5853
N6980 X10.4724 Y0.6573 I-0.0208 J0.1163
N6985 G1 Y1.2224
N6990 X9.2087
N6995 Y0.5906
N7000 G2 X9.0906 Y0.4724 I-0.1181 J0.
N7005 G1 X6.0906
N7010 G2 X5.9724 Y0.5906 I0. J0.1181
N7015 G1 Y1.2224
N7020 X2.7087
N7025 Y0.5906
N7030 G2 X2.5906 Y0.4724 I-0.1181 J0.
N7035 G1 X0.5906
N7040 G2 X0.4724 Y0.5906 I0. J0.1181
N7045 G1 Y7.0906
N7050 G2 X0.5906 Y7.2087 I0.1181 J0.
N7055 G1 X2.9656
N7060 G2 X4.0837 Y6.0906 I0. J-1.1181
N7065 G1 Y3.6965
N7070 G3 X5.0656 Y2.7146 I0.9819 J0.
N7075 G1 X9.6772
N7080 X9.6857 Y2.7143
N7085 G3 X10.9272 Y6.6747 I0.1548 J2.1263
N7090 G2 X10.434 Y7.2902 I0.5699 J0.962
N7095 G3 X10.4042 Y7.3053 I-0.0225 J-0.0073
N7100 G1 X10.3818 Y7.298
N7105 X10.3783 Y7.2968 Z1.6952
N7110 X10.3748 Y7.2957 Z1.696
N7115 X10.3716 Y7.2947 Z1.6975
N7120 X10.3686 Y7.2937 Z1.6994
N7125 X10.3659 Y7.2928 Z1.7018
N7130 X10.3636 Y7.2921 Z1.7046
N7135 X10.3618 Y7.2915 Z1.7078
N7140 X10.3604 Y7.291 Z1.7112
N7145 X10.3596 Y7.2908 Z1.7148
N7150 X10.3593 Y7.2907 Z1.7185
N7155 Z2.128
N7160 X10.374 Y7.2457
N7165 Z1.8524 F44.619
N7170 Z1.6004
N7175 X10.3742 Y7.2458 Z1.5967 F133.858
N7180 X10.3751 Y7.2461 Z1.5931
N7185 X10.3764 Y7.2465 Z1.5897
N7190 X10.3783 Y7.2471 Z1.5865
N7195 X10.3805 Y7.2479 Z1.5837
N7200 X10.3832 Y7.2488 Z1.5813
N7205 X10.3862 Y7.2497 Z1.5793
N7210 X10.3895 Y7.2508 Z1.5779
N7215 X10.3929 Y7.2519 Z1.5771
N7220 X10.3964 Y7.2531 Z1.5768
N7225 X10.4189 Y7.2604
N7230 G3 X10.434 Y7.2902 I-0.0073 J0.0225
N7235 G2 X12.067 Y8.5987 I1.0631 J0.3465
N7240 X12.3357 Y8.4259 I-2.2262 J-3.7583
N7245 X12.3518 Y8.2454 I-0.0675 J-0.0969
N7250 G1 X11.9049 Y7.7986
N7255 X12.7986 Y6.9049
N7260 X13.2454 Y7.3518
N7265 G2 X13.4259 Y7.3357 I0.0835 J-0.0835
N7270 X14.1401 Y5.6114 I-3.5853 J-2.4952
N7275 X14.0239 Y5.4724 I-0.1163 J-0.0208
N7280 G1 X13.392
N7285 Y4.2087
N7290 X14.0239
N7295 G2 X14.1401 Y4.0697 I0. J-0.1181
N7300 X13.4259 Y2.3454 I-4.2996 J0.7708
N7305 X13.2454 Y2.3293 I-0.0969 J0.0675
N7310 G1 X12.7986 Y2.7761
N7315 X11.9049 Y1.8825
N7320 X12.3518 Y1.4357
N7325 G2 X12.3357 Y1.2552 I-0.0835 J-0.0835
N7330 X10.6114 Y0.541 I-2.4952 J3.5853
N7335 X10.4724 Y0.6573 I-0.0208 J0.1163
N7340 G1 Y1.2224
N7345 X9.2087
N7350 Y0.5906
N7355 G2 X9.0906 Y0.4724 I-0.1181 J0.
N7360 G1 X6.0906
N7365 G2 X5.9724 Y0.5906 I0. J0.1181
N7370 G1 Y1.2224
N7375 X2.7087
N7380 Y0.5906
N7385 G2 X2.5906 Y0.4724 I-0.1181 J0.
N7390 G1 X0.5906
N7395 G2 X0.4724 Y0.5906 I0. J0.1181
N7400 G1 Y7.0906
N7405 G2 X0.5906 Y7.2087 I0.1181 J0.
N7410 G1 X2.9656
N7415 G2 X4.0837 Y6.0906 I0. J-1.1181
N7420 G1 Y3.6965
N7425 G3 X5.0656 Y2.7146 I0.9819 J0.
N7430 G1 X9.6772
N7435 X9.6857 Y2.7143
N7440 G3 X10.9272 Y6.6747 I0.1548 J2.1263
N7445 G2 X10.434 Y7.2902 I0.5699 J0.962
N7450 G3 X10.4042 Y7.3053 I-0.0225 J-0.0073
N7455 G1 X10.3818 Y7.298
N7460 X10.3783 Y7.2968 Z1.5771
N7465 X10.3748 Y7.2957 Z1.5779
N7470 X10.3716 Y7.2947 Z1.5793
N7475 X10.3686 Y7.2937 Z1.5813
N7480 X10.3659 Y7.2928 Z1.5837
N7485 X10.3636 Y7.2921 Z1.5865
N7490 X10.3618 Y7.2915 Z1.5897
N7495 X10.3604 Y7.291 Z1.5931
N7500 X10.3596 Y7.2908 Z1.5967
N7505 X10.3593 Y7.2907 Z1.6004
N7510 Z2.128
N7515 X10.374 Y7.2457
N7520 Z1.7343 F44.619
N7525 Z1.4823
N7530 X10.3742 Y7.2458 Z1.4786 F133.858
N7535 X10.3751 Y7.2461 Z1.475
N7540 X10.3764 Y7.2465 Z1.4716
N7545 X10.3783 Y7.2471 Z1.4684
N7550 X10.3805 Y7.2479 Z1.4656
N7555 X10.3832 Y7.2488 Z1.4632
N7560 X10.3862 Y7.2497 Z1.4612
N7565 X10.3895 Y7.2508 Z1.4598
N7570 X10.3929 Y7.2519 Z1.459
N7575 X10.3964 Y7.2531 Z1.4587
N7580 X10.4189 Y7.2604
N7585 G3 X10.434 Y7.2902 I-0.0073 J0.0225
N7590 G2 X12.067 Y8.5987 I1.0631 J0.3465
N7595 X12.3357 Y8.4259 I-2.2262 J-3.7583
N7600 X12.3518 Y8.2454 I-0.0675 J-0.0969
N7605 G1 X11.9049 Y7.7986
N7610 X12.7986 Y6.9049
N7615 X13.2454 Y7.3518
N7620 G2 X13.4259 Y7.3357 I0.0835 J-0.0835
N7625 X14.1401 Y5.6114 I-3.5853 J-2.4952
N7630 X14.0239 Y5.4724 I-0.1163 J-0.0208
N7635 G1 X13.392
N7640 Y4.2087
N7645 X14.0239
N7650 G2 X14.1401 Y4.0697 I0. J-0.1181
N7655 X13.4259 Y2.3454 I-4.2996 J0.7708
N7660 X13.2454 Y2.3293 I-0.0969 J0.0675
N7665 G1 X12.7986 Y2.7761
N7670 X11.9049 Y1.8825
N7675 X12.3518 Y1.4357
N7680 G2 X12.3357 Y1.2552 I-0.0835 J-0.0835
N7685 X10.6114 Y0.541 I-2.4952 J3.5853
N7690 X10.4724 Y0.6573 I-0.0208 J0.1163
N7695 G1 Y1.2224
N7700 X9.2087
N7705 Y0.5906
N7710 G2 X9.0906 Y0.4724 I-0.1181 J0.
N7715 G1 X6.0906
N7720 G2 X5.9724 Y0.5906 I0. J0.1181
N7725 G1 Y1.2224
N7730 X2.7087
N7735 Y0.5906
N7740 G2 X2.5906 Y0.4724 I-0.1181 J0.
N7745 G1 X0.5906
N7750 G2 X0.4724 Y0.5906 I0. J0.1181
N7755 G1 Y7.0906
N7760 G2 X0.5906 Y7.2087 I0.1181 J0.
N7765 G1 X2.9656
N7770 G2 X4.0837 Y6.0906 I0. J-1.1181
N7775 G1 Y3.6965
N7780 G3 X5.0656 Y2.7146 I0.9819 J0.
N7785 G1 X9.6772
N7790 X9.6857 Y2.7143
N7795 G3 X10.9272 Y6.6747 I0.1548 J2.1263
N7800 G2 X10.434 Y7.2902 I0.5699 J0.962
N7805 G3 X10.4042 Y7.3053 I-0.0225 J-0.0073
N7810 G1 X10.3818 Y7.298
N7815 X10.3783 Y7.2968 Z1.459
N7820 X10.3748 Y7.2957 Z1.4598
N7825 X10.3716 Y7.2947 Z1.4612
N7830 X10.3686 Y7.2937 Z1.4632
N7835 X10.3659 Y7.2928 Z1.4656
N7840 X10.3636 Y7.2921 Z1.4684
N7845 X10.3618 Y7.2915 Z1.4716
N7850 X10.3604 Y7.291 Z1.475
N7855 X10.3596 Y7.2908 Z1.4786
N7860 X10.3593 Y7.2907 Z1.4823
N7865 Z2.128
N7870 X10.374 Y7.2457
N7875 Z1.6161 F44.619
N7880 Z1.3642
N7885 X10.3742 Y7.2458 Z1.3605 F133.858
N7890 X10.3751 Y7.2461 Z1.3569
N7895 X10.3764 Y7.2465 Z1.3534
N7900 X10.3783 Y7.2471 Z1.3503
N7905 X10.3805 Y7.2479 Z1.3475
N7910 X10.3832 Y7.2488 Z1.3451
N7915 X10.3862 Y7.2497 Z1.3431
N7920 X10.3895 Y7.2508 Z1.3417
N7925 X10.3929 Y7.2519 Z1.3408
N7930 X10.3964 Y7.2531 Z1.3406
N7935 X10.4189 Y7.2604
N7940 G3 X10.434 Y7.2902 I-0.0073 J0.0225
N7945 G2 X12.067 Y8.5987 I1.0631 J0.3465
N7950 X12.3357 Y8.4259 I-2.2262 J-3.7583
N7955 X12.3518 Y8.2454 I-0.0675 J-0.0969
N7960 G1 X11.9049 Y7.7986
N7965 X12.7986 Y6.9049
N7970 X13.2454 Y7.3518
N7975 G2 X13.4259 Y7.3357 I0.0835 J-0.0835
N7980 X14.1401 Y5.6114 I-3.5853 J-2.4952
N7985 X14.0239 Y5.4724 I-0.1163 J-0.0208
N7990 G1 X13.392
N7995 Y4.2087
N8000 X14.0239
N8005 G2 X14.1401 Y4.0697 I0. J-0.1181
N8010 X13.4259 Y2.3454 I-4.2996 J0.7708
N8015 X13.2454 Y2.3293 I-0.0969 J0.0675
N8020 G1 X12.7986 Y2.7761
N8025 X11.9049 Y1.8825
N8030 X12.3518 Y1.4357
N8035 G2 X12.3357 Y1.2552 I-0.0835 J-0.0835
N8040 X10.6114 Y0.541 I-2.4952 J3.5853
N8045 X10.4724 Y0.6573 I-0.0208 J0.1163
N8050 G1 Y1.2224
N8055 X9.2087
N8060 Y0.5906
N8065 G2 X9.0906 Y0.4724 I-0.1181 J0.
N8070 G1 X6.0906
N8075 G2 X5.9724 Y0.5906 I0. J0.1181
N8080 G1 Y1.2224
N8085 X2.7087
N8090 Y0.5906
N8095 G2 X2.5906 Y0.4724 I-0.1181 J0.
N8100 G1 X0.5906
N8105 G2 X0.4724 Y0.5906 I0. J0.1181
N8110 G1 Y7.0906
N8115 G2 X0.5906 Y7.2087 I0.1181 J0.
N8120 G1 X2.9656
N8125 G2 X4.0837 Y6.0906 I0. J-1.1181
N8130 G1 Y3.6965
N8135 G3 X5.0656 Y2.7146 I0.9819 J0.
N8140 G1 X9.6772
N8145 X9.6857 Y2.7143
N8150 G3 X10.9272 Y6.6747 I0.1548 J2.1263
N8155 G2 X10.434 Y7.2902 I0.5699 J0.962
N8160 G3 X10.4042 Y7.3053 I-0.0225 J-0.0073
N8165 G1 X10.3818 Y7.298
N8170 X10.3783 Y7.2968 Z1.3408
N8175 X10.3748 Y7.2957 Z1.3417
N8180 X10.3716 Y7.2947 Z1.3431
N8185 X10.3686 Y7.2937 Z1.3451
N8190 X10.3659 Y7.2928 Z1.3475
N8195 X10.3636 Y7.2921 Z1.3503
N8200 X10.3618 Y7.2915 Z1.3534
N8205 X10.3604 Y7.291 Z1.3569
N8210 X10.3596 Y7.2908 Z1.3605
N8215 X10.3593 Y7.2907 Z1.3642
N8220 Z2.128
N8225 X10.374 Y7.2457
N8230 Z1.498 F44.619
N8235 Z1.2461
N8240 X10.3742 Y7.2458 Z1.2424 F133.858
N8245 X10.3751 Y7.2461 Z1.2388
N8250 X10.3764 Y7.2465 Z1.2353
N8255 X10.3783 Y7.2471 Z1.2322
N8260 X10.3805 Y7.2479 Z1.2294
N8265 X10.3832 Y7.2488 Z1.227
N8270 X10.3862 Y7.2497 Z1.225
N8275 X10.3895 Y7.2508 Z1.2236
N8280 X10.3929 Y7.2519 Z1.2227
N8285 X10.3964 Y7.2531 Z1.2224
N8290 X10.4189 Y7.2604
N8295 G3 X10.434 Y7.2902 I-0.0073 J0.0225
N8300 G2 X12.067 Y8.5987 I1.0631 J0.3465
N8305 X12.3357 Y8.4259 I-2.2262 J-3.7583
N8310 X12.3518 Y8.2454 I-0.0675 J-0.0969
N8315 G1 X11.9049 Y7.7986
N8320 X12.7986 Y6.9049
N8325 X13.2454 Y7.3518
N8330 G2 X13.4259 Y7.3357 I0.0835 J-0.0835
N8335 X14.1401 Y5.6114 I-3.5853 J-2.4952
N8340 X14.0239 Y5.4724 I-0.1163 J-0.0208
N8345 G1 X13.392
N8350 Y4.2087
N8355 X14.0239
N8360 G2 X14.1401 Y4.0697 I0. J-0.1181
N8365 X13.4259 Y2.3454 I-4.2996 J0.7708
N8370 X13.2454 Y2.3293 I-0.0969 J0.0675
N8375 G1 X12.7986 Y2.7761
N8380 X11.9049 Y1.8825
N8385 X12.3518 Y1.4357
N8390 G2 X12.3357 Y1.2552 I-0.0835 J-0.0835
N8395 X10.6114 Y0.541 I-2.4952 J3.5853
N8400 X10.4724 Y0.6573 I-0.0208 J0.1163
N8405 G1 Y1.2224
N8410 X9.2087
N8415 Y0.5906
N8420 G2 X9.0906 Y0.4724 I-0.1181 J0.
N8425 G1 X6.0906
N8430 G2 X5.9724 Y0.5906 I0. J0.1181
N8435 G1 Y1.2224
N8440 X2.7087
N8445 Y0.5906
N8450 G2 X2.5906 Y0.4724 I-0.1181 J0.
N8455 G1 X0.5906
N8460 G2 X0.4724 Y0.5906 I0. J0.1181
N8465 G1 Y7.0906
N8470 G2 X0.5906 Y7.2087 I0.1181 J0.
N8475 G1 X2.9656
N8480 G2 X4.0837 Y6.0906 I0. J-1.1181
N8485 G1 Y3.6965
N8490 G3 X5.0656 Y2.7146 I0.9819 J0.
N8495 G1 X9.6772
N8500 X9.6857 Y2.7143
N8505 G3 X10.9272 Y6.6747 I0.1548 J2.1263
N8510 G2 X10.434 Y7.2902 I0.5699 J0.962
N8515 G3 X10.4042 Y7.3053 I-0.0225 J-0.0073
N8520 G1 X10.3818 Y7.298
N8525 X10.3783 Y7.2968 Z1.2227
N8530 X10.3748 Y7.2957 Z1.2236
N8535 X10.3716 Y7.2947 Z1.225
N8540 X10.3686 Y7.2937 Z1.227
N8545 X10.3659 Y7.2928 Z1.2294
N8550 X10.3636 Y7.2921 Z1.2322
N8555 X10.3618 Y7.2915 Z1.2353
N8560 X10.3604 Y7.291 Z1.2388
N8565 X10.3596 Y7.2908 Z1.2424
N8570 X10.3593 Y7.2907 Z1.2461
N8575 Z2.128
N8580 X10.374 Y7.2457
N8585 Z1.3799 F44.619
N8590 Z1.128
N8595 X10.3742 Y7.2458 Z1.1243 F133.858
N8600 X10.3751 Y7.2461 Z1.1207
N8605 X10.3764 Y7.2465 Z1.1172
N8610 X10.3783 Y7.2471 Z1.1141
N8615 X10.3805 Y7.2479 Z1.1112
N8620 X10.3832 Y7.2488 Z1.1088
N8625 X10.3862 Y7.2497 Z1.1069
N8630 X10.3895 Y7.2508 Z1.1055
N8635 X10.3929 Y7.2519 Z1.1046
N8640 X10.3964 Y7.2531 Z1.1043
N8645 X10.4189 Y7.2604
N8650 G3 X10.434 Y7.2902 I-0.0073 J0.0225
N8655 G2 X12.067 Y8.5987 I1.0631 J0.3465
N8660 X12.3357 Y8.4259 I-2.2262 J-3.7583
N8665 X12.3518 Y8.2454 I-0.0675 J-0.0969
N8670 G1 X11.9049 Y7.7986
N8675 X12.7986 Y6.9049
N8680 X13.2454 Y7.3518
N8685 G2 X13.4259 Y7.3357 I0.0835 J-0.0835
N8690 X14.1401 Y5.6114 I-3.5853 J-2.4952
N8695 X14.0239 Y5.4724 I-0.1163 J-0.0208
N8700 G1 X13.392
N8705 Y4.2087
N8710 X14.0239
N8715 G2 X14.1401 Y4.0697 I0. J-0.1181
N8720 X13.4259 Y2.3454 I-4.2996 J0.7708
N8725 X13.2454 Y2.3293 I-0.0969 J0.0675
N8730 G1 X12.7986 Y2.7761
N8735 X11.9049 Y1.8825
N8740 X12.3518 Y1.4357
N8745 G2 X12.3357 Y1.2552 I-0.0835 J-0.0835
N8750 X10.6114 Y0.541 I-2.4952 J3.5853
N8755 X10.4724 Y0.6573 I-0.0208 J0.1163
N8760 G1 Y1.2224
N8765 X9.2087
N8770 Y0.5906
N8775 G2 X9.0906 Y0.4724 I-0.1181 J0.
N8780 G1 X6.0906
N8785 G2 X5.9724 Y0.5906 I0. J0.1181
N8790 G1 Y1.2224
N8795 X2.7087
N8800 Y0.5906
N8805 G2 X2.5906 Y0.4724 I-0.1181 J0.
N8810 G1 X0.5906
N8815 G2 X0.4724 Y0.5906 I0. J0.1181
N8820 G1 Y7.0906
N8825 G2 X0.5906 Y7.2087 I0.1181 J0.
N8830 G1 X2.9656
N8835 G2 X4.0837 Y6.0906 I0. J-1.1181
N8840 G1 Y3.6965
N8845 G3 X5.0656 Y2.7146 I0.9819 J0.
N8850 G1 X9.6772
N8855 X9.6857 Y2.7143
N8860 G3 X10.9272 Y6.6747 I0.1548 J2.1263
N8865 G2 X10.434 Y7.2902 I0.5699 J0.962
N8870 G3 X10.4042 Y7.3053 I-0.0225 J-0.0073
N8875 G1 X10.3818 Y7.298
N8880 X10.3783 Y7.2968 Z1.1046
N8885 X10.3748 Y7.2957 Z1.1055
N8890 X10.3716 Y7.2947 Z1.1069
N8895 X10.3686 Y7.2937 Z1.1088
N8900 X10.3659 Y7.2928 Z1.1112
N8905 X10.3636 Y7.2921 Z1.1141
N8910 X10.3618 Y7.2915 Z1.1172
N8915 X10.3604 Y7.291 Z1.1207
N8920 X10.3596 Y7.2908 Z1.1243
N8925 X10.3593 Y7.2907 Z1.128
N8930 Z2.128
N8935 X10.374 Y7.2457
N8940 Z1.2618 F44.619
N8945 Z1.0098
N8950 X10.3742 Y7.2458 Z1.0061 F133.858
N8955 X10.3751 Y7.2461 Z1.0025
N8960 X10.3764 Y7.2465 Z0.9991
N8965 X10.3783 Y7.2471 Z0.996
N8970 X10.3805 Y7.2479 Z0.9931
N8975 X10.3832 Y7.2488 Z0.9907
N8980 X10.3862 Y7.2497 Z0.9888
N8985 X10.3895 Y7.2508 Z0.9874
N8990 X10.3929 Y7.2519 Z0.9865
N8995 X10.3964 Y7.2531 Z0.9862
N9000 X10.4189 Y7.2604
N9005 G3 X10.434 Y7.2902 I-0.0073 J0.0225
N9010 G2 X12.067 Y8.5987 I1.0631 J0.3465
N9015 X12.3357 Y8.4259 I-2.2262 J-3.7583
N9020 X12.3518 Y8.2454 I-0.0675 J-0.0969
N9025 G1 X11.9049 Y7.7986
N9030 X12.7986 Y6.9049
N9035 X13.2454 Y7.3518
N9040 G2 X13.4259 Y7.3357 I0.0835 J-0.0835
N9045 X14.1401 Y5.6114 I-3.5853 J-2.4952
N9050 X14.0239 Y5.4724 I-0.1163 J-0.0208
N9055 G1 X13.392
N9060 Y4.2087
N9065 X14.0239
N9070 G2 X14.1401 Y4.0697 I0. J-0.1181
N9075 X13.4259 Y2.3454 I-4.2996 J0.7708
N9080 X13.2454 Y2.3293 I-0.0969 J0.0675
N9085 G1 X12.7986 Y2.7761
N9090 X11.9049 Y1.8825
N9095 X12.3518 Y1.4357
N9100 G2 X12.3357 Y1.2552 I-0.0835 J-0.0835
N9105 X10.6114 Y0.541 I-2.4952 J3.5853
N9110 X10.4724 Y0.6573 I-0.0208 J0.1163
N9115 G1 Y1.2224
N9120 X9.2087
N9125 Y0.5906
N9130 G2 X9.0906 Y0.4724 I-0.1181 J0.
N9135 G1 X6.0906
N9140 G2 X5.9724 Y0.5906 I0. J0.1181
N9145 G1 Y1.2224
N9150 X2.7087
N9155 Y0.5906
N9160 G2 X2.5906 Y0.4724 I-0.1181 J0.
N9165 G1 X0.5906
N9170 G2 X0.4724 Y0.5906 I0. J0.1181
N9175 G1 Y7.0906
N9180 G2 X0.5906 Y7.2087 I0.1181 J0.
N9185 G1 X2.9656
N9190 G2 X4.0837 Y6.0906 I0. J-1.1181
N9195 G1 Y3.6965
N9200 G3 X5.0656 Y2.7146 I0.9819 J0.
N9205 G1 X9.6772
N9210 X9.6857 Y2.7143
N9215 G3 X10.9272 Y6.6747 I0.1548 J2.1263
N9220 G2 X10.434 Y7.2902 I0.5699 J0.962
N9225 G3 X10.4042 Y7.3053 I-0.0225 J-0.0073
N9230 G1 X10.3818 Y7.298
N9235 X10.3783 Y7.2968 Z0.9865
N9240 X10.3748 Y7.2957 Z0.9874
N9245 X10.3716 Y7.2947 Z0.9888
N9250 X10.3686 Y7.2937 Z0.9907
N9255 X10.3659 Y7.2928 Z0.9931
N9260 X10.3636 Y7.2921 Z0.996
N9265 X10.3618 Y7.2915 Z0.9991
N9270 X10.3604 Y7.291 Z1.0025
N9275 X10.3596 Y7.2908 Z1.0061
N9280 X10.3593 Y7.2907 Z1.0098
N9285 Z2.128
N9290 X10.374 Y7.2457
N9295 Z1.1437 F44.619
N9300 Z0.8917
N9305 X10.3742 Y7.2458 Z0.888 F133.858
N9310 X10.3751 Y7.2461 Z0.8844
N9315 X10.3764 Y7.2465 Z0.881
N9320 X10.3783 Y7.2471 Z0.8778
N9325 X10.3805 Y7.2479 Z0.875
N9330 X10.3832 Y7.2488 Z0.8726
N9335 X10.3862 Y7.2497 Z0.8707
N9340 X10.3895 Y7.2508 Z0.8693
N9345 X10.3929 Y7.2519 Z0.8684
N9350 X10.3964 Y7.2531 Z0.8681
N9355 X10.4189 Y7.2604
N9360 G3 X10.434 Y7.2902 I-0.0073 J0.0225
N9365 G2 X12.067 Y8.5987 I1.0631 J0.3465
N9370 X12.3357 Y8.4259 I-2.2262 J-3.7583
N9375 X12.3518 Y8.2454 I-0.0675 J-0.0969
N9380 G1 X11.9049 Y7.7986
N9385 X12.7986 Y6.9049
N9390 X13.2454 Y7.3518
N9395 G2 X13.4259 Y7.3357 I0.0835 J-0.0835
N9400 X14.1401 Y5.6114 I-3.5853 J-2.4952
N9405 X14.0239 Y5.4724 I-0.1163 J-0.0208
N9410 G1 X13.392
N9415 Y4.2087
N9420 X14.0239
N9425 G2 X14.1401 Y4.0697 I0. J-0.1181
N9430 X13.4259 Y2.3454 I-4.2996 J0.7708
N9435 X13.2454 Y2.3293 I-0.0969 J0.0675
N9440 G1 X12.7986 Y2.7761
N9445 X11.9049 Y1.8825
N9450 X12.3518 Y1.4357
N9455 G2 X12.3357 Y1.2552 I-0.0835 J-0.0835
N9460 X10.6114 Y0.541 I-2.4952 J3.5853
N9465 X10.4724 Y0.6573 I-0.0208 J0.1163
N9470 G1 Y1.2224
N9475 X9.2087
N9480 Y0.5906
N9485 G2 X9.0906 Y0.4724 I-0.1181 J0.
N9490 G1 X6.0906
N9495 G2 X5.9724 Y0.5906 I0. J0.1181
N9500 G1 Y1.2224
N9505 X2.7087
N9510 Y0.5906
N9515 G2 X2.5906 Y0.4724 I-0.1181 J0.
N9520 G1 X0.5906
N9525 G2 X0.4724 Y0.5906 I0. J0.1181
N9530 G1 Y7.0906
N9535 G2 X0.5906 Y7.2087 I0.1181 J0.
N9540 G1 X2.9656
N9545 G2 X4.0837 Y6.0906 I0. J-1.1181
N9550 G1 Y3.6965
N9555 G3 X5.0656 Y2.7146 I0.9819 J0.
N9560 G1 X9.6772
N9565 X9.6857 Y2.7143
N9570 G3 X10.9272 Y6.6747 I0.1548 J2.1263
N9575 G2 X10.434 Y7.2902 I0.5699 J0.962
N9580 G3 X10.4042 Y7.3053 I-0.0225 J-0.0073
N9585 G1 X10.3818 Y7.298
N9590 X10.3783 Y7.2968 Z0.8684
N9595 X10.3748 Y7.2957 Z0.8693
N9600 X10.3716 Y7.2947 Z0.8707
N9605 X10.3686 Y7.2937 Z0.8726
N9610 X10.3659 Y7.2928 Z0.875
N9615 X10.3636 Y7.2921 Z0.8778
N9620 X10.3618 Y7.2915 Z0.881
N9625 X10.3604 Y7.291 Z0.8844
N9630 X10.3596 Y7.2908 Z0.888
N9635 X10.3593 Y7.2907 Z0.8917
N9640 Z2.128
N9645 X10.374 Y7.2457
N9650 Z1.0256 F44.619
N9655 Z0.7736
N9660 X10.3742 Y7.2458 Z0.7699 F133.858
N9665 X10.3751 Y7.2461 Z0.7663
N9670 X10.3764 Y7.2465 Z0.7629
N9675 X10.3783 Y7.2471 Z0.7597
N9680 X10.3805 Y7.2479 Z0.7569
N9685 X10.3832 Y7.2488 Z0.7545
N9690 X10.3862 Y7.2497 Z0.7526
N9695 X10.3895 Y7.2508 Z0.7512
N9700 X10.3929 Y7.2519 Z0.7503
N9705 X10.3964 Y7.2531 Z0.75
N9710 X10.4189 Y7.2604
N9715 G3 X10.434 Y7.2902 I-0.0073 J0.0225
N9720 G2 X12.067 Y8.5987 I1.0631 J0.3465
N9725 X12.3357 Y8.4259 I-2.2262 J-3.7583
N9730 X12.3518 Y8.2454 I-0.0675 J-0.0969
N9735 G1 X11.9049 Y7.7986
N9740 X12.7986 Y6.9049
N9745 X13.2454 Y7.3518
N9750 G2 X13.4259 Y7.3357 I0.0835 J-0.0835
N9755 X14.1401 Y5.6114 I-3.5853 J-2.4952
N9760 X14.0239 Y5.4724 I-0.1163 J-0.0208
N9765 G1 X13.392
N9770 Y4.2087
N9775 X14.0239
N9780 G2 X14.1401 Y4.0697 I0. J-0.1181
N9785 X13.4259 Y2.3454 I-4.2996 J0.7708
N9790 X13.2454 Y2.3293 I-0.0969 J0.0675
N9795 G1 X12.7986 Y2.7761
N9800 X11.9049 Y1.8825
N9805 X12.3518 Y1.4357
N9810 G2 X12.3357 Y1.2552 I-0.0835 J-0.0835
N9815 X10.6114 Y0.541 I-2.4952 J3.5853
N9820 X10.4724 Y0.6573 I-0.0208 J0.1163
N9825 G1 Y1.2224
N9830 X9.2087
N9835 Y0.5906
N9840 G2 X9.0906 Y0.4724 I-0.1181 J0.
N9845 G1 X6.0906
N9850 G2 X5.9724 Y0.5906 I0. J0.1181
N9855 G1 Y1.2224
N9860 X2.7087
N9865 Y0.5906
N9870 G2 X2.5906 Y0.4724 I-0.1181 J0.
N9875 G1 X0.5906
N9880 G2 X0.4724 Y0.5906 I0. J0.1181
N9885 G1 Y7.0906
N9890 G2 X0.5906 Y7.2087 I0.1181 J0.
N9895 G1 X2.9656
N9900 G2 X4.0837 Y6.0906 I0. J-1.1181
N9905 G1 Y3.6965
N9910 G3 X5.0656 Y2.7146 I0.9819 J0.
N9915 G1 X9.6772
N9920 X9.6857 Y2.7143
N9925 G3 X10.9272 Y6.6747 I0.1548 J2.1263
N9930 G2 X10.434 Y7.2902 I0.5699 J0.962
N9935 G3 X10.4042 Y7.3053 I-0.0225 J-0.0073
N9940 G1 X10.3818 Y7.298
N9945 X10.3783 Y7.2968 Z0.7503
N9950 X10.3748 Y7.2957 Z0.7512
N9955 X10.3716 Y7.2947 Z0.7526
N9960 X10.3686 Y7.2937 Z0.7545
N9965 X10.3659 Y7.2928 Z0.7569
N9970 X10.3636 Y7.2921 Z0.7597
N9975 X10.3618 Y7.2915 Z0.7629
N9980 X10.3604 Y7.291 Z0.7663
N9985 X10.3596 Y7.2908 Z0.7699
N9990 X10.3593 Y7.2907 Z0.7736
N9995 Z2.128
N10000 X10.374 Y7.2457
N10005 Z0.9075 F44.619
N10010 Z0.6555
N10015 X10.3742 Y7.2458 Z0.6518 F133.858
N10020 X10.3751 Y7.2461 Z0.6482
N10025 X10.3764 Y7.2465 Z0.6448
N10030 X10.3783 Y7.2471 Z0.6416
N10035 X10.3805 Y7.2479 Z0.6388
N10040 X10.3832 Y7.2488 Z0.6364
N10045 X10.3862 Y7.2497 Z0.6345
N10050 X10.3895 Y7.2508 Z0.633
N10055 X10.3929 Y7.2519 Z0.6322
N10060 X10.3964 Y7.2531 Z0.6319
N10065 X10.4189 Y7.2604
N10070 G3 X10.434 Y7.2902 I-0.0073 J0.0225
N10075 G2 X12.067 Y8.5987 I1.0631 J0.3465
N10080 X12.3357 Y8.4259 I-2.2262 J-3.7583
N10085 X12.3518 Y8.2454 I-0.0675 J-0.0969
N10090 G1 X11.9049 Y7.7986
N10095 X12.7986 Y6.9049
N10100 X13.2454 Y7.3518
N10105 G2 X13.4259 Y7.3357 I0.0835 J-0.0835
N10110 X14.1401 Y5.6114 I-3.5853 J-2.4952
N10115 X14.0239 Y5.4724 I-0.1163 J-0.0208
N10120 G1 X13.392
N10125 Y4.2087
N10130 X14.0239
N10135 G2 X14.1401 Y4.0697 I0. J-0.1181
N10140 X13.4259 Y2.3454 I-4.2996 J0.7708
N10145 X13.2454 Y2.3293 I-0.0969 J0.0675
N10150 G1 X12.7986 Y2.7761
N10155 X11.9049 Y1.8825
N10160 X12.3518 Y1.4357
N10165 G2 X12.3357 Y1.2552 I-0.0835 J-0.0835
N10170 X10.6114 Y0.541 I-2.4952 J3.5853
N10175 X10.4724 Y0.6573 I-0.0208 J0.1163
N10180 G1 Y1.2224
N10185 X9.2087
N10190 Y0.5906
N10195 G2 X9.0906 Y0.4724 I-0.1181 J0.
N10200 G1 X6.0906
N10205 G2 X5.9724 Y0.5906 I0. J0.1181
N10210 G1 Y1.2224
N10215 X2.7087
N10220 Y0.5906
N10225 G2 X2.5906 Y0.4724 I-0.1181 J0.
N10230 G1 X0.5906
N10235 G2 X0.4724 Y0.5906 I0. J0.1181
N10240 G1 Y7.0906
N10245 G2 X0.5906 Y7.2087 I0.1181 J0.
N10250 G1 X2.9656
N10255 G2 X4.0837 Y6.0906 I0. J-1.1181
N10260 G1 Y3.6965
N10265 G3 X5.0656 Y2.7146 I0.9819 J0.
N10270 G1 X9.6772
N10275 X9.6857 Y2.7143
N10280 G3 X10.9272 Y6.6747 I0.1548 J2.1263
N10285 G2 X10.434 Y7.2902 I0.5699 J0.962
N10290 G3 X10.4042 Y7.3053 I-0.0225 J-0.0073
N10295 G1 X10.3818 Y7.298
N10300 X10.3783 Y7.2968 Z0.6322
N10305 X10.3748 Y7.2957 Z0.633
N10310 X10.3716 Y7.2947 Z0.6345
N10315 X10.3686 Y7.2937 Z0.6364
N10320 X10.3659 Y7.2928 Z0.6388
N10325 X10.3636 Y7.2921 Z0.6416
N10330 X10.3618 Y7.2915 Z0.6448
N10335 X10.3604 Y7.291 Z0.6482
N10340 X10.3596 Y7.2908 Z0.6518
N10345 X10.3593 Y7.2907 Z0.6555
N10350 Z2.128
N10355 X10.374 Y7.2457
N10360 Z0.7894 F44.619
N10365 Z0.5374
N10370 X10.3742 Y7.2458 Z0.5337 F133.858
N10375 X10.3751 Y7.2461 Z0.5301
N10380 X10.3764 Y7.2465 Z0.5267
N10385 X10.3783 Y7.2471 Z0.5235
N10390 X10.3805 Y7.2479 Z0.5207
N10395 X10.3832 Y7.2488 Z0.5183
N10400 X10.3862 Y7.2497 Z0.5164
N10405 X10.3895 Y7.2508 Z0.5149
N10410 X10.3929 Y7.2519 Z0.5141
N10415 X10.3964 Y7.2531 Z0.5138
N10420 X10.4189 Y7.2604
N10425 G3 X10.434 Y7.2902 I-0.0073 J0.0225
N10430 G2 X12.067 Y8.5987 I1.0631 J0.3465
N10435 X12.3357 Y8.4259 I-2.2262 J-3.7583
N10440 X12.3518 Y8.2454 I-0.0675 J-0.0969
N10445 G1 X11.9049 Y7.7986
N10450 X12.7986 Y6.9049
N10455 X13.2454 Y7.3518
N10460 G2 X13.4259 Y7.3357 I0.0835 J-0.0835
N10465 X14.1401 Y5.6114 I-3.5853 J-2.4952
N10470 X14.0239 Y5.4724 I-0.1163 J-0.0208
N10475 G1 X13.392
N10480 Y4.2087
N10485 X14.0239
N10490 G2 X14.1401 Y4.0697 I0. J-0.1181
N10495 X13.4259 Y2.3454 I-4.2996 J0.7708
N10500 X13.2454 Y2.3293 I-0.0969 J0.0675
N10505 G1 X12.7986 Y2.7761
N10510 X11.9049 Y1.8825
N10515 X12.3518 Y1.4357
N10520 G2 X12.3357 Y1.2552 I-0.0835 J-0.0835
N10525 X10.6114 Y0.541 I-2.4952 J3.5853
N10530 X10.4724 Y0.6573 I-0.0208 J0.1163
N10535 G1 Y1.2224
N10540 X9.2087
N10545 Y0.5906
N10550 G2 X9.0906 Y0.4724 I-0.1181 J0.
N10555 G1 X6.0906
N10560 G2 X5.9724 Y0.5906 I0. J0.1181
N10565 G1 Y1.2224
N10570 X2.7087
N10575 Y0.5906
N10580 G2 X2.5906 Y0.4724 I-0.1181 J0.
N10585 G1 X0.5906
N10590 G2 X0.4724 Y0.5906 I0. J0.1181
N10595 G1 Y7.0906
N10600 G2 X0.5906 Y7.2087 I0.1181 J0.
N10605 G1 X2.9656
N10610 G2 X4.0837 Y6.0906 I0. J-1.1181
N10615 G1 Y3.6965
N10620 G3 X5.0656 Y2.7146 I0.9819 J0.
N10625 G1 X9.6772
N10630 X9.6857 Y2.7143
N10635 G3 X10.9272 Y6.6747 I0.1548 J2.1263
N10640 G2 X10.434 Y7.2902 I0.5699 J0.962
N10645 G3 X10.4042 Y7.3053 I-0.0225 J-0.0073
N10650 G1 X10.3818 Y7.298
N10655 X10.3783 Y7.2968 Z0.5141
N10660 X10.3748 Y7.2957 Z0.5149
N10665 X10.3716 Y7.2947 Z0.5164
N10670 X10.3686 Y7.2937 Z0.5183
N10675 X10.3659 Y7.2928 Z0.5207
N10680 X10.3636 Y7.2921 Z0.5235
N10685 X10.3618 Y7.2915 Z0.5267
N10690 X10.3604 Y7.291 Z0.5301
N10695 X10.3596 Y7.2908 Z0.5337
N10700 X10.3593 Y7.2907 Z0.5374
N10705 Z2.128
N10710 X10.374 Y7.2457
N10715 Z0.6713 F44.619
N10720 Z0.4193
N10725 X10.3742 Y7.2458 Z0.4156 F133.858
N10730 X10.3751 Y7.2461 Z0.412
N10735 X10.3764 Y7.2465 Z0.4086
N10740 X10.3783 Y7.2471 Z0.4054
N10745 X10.3805 Y7.2479 Z0.4026
N10750 X10.3832 Y7.2488 Z0.4002
N10755 X10.3862 Y7.2497 Z0.3982
N10760 X10.3895 Y7.2508 Z0.3968
N10765 X10.3929 Y7.2519 Z0.396
N10770 X10.3964 Y7.2531 Z0.3957
N10775 X10.4189 Y7.2604
N10780 G3 X10.434 Y7.2902 I-0.0073 J0.0225
N10785 G2 X12.067 Y8.5987 I1.0631 J0.3465
N10790 X12.3357 Y8.4259 I-2.2262 J-3.7583
N10795 X12.3518 Y8.2454 I-0.0675 J-0.0969
N10800 G1 X11.9049 Y7.7986
N10805 X12.7986 Y6.9049
N10810 X13.2454 Y7.3518
N10815 G2 X13.4259 Y7.3357 I0.0835 J-0.0835
N10820 X14.1401 Y5.6114 I-3.5853 J-2.4952
N10825 X14.0239 Y5.4724 I-0.1163 J-0.0208
N10830 G1 X13.392
N10835 Y4.2087
N10840 X14.0239
N10845 G2 X14.1401 Y4.0697 I0. J-0.1181
N10850 X13.4259 Y2.3454 I-4.2996 J0.7708
N10855 X13.2454 Y2.3293 I-0.0969 J0.0675
N10860 G1 X12.7986 Y2.7761
N10865 X11.9049 Y1.8825
N10870 X12.3518 Y1.4357
N10875 G2 X12.3357 Y1.2552 I-0.0835 J-0.0835
N10880 X10.6114 Y0.541 I-2.4952 J3.5853
N10885 X10.4724 Y0.6573 I-0.0208 J0.1163
N10890 G1 Y1.2224
N10895 X9.2087
N10900 Y0.5906
N10905 G2 X9.0906 Y0.4724 I-0.1181 J0.
N10910 G1 X6.0906
N10915 G2 X5.9724 Y0.5906 I0. J0.1181
N10920 G1 Y1.2224
N10925 X2.7087
N10930 Y0.5906
N10935 G2 X2.5906 Y0.4724 I-0.1181 J0.
N10940 G1 X0.5906
N10945 G2 X0.4724 Y0.5906 I0. J0.1181
N10950 G1 Y7.0906
N10955 G2 X0.5906 Y7.2087 I0.1181 J0.
N10960 G1 X2.9656
N10965 G2 X4.0837 Y6.0906 I0. J-1.1181
N10970 G1 Y3.6965
N10975 G3 X5.0656 Y2.7146 I0.9819 J0.
N10980 G1 X9.6772
N10985 X9.6857 Y2.7143
N10990 G3 X10.9272 Y6.6747 I0.1548 J2.1263
N10995 G2 X10.434 Y7.2902 I0.5699 J0.962
N11000 G3 X10.4042 Y7.3053 I-0.0225 J-0.0073
N11005 G1 X10.3818 Y7.298
N11010 X10.3783 Y7.2968 Z0.396
N11015 X10.3748 Y7.2957 Z0.3968
N11020 X10.3716 Y7.2947 Z0.3982
N11025 X10.3686 Y7.2937 Z0.4002
N11030 X10.3659 Y7.2928 Z0.4026
N11035 X10.3636 Y7.2921 Z0.4054
N11040 X10.3618 Y7.2915 Z0.4086
N11045 X10.3604 Y7.291 Z0.412
N11050 X10.3596 Y7.2908 Z0.4156
N11055 X10.3593 Y7.2907 Z0.4193
N11060 Z2.128
N11065 X10.374 Y7.2457
N11070 Z0.5531 F44.619
N11075 Z0.3012
N11080 X10.3742 Y7.2458 Z0.2975 F133.858
N11085 X10.3751 Y7.2461 Z0.2939
N11090 X10.3764 Y7.2465 Z0.2905
N11095 X10.3783 Y7.2471 Z0.2873
N11100 X10.3805 Y7.2479 Z0.2845
N11105 X10.3832 Y7.2488 Z0.2821
N11110 X10.3862 Y7.2497 Z0.2801
N11115 X10.3895 Y7.2508 Z0.2787
N11120 X10.3929 Y7.2519 Z0.2778
N11125 X10.3964 Y7.2531 Z0.2776
N11130 X10.4189 Y7.2604
N11135 G3 X10.434 Y7.2902 I-0.0073 J0.0225
N11140 G2 X12.067 Y8.5987 I1.0631 J0.3465
N11145 X12.3357 Y8.4259 I-2.2262 J-3.7583
N11150 X12.3518 Y8.2454 I-0.0675 J-0.0969
N11155 G1 X11.9049 Y7.7986
N11160 X12.7986 Y6.9049
N11165 X13.2454 Y7.3518
N11170 G2 X13.4259 Y7.3357 I0.0835 J-0.0835
N11175 X14.1401 Y5.6114 I-3.5853 J-2.4952
N11180 X14.0239 Y5.4724 I-0.1163 J-0.0208
N11185 G1 X13.392
N11190 Y4.2087
N11195 X14.0239
N11200 G2 X14.1401 Y4.0697 I0. J-0.1181
N11205 X13.4259 Y2.3454 I-4.2996 J0.7708
N11210 X13.2454 Y2.3293 I-0.0969 J0.0675
N11215 G1 X12.7986 Y2.7761
N11220 X11.9049 Y1.8825
N11225 X12.3518 Y1.4357
N11230 G2 X12.3357 Y1.2552 I-0.0835 J-0.0835
N11235 X10.6114 Y0.541 I-2.4952 J3.5853
N11240 X10.4724 Y0.6573 I-0.0208 J0.1163
N11245 G1 Y1.2224
N11250 X9.2087
N11255 Y0.5906
N11260 G2 X9.0906 Y0.4724 I-0.1181 J0.
N11265 G1 X6.0906
N11270 G2 X5.9724 Y0.5906 I0. J0.1181
N11275 G1 Y1.2224
N11280 X2.7087
N11285 Y0.5906
N11290 G2 X2.5906 Y0.4724 I-0.1181 J0.
N11295 G1 X0.5906
N11300 G2 X0.4724 Y0.5906 I0. J0.1181
N11305 G1 Y7.0906
N11310 G2 X0.5906 Y7.2087 I0.1181 J0.
N11315 G1 X2.9656
N11320 G2 X4.0837 Y6.0906 I0. J-1.1181
N11325 G1 Y3.6965
N11330 G3 X5.0656 Y2.7146 I0.9819 J0.
N11335 G1 X9.6772
N11340 X9.6857 Y2.7143
N11345 G3 X10.9272 Y6.6747 I0.1548 J2.1263
N11350 G2 X10.434 Y7.2902 I0.5699 J0.962
N11355 G3 X10.4042 Y7.3053 I-0.0225 J-0.0073
N11360 G1 X10.3818 Y7.298
N11365 X10.3783 Y7.2968 Z0.2778
N11370 X10.3748 Y7.2957 Z0.2787
N11375 X10.3716 Y7.2947 Z0.2801
N11380 X10.3686 Y7.2937 Z0.2821
N11385 X10.3659 Y7.2928 Z0.2845
N11390 X10.3636 Y7.2921 Z0.2873
N11395 X10.3618 Y7.2915 Z0.2905
N11400 X10.3604 Y7.291 Z0.2939
N11405 X10.3596 Y7.2908 Z0.2975
N11410 X10.3593 Y7.2907 Z0.3012
N11415 Z2.128
N11420 X10.374 Y7.2457
N11425 Z0.435 F44.619
N11430 Z0.1831
N11435 X10.3742 Y7.2458 Z0.1794 F133.858
N11440 X10.3751 Y7.2461 Z0.1758
N11445 X10.3764 Y7.2465 Z0.1723
N11450 X10.3783 Y7.2471 Z0.1692
N11455 X10.3805 Y7.2479 Z0.1664
N11460 X10.3832 Y7.2488 Z0.164
N11465 X10.3862 Y7.2497 Z0.162
N11470 X10.3895 Y7.2508 Z0.1606
N11475 X10.3929 Y7.2519 Z0.1597
N11480 X10.3964 Y7.2531 Z0.1594
N11485 X10.4189 Y7.2604
N11490 G3 X10.434 Y7.2902 I-0.0073 J0.0225
N11495 G2 X12.067 Y8.5987 I1.0631 J0.3465
N11500 X12.3357 Y8.4259 I-2.2262 J-3.7583
N11505 X12.3518 Y8.2454 I-0.0675 J-0.0969
N11510 G1 X11.9049 Y7.7986
N11515 X12.7986 Y6.9049
N11520 X13.2454 Y7.3518
N11525 G2 X13.4259 Y7.3357 I0.0835 J-0.0835
N11530 X14.1401 Y5.6114 I-3.5853 J-2.4952
N11535 X14.0239 Y5.4724 I-0.1163 J-0.0208
N11540 G1 X13.392
N11545 Y4.2087
N11550 X14.0239
N11555 G2 X14.1401 Y4.0697 I0. J-0.1181
N11560 X13.4259 Y2.3454 I-4.2996 J0.7708
N11565 X13.2454 Y2.3293 I-0.0969 J0.0675
N11570 G1 X12.7986 Y2.7761
N11575 X11.9049 Y1.8825
N11580 X12.3518 Y1.4357
N11585 G2 X12.3357 Y1.2552 I-0.0835 J-0.0835
N11590 X10.6114 Y0.541 I-2.4952 J3.5853
N11595 X10.4724 Y0.6573 I-0.0208 J0.1163
N11600 G1 Y1.2224
N11605 X9.2087
N11610 Y0.5906
N11615 G2 X9.0906 Y0.4724 I-0.1181 J0.
N11620 G1 X6.0906
N11625 G2 X5.9724 Y0.5906 I0. J0.1181
N11630 G1 Y1.2224
N11635 X2.7087
N11640 Y0.5906
N11645 G2 X2.5906 Y0.4724 I-0.1181 J0.
N11650 G1 X0.5906
N11655 G2 X0.4724 Y0.5906 I0. J0.1181
N11660 G1 Y7.0906
N11665 G2 X0.5906 Y7.2087 I0.1181 J0.
N11670 G1 X2.9656
N11675 G2 X4.0837 Y6.0906 I0. J-1.1181
N11680 G1 Y3.6965
N11685 G3 X5.0656 Y2.7146 I0.9819 J0.
N11690 G1 X9.6772
N11695 X9.6857 Y2.7143
N11700 G3 X10.9272 Y6.6747 I0.1548 J2.1263
N11705 G2 X10.434 Y7.2902 I0.5699 J0.962
N11710 G3 X10.4042 Y7.3053 I-0.0225 J-0.0073
N11715 G1 X10.3818 Y7.298
N11720 X10.3783 Y7.2968 Z0.1597
N11725 X10.3748 Y7.2957 Z0.1606
N11730 X10.3716 Y7.2947 Z0.162
N11735 X10.3686 Y7.2937 Z0.164
N11740 X10.3659 Y7.2928 Z0.1664
N11745 X10.3636 Y7.2921 Z0.1692
N11750 X10.3618 Y7.2915 Z0.1723
N11755 X10.3604 Y7.291 Z0.1758
N11760 X10.3596 Y7.2908 Z0.1794
N11765 X10.3593 Y7.2907 Z0.1831
N11770 Z2.128
N11775 X10.374 Y7.2457
N11780 Z0.3169 F44.619
N11785 Z0.065
N11790 X10.3742 Y7.2458 Z0.0613 F133.858
N11795 X10.3751 Y7.2461 Z0.0577
N11800 X10.3764 Y7.2465 Z0.0542
N11805 X10.3783 Y7.2471 Z0.0511
N11810 X10.3805 Y7.2479 Z0.0483
N11815 X10.3832 Y7.2488 Z0.0458
N11820 X10.3862 Y7.2497 Z0.0439
N11825 X10.3895 Y7.2508 Z0.0425
N11830 X10.3929 Y7.2519 Z0.0416
N11835 X10.3964 Y7.2531 Z0.0413
N11840 X10.4189 Y7.2604
N11845 G3 X10.434 Y7.2902 I-0.0073 J0.0225
N11850 G2 X10.5202 Y8.1806 I1.0631 J0.3465
N11855 G1 Z0.0787
N11860 G2 X10.832 Y8.5355 I0.9769 J-0.5439
N11865 G1 Z0.0413 F44.619
N11870 G2 X12.067 Y8.5987 I0.6651 J-0.8988 F133.858
N11875 X12.3357 Y8.4259 I-2.2262 J-3.7583
N11880 X12.3518 Y8.2454 I-0.0675 J-0.0969
N11885 G1 X11.9049 Y7.7986
N11890 X12.7986 Y6.9049
N11895 X13.2454 Y7.3518
N11900 G2 X13.4259 Y7.3357 I0.0835 J-0.0835
N11905 X14.1401 Y5.6114 I-3.5853 J-2.4952
N11910 X14.0239 Y5.4724 I-0.1163 J-0.0208
N11915 G1 X13.392
N11920 Y4.2087
N11925 X14.0239
N11930 G2 X14.1401 Y4.0697 I0. J-0.1181
N11935 X13.975 Y3.4311 I-4.2996 J0.7708
N11940 G1 Z0.0787
N11945 G2 X13.7986 Y2.9928 I-4.1345 J1.4094
N11950 G1 Z0.0413 F44.619
N11955 G2 X13.4259 Y2.3454 I-3.9581 J1.8477 F133.858
N11960 X13.2454 Y2.3293 I-0.0969 J0.0675
N11965 G1 X12.7986 Y2.7761
N11970 X11.9049 Y1.8825
N11975 X12.3518 Y1.4357
N11980 G2 X12.3357 Y1.2552 I-0.0835 J-0.0835
N11985 X10.6114 Y0.541 I-2.4952 J3.5853
N11990 X10.4724 Y0.6573 I-0.0208 J0.1163
N11995 G1 Y1.2224
N12000 X9.2087
N12005 Y0.5906
N12010 G2 X9.0906 Y0.4724 I-0.1181 J0.
N12015 G1 X7.9865
N12020 Z0.0787
N12025 X7.5141
N12030 Z0.0413 F44.619
N12035 X6.0906 F133.858
N12040 G2 X5.9724 Y0.5906 I0. J0.1181
N12045 G1 Y1.2224
N12050 X2.7087
N12055 Y0.5906
N12060 G2 X2.5906 Y0.4724 I-0.1181 J0.
N12065 G1 X1.913
N12070 Z0.0787
N12075 X1.4405
N12080 Z0.0413 F44.619
N12085 X0.5906 F133.858
N12090 G2 X0.4724 Y0.5906 I0. J0.1181
N12095 G1 Y3.5134
N12100 Z0.0787
N12105 Y3.9859
N12110 Z0.0413 F44.619
N12115 Y7.0906 F133.858
N12120 G2 X0.5906 Y7.2087 I0.1181 J0.
N12125 G1 X1.7387
N12130 Z0.0787
N12135 X2.2111
N12140 Z0.0413 F44.619
N12145 X2.9656 F133.858
N12150 G2 X4.0837 Y6.0906 I0. J-1.1181
N12155 G1 Y3.6965
N12160 G3 X5.0656 Y2.7146 I0.9819 J0.
N12165 G1 X7.3443
N12170 Z0.0787
N12175 X7.8168
N12180 Z0.0413 F44.619
N12185 X9.6772 F133.858
N12190 X9.6857 Y2.7143
N12195 G3 X10.9272 Y6.6747 I0.1548 J2.1263
N12200 G2 X10.434 Y7.2902 I0.5699 J0.962
N12205 G3 X10.4042 Y7.3053 I-0.0225 J-0.0073
N12210 G1 X10.3818 Y7.298
N12215 X10.3783 Y7.2968 Z0.0416
N12220 X10.3748 Y7.2957 Z0.0425
N12225 X10.3716 Y7.2947 Z0.0439
N12230 X10.3686 Y7.2937 Z0.0458
N12235 X10.3659 Y7.2928 Z0.0483
N12240 X10.3636 Y7.2921 Z0.0511
N12245 X10.3618 Y7.2915 Z0.0542
N12250 X10.3604 Y7.291 Z0.0577
N12255 X10.3596 Y7.2908 Z0.0613
N12260 X10.3593 Y7.2907 Z0.065
N12265 Z2.128
N12270 X10.374 Y7.2457
N12275 Z0.1988 F44.619
N12280 Z0.0236
N12285 X10.3742 Y7.2458 Z0.0199 F133.858
N12290 X10.3751 Y7.2461 Z0.0163
N12295 X10.3764 Y7.2465 Z0.0129
N12300 X10.3783 Y7.2471 Z0.0097
N12305 X10.3805 Y7.2479 Z0.0069
N12310 X10.3832 Y7.2488 Z0.0045
N12315 X10.3862 Y7.2497 Z0.0026
N12320 X10.3895 Y7.2508 Z0.0012
N12325 X10.3929 Y7.2519 Z0.0003
N12330 X10.3964 Y7.2531 Z0.
N12335 X10.4189 Y7.2604
N12340 G3 X10.434 Y7.2902 I-0.0073 J0.0225
N12345 G2 X10.5202 Y8.1806 I1.0631 J0.3465
N12350 G1 Z0.0787
N12355 G2 X10.832 Y8.5355 I0.9769 J-0.5439
N12360 G1 Z0. F44.619
N12365 G2 X12.067 Y8.5987 I0.6651 J-0.8988 F133.858
N12370 X12.3357 Y8.4259 I-2.2262 J-3.7583
N12375 X12.3518 Y8.2454 I-0.0675 J-0.0969
N12380 G1 X11.9049 Y7.7986
N12385 X12.7986 Y6.9049
N12390 X13.2454 Y7.3518
N12395 G2 X13.4259 Y7.3357 I0.0835 J-0.0835
N12400 X14.1401 Y5.6114 I-3.5853 J-2.4952
N12405 X14.0239 Y5.4724 I-0.1163 J-0.0208
N12410 G1 X13.392
N12415 Y4.2087
N12420 X14.0239
N12425 G2 X14.1401 Y4.0697 I0. J-0.1181
N12430 X13.975 Y3.4311 I-4.2996 J0.7708
N12435 G1 Z0.0787
N12440 G2 X13.7986 Y2.9928 I-4.1345 J1.4094
N12445 G1 Z0. F44.619
N12450 G2 X13.4259 Y2.3454 I-3.9581 J1.8477 F133.858
N12455 X13.2454 Y2.3293 I-0.0969 J0.0675
N12460 G1 X12.7986 Y2.7761
N12465 X11.9049 Y1.8825
N12470 X12.3518 Y1.4357
N12475 G2 X12.3357 Y1.2552 I-0.0835 J-0.0835
N12480 X10.6114 Y0.541 I-2.4952 J3.5853
N12485 X10.4724 Y0.6573 I-0.0208 J0.1163
N12490 G1 Y1.2224
N12495 X9.2087
N12500 Y0.5906
N12505 G2 X9.0906 Y0.4724 I-0.1181 J0.
N12510 G1 X7.9865
N12515 Z0.0787
N12520 X7.5141
N12525 Z0. F44.619
N12530 X6.0906 F133.858
N12535 G2 X5.9724 Y0.5906 I0. J0.1181
N12540 G1 Y1.2224
N12545 X2.7087
N12550 Y0.5906
N12555 G2 X2.5906 Y0.4724 I-0.1181 J0.
N12560 G1 X1.913
N12565 Z0.0787
N12570 X1.4405
N12575 Z0. F44.619
N12580 X0.5906 F133.858
N12585 G2 X0.4724 Y0.5906 I0. J0.1181
N12590 G1 Y3.5134
N12595 Z0.0787
N12600 Y3.9859
N12605 Z0. F44.619
N12610 Y7.0906 F133.858
N12615 G2 X0.5906 Y7.2087 I0.1181 J0.
N12620 G1 X1.7387
N12625 Z0.0787
N12630 X2.2111
N12635 Z0. F44.619
N12640 X2.9656 F133.858
N12645 G2 X4.0837 Y6.0906 I0. J-1.1181
N12650 G1 Y3.6965
N12655 G3 X5.0656 Y2.7146 I0.9819 J0.
N12660 G1 X7.3443
N12665 Z0.0787
N12670 X7.8168
N12675 Z0. F44.619
N12680 X9.6772 F133.858
N12685 X9.6857 Y2.7143
N12690 G3 X10.9272 Y6.6747 I0.1548 J2.1263
N12695 G2 X10.434 Y7.2902 I0.5699 J0.962
N12700 G3 X10.4042 Y7.3053 I-0.0225 J-0.0073
N12705 G1 X10.3818 Y7.298
N12710 X10.3783 Y7.2968 Z0.0003
N12715 X10.3748 Y7.2957 Z0.0012
N12720 X10.3716 Y7.2947 Z0.0026
N12725 X10.3686 Y7.2937 Z0.0045
N12730 X10.3659 Y7.2928 Z0.0069
N12735 X10.3636 Y7.2921 Z0.0097
N12740 X10.3618 Y7.2915 Z0.0129
N12745 X10.3604 Y7.291 Z0.0163
N12750 X10.3596 Y7.2908 Z0.0199
N12755 X10.3593 Y7.2907 Z0.0236
N12760 Z2.4035
N12765 G53 G0 Z0.
N12770 M30
%
