%
(FILAMENTSHELF)
(T4  D=0.2362 CR=0. - ZMIN=0. - FLAT END MILL)
N10 G90 G94 G17 G91.1
N15 G20
(WHEN USING FUSION 360 FOR PERSONAL USE, THE FEEDRATE OF)
(RAPID MOVES IS REDUCED TO MATCH THE FEEDRATE OF CUTTING)
(MOVES, WHICH CAN INCREASE MACHINING TIME. UNRESTRICTED RAPID)
(MOVES ARE AVAILABLE WITH A FUSION 360 SUBSCRIPTION.)
N20 G53 G0 Z0.
(2D CONTOUR1)
N25 T4 M6
N30 S7500 M3
N35 G54
N40 G0 X7.8352 Y6.4705
N45 G43 Z1.2224 H4
N50 G1 Z0.9469 F133.858
N55 Z0.9075 F44.619
N60 Z0.6555
N65 X7.835 Y6.4704 Z0.6518 F133.858
N70 X7.8341 Y6.4701 Z0.6482
N75 X7.8328 Y6.4697 Z0.6448
N80 X7.831 Y6.4691 Z0.6416
N85 X7.8287 Y6.4683 Z0.6388
N90 X7.826 Y6.4675 Z0.6364
N95 X7.823 Y6.4665 Z0.6345
N100 X7.8197 Y6.4654 Z0.633
N105 X7.8163 Y6.4643 Z0.6322
N110 X7.8128 Y6.4632 Z0.6319
N115 X7.7903 Y6.4559
N120 G3 X7.7751 Y6.4262 I0.0073 J-0.0225
N125 X8.7166 Y5.249 I2.0281 J0.657
N130 G2 X7.5768 Y3.325 I-0.5699 J-0.962
N135 X7.308 Y3.4978 I2.2264 J3.7581
N140 X7.292 Y3.6783 I0.0675 J0.0969
N145 G1 X7.7388 Y4.1251
N150 X6.8452 Y5.0188
N155 X6.3984 Y4.5719
N160 G2 X6.2179 Y4.588 I-0.0835 J0.0835
N165 X5.5037 Y6.3123 I3.5853 J2.4952
N170 X5.6199 Y6.4513 I0.1163 J0.0208
N175 G1 X6.2518
N180 Y7.715
N185 X5.6199
N190 G2 X5.5037 Y7.854 I0. J0.1181
N195 X6.2179 Y9.5783 I4.2996 J-0.7708
N200 X6.3984 Y9.5944 I0.0969 J-0.0675
N205 G1 X6.8452 Y9.1475
N210 X7.7388 Y10.0412
N215 X7.292 Y10.488
N220 G2 X7.308 Y10.6685 I0.0835 J0.0835
N225 X9.0324 Y11.3827 I2.4952 J-3.5853
N230 X9.1713 Y11.2665 I0.0208 J-0.1163
N235 G1 Y10.7013
N240 X10.4351
N245 Y11.3331
N250 G2 X10.5532 Y11.4513 I0.1181 J0.
N255 G1 X13.5532
N260 G2 X13.6713 Y11.3331 I0. J-0.1181
N265 G1 Y10.7013
N270 X16.9351
N275 Y11.3331
N280 G2 X17.0532 Y11.4513 I0.1181 J0.
N285 G1 X19.0532
N290 G2 X19.1713 Y11.3331 I0. J-0.1181
N295 G1 Y4.8331
N300 G2 X19.0532 Y4.715 I-0.1181 J0.
N305 G1 X16.6782
N310 G2 X15.5601 Y5.8331 I0. J1.1181
N315 G1 Y8.2272
N320 G3 X14.5782 Y9.2091 I-0.9819 J0.
N325 G1 X13.3289
N330 X9.9666
N335 X9.958 Y9.2094
N340 G3 X7.7751 Y6.4262 I-0.1548 J-2.1263
N345 X7.8049 Y6.411 I0.0225 J0.0073
N350 G1 X7.8273 Y6.4182
N355 X7.8308 Y6.4194 Z0.6322
N360 X7.8343 Y6.4205 Z0.633
N365 X7.8375 Y6.4215 Z0.6345
N370 X7.8405 Y6.4225 Z0.6364
N375 X7.8432 Y6.4234 Z0.6388
N380 X7.8455 Y6.4241 Z0.6416
N385 X7.8474 Y6.4247 Z0.6448
N390 X7.8487 Y6.4252 Z0.6482
N395 X7.8495 Y6.4254 Z0.6518
N400 X7.8498 Y6.4255 Z0.6555
N405 Z0.9469
N410 X7.8352 Y6.4705
N415 Z0.7894 F44.619
N420 Z0.5374
N425 X7.835 Y6.4704 Z0.5337 F133.858
N430 X7.8341 Y6.4701 Z0.5301
N435 X7.8328 Y6.4697 Z0.5267
N440 X7.831 Y6.4691 Z0.5235
N445 X7.8287 Y6.4683 Z0.5207
N450 X7.826 Y6.4675 Z0.5183
N455 X7.823 Y6.4665 Z0.5164
N460 X7.8197 Y6.4654 Z0.5149
N465 X7.8163 Y6.4643 Z0.5141
N470 X7.8128 Y6.4632 Z0.5138
N475 X7.7903 Y6.4559
N480 G3 X7.7751 Y6.4262 I0.0073 J-0.0225
N485 X8.7166 Y5.249 I2.0281 J0.657
N490 G2 X7.5768 Y3.325 I-0.5699 J-0.962
N495 X7.308 Y3.4978 I2.2264 J3.7581
N500 X7.292 Y3.6783 I0.0675 J0.0969
N505 G1 X7.7388 Y4.1251
N510 X6.8452 Y5.0188
N515 X6.3984 Y4.5719
N520 G2 X6.2179 Y4.588 I-0.0835 J0.0835
N525 X5.5037 Y6.3123 I3.5853 J2.4952
N530 X5.6199 Y6.4513 I0.1163 J0.0208
N535 G1 X6.2518
N540 Y7.715
N545 X5.6199
N550 G2 X5.5037 Y7.854 I0. J0.1181
N555 X6.2179 Y9.5783 I4.2996 J-0.7708
N560 X6.3984 Y9.5944 I0.0969 J-0.0675
N565 G1 X6.8452 Y9.1475
N570 X7.7388 Y10.0412
N575 X7.292 Y10.488
N580 G2 X7.308 Y10.6685 I0.0835 J0.0835
N585 X9.0324 Y11.3827 I2.4952 J-3.5853
N590 X9.1713 Y11.2665 I0.0208 J-0.1163
N595 G1 Y10.7013
N600 X10.4351
N605 Y11.3331
N610 G2 X10.5532 Y11.4513 I0.1181 J0.
N615 G1 X13.5532
N620 G2 X13.6713 Y11.3331 I0. J-0.1181
N625 G1 Y10.7013
N630 X16.9351
N635 Y11.3331
N640 G2 X17.0532 Y11.4513 I0.1181 J0.
N645 G1 X19.0532
N650 G2 X19.1713 Y11.3331 I0. J-0.1181
N655 G1 Y4.8331
N660 G2 X19.0532 Y4.715 I-0.1181 J0.
N665 G1 X16.6782
N670 G2 X15.5601 Y5.8331 I0. J1.1181
N675 G1 Y8.2272
N680 G3 X14.5782 Y9.2091 I-0.9819 J0.
N685 G1 X13.3289
N690 X9.9666
N695 X9.958 Y9.2094
N700 G3 X7.7751 Y6.4262 I-0.1548 J-2.1263
N705 X7.8049 Y6.411 I0.0225 J0.0073
N710 G1 X7.8273 Y6.4182
N715 X7.8308 Y6.4194 Z0.5141
N720 X7.8343 Y6.4205 Z0.5149
N725 X7.8375 Y6.4215 Z0.5164
N730 X7.8405 Y6.4225 Z0.5183
N735 X7.8432 Y6.4234 Z0.5207
N740 X7.8455 Y6.4241 Z0.5235
N745 X7.8474 Y6.4247 Z0.5267
N750 X7.8487 Y6.4252 Z0.5301
N755 X7.8495 Y6.4254 Z0.5337
N760 X7.8498 Y6.4255 Z0.5374
N765 Z0.9469
N770 X7.8352 Y6.4705
N775 Z0.6713 F44.619
N780 Z0.4193
N785 X7.835 Y6.4704 Z0.4156 F133.858
N790 X7.8341 Y6.4701 Z0.412
N795 X7.8328 Y6.4697 Z0.4086
N800 X7.831 Y6.4691 Z0.4054
N805 X7.8287 Y6.4683 Z0.4026
N810 X7.826 Y6.4675 Z0.4002
N815 X7.823 Y6.4665 Z0.3982
N820 X7.8197 Y6.4654 Z0.3968
N825 X7.8163 Y6.4643 Z0.396
N830 X7.8128 Y6.4632 Z0.3957
N835 X7.7903 Y6.4559
N840 G3 X7.7751 Y6.4262 I0.0073 J-0.0225
N845 X8.7166 Y5.249 I2.0281 J0.657
N850 G2 X7.5768 Y3.325 I-0.5699 J-0.962
N855 X7.308 Y3.4978 I2.2264 J3.7581
N860 X7.292 Y3.6783 I0.0675 J0.0969
N865 G1 X7.7388 Y4.1251
N870 X6.8452 Y5.0188
N875 X6.3984 Y4.5719
N880 G2 X6.2179 Y4.588 I-0.0835 J0.0835
N885 X5.5037 Y6.3123 I3.5853 J2.4952
N890 X5.6199 Y6.4513 I0.1163 J0.0208
N895 G1 X6.2518
N900 Y7.715
N905 X5.6199
N910 G2 X5.5037 Y7.854 I0. J0.1181
N915 X6.2179 Y9.5783 I4.2996 J-0.7708
N920 X6.3984 Y9.5944 I0.0969 J-0.0675
N925 G1 X6.8452 Y9.1475
N930 X7.7388 Y10.0412
N935 X7.292 Y10.488
N940 G2 X7.308 Y10.6685 I0.0835 J0.0835
N945 X9.0324 Y11.3827 I2.4952 J-3.5853
N950 X9.1713 Y11.2665 I0.0208 J-0.1163
N955 G1 Y10.7013
N960 X10.4351
N965 Y11.3331
N970 G2 X10.5532 Y11.4513 I0.1181 J0.
N975 G1 X13.5532
N980 G2 X13.6713 Y11.3331 I0. J-0.1181
N985 G1 Y10.7013
N990 X16.9351
N995 Y11.3331
N1000 G2 X17.0532 Y11.4513 I0.1181 J0.
N1005 G1 X19.0532
N1010 G2 X19.1713 Y11.3331 I0. J-0.1181
N1015 G1 Y4.8331
N1020 G2 X19.0532 Y4.715 I-0.1181 J0.
N1025 G1 X16.6782
N1030 G2 X15.5601 Y5.8331 I0. J1.1181
N1035 G1 Y8.2272
N1040 G3 X14.5782 Y9.2091 I-0.9819 J0.
N1045 G1 X13.3289
N1050 X9.9666
N1055 X9.958 Y9.2094
N1060 G3 X7.7751 Y6.4262 I-0.1548 J-2.1263
N1065 X7.8049 Y6.411 I0.0225 J0.0073
N1070 G1 X7.8273 Y6.4182
N1075 X7.8308 Y6.4194 Z0.396
N1080 X7.8343 Y6.4205 Z0.3968
N1085 X7.8375 Y6.4215 Z0.3982
N1090 X7.8405 Y6.4225 Z0.4002
N1095 X7.8432 Y6.4234 Z0.4026
N1100 X7.8455 Y6.4241 Z0.4054
N1105 X7.8474 Y6.4247 Z0.4086
N1110 X7.8487 Y6.4252 Z0.412
N1115 X7.8495 Y6.4254 Z0.4156
N1120 X7.8498 Y6.4255 Z0.4193
N1125 Z0.9469
N1130 X7.8352 Y6.4705
N1135 Z0.5531 F44.619
N1140 Z0.3012
N1145 X7.835 Y6.4704 Z0.2975 F133.858
N1150 X7.8341 Y6.4701 Z0.2939
N1155 X7.8328 Y6.4697 Z0.2905
N1160 X7.831 Y6.4691 Z0.2873
N1165 X7.8287 Y6.4683 Z0.2845
N1170 X7.826 Y6.4675 Z0.2821
N1175 X7.823 Y6.4665 Z0.2801
N1180 X7.8197 Y6.4654 Z0.2787
N1185 X7.8163 Y6.4643 Z0.2778
N1190 X7.8128 Y6.4632 Z0.2776
N1195 X7.7903 Y6.4559
N1200 G3 X7.7751 Y6.4262 I0.0073 J-0.0225
N1205 X8.7166 Y5.249 I2.0281 J0.657
N1210 G2 X7.5768 Y3.325 I-0.5699 J-0.962
N1215 X7.308 Y3.4978 I2.2264 J3.7581
N1220 X7.292 Y3.6783 I0.0675 J0.0969
N1225 G1 X7.7388 Y4.1251
N1230 X6.8452 Y5.0188
N1235 X6.3984 Y4.5719
N1240 G2 X6.2179 Y4.588 I-0.0835 J0.0835
N1245 X5.5037 Y6.3123 I3.5853 J2.4952
N1250 X5.6199 Y6.4513 I0.1163 J0.0208
N1255 G1 X6.2518
N1260 Y7.715
N1265 X5.6199
N1270 G2 X5.5037 Y7.854 I0. J0.1181
N1275 X6.2179 Y9.5783 I4.2996 J-0.7708
N1280 X6.3984 Y9.5944 I0.0969 J-0.0675
N1285 G1 X6.8452 Y9.1475
N1290 X7.7388 Y10.0412
N1295 X7.292 Y10.488
N1300 G2 X7.308 Y10.6685 I0.0835 J0.0835
N1305 X9.0324 Y11.3827 I2.4952 J-3.5853
N1310 X9.1713 Y11.2665 I0.0208 J-0.1163
N1315 G1 Y10.7013
N1320 X10.4351
N1325 Y11.3331
N1330 G2 X10.5532 Y11.4513 I0.1181 J0.
N1335 G1 X13.5532
N1340 G2 X13.6713 Y11.3331 I0. J-0.1181
N1345 G1 Y10.7013
N1350 X16.9351
N1355 Y11.3331
N1360 G2 X17.0532 Y11.4513 I0.1181 J0.
N1365 G1 X19.0532
N1370 G2 X19.1713 Y11.3331 I0. J-0.1181
N1375 G1 Y4.8331
N1380 G2 X19.0532 Y4.715 I-0.1181 J0.
N1385 G1 X16.6782
N1390 G2 X15.5601 Y5.8331 I0. J1.1181
N1395 G1 Y8.2272
N1400 G3 X14.5782 Y9.2091 I-0.9819 J0.
N1405 G1 X13.3289
N1410 X9.9666
N1415 X9.958 Y9.2094
N1420 G3 X7.7751 Y6.4262 I-0.1548 J-2.1263
N1425 X7.8049 Y6.411 I0.0225 J0.0073
N1430 G1 X7.8273 Y6.4182
N1435 X7.8308 Y6.4194 Z0.2778
N1440 X7.8343 Y6.4205 Z0.2787
N1445 X7.8375 Y6.4215 Z0.2801
N1450 X7.8405 Y6.4225 Z0.2821
N1455 X7.8432 Y6.4234 Z0.2845
N1460 X7.8455 Y6.4241 Z0.2873
N1465 X7.8474 Y6.4247 Z0.2905
N1470 X7.8487 Y6.4252 Z0.2939
N1475 X7.8495 Y6.4254 Z0.2975
N1480 X7.8498 Y6.4255 Z0.3012
N1485 Z0.9469
N1490 X7.8352 Y6.4705
N1495 Z0.435 F44.619
N1500 Z0.1831
N1505 X7.835 Y6.4704 Z0.1794 F133.858
N1510 X7.8341 Y6.4701 Z0.1758
N1515 X7.8328 Y6.4697 Z0.1723
N1520 X7.831 Y6.4691 Z0.1692
N1525 X7.8287 Y6.4683 Z0.1664
N1530 X7.826 Y6.4675 Z0.164
N1535 X7.823 Y6.4665 Z0.162
N1540 X7.8197 Y6.4654 Z0.1606
N1545 X7.8163 Y6.4643 Z0.1597
N1550 X7.8128 Y6.4632 Z0.1594
N1555 X7.7903 Y6.4559
N1560 G3 X7.7751 Y6.4262 I0.0073 J-0.0225
N1565 X8.7166 Y5.249 I2.0281 J0.657
N1570 G2 X7.5768 Y3.325 I-0.5699 J-0.962
N1575 X7.308 Y3.4978 I2.2264 J3.7581
N1580 X7.292 Y3.6783 I0.0675 J0.0969
N1585 G1 X7.7388 Y4.1251
N1590 X6.8452 Y5.0188
N1595 X6.3984 Y4.5719
N1600 G2 X6.2179 Y4.588 I-0.0835 J0.0835
N1605 X5.5037 Y6.3123 I3.5853 J2.4952
N1610 X5.6199 Y6.4513 I0.1163 J0.0208
N1615 G1 X6.2518
N1620 Y7.715
N1625 X5.6199
N1630 G2 X5.5037 Y7.854 I0. J0.1181
N1635 X6.2179 Y9.5783 I4.2996 J-0.7708
N1640 X6.3984 Y9.5944 I0.0969 J-0.0675
N1645 G1 X6.8452 Y9.1475
N1650 X7.7388 Y10.0412
N1655 X7.292 Y10.488
N1660 G2 X7.308 Y10.6685 I0.0835 J0.0835
N1665 X9.0324 Y11.3827 I2.4952 J-3.5853
N1670 X9.1713 Y11.2665 I0.0208 J-0.1163
N1675 G1 Y10.7013
N1680 X10.4351
N1685 Y11.3331
N1690 G2 X10.5532 Y11.4513 I0.1181 J0.
N1695 G1 X13.5532
N1700 G2 X13.6713 Y11.3331 I0. J-0.1181
N1705 G1 Y10.7013
N1710 X16.9351
N1715 Y11.3331
N1720 G2 X17.0532 Y11.4513 I0.1181 J0.
N1725 G1 X19.0532
N1730 G2 X19.1713 Y11.3331 I0. J-0.1181
N1735 G1 Y4.8331
N1740 G2 X19.0532 Y4.715 I-0.1181 J0.
N1745 G1 X16.6782
N1750 G2 X15.5601 Y5.8331 I0. J1.1181
N1755 G1 Y8.2272
N1760 G3 X14.5782 Y9.2091 I-0.9819 J0.
N1765 G1 X13.3289
N1770 X9.9666
N1775 X9.958 Y9.2094
N1780 G3 X7.7751 Y6.4262 I-0.1548 J-2.1263
N1785 X7.8049 Y6.411 I0.0225 J0.0073
N1790 G1 X7.8273 Y6.4182
N1795 X7.8308 Y6.4194 Z0.1597
N1800 X7.8343 Y6.4205 Z0.1606
N1805 X7.8375 Y6.4215 Z0.162
N1810 X7.8405 Y6.4225 Z0.164
N1815 X7.8432 Y6.4234 Z0.1664
N1820 X7.8455 Y6.4241 Z0.1692
N1825 X7.8474 Y6.4247 Z0.1723
N1830 X7.8487 Y6.4252 Z0.1758
N1835 X7.8495 Y6.4254 Z0.1794
N1840 X7.8498 Y6.4255 Z0.1831
N1845 Z0.9469
N1850 X7.8352 Y6.4705
N1855 Z0.3169 F44.619
N1860 Z0.065
N1865 X7.835 Y6.4704 Z0.0613 F133.858
N1870 X7.8341 Y6.4701 Z0.0577
N1875 X7.8328 Y6.4697 Z0.0542
N1880 X7.831 Y6.4691 Z0.0511
N1885 X7.8287 Y6.4683 Z0.0483
N1890 X7.826 Y6.4675 Z0.0458
N1895 X7.823 Y6.4665 Z0.0439
N1900 X7.8197 Y6.4654 Z0.0425
N1905 X7.8163 Y6.4643 Z0.0416
N1910 X7.8128 Y6.4632 Z0.0413
N1915 X7.7903 Y6.4559
N1920 G3 X7.7751 Y6.4262 I0.0073 J-0.0225
N1925 X8.7166 Y5.249 I2.0281 J0.657
N1930 G2 X9.2206 Y4.5983 I-0.5699 J-0.962
N1935 G1 Z0.0787
N1940 G2 X9.2533 Y4.127 I-1.0739 J-0.3113
N1945 G1 Z0.0413 F44.619
N1950 G2 X7.5768 Y3.325 I-1.1066 J0.16 F133.858
N1955 X7.308 Y3.4978 I2.2264 J3.7581
N1960 X7.292 Y3.6783 I0.0675 J0.0969
N1965 G1 X7.7388 Y4.1251
N1970 X6.8452 Y5.0188
N1975 X6.3984 Y4.5719
N1980 G2 X6.2179 Y4.588 I-0.0835 J0.0835
N1985 X5.5037 Y6.3123 I3.5853 J2.4952
N1990 X5.6199 Y6.4513 I0.1163 J0.0208
N1995 G1 X6.2518
N2000 Y7.715
N2005 X5.6199
N2010 G2 X5.5037 Y7.854 I0. J0.1181
N2015 X5.7007 Y8.5831 I4.2996 J-0.7708
N2020 G1 Z0.0787
N2025 G2 X5.8867 Y9.0173 I4.1025 J-1.4999
N2030 G1 Z0.0413 F44.619
N2035 G2 X6.2179 Y9.5783 I3.9166 J-1.9342 F133.858
N2040 X6.3984 Y9.5944 I0.0969 J-0.0675
N2045 G1 X6.8452 Y9.1475
N2050 X7.7388 Y10.0412
N2055 X7.292 Y10.488
N2060 G2 X7.308 Y10.6685 I0.0835 J0.0835
N2065 X9.0324 Y11.3827 I2.4952 J-3.5853
N2070 X9.1713 Y11.2665 I0.0208 J-0.1163
N2075 G1 Y10.7013
N2080 X10.4351
N2085 Y11.3331
N2090 G2 X10.5532 Y11.4513 I0.1181 J0.
N2095 G1 X11.8042
N2100 Z0.0787
N2105 X12.2766
N2110 Z0.0413 F44.619
N2115 X13.5532 F133.858
N2120 G2 X13.6713 Y11.3331 I0. J-0.1181
N2125 G1 Y10.7013
N2130 X16.9351
N2135 Y11.3331
N2140 G2 X17.0532 Y11.4513 I0.1181 J0.
N2145 G1 X17.8688
N2150 Z0.0787
N2155 X18.3412
N2160 Z0.0413 F44.619
N2165 X19.0532 F133.858
N2170 G2 X19.1713 Y11.3331 I0. J-0.1181
N2175 G1 Y7.8674
N2180 Z0.0787
N2185 Y7.3949
N2190 Z0.0413 F44.619
N2195 Y4.8331 F133.858
N2200 G2 X19.0532 Y4.715 I-0.1181 J0.
N2205 G1 X17.8991
N2210 Z0.0787
N2215 X17.4267
N2220 Z0.0413 F44.619
N2225 X16.6782 F133.858
N2230 G2 X15.5601 Y5.8331 I0. J1.1181
N2235 G1 Y8.2272
N2240 G3 X14.5782 Y9.2091 I-0.9819 J0.
N2245 G1 X13.3289
N2250 X12.6119
N2255 Z0.0787
N2260 X12.1395
N2265 Z0.0413 F44.619
N2270 X9.9666 F133.858
N2275 X9.958 Y9.2094
N2280 G3 X7.7751 Y6.4262 I-0.1548 J-2.1263
N2285 X7.8049 Y6.411 I0.0225 J0.0073
N2290 G1 X7.8273 Y6.4182
N2295 X7.8308 Y6.4194 Z0.0416
N2300 X7.8343 Y6.4205 Z0.0425
N2305 X7.8375 Y6.4215 Z0.0439
N2310 X7.8405 Y6.4225 Z0.0459
N2315 X7.8432 Y6.4234 Z0.0483
N2320 X7.8455 Y6.4241 Z0.0511
N2325 X7.8474 Y6.4247 Z0.0542
N2330 X7.8487 Y6.4252 Z0.0577
N2335 X7.8495 Y6.4254 Z0.0613
N2340 X7.8498 Y6.4255 Z0.065
N2345 Z0.9469
N2350 X7.8352 Y6.4705
N2355 Z0.1988 F44.619
N2360 Z0.0236
N2365 X7.835 Y6.4704 Z0.0199 F133.858
N2370 X7.8341 Y6.4701 Z0.0163
N2375 X7.8328 Y6.4697 Z0.0129
N2380 X7.831 Y6.4691 Z0.0097
N2385 X7.8287 Y6.4683 Z0.0069
N2390 X7.826 Y6.4675 Z0.0045
N2395 X7.823 Y6.4665 Z0.0026
N2400 X7.8197 Y6.4654 Z0.0012
N2405 X7.8163 Y6.4643 Z0.0003
N2410 X7.8128 Y6.4632 Z0.
N2415 X7.7903 Y6.4559
N2420 G3 X7.7751 Y6.4262 I0.0073 J-0.0225
N2425 X8.7166 Y5.249 I2.0281 J0.657
N2430 G2 X9.2206 Y4.5983 I-0.5699 J-0.962
N2435 G1 Z0.0787
N2440 G2 X9.2533 Y4.127 I-1.0739 J-0.3113
N2445 G1 Z0. F44.619
N2450 G2 X7.5768 Y3.325 I-1.1066 J0.16 F133.858
N2455 X7.308 Y3.4978 I2.2264 J3.7581
N2460 X7.292 Y3.6783 I0.0675 J0.0969
N2465 G1 X7.7388 Y4.1251
N2470 X6.8452 Y5.0188
N2475 X6.3984 Y4.5719
N2480 G2 X6.2179 Y4.588 I-0.0835 J0.0835
N2485 X5.5037 Y6.3123 I3.5853 J2.4952
N2490 X5.6199 Y6.4513 I0.1163 J0.0208
N2495 G1 X6.2518
N2500 Y7.715
N2505 X5.6199
N2510 G2 X5.5037 Y7.854 I0. J0.1181
N2515 X5.7007 Y8.5831 I4.2996 J-0.7708
N2520 G1 Z0.0787
N2525 G2 X5.8867 Y9.0173 I4.1025 J-1.4999
N2530 G1 Z0. F44.619
N2535 G2 X6.2179 Y9.5783 I3.9166 J-1.9342 F133.858
N2540 X6.3984 Y9.5944 I0.0969 J-0.0675
N2545 G1 X6.8452 Y9.1475
N2550 X7.7388 Y10.0412
N2555 X7.292 Y10.488
N2560 G2 X7.308 Y10.6685 I0.0835 J0.0835
N2565 X9.0324 Y11.3827 I2.4952 J-3.5853
N2570 X9.1713 Y11.2665 I0.0208 J-0.1163
N2575 G1 Y10.7013
N2580 X10.4351
N2585 Y11.3331
N2590 G2 X10.5532 Y11.4513 I0.1181 J0.
N2595 G1 X11.8042
N2600 Z0.0787
N2605 X12.2766
N2610 Z0. F44.619
N2615 X13.5532 F133.858
N2620 G2 X13.6713 Y11.3331 I0. J-0.1181
N2625 G1 Y10.7013
N2630 X16.9351
N2635 Y11.3331
N2640 G2 X17.0532 Y11.4513 I0.1181 J0.
N2645 G1 X17.8688
N2650 Z0.0787
N2655 X18.3412
N2660 Z0. F44.619
N2665 X19.0532 F133.858
N2670 G2 X19.1713 Y11.3331 I0. J-0.1181
N2675 G1 Y7.8674
N2680 Z0.0787
N2685 Y7.3949
N2690 Z0. F44.619
N2695 Y4.8331 F133.858
N2700 G2 X19.0532 Y4.715 I-0.1181 J0.
N2705 G1 X17.8991
N2710 Z0.0787
N2715 X17.4267
N2720 Z0. F44.619
N2725 X16.6782 F133.858
N2730 G2 X15.5601 Y5.8331 I0. J1.1181
N2735 G1 Y8.2272
N2740 G3 X14.5782 Y9.2091 I-0.9819 J0.
N2745 G1 X13.3289
N2750 X12.6119
N2755 Z0.0787
N2760 X12.1395
N2765 Z0. F44.619
N2770 X9.9666 F133.858
N2775 X9.958 Y9.2094
N2780 G3 X7.7751 Y6.4262 I-0.1548 J-2.1263
N2785 X7.8049 Y6.411 I0.0225 J0.0073
N2790 G1 X7.8273 Y6.4182
N2795 X7.8308 Y6.4194 Z0.0003
N2800 X7.8343 Y6.4205 Z0.0012
N2805 X7.8375 Y6.4215 Z0.0026
N2810 X7.8405 Y6.4225 Z0.0045
N2815 X7.8432 Y6.4234 Z0.0069
N2820 X7.8455 Y6.4241 Z0.0097
N2825 X7.8474 Y6.4247 Z0.0129
N2830 X7.8487 Y6.4252 Z0.0163
N2835 X7.8495 Y6.4254 Z0.0199
N2840 X7.8498 Y6.4255 Z0.0236
N2845 Z0.9469
N2850 X10.374 Y7.2457
N2855 Z0.9075 F44.619
N2860 Z0.6555
N2865 X10.3742 Y7.2458 Z0.6518 F133.858
N2870 X10.3751 Y7.2461 Z0.6482
N2875 X10.3764 Y7.2465 Z0.6448
N2880 X10.3783 Y7.2471 Z0.6416
N2885 X10.3805 Y7.2479 Z0.6388
N2890 X10.3832 Y7.2488 Z0.6364
N2895 X10.3862 Y7.2497 Z0.6345
N2900 X10.3895 Y7.2508 Z0.633
N2905 X10.3929 Y7.2519 Z0.6322
N2910 X10.3964 Y7.2531 Z0.6319
N2915 X10.4189 Y7.2604
N2920 G3 X10.434 Y7.2902 I-0.0073 J0.0225
N2925 G2 X12.067 Y8.5987 I1.0631 J0.3465
N2930 X12.3357 Y8.4259 I-2.2262 J-3.7583
N2935 X12.3518 Y8.2454 I-0.0675 J-0.0969
N2940 G1 X11.9049 Y7.7986
N2945 X12.7986 Y6.9049
N2950 X13.2454 Y7.3518
N2955 G2 X13.4259 Y7.3357 I0.0835 J-0.0835
N2960 X14.1401 Y5.6114 I-3.5853 J-2.4952
N2965 X14.0239 Y5.4724 I-0.1163 J-0.0208
N2970 G1 X13.392
N2975 Y4.2087
N2980 X14.0239
N2985 G2 X14.1401 Y4.0697 I0. J-0.1181
N2990 X13.4259 Y2.3454 I-4.2996 J0.7708
N2995 X13.2454 Y2.3293 I-0.0969 J0.0675
N3000 G1 X12.7986 Y2.7761
N3005 X11.9049 Y1.8825
N3010 X12.3518 Y1.4357
N3015 G2 X12.3357 Y1.2552 I-0.0835 J-0.0835
N3020 X10.6114 Y0.541 I-2.4952 J3.5853
N3025 X10.4724 Y0.6573 I-0.0208 J0.1163
N3030 G1 Y1.2224
N3035 X9.2087
N3040 Y0.5906
N3045 G2 X9.0906 Y0.4724 I-0.1181 J0.
N3050 G1 X6.0906
N3055 G2 X5.9724 Y0.5906 I0. J0.1181
N3060 G1 Y1.2224
N3065 X2.7087
N3070 Y0.5906
N3075 G2 X2.5906 Y0.4724 I-0.1181 J0.
N3080 G1 X0.5906
N3085 G2 X0.4724 Y0.5906 I0. J0.1181
N3090 G1 Y7.0906
N3095 G2 X0.5906 Y7.2087 I0.1181 J0.
N3100 G1 X2.9656
N3105 G2 X4.0837 Y6.0906 I0. J-1.1181
N3110 G1 Y3.6965
N3115 G3 X5.0656 Y2.7146 I0.9819 J0.
N3120 G1 X9.6772
N3125 X9.6857 Y2.7143
N3130 G3 X10.9272 Y6.6747 I0.1548 J2.1263
N3135 G2 X10.434 Y7.2902 I0.5699 J0.962
N3140 G3 X10.4042 Y7.3053 I-0.0225 J-0.0073
N3145 G1 X10.3818 Y7.298
N3150 X10.3783 Y7.2968 Z0.6322
N3155 X10.3748 Y7.2957 Z0.633
N3160 X10.3716 Y7.2947 Z0.6345
N3165 X10.3686 Y7.2937 Z0.6364
N3170 X10.3659 Y7.2928 Z0.6388
N3175 X10.3636 Y7.2921 Z0.6416
N3180 X10.3618 Y7.2915 Z0.6448
N3185 X10.3604 Y7.291 Z0.6482
N3190 X10.3596 Y7.2908 Z0.6518
N3195 X10.3593 Y7.2907 Z0.6555
N3200 Z0.9469
N3205 X10.374 Y7.2457
N3210 Z0.7894 F44.619
N3215 Z0.5374
N3220 X10.3742 Y7.2458 Z0.5337 F133.858
N3225 X10.3751 Y7.2461 Z0.5301
N3230 X10.3764 Y7.2465 Z0.5267
N3235 X10.3783 Y7.2471 Z0.5235
N3240 X10.3805 Y7.2479 Z0.5207
N3245 X10.3832 Y7.2488 Z0.5183
N3250 X10.3862 Y7.2497 Z0.5164
N3255 X10.3895 Y7.2508 Z0.5149
N3260 X10.3929 Y7.2519 Z0.5141
N3265 X10.3964 Y7.2531 Z0.5138
N3270 X10.4189 Y7.2604
N3275 G3 X10.434 Y7.2902 I-0.0073 J0.0225
N3280 G2 X12.067 Y8.5987 I1.0631 J0.3465
N3285 X12.3357 Y8.4259 I-2.2262 J-3.7583
N3290 X12.3518 Y8.2454 I-0.0675 J-0.0969
N3295 G1 X11.9049 Y7.7986
N3300 X12.7986 Y6.9049
N3305 X13.2454 Y7.3518
N3310 G2 X13.4259 Y7.3357 I0.0835 J-0.0835
N3315 X14.1401 Y5.6114 I-3.5853 J-2.4952
N3320 X14.0239 Y5.4724 I-0.1163 J-0.0208
N3325 G1 X13.392
N3330 Y4.2087
N3335 X14.0239
N3340 G2 X14.1401 Y4.0697 I0. J-0.1181
N3345 X13.4259 Y2.3454 I-4.2996 J0.7708
N3350 X13.2454 Y2.3293 I-0.0969 J0.0675
N3355 G1 X12.7986 Y2.7761
N3360 X11.9049 Y1.8825
N3365 X12.3518 Y1.4357
N3370 G2 X12.3357 Y1.2552 I-0.0835 J-0.0835
N3375 X10.6114 Y0.541 I-2.4952 J3.5853
N3380 X10.4724 Y0.6573 I-0.0208 J0.1163
N3385 G1 Y1.2224
N3390 X9.2087
N3395 Y0.5906
N3400 G2 X9.0906 Y0.4724 I-0.1181 J0.
N3405 G1 X6.0906
N3410 G2 X5.9724 Y0.5906 I0. J0.1181
N3415 G1 Y1.2224
N3420 X2.7087
N3425 Y0.5906
N3430 G2 X2.5906 Y0.4724 I-0.1181 J0.
N3435 G1 X0.5906
N3440 G2 X0.4724 Y0.5906 I0. J0.1181
N3445 G1 Y7.0906
N3450 G2 X0.5906 Y7.2087 I0.1181 J0.
N3455 G1 X2.9656
N3460 G2 X4.0837 Y6.0906 I0. J-1.1181
N3465 G1 Y3.6965
N3470 G3 X5.0656 Y2.7146 I0.9819 J0.
N3475 G1 X9.6772
N3480 X9.6857 Y2.7143
N3485 G3 X10.9272 Y6.6747 I0.1548 J2.1263
N3490 G2 X10.434 Y7.2902 I0.5699 J0.962
N3495 G3 X10.4042 Y7.3053 I-0.0225 J-0.0073
N3500 G1 X10.3818 Y7.298
N3505 X10.3783 Y7.2968 Z0.5141
N3510 X10.3748 Y7.2957 Z0.5149
N3515 X10.3716 Y7.2947 Z0.5164
N3520 X10.3686 Y7.2937 Z0.5183
N3525 X10.3659 Y7.2928 Z0.5207
N3530 X10.3636 Y7.2921 Z0.5235
N3535 X10.3618 Y7.2915 Z0.5267
N3540 X10.3604 Y7.291 Z0.5301
N3545 X10.3596 Y7.2908 Z0.5337
N3550 X10.3593 Y7.2907 Z0.5374
N3555 Z0.9469
N3560 X10.374 Y7.2457
N3565 Z0.6713 F44.619
N3570 Z0.4193
N3575 X10.3742 Y7.2458 Z0.4156 F133.858
N3580 X10.3751 Y7.2461 Z0.412
N3585 X10.3764 Y7.2465 Z0.4086
N3590 X10.3783 Y7.2471 Z0.4054
N3595 X10.3805 Y7.2479 Z0.4026
N3600 X10.3832 Y7.2488 Z0.4002
N3605 X10.3862 Y7.2497 Z0.3982
N3610 X10.3895 Y7.2508 Z0.3968
N3615 X10.3929 Y7.2519 Z0.396
N3620 X10.3964 Y7.2531 Z0.3957
N3625 X10.4189 Y7.2604
N3630 G3 X10.434 Y7.2902 I-0.0073 J0.0225
N3635 G2 X12.067 Y8.5987 I1.0631 J0.3465
N3640 X12.3357 Y8.4259 I-2.2262 J-3.7583
N3645 X12.3518 Y8.2454 I-0.0675 J-0.0969
N3650 G1 X11.9049 Y7.7986
N3655 X12.7986 Y6.9049
N3660 X13.2454 Y7.3518
N3665 G2 X13.4259 Y7.3357 I0.0835 J-0.0835
N3670 X14.1401 Y5.6114 I-3.5853 J-2.4952
N3675 X14.0239 Y5.4724 I-0.1163 J-0.0208
N3680 G1 X13.392
N3685 Y4.2087
N3690 X14.0239
N3695 G2 X14.1401 Y4.0697 I0. J-0.1181
N3700 X13.4259 Y2.3454 I-4.2996 J0.7708
N3705 X13.2454 Y2.3293 I-0.0969 J0.0675
N3710 G1 X12.7986 Y2.7761
N3715 X11.9049 Y1.8825
N3720 X12.3518 Y1.4357
N3725 G2 X12.3357 Y1.2552 I-0.0835 J-0.0835
N3730 X10.6114 Y0.541 I-2.4952 J3.5853
N3735 X10.4724 Y0.6573 I-0.0208 J0.1163
N3740 G1 Y1.2224
N3745 X9.2087
N3750 Y0.5906
N3755 G2 X9.0906 Y0.4724 I-0.1181 J0.
N3760 G1 X6.0906
N3765 G2 X5.9724 Y0.5906 I0. J0.1181
N3770 G1 Y1.2224
N3775 X2.7087
N3780 Y0.5906
N3785 G2 X2.5906 Y0.4724 I-0.1181 J0.
N3790 G1 X0.5906
N3795 G2 X0.4724 Y0.5906 I0. J0.1181
N3800 G1 Y7.0906
N3805 G2 X0.5906 Y7.2087 I0.1181 J0.
N3810 G1 X2.9656
N3815 G2 X4.0837 Y6.0906 I0. J-1.1181
N3820 G1 Y3.6965
N3825 G3 X5.0656 Y2.7146 I0.9819 J0.
N3830 G1 X9.6772
N3835 X9.6857 Y2.7143
N3840 G3 X10.9272 Y6.6747 I0.1548 J2.1263
N3845 G2 X10.434 Y7.2902 I0.5699 J0.962
N3850 G3 X10.4042 Y7.3053 I-0.0225 J-0.0073
N3855 G1 X10.3818 Y7.298
N3860 X10.3783 Y7.2968 Z0.396
N3865 X10.3748 Y7.2957 Z0.3968
N3870 X10.3716 Y7.2947 Z0.3982
N3875 X10.3686 Y7.2937 Z0.4002
N3880 X10.3659 Y7.2928 Z0.4026
N3885 X10.3636 Y7.2921 Z0.4054
N3890 X10.3618 Y7.2915 Z0.4086
N3895 X10.3604 Y7.291 Z0.412
N3900 X10.3596 Y7.2908 Z0.4156
N3905 X10.3593 Y7.2907 Z0.4193
N3910 Z0.9469
N3915 X10.374 Y7.2457
N3920 Z0.5531 F44.619
N3925 Z0.3012
N3930 X10.3742 Y7.2458 Z0.2975 F133.858
N3935 X10.3751 Y7.2461 Z0.2939
N3940 X10.3764 Y7.2465 Z0.2905
N3945 X10.3783 Y7.2471 Z0.2873
N3950 X10.3805 Y7.2479 Z0.2845
N3955 X10.3832 Y7.2488 Z0.2821
N3960 X10.3862 Y7.2497 Z0.2801
N3965 X10.3895 Y7.2508 Z0.2787
N3970 X10.3929 Y7.2519 Z0.2778
N3975 X10.3964 Y7.2531 Z0.2776
N3980 X10.4189 Y7.2604
N3985 G3 X10.434 Y7.2902 I-0.0073 J0.0225
N3990 G2 X12.067 Y8.5987 I1.0631 J0.3465
N3995 X12.3357 Y8.4259 I-2.2262 J-3.7583
N4000 X12.3518 Y8.2454 I-0.0675 J-0.0969
N4005 G1 X11.9049 Y7.7986
N4010 X12.7986 Y6.9049
N4015 X13.2454 Y7.3518
N4020 G2 X13.4259 Y7.3357 I0.0835 J-0.0835
N4025 X14.1401 Y5.6114 I-3.5853 J-2.4952
N4030 X14.0239 Y5.4724 I-0.1163 J-0.0208
N4035 G1 X13.392
N4040 Y4.2087
N4045 X14.0239
N4050 G2 X14.1401 Y4.0697 I0. J-0.1181
N4055 X13.4259 Y2.3454 I-4.2996 J0.7708
N4060 X13.2454 Y2.3293 I-0.0969 J0.0675
N4065 G1 X12.7986 Y2.7761
N4070 X11.9049 Y1.8825
N4075 X12.3518 Y1.4357
N4080 G2 X12.3357 Y1.2552 I-0.0835 J-0.0835
N4085 X10.6114 Y0.541 I-2.4952 J3.5853
N4090 X10.4724 Y0.6573 I-0.0208 J0.1163
N4095 G1 Y1.2224
N4100 X9.2087
N4105 Y0.5906
N4110 G2 X9.0906 Y0.4724 I-0.1181 J0.
N4115 G1 X6.0906
N4120 G2 X5.9724 Y0.5906 I0. J0.1181
N4125 G1 Y1.2224
N4130 X2.7087
N4135 Y0.5906
N4140 G2 X2.5906 Y0.4724 I-0.1181 J0.
N4145 G1 X0.5906
N4150 G2 X0.4724 Y0.5906 I0. J0.1181
N4155 G1 Y7.0906
N4160 G2 X0.5906 Y7.2087 I0.1181 J0.
N4165 G1 X2.9656
N4170 G2 X4.0837 Y6.0906 I0. J-1.1181
N4175 G1 Y3.6965
N4180 G3 X5.0656 Y2.7146 I0.9819 J0.
N4185 G1 X9.6772
N4190 X9.6857 Y2.7143
N4195 G3 X10.9272 Y6.6747 I0.1548 J2.1263
N4200 G2 X10.434 Y7.2902 I0.5699 J0.962
N4205 G3 X10.4042 Y7.3053 I-0.0225 J-0.0073
N4210 G1 X10.3818 Y7.298
N4215 X10.3783 Y7.2968 Z0.2778
N4220 X10.3748 Y7.2957 Z0.2787
N4225 X10.3716 Y7.2947 Z0.2801
N4230 X10.3686 Y7.2937 Z0.2821
N4235 X10.3659 Y7.2928 Z0.2845
N4240 X10.3636 Y7.2921 Z0.2873
N4245 X10.3618 Y7.2915 Z0.2905
N4250 X10.3604 Y7.291 Z0.2939
N4255 X10.3596 Y7.2908 Z0.2975
N4260 X10.3593 Y7.2907 Z0.3012
N4265 Z0.9469
N4270 X10.374 Y7.2457
N4275 Z0.435 F44.619
N4280 Z0.1831
N4285 X10.3742 Y7.2458 Z0.1794 F133.858
N4290 X10.3751 Y7.2461 Z0.1758
N4295 X10.3764 Y7.2465 Z0.1723
N4300 X10.3783 Y7.2471 Z0.1692
N4305 X10.3805 Y7.2479 Z0.1664
N4310 X10.3832 Y7.2488 Z0.164
N4315 X10.3862 Y7.2497 Z0.162
N4320 X10.3895 Y7.2508 Z0.1606
N4325 X10.3929 Y7.2519 Z0.1597
N4330 X10.3964 Y7.2531 Z0.1594
N4335 X10.4189 Y7.2604
N4340 G3 X10.434 Y7.2902 I-0.0073 J0.0225
N4345 G2 X12.067 Y8.5987 I1.0631 J0.3465
N4350 X12.3357 Y8.4259 I-2.2262 J-3.7583
N4355 X12.3518 Y8.2454 I-0.0675 J-0.0969
N4360 G1 X11.9049 Y7.7986
N4365 X12.7986 Y6.9049
N4370 X13.2454 Y7.3518
N4375 G2 X13.4259 Y7.3357 I0.0835 J-0.0835
N4380 X14.1401 Y5.6114 I-3.5853 J-2.4952
N4385 X14.0239 Y5.4724 I-0.1163 J-0.0208
N4390 G1 X13.392
N4395 Y4.2087
N4400 X14.0239
N4405 G2 X14.1401 Y4.0697 I0. J-0.1181
N4410 X13.4259 Y2.3454 I-4.2996 J0.7708
N4415 X13.2454 Y2.3293 I-0.0969 J0.0675
N4420 G1 X12.7986 Y2.7761
N4425 X11.9049 Y1.8825
N4430 X12.3518 Y1.4357
N4435 G2 X12.3357 Y1.2552 I-0.0835 J-0.0835
N4440 X10.6114 Y0.541 I-2.4952 J3.5853
N4445 X10.4724 Y0.6573 I-0.0208 J0.1163
N4450 G1 Y1.2224
N4455 X9.2087
N4460 Y0.5906
N4465 G2 X9.0906 Y0.4724 I-0.1181 J0.
N4470 G1 X6.0906
N4475 G2 X5.9724 Y0.5906 I0. J0.1181
N4480 G1 Y1.2224
N4485 X2.7087
N4490 Y0.5906
N4495 G2 X2.5906 Y0.4724 I-0.1181 J0.
N4500 G1 X0.5906
N4505 G2 X0.4724 Y0.5906 I0. J0.1181
N4510 G1 Y7.0906
N4515 G2 X0.5906 Y7.2087 I0.1181 J0.
N4520 G1 X2.9656
N4525 G2 X4.0837 Y6.0906 I0. J-1.1181
N4530 G1 Y3.6965
N4535 G3 X5.0656 Y2.7146 I0.9819 J0.
N4540 G1 X9.6772
N4545 X9.6857 Y2.7143
N4550 G3 X10.9272 Y6.6747 I0.1548 J2.1263
N4555 G2 X10.434 Y7.2902 I0.5699 J0.962
N4560 G3 X10.4042 Y7.3053 I-0.0225 J-0.0073
N4565 G1 X10.3818 Y7.298
N4570 X10.3783 Y7.2968 Z0.1597
N4575 X10.3748 Y7.2957 Z0.1606
N4580 X10.3716 Y7.2947 Z0.162
N4585 X10.3686 Y7.2937 Z0.164
N4590 X10.3659 Y7.2928 Z0.1664
N4595 X10.3636 Y7.2921 Z0.1692
N4600 X10.3618 Y7.2915 Z0.1723
N4605 X10.3604 Y7.291 Z0.1758
N4610 X10.3596 Y7.2908 Z0.1794
N4615 X10.3593 Y7.2907 Z0.1831
N4620 Z0.9469
N4625 X10.374 Y7.2457
N4630 Z0.3169 F44.619
N4635 Z0.065
N4640 X10.3742 Y7.2458 Z0.0613 F133.858
N4645 X10.3751 Y7.2461 Z0.0577
N4650 X10.3764 Y7.2465 Z0.0542
N4655 X10.3783 Y7.2471 Z0.0511
N4660 X10.3805 Y7.2479 Z0.0483
N4665 X10.3832 Y7.2488 Z0.0458
N4670 X10.3862 Y7.2497 Z0.0439
N4675 X10.3895 Y7.2508 Z0.0425
N4680 X10.3929 Y7.2519 Z0.0416
N4685 X10.3964 Y7.2531 Z0.0413
N4690 X10.4189 Y7.2604
N4695 G3 X10.434 Y7.2902 I-0.0073 J0.0225
N4700 G2 X10.5202 Y8.1806 I1.0631 J0.3465
N4705 G1 Z0.0787
N4710 G2 X10.832 Y8.5355 I0.9769 J-0.5439
N4715 G1 Z0.0413 F44.619
N4720 G2 X12.067 Y8.5987 I0.6651 J-0.8988 F133.858
N4725 X12.3357 Y8.4259 I-2.2262 J-3.7583
N4730 X12.3518 Y8.2454 I-0.0675 J-0.0969
N4735 G1 X11.9049 Y7.7986
N4740 X12.7986 Y6.9049
N4745 X13.2454 Y7.3518
N4750 G2 X13.4259 Y7.3357 I0.0835 J-0.0835
N4755 X14.1401 Y5.6114 I-3.5853 J-2.4952
N4760 X14.0239 Y5.4724 I-0.1163 J-0.0208
N4765 G1 X13.392
N4770 Y4.2087
N4775 X14.0239
N4780 G2 X14.1401 Y4.0697 I0. J-0.1181
N4785 X13.975 Y3.4311 I-4.2996 J0.7708
N4790 G1 Z0.0787
N4795 G2 X13.7986 Y2.9928 I-4.1345 J1.4094
N4800 G1 Z0.0413 F44.619
N4805 G2 X13.4259 Y2.3454 I-3.9581 J1.8477 F133.858
N4810 X13.2454 Y2.3293 I-0.0969 J0.0675
N4815 G1 X12.7986 Y2.7761
N4820 X11.9049 Y1.8825
N4825 X12.3518 Y1.4357
N4830 G2 X12.3357 Y1.2552 I-0.0835 J-0.0835
N4835 X10.6114 Y0.541 I-2.4952 J3.5853
N4840 X10.4724 Y0.6573 I-0.0208 J0.1163
N4845 G1 Y1.2224
N4850 X9.2087
N4855 Y0.5906
N4860 G2 X9.0906 Y0.4724 I-0.1181 J0.
N4865 G1 X7.9865
N4870 Z0.0787
N4875 X7.5141
N4880 Z0.0413 F44.619
N4885 X6.0906 F133.858
N4890 G2 X5.9724 Y0.5906 I0. J0.1181
N4895 G1 Y1.2224
N4900 X2.7087
N4905 Y0.5906
N4910 G2 X2.5906 Y0.4724 I-0.1181 J0.
N4915 G1 X1.913
N4920 Z0.0787
N4925 X1.4405
N4930 Z0.0413 F44.619
N4935 X0.5906 F133.858
N4940 G2 X0.4724 Y0.5906 I0. J0.1181
N4945 G1 Y3.5134
N4950 Z0.0787
N4955 Y3.9859
N4960 Z0.0413 F44.619
N4965 Y7.0906 F133.858
N4970 G2 X0.5906 Y7.2087 I0.1181 J0.
N4975 G1 X1.7387
N4980 Z0.0787
N4985 X2.2111
N4990 Z0.0413 F44.619
N4995 X2.9656 F133.858
N5000 G2 X4.0837 Y6.0906 I0. J-1.1181
N5005 G1 Y3.6965
N5010 G3 X5.0656 Y2.7146 I0.9819 J0.
N5015 G1 X7.3443
N5020 Z0.0787
N5025 X7.8168
N5030 Z0.0413 F44.619
N5035 X9.6772 F133.858
N5040 X9.6857 Y2.7143
N5045 G3 X10.9272 Y6.6747 I0.1548 J2.1263
N5050 G2 X10.434 Y7.2902 I0.5699 J0.962
N5055 G3 X10.4042 Y7.3053 I-0.0225 J-0.0073
N5060 G1 X10.3818 Y7.298
N5065 X10.3783 Y7.2968 Z0.0416
N5070 X10.3748 Y7.2957 Z0.0425
N5075 X10.3716 Y7.2947 Z0.0439
N5080 X10.3686 Y7.2937 Z0.0458
N5085 X10.3659 Y7.2928 Z0.0483
N5090 X10.3636 Y7.2921 Z0.0511
N5095 X10.3618 Y7.2915 Z0.0542
N5100 X10.3604 Y7.291 Z0.0577
N5105 X10.3596 Y7.2908 Z0.0613
N5110 X10.3593 Y7.2907 Z0.065
N5115 Z0.9469
N5120 X10.374 Y7.2457
N5125 Z0.1988 F44.619
N5130 Z0.0236
N5135 X10.3742 Y7.2458 Z0.0199 F133.858
N5140 X10.3751 Y7.2461 Z0.0163
N5145 X10.3764 Y7.2465 Z0.0129
N5150 X10.3783 Y7.2471 Z0.0097
N5155 X10.3805 Y7.2479 Z0.0069
N5160 X10.3832 Y7.2488 Z0.0045
N5165 X10.3862 Y7.2497 Z0.0026
N5170 X10.3895 Y7.2508 Z0.0012
N5175 X10.3929 Y7.2519 Z0.0003
N5180 X10.3964 Y7.2531 Z0.
N5185 X10.4189 Y7.2604
N5190 G3 X10.434 Y7.2902 I-0.0073 J0.0225
N5195 G2 X10.5202 Y8.1806 I1.0631 J0.3465
N5200 G1 Z0.0787
N5205 G2 X10.832 Y8.5355 I0.9769 J-0.5439
N5210 G1 Z0. F44.619
N5215 G2 X12.067 Y8.5987 I0.6651 J-0.8988 F133.858
N5220 X12.3357 Y8.4259 I-2.2262 J-3.7583
N5225 X12.3518 Y8.2454 I-0.0675 J-0.0969
N5230 G1 X11.9049 Y7.7986
N5235 X12.7986 Y6.9049
N5240 X13.2454 Y7.3518
N5245 G2 X13.4259 Y7.3357 I0.0835 J-0.0835
N5250 X14.1401 Y5.6114 I-3.5853 J-2.4952
N5255 X14.0239 Y5.4724 I-0.1163 J-0.0208
N5260 G1 X13.392
N5265 Y4.2087
N5270 X14.0239
N5275 G2 X14.1401 Y4.0697 I0. J-0.1181
N5280 X13.975 Y3.4311 I-4.2996 J0.7708
N5285 G1 Z0.0787
N5290 G2 X13.7986 Y2.9928 I-4.1345 J1.4094
N5295 G1 Z0. F44.619
N5300 G2 X13.4259 Y2.3454 I-3.9581 J1.8477 F133.858
N5305 X13.2454 Y2.3293 I-0.0969 J0.0675
N5310 G1 X12.7986 Y2.7761
N5315 X11.9049 Y1.8825
N5320 X12.3518 Y1.4357
N5325 G2 X12.3357 Y1.2552 I-0.0835 J-0.0835
N5330 X10.6114 Y0.541 I-2.4952 J3.5853
N5335 X10.4724 Y0.6573 I-0.0208 J0.1163
N5340 G1 Y1.2224
N5345 X9.2087
N5350 Y0.5906
N5355 G2 X9.0906 Y0.4724 I-0.1181 J0.
N5360 G1 X7.9865
N5365 Z0.0787
N5370 X7.5141
N5375 Z0. F44.619
N5380 X6.0906 F133.858
N5385 G2 X5.9724 Y0.5906 I0. J0.1181
N5390 G1 Y1.2224
N5395 X2.7087
N5400 Y0.5906
N5405 G2 X2.5906 Y0.4724 I-0.1181 J0.
N5410 G1 X1.913
N5415 Z0.0787
N5420 X1.4405
N5425 Z0. F44.619
N5430 X0.5906 F133.858
N5435 G2 X0.4724 Y0.5906 I0. J0.1181
N5440 G1 Y3.5134
N5445 Z0.0787
N5450 Y3.9859
N5455 Z0. F44.619
N5460 Y7.0906 F133.858
N5465 G2 X0.5906 Y7.2087 I0.1181 J0.
N5470 G1 X1.7387
N5475 Z0.0787
N5480 X2.2111
N5485 Z0. F44.619
N5490 X2.9656 F133.858
N5495 G2 X4.0837 Y6.0906 I0. J-1.1181
N5500 G1 Y3.6965
N5505 G3 X5.0656 Y2.7146 I0.9819 J0.
N5510 G1 X7.3443
N5515 Z0.0787
N5520 X7.8168
N5525 Z0. F44.619
N5530 X9.6772 F133.858
N5535 X9.6857 Y2.7143
N5540 G3 X10.9272 Y6.6747 I0.1548 J2.1263
N5545 G2 X10.434 Y7.2902 I0.5699 J0.962
N5550 G3 X10.4042 Y7.3053 I-0.0225 J-0.0073
N5555 G1 X10.3818 Y7.298
N5560 X10.3783 Y7.2968 Z0.0003
N5565 X10.3748 Y7.2957 Z0.0012
N5570 X10.3716 Y7.2947 Z0.0026
N5575 X10.3686 Y7.2937 Z0.0045
N5580 X10.3659 Y7.2928 Z0.0069
N5585 X10.3636 Y7.2921 Z0.0097
N5590 X10.3618 Y7.2915 Z0.0129
N5595 X10.3604 Y7.291 Z0.0163
N5600 X10.3596 Y7.2908 Z0.0199
N5605 X10.3593 Y7.2907 Z0.0236
N5610 Z1.2224
N5615 G53 G0 Z0.
N5620 M30
%
