%
(FILSHELF_25_BIT_SECOND)
(T1  D=6.35 CR=0. - ZMIN=-0.5 - FLAT END MILL)
N10 G90 G94 G17 G91.1
N15 G21
(WHEN USING FUSION 360 FOR PERSONAL USE, THE FEEDRATE OF)
(RAPID MOVES IS REDUCED TO MATCH THE FEEDRATE OF CUTTING)
(MOVES, WHICH CAN INCREASE MACHINING TIME. UNRESTRICTED RAPID)
(MOVES ARE AVAILABLE WITH A FUSION 360 SUBSCRIPTION.)
N20 G53 G0 Z0.
(D UPCUT)
N25 T1 M6
N30 S5000 M3
N35 G54
N40 G0 X325.838 Y30.38
N45 G43 Z33.74 H1
N50 G1 Z23.74 F3100.
N55 Z21.875 F508.
N60 X325.833 Y30.386 Z21.776 F3100.
N65 X325.818 Y30.404 Z21.679
N70 X325.795 Y30.434 Z21.587
N75 X325.763 Y30.475 Z21.502
N80 X325.723 Y30.526 Z21.426
N85 X325.676 Y30.586 Z21.361
N90 X325.624 Y30.653 Z21.309
N95 X325.567 Y30.725 Z21.271
N100 X325.507 Y30.801 Z21.248
N105 X325.446 Y30.88 Z21.24
N110 X325.055 Y31.38
N115 G3 X324.163 Y31.488 I-0.5 J-0.391
N120 G2 X290.893 Y20.015 Z21.066 I-33.27 J42.502 F508.
N125 G1 X28.55 Z19.792
N130 G2 X25.375 Y23.19 Z19.768 I0. J3.175
N135 G1 Y200.99 Z18.905
N140 G2 X28.55 Y204.165 Z18.881 I3.175 J0.
N145 G1 X61.389 Z18.722
N150 G2 X72.615 Y199.515 Z18.661 I0. J-15.875
N155 G1 X103.275 Y168.855 Z18.451
N160 G2 X107.925 Y157.629 Z18.39 I-11.225 J-11.226
N165 G1 Y136.843 Z18.289
N170 G3 X114.434 Y121.127 Z18.204 I22.225 J-0.001
N175 G1 X151.887 Y83.674 Z17.947
N180 G3 X167.603 Y77.165 Z17.863 I15.716 J15.716
N185 G1 X280.372 Z17.315
N190 G3 X296.087 Y83.674 Z17.23 I0. J22.225
N195 G1 X310.966 Y98.553 Z17.128
N200 G3 X317.475 Y114.268 Z17.043 I-15.716 J15.715
N205 G1 Y135.31 Z16.941
N210 G3 X310.966 Y151.025 Z16.857 I-22.225 J0.
N215 G1 X287.333 Y174.658 Z16.694
N220 G2 X282.683 Y185.883 Z16.634 I11.225 J11.226
N225 G1 Y193.855 Z16.595
N230 G2 X287.333 Y205.081 Z16.535 I15.875 J0.
N235 G1 X297.587 Y215.335 Z16.464
N240 G2 X308.813 Y219.985 Z16.404 I11.226 J-11.225
N245 G1 X316.252 Z16.368
N250 G2 X327.477 Y215.335 Z16.307 I0. J-15.875
N255 G1 X358.816 Y183.997 Z16.092
N260 G2 X374.625 Y145.831 Z15.886 I-38.166 J-38.166
N265 G1 Y103.747 Z15.682
N270 G2 X358.816 Y65.581 Z15.476 I-53.975 J0.
N275 G1 X329.059 Y35.824 Z15.272
N280 G2 X290.893 Y20.015 Z15.066 I-38.166 J38.166
N285 G1 X28.55 Z13.792
N290 G2 X25.375 Y23.19 Z13.768 I0. J3.175
N295 G1 Y200.99 Z12.905
N300 G2 X28.55 Y204.165 Z12.881 I3.175 J0.
N305 G1 X61.389 Z12.722
N310 G2 X72.615 Y199.515 Z12.661 I0. J-15.875
N315 G1 X103.275 Y168.855 Z12.451
N320 G2 X107.925 Y157.629 Z12.39 I-11.225 J-11.226
N325 G1 Y136.843 F3100.
N330 G3 X114.434 Y121.127 I22.225 J-0.001
N335 G1 X151.887 Y83.674
N340 G3 X167.603 Y77.165 I15.716 J15.716
N345 G1 X280.372
N350 G3 X296.087 Y83.674 I0. J22.225
N355 G1 X310.966 Y98.553
N360 G3 X317.475 Y114.268 I-15.716 J15.715
N365 G1 Y135.31
N370 G3 X310.966 Y151.025 I-22.225 J0.
N375 G1 X287.333 Y174.658
N380 G2 X282.683 Y185.883 I11.225 J11.226
N385 G1 Y193.855
N390 G2 X287.333 Y205.081 I15.875 J0.
N395 G1 X297.587 Y215.335
N400 G2 X308.813 Y219.985 I11.226 J-11.225
N405 G1 X316.252
N410 G2 X327.477 Y215.335 I0. J-15.875
N415 G1 X358.816 Y183.997
N420 G2 X374.625 Y145.831 I-38.166 J-38.166
N425 G1 Y103.747
N430 G2 X358.816 Y65.581 I-53.975 J0.
N435 G1 X329.059 Y35.824
N440 G2 X290.893 Y20.015 I-38.166 J38.166
N445 G1 X28.55
N450 G2 X25.375 Y23.19 I0. J3.175
N455 G1 Y200.99
N460 G2 X28.55 Y204.165 I3.175 J0.
N465 G1 X61.389
N470 G2 X72.615 Y199.515 I0. J-15.875
N475 G1 X103.275 Y168.855
N480 G2 X107.925 Y157.629 I-11.225 J-11.226
N485 G1 Y136.843 Z12.289 F508.
N490 G3 X114.434 Y121.127 Z12.204 I22.225 J-0.001
N495 G1 X151.887 Y83.674 Z11.947
N500 G3 X167.603 Y77.165 Z11.863 I15.716 J15.716
N505 G1 X280.372 Z11.315
N510 G3 X296.087 Y83.674 Z11.23 I0. J22.225
N515 G1 X310.966 Y98.553 Z11.128
N520 G3 X317.475 Y114.268 Z11.043 I-15.716 J15.715
N525 G1 Y135.31 Z10.941
N530 G3 X310.966 Y151.025 Z10.857 I-22.225 J0.
N535 G1 X287.333 Y174.658 Z10.694
N540 G2 X282.683 Y185.883 Z10.634 I11.225 J11.226
N545 G1 Y193.855 Z10.595
N550 G2 X287.333 Y205.081 Z10.535 I15.875 J0.
N555 G1 X297.587 Y215.335 Z10.464
N560 G2 X308.813 Y219.985 Z10.404 I11.226 J-11.225
N565 G1 X316.252 Z10.368
N570 G2 X327.477 Y215.335 Z10.307 I0. J-15.875
N575 G1 X358.816 Y183.997 Z10.092
N580 G2 X374.625 Y145.831 Z9.886 I-38.166 J-38.166
N585 G1 Y103.747 Z9.682
N590 G2 X358.816 Y65.581 Z9.476 I-53.975 J0.
N595 G1 X329.059 Y35.824 Z9.272
N600 G2 X290.893 Y20.015 Z9.066 I-38.166 J38.166
N605 G1 X28.55 Z7.792
N610 G2 X25.375 Y23.19 Z7.768 I0. J3.175
N615 G1 Y200.99 Z6.905
N620 G2 X28.55 Y204.165 Z6.881 I3.175 J0.
N625 G1 X61.389 Z6.722
N630 G2 X72.615 Y199.515 Z6.661 I0. J-15.875
N635 G1 X103.275 Y168.855 Z6.451
N640 G2 X107.925 Y157.629 Z6.39 I-11.225 J-11.226
N645 G1 Y136.843 Z6.289
N650 G3 X114.434 Y121.127 Z6.204 I22.225 J-0.001
N655 G1 X138.376 Y97.186 Z6.04
N660 X151.887 Y83.674 F3100.
N665 G3 X167.603 Y77.165 I15.716 J15.716
N670 G1 X280.372
N675 G3 X296.087 Y83.674 I0. J22.225
N680 G1 X310.966 Y98.553
N685 G3 X317.475 Y114.268 I-15.716 J15.715
N690 G1 Y135.31
N695 G3 X310.966 Y151.025 I-22.225 J0.
N700 G1 X287.333 Y174.658
N705 G2 X282.683 Y185.883 I11.225 J11.226
N710 G1 Y193.855
N715 G2 X287.333 Y205.081 I15.875 J0.
N720 G1 X297.587 Y215.335
N725 G2 X308.813 Y219.985 I11.226 J-11.225
N730 G1 X316.252
N735 G2 X327.477 Y215.335 I0. J-15.875
N740 G1 X358.816 Y183.997
N745 G2 X374.625 Y145.831 I-38.166 J-38.166
N750 G1 Y103.747
N755 G2 X358.816 Y65.581 I-53.975 J0.
N760 G1 X329.059 Y35.824
N765 G2 X290.893 Y20.015 I-38.166 J38.166
N770 G1 X28.55
N775 G2 X25.375 Y23.19 I0. J3.175
N780 G1 Y200.99
N785 G2 X28.55 Y204.165 I3.175 J0.
N790 G1 X61.389
N795 G2 X72.615 Y199.515 I0. J-15.875
N800 G1 X103.275 Y168.855
N805 G2 X107.925 Y157.629 I-11.225 J-11.226
N810 G1 Y136.843
N815 G3 X114.434 Y121.127 I22.225 J-0.001
N820 G1 X138.376 Y97.186
N825 X151.887 Y83.674 Z5.947 F508.
N830 G3 X167.603 Y77.165 Z5.863 I15.716 J15.716
N835 G1 X280.372 Z5.315
N840 G3 X296.087 Y83.674 Z5.23 I0. J22.225
N845 G1 X310.966 Y98.553 Z5.128
N850 G3 X317.475 Y114.268 Z5.043 I-15.716 J15.715
N855 G1 Y135.31 Z4.941
N860 G3 X310.966 Y151.025 Z4.857 I-22.225 J0.
N865 G1 X287.333 Y174.658 Z4.694
N870 G2 X282.683 Y185.883 Z4.634 I11.225 J11.226
N875 G1 Y193.855 Z4.595
N880 G2 X287.333 Y205.081 Z4.535 I15.875 J0.
N885 G1 X297.587 Y215.335 Z4.464
N890 G2 X308.813 Y219.985 Z4.404 I11.226 J-11.225
N895 G1 X316.252 Z4.368
N900 G2 X327.477 Y215.335 Z4.307 I0. J-15.875
N905 G1 X358.816 Y183.997 Z4.092
N910 G2 X374.625 Y145.831 Z3.886 I-38.166 J-38.166
N915 G1 Y103.747 Z3.682
N920 G2 X358.816 Y65.581 Z3.476 I-53.975 J0.
N925 G1 X329.059 Y35.824 Z3.272
N930 G2 X290.893 Y20.015 Z3.066 I-38.166 J38.166
N935 G1 X229.921 Z2.77
N940 X28.55 F3100.
N945 G2 X25.375 Y23.19 I0. J3.175
N950 G1 Y200.99
N955 G2 X28.55 Y204.165 I3.175 J0.
N960 G1 X61.389
N965 G2 X72.615 Y199.515 I0. J-15.875
N970 G1 X103.275 Y168.855
N975 G2 X107.925 Y157.629 I-11.225 J-11.226
N980 G1 Y136.843
N985 G3 X114.434 Y121.127 I22.225 J-0.001
N990 G1 X138.376 Y97.186
N995 X151.887 Y83.674
N1000 G3 X167.603 Y77.165 I15.716 J15.716
N1005 G1 X280.372
N1010 G3 X296.087 Y83.674 I0. J22.225
N1015 G1 X310.966 Y98.553
N1020 G3 X317.475 Y114.268 I-15.716 J15.715
N1025 G1 Y135.31
N1030 G3 X310.966 Y151.025 I-22.225 J0.
N1035 G1 X287.333 Y174.658
N1040 G2 X282.683 Y185.883 I11.225 J11.226
N1045 G1 Y193.855
N1050 G2 X287.333 Y205.081 I15.875 J0.
N1055 G1 X297.587 Y215.335
N1060 G2 X308.813 Y219.985 I11.226 J-11.225
N1065 G1 X316.252
N1070 G2 X327.477 Y215.335 I0. J-15.875
N1075 G1 X358.816 Y183.997
N1080 G2 X374.625 Y145.831 I-38.166 J-38.166
N1085 G1 Y103.747
N1090 G2 X358.816 Y65.581 I-53.975 J0.
N1095 G1 X329.059 Y35.824
N1100 G2 X290.893 Y20.015 I-38.166 J38.166
N1105 G1 X229.921
N1110 X28.55 Z1.792 F508.
N1115 G2 X25.375 Y23.19 Z1.768 I0. J3.175
N1120 G1 Y106.103 Z1.366
N1125 Z1.5
N1130 Y120.453
N1135 Z1.296
N1140 Y148.159 Z1.162
N1145 Z1.5
N1150 Y162.509
N1155 Z1.092
N1160 Y200.99 Z0.905
N1165 G2 X28.55 Y204.165 Z0.881 I3.175 J0.
N1170 G1 X36.653 Z0.842
N1175 Z1.5
N1180 X51.003
N1185 Z0.772
N1190 X61.389 Z0.722
N1195 G2 X72.615 Y199.515 Z0.661 I0. J-15.875
N1200 G1 X82.537 Y189.593 Z0.593
N1205 Z1.5
N1210 X92.684 Y179.446
N1215 Z0.523
N1220 X103.275 Y168.855 Z0.451
N1225 G2 X107.925 Y157.629 Z0.39 I-11.225 J-11.226
N1230 G1 Y136.843 Z0.289
N1235 G3 X114.434 Y121.127 Z0.204 I22.225 J-0.001
N1240 G1 X130.587 Y104.974 Z0.093
N1245 Z1.5
N1250 X140.734 Y94.827
N1255 Z0.024
N1260 X151.887 Y83.674 Z-0.053
N1265 G3 X167.603 Y77.165 Z-0.137 I15.716 J15.716
N1270 G1 X181.635 Z-0.206
N1275 Z1.5
N1280 X195.985
N1285 Z-0.275
N1290 X235.998 Z-0.47
N1295 Z1.5
N1300 X242.28
N1305 X252.775 F3100.
N1310 Z-0.5 F508.
N1315 X280.372 F3100.
N1320 G3 X296.087 Y83.674 I0. J22.225
N1325 G1 X298.446 Y86.034
N1330 Z1.5
N1335 X308.594 Y96.181
N1340 Z-0.5 F508.
N1345 X310.966 Y98.553 F3100.
N1350 G3 X317.475 Y114.268 I-15.716 J15.715
N1355 G1 Y118.081
N1360 Z1.5
N1365 Y132.431
N1370 Z-0.5 F508.
N1375 Y135.31 F3100.
N1380 G3 X310.966 Y151.025 I-22.225 J0.
N1385 G1 X287.333 Y174.658
N1390 G2 X282.683 Y185.883 I11.225 J11.226
N1395 G1 Y193.855
N1400 G2 X287.333 Y205.081 I15.875 J0.
N1405 G1 X287.394 Y205.143
N1410 Z1.5
N1415 X297.541 Y215.29
N1420 Z-0.5 F508.
N1425 X297.587 Y215.335 F3100.
N1430 G2 X308.813 Y219.985 I11.226 J-11.225
N1435 G1 X316.252
N1440 G2 X327.477 Y215.335 I0. J-15.875
N1445 G1 X337.472 Y205.34
N1450 Z1.5
N1455 X347.619 Y195.193
N1460 Z-0.5 F508.
N1465 X358.816 Y183.997 F3100.
N1470 G2 X374.625 Y145.831 I-38.166 J-38.166
N1475 G1 Y131.203
N1480 Z1.5
N1485 Y116.853
N1490 Z-0.5 F508.
N1495 Y103.747 F3100.
N1500 G2 X358.816 Y65.581 I-53.975 J0.
N1505 G1 X345.1 Y51.865
N1510 Z1.5
N1515 X334.953 Y41.718
N1520 Z-0.5 F508.
N1525 X329.059 Y35.824 F3100.
N1530 G2 X290.893 Y20.015 I-38.166 J38.166
N1535 G1 X274.364
N1540 Z1.5
N1545 X260.014
N1550 Z-0.5 F508.
N1555 X219.519 F3100.
N1560 Z1.5
N1565 X205.169
N1570 Z-0.5 F508.
N1575 X152.634 F3100.
N1580 Z1.5
N1585 X138.284
N1590 Z-0.5 F508.
N1595 X78.393 F3100.
N1600 Z1.5
N1605 X64.043
N1610 Z-0.5 F508.
N1615 X28.55 F3100.
N1620 G2 X25.375 Y23.19 I0. J3.175
N1625 G1 Y58.687
N1630 Z1.5
N1635 Y73.037
N1640 Z-0.5 F508.
N1645 Y106.103 F3100.
N1650 Z1.5
N1655 Y120.453
N1660 Z-0.5 F508.
N1665 Y148.159 F3100.
N1670 Z1.5
N1675 Y162.509
N1680 Z-0.5 F508.
N1685 Y200.99 F3100.
N1690 G2 X28.55 Y204.165 I3.175 J0.
N1695 G1 X36.653
N1700 Z1.5
N1705 X51.003
N1710 Z-0.5 F508.
N1715 X61.389 F3100.
N1720 G2 X72.615 Y199.515 I0. J-15.875
N1725 G1 X82.537 Y189.593
N1730 Z1.5
N1735 X92.684 Y179.446
N1740 Z-0.5 F508.
N1745 X103.275 Y168.855 F3100.
N1750 G2 X107.925 Y157.629 I-11.225 J-11.226
N1755 G1 Y136.843
N1760 G3 X114.434 Y121.127 I22.225 J-0.001
N1765 G1 X130.587 Y104.974
N1770 Z1.5
N1775 X140.734 Y94.827
N1780 Z-0.5 F508.
N1785 X151.887 Y83.674 F3100.
N1790 G3 X167.603 Y77.165 I15.716 J15.716
N1795 G1 X181.635
N1800 Z1.5
N1805 X195.985
N1810 Z-0.5 F508.
N1815 X235.998 F3100.
N1820 Z1.5
N1825 X242.28
N1830 G3 X242.915 Y77.8 I0. J0.635
N1835 G1 Y79.07
N1840 Z33.74
N1845 G53 G0 Z0.
N1850 M30
%
