%
(FILSHELF_FIRST_DOWNCUT)
(T1  D=3.175 CR=0. - ZMIN=15.24 - FLAT END MILL)
N10 G90 G94 G17 G91.1
N15 G21
(WHEN USING FUSION 360 FOR PERSONAL USE, THE FEEDRATE OF)
(RAPID MOVES IS REDUCED TO MATCH THE FEEDRATE OF CUTTING)
(MOVES, WHICH CAN INCREASE MACHINING TIME. UNRESTRICTED RAPID)
(MOVES ARE AVAILABLE WITH A FUSION 360 SUBSCRIPTION.)
N20 G53 G0 Z0.
(2D DOWNCUT)
N25 T1 M6
N30 S8500 M3
N35 G54
N40 G0 X26.01 Y129.992
N45 G43 Z33.74 H1
N50 G1 Z23.74 F2500.
N55 Z21.558 F833.33
N60 G18 G2 X26.327 Z21.24 I0.317 K0. F2500.
N65 G1 X26.645
N70 G17 G3 X26.962 Y130.309 I0. J0.318
N75 G1 Y200.99 Z18.772 F833.33
N80 G2 X28.55 Y202.577 Z18.685 I1.587 J0.
N85 G1 X61.389 Z17.538
N90 G2 X71.492 Y198.393 Z17.146 I0. J-14.287
N95 G1 X102.153 Y167.733 Z15.632
N100 G2 X106.338 Y157.629 Z15.24 I-10.103 J-10.103
N105 G1 Y136.843 F2500.
N110 G3 X113.312 Y120.005 I23.813 J-0.001
N115 G1 X150.765 Y82.552
N120 G3 X167.603 Y75.577 I16.838 J16.838
N125 G1 X280.372
N130 G3 X297.209 Y82.552 I0. J23.812
N135 G1 X312.088 Y97.43
N140 G3 X319.063 Y114.268 I-16.839 J16.838
N145 G1 Y135.31
N150 G3 X312.088 Y152.147 I-23.813 J0.
N155 G1 X288.455 Y175.78
N160 G2 X284.271 Y185.883 I10.102 J10.103
N165 G1 Y193.855
N170 G2 X288.455 Y203.959 I14.288 J0.
N175 G1 X298.709 Y214.213
N180 G2 X308.813 Y218.398 I10.103 J-10.103
N185 G1 X316.252
N190 G2 X326.355 Y214.213 I0. J-14.287
N195 G1 X357.694 Y182.875
N200 G2 X373.038 Y145.831 I-37.043 J-37.044
N205 G1 Y103.747
N210 G2 X357.694 Y66.704 I-52.387 J0.
N215 G1 X327.937 Y36.946
N220 G2 X290.893 Y21.602 I-37.044 J37.044
N225 G1 X28.55
N230 G2 X26.962 Y23.19 I0. J1.587
N235 G1 Y200.99
N240 G2 X28.55 Y202.577 I1.587 J0.
N245 G1 X61.389
N250 G2 X71.492 Y198.393 I0. J-14.287
N255 G1 X102.153 Y167.733
N260 G2 X106.338 Y157.629 I-10.103 J-10.103
N265 G3 X106.655 Y157.311 I0.317 J0.
N270 G1 X106.972
N275 G18 G2 X107.29 Z15.557 I0. K0.318
N280 G1 Z33.74
N285 G17
N290 G53 G0 Z0.
N295 M30
%
