%
(FILSHELF_SECOND_UPCUT)
(T1  D=3.175 CR=0. - ZMIN=-0.5 - FLAT END MILL)
N10 G90 G94 G17 G91.1
N15 G21
(WHEN USING FUSION 360 FOR PERSONAL USE, THE FEEDRATE OF)
(RAPID MOVES IS REDUCED TO MATCH THE FEEDRATE OF CUTTING)
(MOVES, WHICH CAN INCREASE MACHINING TIME. UNRESTRICTED RAPID)
(MOVES ARE AVAILABLE WITH A FUSION 360 SUBSCRIPTION.)
N20 G53 G0 Z0.
(D UPCUT)
N25 T1 M6
N30 S8500 M3
N35 G54
N40 G0 X26.01 Y138.583
N45 G43 Z33.74 H1
N50 G1 Z23.74 F2500.
N55 Z21.558 F833.33
N60 G18 G2 X26.327 Z21.24 I0.317 K0. F2500.
N65 G1 X26.645
N70 G17 G3 X26.962 Y138.9 I0. J0.318
N75 G1 Y200.99 Z19.072 F833.33
N80 G2 X28.55 Y202.577 Z18.985 I1.587 J0.
N85 G1 X61.389 Z17.838
N90 G2 X71.492 Y198.393 Z17.446 I0. J-14.287
N95 G1 X102.153 Y167.733 Z15.932
N100 G2 X106.338 Y157.629 Z15.54 I-10.103 J-10.103
N105 G1 Y136.843 F2500.
N110 G3 X113.312 Y120.005 I23.813 J-0.001
N115 G1 X150.765 Y82.552
N120 G3 X167.603 Y75.577 I16.838 J16.838
N125 G1 X280.372
N130 G3 X297.209 Y82.552 I0. J23.812
N135 G1 X312.088 Y97.43
N140 G3 X319.063 Y114.268 I-16.839 J16.838
N145 G1 Y135.31
N150 G3 X312.088 Y152.147 I-23.813 J0.
N155 G1 X288.455 Y175.78
N160 G2 X284.271 Y185.883 I10.102 J10.103
N165 G1 Y193.855
N170 G2 X288.455 Y203.959 I14.288 J0.
N175 G1 X298.709 Y214.213
N180 G2 X308.813 Y218.398 I10.103 J-10.103
N185 G1 X316.252
N190 G2 X326.355 Y214.213 I0. J-14.287
N195 G1 X357.694 Y182.875
N200 G2 X373.038 Y145.831 I-37.043 J-37.044
N205 G1 Y103.747
N210 G2 X357.694 Y66.704 I-52.387 J0.
N215 G1 X327.937 Y36.946
N220 G2 X290.893 Y21.602 I-37.044 J37.044
N225 G1 X28.55
N230 G2 X26.962 Y23.19 I0. J1.587
N235 G1 Y200.99
N240 G2 X28.55 Y202.577 I1.587 J0.
N245 G1 X61.389
N250 G2 X71.492 Y198.393 I0. J-14.287
N255 G1 X102.153 Y167.733
N260 G2 X106.338 Y157.629 I-10.103 J-10.103
N265 G1 Y136.843 Z15.167 F833.33
N270 G3 X113.312 Y120.005 Z14.831 I23.813 J-0.001
N275 G1 X150.765 Y82.552 Z13.881
N280 G3 X167.603 Y75.577 Z13.545 I16.838 J16.838
N285 G1 X234.777 Z12.34
N290 X280.372 F2500.
N295 G3 X297.209 Y82.552 I0. J23.812
N300 G1 X312.088 Y97.43
N305 G3 X319.063 Y114.268 I-16.839 J16.838
N310 G1 Y135.31
N315 G3 X312.088 Y152.147 I-23.813 J0.
N320 G1 X288.455 Y175.78
N325 G2 X284.271 Y185.883 I10.102 J10.103
N330 G1 Y193.855
N335 G2 X288.455 Y203.959 I14.288 J0.
N340 G1 X298.709 Y214.213
N345 G2 X308.813 Y218.398 I10.103 J-10.103
N350 G1 X316.252
N355 G2 X326.355 Y214.213 I0. J-14.287
N360 G1 X357.694 Y182.875
N365 G2 X373.038 Y145.831 I-37.043 J-37.044
N370 G1 Y103.747
N375 G2 X357.694 Y66.704 I-52.387 J0.
N380 G1 X327.937 Y36.946
N385 G2 X290.893 Y21.602 I-37.044 J37.044
N390 G1 X28.55
N395 G2 X26.962 Y23.19 I0. J1.587
N400 G1 Y200.99
N405 G2 X28.55 Y202.577 I1.587 J0.
N410 G1 X61.389
N415 G2 X71.492 Y198.393 I0. J-14.287
N420 G1 X102.153 Y167.733
N425 G2 X106.338 Y157.629 I-10.103 J-10.103
N430 G1 Y136.843
N435 G3 X113.312 Y120.005 I23.813 J-0.001
N440 G1 X150.765 Y82.552
N445 G3 X167.603 Y75.577 I16.838 J16.838
N450 G1 X234.777
N455 X280.372 Z11.522 F833.33
N460 G3 X297.209 Y82.552 Z11.186 I0. J23.812
N465 G1 X312.088 Y97.43 Z10.809
N470 G3 X319.063 Y114.268 Z10.473 I-16.839 J16.838
N475 G1 Y135.31 Z10.096
N480 G3 X312.088 Y152.147 Z9.76 I-23.813 J0.
N485 G1 X288.455 Y175.78 Z9.16
N490 G2 X287.691 Y176.607 Z9.14 I10.102 J10.103
N495 X284.271 Y185.883 I10.867 J9.276 F2500.
N500 G1 Y193.855
N505 G2 X288.455 Y203.959 I14.288 J0.
N510 G1 X298.709 Y214.213
N515 G2 X308.813 Y218.398 I10.103 J-10.103
N520 G1 X316.252
N525 G2 X326.355 Y214.213 I0. J-14.287
N530 G1 X357.694 Y182.875
N535 G2 X373.038 Y145.831 I-37.043 J-37.044
N540 G1 Y103.747
N545 G2 X357.694 Y66.704 I-52.387 J0.
N550 G1 X327.937 Y36.946
N555 G2 X290.893 Y21.602 I-37.044 J37.044
N560 G1 X28.55
N565 G2 X26.962 Y23.19 I0. J1.587
N570 G1 Y200.99
N575 G2 X28.55 Y202.577 I1.587 J0.
N580 G1 X61.389
N585 G2 X71.492 Y198.393 I0. J-14.287
N590 G1 X102.153 Y167.733
N595 G2 X106.338 Y157.629 I-10.103 J-10.103
N600 G1 Y136.843
N605 G3 X113.312 Y120.005 I23.813 J-0.001
N610 G1 X150.765 Y82.552
N615 G3 X167.603 Y75.577 I16.838 J16.838
N620 G1 X234.777
N625 X280.372
N630 G3 X297.209 Y82.552 I0. J23.812
N635 G1 X312.088 Y97.43
N640 G3 X319.063 Y114.268 I-16.839 J16.838
N645 G1 Y135.31
N650 G3 X312.088 Y152.147 I-23.813 J0.
N655 G1 X288.455 Y175.78
N660 G2 X287.691 Y176.607 I10.102 J10.103
N665 X284.271 Y185.883 Z8.959 I10.867 J9.276 F833.33
N670 G1 Y193.855 Z8.816
N675 G2 X288.455 Y203.959 Z8.614 I14.288 J0.
N680 G1 X298.709 Y214.213 Z8.354
N685 G2 X308.813 Y218.398 Z8.153 I10.103 J-10.103
N690 G1 X316.252 Z8.019
N695 G2 X326.355 Y214.213 Z7.818 I0. J-14.287
N700 G1 X357.694 Y182.875 Z7.023
N705 G2 X373.038 Y145.831 Z6.284 I-37.043 J-37.044
N710 G1 Y126.637 Z5.94
N715 Y103.747 F2500.
N720 G2 X357.694 Y66.704 I-52.387 J0.
N725 G1 X327.937 Y36.946
N730 G2 X290.893 Y21.602 I-37.044 J37.044
N735 G1 X28.55
N740 G2 X26.962 Y23.19 I0. J1.587
N745 G1 Y200.99
N750 G2 X28.55 Y202.577 I1.587 J0.
N755 G1 X61.389
N760 G2 X71.492 Y198.393 I0. J-14.287
N765 G1 X102.153 Y167.733
N770 G2 X106.338 Y157.629 I-10.103 J-10.103
N775 G1 Y136.843
N780 G3 X113.312 Y120.005 I23.813 J-0.001
N785 G1 X150.765 Y82.552
N790 G3 X167.603 Y75.577 I16.838 J16.838
N795 G1 X280.372
N800 G3 X297.209 Y82.552 I0. J23.812
N805 G1 X312.088 Y97.43
N810 G3 X319.063 Y114.268 I-16.839 J16.838
N815 G1 Y135.31
N820 G3 X312.088 Y152.147 I-23.813 J0.
N825 G1 X288.455 Y175.78
N830 G2 X284.271 Y185.883 I10.102 J10.103
N835 G1 Y193.855
N840 G2 X288.455 Y203.959 I14.288 J0.
N845 G1 X298.709 Y214.213
N850 G2 X308.813 Y218.398 I10.103 J-10.103
N855 G1 X316.252
N860 G2 X326.355 Y214.213 I0. J-14.287
N865 G1 X357.694 Y182.875
N870 G2 X373.038 Y145.831 I-37.043 J-37.044
N875 G1 Y126.637
N880 Y103.747 Z5.529 F833.33
N885 G2 X357.694 Y66.704 Z4.791 I-52.387 J0.
N890 G1 X327.937 Y36.946 Z4.036
N895 G2 X290.893 Y21.602 Z3.298 I-37.044 J37.044
N900 G1 X259.824 Z2.74
N905 X28.55 F2500.
N910 G2 X26.962 Y23.19 I0. J1.587
N915 G1 Y200.99
N920 G2 X28.55 Y202.577 I1.587 J0.
N925 G1 X61.389
N930 G2 X71.492 Y198.393 I0. J-14.287
N935 G1 X102.153 Y167.733
N940 G2 X106.338 Y157.629 I-10.103 J-10.103
N945 G1 Y136.843
N950 G3 X113.312 Y120.005 I23.813 J-0.001
N955 G1 X150.765 Y82.552
N960 G3 X167.603 Y75.577 I16.838 J16.838
N965 G1 X280.372
N970 G3 X297.209 Y82.552 I0. J23.812
N975 G1 X312.088 Y97.43
N980 G3 X319.063 Y114.268 I-16.839 J16.838
N985 G1 Y135.31
N990 G3 X312.088 Y152.147 I-23.813 J0.
N995 G1 X288.455 Y175.78
N1000 G2 X284.271 Y185.883 I10.102 J10.103
N1005 G1 Y193.855
N1010 G2 X288.455 Y203.959 I14.288 J0.
N1015 G1 X298.709 Y214.213
N1020 G2 X308.813 Y218.398 I10.103 J-10.103
N1025 G1 X316.252
N1030 G2 X326.355 Y214.213 I0. J-14.287
N1035 G1 X357.694 Y182.875
N1040 G2 X373.038 Y145.831 I-37.043 J-37.044
N1045 G1 Y103.747
N1050 G2 X357.694 Y66.704 I-52.387 J0.
N1055 G1 X327.937 Y36.946
N1060 G2 X290.893 Y21.602 I-37.044 J37.044
N1065 G1 X259.824
N1070 X169.543 Z1.12 F833.33
N1075 X151.046 F2500.
N1080 Z1.5
N1085 X139.872
N1090 Z1.12 F833.33
N1095 X76.805 F2500.
N1100 Z1.5
N1105 X65.63
N1110 Z1.12 F833.33
N1115 X28.55 F2500.
N1120 G2 X26.962 Y23.19 I0. J1.587
N1125 G1 Y60.275
N1130 Z1.5
N1135 Y71.45
N1140 Z1.12 F833.33
N1145 Y107.69 F2500.
N1150 Z1.5
N1155 Y118.866
N1160 Z1.12 F833.33
N1165 Y149.747 F2500.
N1170 Z1.5
N1175 Y160.921
N1180 Z1.12 F833.33
N1185 Y200.99 F2500.
N1190 G2 X28.55 Y202.577 I1.587 J0.
N1195 G1 X38.24
N1200 Z1.5
N1205 X49.415
N1210 Z1.12 F833.33
N1215 X61.389 F2500.
N1220 G2 X71.492 Y198.393 I0. J-14.287
N1225 G1 X82.537 Y187.348
N1230 Z1.5
N1235 X90.439 Y179.446
N1240 Z1.12 F833.33
N1245 X102.153 Y167.733 F2500.
N1250 G2 X106.338 Y157.629 I-10.103 J-10.103
N1255 G1 Y136.843
N1260 G3 X113.312 Y120.005 I23.813 J-0.001
N1265 G1 X130.587 Y102.729
N1270 Z1.5
N1275 X138.489 Y94.827
N1280 Z1.12 F833.33
N1285 X150.765 Y82.552 F2500.
N1290 G3 X167.603 Y75.577 I16.838 J16.838
N1295 G1 X183.223
N1300 Z1.5
N1305 X194.398
N1310 Z1.12 F833.33
N1315 X237.585 F2500.
N1320 Z1.5
N1325 X251.188
N1330 Z1.12 F833.33
N1335 X280.372 F2500.
N1340 G3 X297.209 Y82.552 I0. J23.812
N1345 G1 X300.691 Y86.034
N1350 Z1.5
N1355 X308.594 Y93.936
N1360 Z1.12 F833.33
N1365 X312.088 Y97.43 F2500.
N1370 G3 X319.063 Y114.268 I-16.839 J16.838
N1375 G1 Y119.669
N1380 Z1.5
N1385 Y130.844
N1390 Z1.12 F833.33
N1395 Y135.31 F2500.
N1400 G3 X312.088 Y152.147 I-23.813 J0.
N1405 G1 X288.455 Y175.78
N1410 G2 X284.271 Y185.883 I10.102 J10.103
N1415 G1 Y193.855
N1420 G2 X288.455 Y203.959 I14.288 J0.
N1425 G1 X289.639 Y205.143
N1430 Z1.5
N1435 X297.541 Y213.044
N1440 Z1.12 F833.33
N1445 X298.709 Y214.213 F2500.
N1450 G2 X308.813 Y218.398 I10.103 J-10.103
N1455 G1 X316.252
N1460 G2 X326.355 Y214.213 I0. J-14.287
N1465 G1 X337.472 Y203.095
N1470 Z1.5
N1475 X345.374 Y195.193
N1480 Z1.12 F833.33
N1485 X357.694 Y182.875 F2500.
N1490 G2 X373.038 Y145.831 I-37.043 J-37.044
N1495 G1 Y129.615
N1500 Z1.5
N1505 Y118.44
N1510 Z1.12 F833.33
N1515 Y103.747 F2500.
N1520 G2 X357.694 Y66.704 I-52.387 J0.
N1525 G1 X342.855 Y51.865
N1530 Z1.5
N1535 X334.953 Y43.963
N1540 Z1.12 F833.33
N1545 X327.937 Y36.946 F2500.
N1550 G2 X290.893 Y21.602 I-37.044 J37.044
N1555 G1 X272.776
N1560 Z1.5
N1565 X261.602
N1570 Z1.12 F833.33
N1575 X217.932 F2500.
N1580 Z1.5
N1585 X206.757
N1590 Z1.12 F833.33
N1595 X169.543 F2500.
N1600 X151.046 Z0.788 F833.33
N1605 Z1.5
N1610 X139.872
N1615 Z0.588
N1620 X79.263 Z-0.5
N1625 X76.805 F2500.
N1630 Z1.5
N1635 X65.63
N1640 Z-0.5 F833.33
N1645 X28.55 F2500.
N1650 G2 X26.962 Y23.19 I0. J1.587
N1655 G1 Y60.275
N1660 Z1.5
N1665 Y71.45
N1670 Z-0.5 F833.33
N1675 Y107.69 F2500.
N1680 Z1.5
N1685 Y118.866
N1690 Z-0.5 F833.33
N1695 Y149.747 F2500.
N1700 Z1.5
N1705 Y160.921
N1710 Z-0.5 F833.33
N1715 Y200.99 F2500.
N1720 G2 X28.55 Y202.577 I1.587 J0.
N1725 G1 X38.24
N1730 Z1.5
N1735 X49.415
N1740 Z-0.5 F833.33
N1745 X61.389 F2500.
N1750 G2 X71.492 Y198.393 I0. J-14.287
N1755 G1 X82.537 Y187.348
N1760 Z1.5
N1765 X90.439 Y179.446
N1770 Z-0.5 F833.33
N1775 X102.153 Y167.733 F2500.
N1780 G2 X106.338 Y157.629 I-10.103 J-10.103
N1785 G1 Y136.843
N1790 G3 X113.312 Y120.005 I23.813 J-0.001
N1795 G1 X130.587 Y102.729
N1800 Z1.5
N1805 X138.489 Y94.827
N1810 Z-0.5 F833.33
N1815 X150.765 Y82.552 F2500.
N1820 G3 X167.603 Y75.577 I16.838 J16.838
N1825 G1 X183.223
N1830 Z1.5
N1835 X194.398
N1840 Z-0.5 F833.33
N1845 X237.585 F2500.
N1850 Z1.5
N1855 X251.188
N1860 Z-0.5 F833.33
N1865 X280.372 F2500.
N1870 G3 X297.209 Y82.552 I0. J23.812
N1875 G1 X300.691 Y86.034
N1880 Z1.5
N1885 X308.594 Y93.936
N1890 Z-0.5 F833.33
N1895 X312.088 Y97.43 F2500.
N1900 G3 X319.063 Y114.268 I-16.839 J16.838
N1905 G1 Y119.669
N1910 Z1.5
N1915 Y130.844
N1920 Z-0.5 F833.33
N1925 Y135.31 F2500.
N1930 G3 X312.088 Y152.147 I-23.813 J0.
N1935 G1 X288.455 Y175.78
N1940 G2 X284.271 Y185.883 I10.102 J10.103
N1945 G1 Y193.855
N1950 G2 X288.455 Y203.959 I14.288 J0.
N1955 G1 X289.639 Y205.143
N1960 Z1.5
N1965 X297.541 Y213.044
N1970 Z-0.5 F833.33
N1975 X298.709 Y214.213 F2500.
N1980 G2 X308.813 Y218.398 I10.103 J-10.103
N1985 G1 X316.252
N1990 G2 X326.355 Y214.213 I0. J-14.287
N1995 G1 X337.472 Y203.095
N2000 Z1.5
N2005 X345.374 Y195.193
N2010 Z-0.5 F833.33
N2015 X357.694 Y182.875 F2500.
N2020 G2 X373.038 Y145.831 I-37.043 J-37.044
N2025 G1 Y129.615
N2030 Z1.5
N2035 Y118.44
N2040 Z-0.5 F833.33
N2045 Y103.747 F2500.
N2050 G2 X357.694 Y66.704 I-52.387 J0.
N2055 G1 X342.855 Y51.865
N2060 Z1.5
N2065 X334.953 Y43.963
N2070 Z-0.5 F833.33
N2075 X327.937 Y36.946 F2500.
N2080 G2 X290.893 Y21.602 I-37.044 J37.044
N2085 G1 X272.776
N2090 Z1.5
N2095 X261.602
N2100 Z-0.5 F833.33
N2105 X217.932 F2500.
N2110 Z1.5
N2115 X206.757
N2120 Z-0.5 F833.33
N2125 X151.046 F2500.
N2130 Z1.5
N2135 X139.872
N2140 Z-0.5 F833.33
N2145 X79.263 F2500.
N2150 G3 X78.945 Y21.285 I0. J-0.317
N2155 G1 Y20.967
N2160 G19 G2 Y20.65 Z-0.183 J0. K0.317
N2165 G1 Z33.74
N2170 G17
N2175 G53 G0 Z0.
N2180 M30
%
