%
(FILSHELF_25_BIT_FIRST)
(T1  D=6.35 CR=0. - ZMIN=12.39 - FLAT END MILL)
N10 G90 G94 G17 G91.1
N15 G21
(WHEN USING FUSION 360 FOR PERSONAL USE, THE FEEDRATE OF)
(RAPID MOVES IS REDUCED TO MATCH THE FEEDRATE OF CUTTING)
(MOVES, WHICH CAN INCREASE MACHINING TIME. UNRESTRICTED RAPID)
(MOVES ARE AVAILABLE WITH A FUSION 360 SUBSCRIPTION.)
N20 G53 G0 Z0.
(2D DOWNCUT)
N25 T1 M6
N30 S5000 M3
N35 G54
N40 G0 X315.57 Y120.53
N45 G43 Z33.74 H1
N50 G1 Z23.74 F3100.
N55 Z21.875 F508.
N60 G18 G2 X316.205 Z21.24 I0.635 K0. F3100.
N65 G1 X316.84
N70 G17 G3 X317.475 Y121.165 I0. J0.635
N75 G1 Y135.31 Z21.183 F508.
N80 G3 X310.966 Y151.025 Z21.112 I-22.225 J0.
N85 G1 X287.333 Y174.658 Z20.977
N90 G2 X282.683 Y185.883 Z20.927 I11.225 J11.226
N95 G1 Y193.855 Z20.894
N100 G2 X287.333 Y205.081 Z20.844 I15.875 J0.
N105 G1 X297.587 Y215.335 Z20.785
N110 G2 X308.813 Y219.985 Z20.735 I11.226 J-11.225
N115 G1 X316.252 Z20.705
N120 G2 X327.477 Y215.335 Z20.654 I0. J-15.875
N125 G1 X358.816 Y183.997 Z20.475
N130 G2 X374.625 Y145.831 Z20.303 I-38.166 J-38.166
N135 G1 Y103.747 Z20.133
N140 G2 X358.816 Y65.581 Z19.962 I-53.975 J0.
N145 G1 X329.059 Y35.824 Z19.791
N150 G2 X290.893 Y20.015 Z19.62 I-38.166 J38.166
N155 G1 X28.55 Z18.559
N160 G2 X25.375 Y23.19 Z18.539 I0. J3.175
N165 G1 Y200.99 Z17.819
N170 G2 X28.55 Y204.165 Z17.799 I3.175 J0.
N175 G1 X61.389 Z17.666
N180 G2 X72.615 Y199.515 Z17.616 I0. J-15.875
N185 G1 X103.275 Y168.855 Z17.44
N190 G2 X107.925 Y157.629 Z17.39 I-11.225 J-11.226
N195 G1 Y136.843 Z17.306
N200 G3 X114.434 Y121.127 Z17.235 I22.225 J-0.001
N205 G1 X151.887 Y83.674 Z17.021
N210 G3 X167.603 Y77.165 Z16.95 I15.716 J15.716
N215 G1 X280.372 Z16.494
N220 G3 X296.087 Y83.674 Z16.424 I0. J22.225
N225 G1 X310.966 Y98.553 Z16.339
N230 G3 X317.475 Y114.268 Z16.268 I-15.716 J15.715
N235 G1 Y135.31 Z16.183
N240 G3 X310.966 Y151.025 Z16.112 I-22.225 J0.
N245 G1 X287.333 Y174.658 Z15.977
N250 G2 X282.683 Y185.883 Z15.927 I11.225 J11.226
N255 G1 Y193.855 Z15.894
N260 G2 X287.333 Y205.081 Z15.844 I15.875 J0.
N265 G1 X297.587 Y215.335 Z15.785
N270 G2 X308.813 Y219.985 Z15.735 I11.226 J-11.225
N275 G1 X316.252 Z15.705
N280 G2 X327.477 Y215.335 Z15.654 I0. J-15.875
N285 G1 X358.816 Y183.997 Z15.475
N290 G2 X374.625 Y145.831 Z15.303 I-38.166 J-38.166
N295 G1 Y103.747 Z15.133
N300 G2 X358.816 Y65.581 Z14.962 I-53.975 J0.
N305 G1 X329.059 Y35.824 Z14.791
N310 G2 X290.893 Y20.015 Z14.62 I-38.166 J38.166
N315 G1 X28.55 Z13.559
N320 G2 X25.375 Y23.19 Z13.539 I0. J3.175
N325 G1 Y200.99 Z12.819
N330 G2 X28.55 Y204.165 Z12.799 I3.175 J0.
N335 G1 X61.389 Z12.666
N340 G2 X72.615 Y199.515 Z12.616 I0. J-15.875
N345 G1 X103.275 Y168.855 Z12.44
N350 G2 X107.925 Y157.629 Z12.39 I-11.225 J-11.226
N355 G1 Y136.843 F3100.
N360 G3 X114.434 Y121.127 I22.225 J-0.001
N365 G1 X151.887 Y83.674
N370 G3 X167.603 Y77.165 I15.716 J15.716
N375 G1 X280.372
N380 G3 X296.087 Y83.674 I0. J22.225
N385 G1 X310.966 Y98.553
N390 G3 X317.475 Y114.268 I-15.716 J15.715
N395 G1 Y135.31
N400 G3 X310.966 Y151.025 I-22.225 J0.
N405 G1 X287.333 Y174.658
N410 G2 X282.683 Y185.883 I11.225 J11.226
N415 G1 Y193.855
N420 G2 X287.333 Y205.081 I15.875 J0.
N425 G1 X297.587 Y215.335
N430 G2 X308.813 Y219.985 I11.226 J-11.225
N435 G1 X316.252
N440 G2 X327.477 Y215.335 I0. J-15.875
N445 G1 X358.816 Y183.997
N450 G2 X374.625 Y145.831 I-38.166 J-38.166
N455 G1 Y103.747
N460 G2 X358.816 Y65.581 I-53.975 J0.
N465 G1 X329.059 Y35.824
N470 G2 X290.893 Y20.015 I-38.166 J38.166
N475 G1 X28.55
N480 G2 X25.375 Y23.19 I0. J3.175
N485 G1 Y200.99
N490 G2 X28.55 Y204.165 I3.175 J0.
N495 G1 X61.389
N500 G2 X72.615 Y199.515 I0. J-15.875
N505 G1 X103.275 Y168.855
N510 G2 X107.925 Y157.629 I-11.225 J-11.226
N515 G3 X108.56 Y156.994 I0.635 J0.
N520 G1 X109.195
N525 G18 G2 X109.83 Z13.025 I0. K0.635
N530 G1 Z33.74
N535 G17
N540 G53 G0 Z0.
N545 M30
%
