%
(flattenDannieBoard - Generated via flattenboard.py)
(Use the 25.4 mm diameter bit)
(This cuts -0.2 mm below Z zero)


N5 G90 G94 G17 G91.1
N10 G21

N15 G53 G0 Z0.

N20 T1 M6
N25 S9000 M3
N30 G54
N35 M8
N40 G0 X0 Y0 Z2

N45 G1 Z-0.2  F2500.

N50 G1 X343.0 Z-0.2
N55 G1 X0

N60 G1 Y12.7
N65 G1 X343.0
N70 G1 Y25.4
N75 G1 X0
N80 G1 Y38.099999999999994
N85 G1 X343.0
N90 G1 Y50.8
N95 G1 X0
N100 G1 Y63.5
N105 G1 X343.0
N110 G1 Y76.2
N115 G1 X0
N120 G1 Y88.9
N125 G1 X343.0
N130 G1 Y101.60000000000001
N135 G1 X0
N140 G1 Y114.30000000000001
N145 G1 X343.0
N150 G1 Y127.00000000000001
N155 G1 X0
N160 G1 Y139.70000000000002
N165 G1 X343.0
N170 G1 Y152.4
N175 G1 X0
N180 G1 Y165.1
N185 G1 X343.0
N190 G1 Y177.79999999999998
N195 G1 X0
N200 G1 Y190.49999999999997
N205 G1 X343.0
N210 G1 Y203.19999999999996
N215 G1 X0
N220 G1 Y215.89999999999995
N225 G1 X343.0
N230 G1 Y228.59999999999994
N235 G1 X0
N240 G1 Y241.29999999999993
N245 G1 X343.0
N250 G1 Y253.99999999999991
N255 G1 X0
N260 G1 Y266.69999999999993
N265 G1 X343.0
N270 G1 Y279.3999999999999
N275 G1 X0
N280 G1 Y292.0999999999999
N285 G1 X343.0
N290 G1 Y304.7999999999999
N295 G1 X0
N300 G1 Y317.4999999999999
N305 G1 X343.0
N310 G1 Y330.1999999999999
N315 G1 X0
N320 G1 Y342.89999999999986
N325 G1 X343.0
N330 G1 Y355.59999999999985
N335 G1 X0
N340 G1 Y368.29999999999984
N345 G1 X343.0
N350 G1 Y380.99999999999983
N355 G1 X0
N360 G1 Y393.6999999999998
N365 G1 X343.0
N370 G1 Y406.3999999999998
N375 G1 X0
N380 G1 Y419.0999999999998
N385 G1 X343.0
N390 G1 Y431.7999999999998
N395 G1 X0
N400 G1 Y444.4999999999998
N405 G1 X343.0
N410 G1 Y457.19999999999976
N415 G1 X0
N420 G1 Y469.89999999999975
N425 G1 X343.0
N430 G1 Y482.59999999999974
N435 G1 X0
N440 G1 Y495.2999999999997
N445 G1 X343.0
N450 G1 Y507.9999999999997
N455 G1 X0
N460 G1 Y520.6999999999997
N465 G1 X343.0
N470 G1 Y533.3999999999997
N475 G1 X0
N480 G1 Y546.0999999999998
N485 G1 X343.0
N490 G1 Y558.7999999999998
N495 G1 X0

N500 G1 Z15.
N505 G17
N510 M9
N515 G0 Z5 X0 Y0
N520 M30

%
