%
(flattenDannieBoardFinish - Generated via flattenboard.py)
(Use the 25.4 mm diameter bit)
(This cuts -0.2 mm below Z zero)


N5 G90 G94 G17 G91.1
N10 G21

N15 G53 G0 Z0.

N20 T1 M6
N25 S16000 M3
N30 G54
N35 M8
N40 G0 X0 Y0 Z2

N45 G1 Z-0.2  F2500.

N50 G1 X343.0 Z-0.2
N55 G1 X0

N60 G1 Y6.35
N65 G1 X343.0
N70 G1 Y12.7
N75 G1 X0
N80 G1 Y19.049999999999997
N85 G1 X343.0
N90 G1 Y25.4
N95 G1 X0
N100 G1 Y31.75
N105 G1 X343.0
N110 G1 Y38.1
N115 G1 X0
N120 G1 Y44.45
N125 G1 X343.0
N130 G1 Y50.800000000000004
N135 G1 X0
N140 G1 Y57.150000000000006
N145 G1 X343.0
N150 G1 Y63.50000000000001
N155 G1 X0
N160 G1 Y69.85000000000001
N165 G1 X343.0
N170 G1 Y76.2
N175 G1 X0
N180 G1 Y82.55
N185 G1 X343.0
N190 G1 Y88.89999999999999
N195 G1 X0
N200 G1 Y95.24999999999999
N205 G1 X343.0
N210 G1 Y101.59999999999998
N215 G1 X0
N220 G1 Y107.94999999999997
N225 G1 X343.0
N230 G1 Y114.29999999999997
N235 G1 X0
N240 G1 Y120.64999999999996
N245 G1 X343.0
N250 G1 Y126.99999999999996
N255 G1 X0
N260 G1 Y133.34999999999997
N265 G1 X343.0
N270 G1 Y139.69999999999996
N275 G1 X0
N280 G1 Y146.04999999999995
N285 G1 X343.0
N290 G1 Y152.39999999999995
N295 G1 X0
N300 G1 Y158.74999999999994
N305 G1 X343.0
N310 G1 Y165.09999999999994
N315 G1 X0
N320 G1 Y171.44999999999993
N325 G1 X343.0
N330 G1 Y177.79999999999993
N335 G1 X0
N340 G1 Y184.14999999999992
N345 G1 X343.0
N350 G1 Y190.49999999999991
N355 G1 X0
N360 G1 Y196.8499999999999
N365 G1 X343.0
N370 G1 Y203.1999999999999
N375 G1 X0
N380 G1 Y209.5499999999999
N385 G1 X343.0
N390 G1 Y215.8999999999999
N395 G1 X0
N400 G1 Y222.2499999999999
N405 G1 X343.0
N410 G1 Y228.59999999999988
N415 G1 X0
N420 G1 Y234.94999999999987
N425 G1 X343.0
N430 G1 Y241.29999999999987
N435 G1 X0
N440 G1 Y247.64999999999986
N445 G1 X343.0
N450 G1 Y253.99999999999986
N455 G1 X0
N460 G1 Y260.34999999999985
N465 G1 X343.0
N470 G1 Y266.6999999999999
N475 G1 X0
N480 G1 Y273.0499999999999
N485 G1 X343.0
N490 G1 Y279.3999999999999
N495 G1 X0
N500 G1 Y285.74999999999994
N505 G1 X343.0
N510 G1 Y292.09999999999997
N515 G1 X0
N520 G1 Y298.45
N525 G1 X343.0
N530 G1 Y304.8
N535 G1 X0
N540 G1 Y311.15000000000003
N545 G1 X343.0
N550 G1 Y317.50000000000006
N555 G1 X0
N560 G1 Y323.8500000000001
N565 G1 X343.0
N570 G1 Y330.2000000000001
N575 G1 X0
N580 G1 Y336.5500000000001
N585 G1 X343.0
N590 G1 Y342.90000000000015
N595 G1 X0
N600 G1 Y349.25000000000017
N605 G1 X343.0
N610 G1 Y355.6000000000002
N615 G1 X0
N620 G1 Y361.9500000000002
N625 G1 X343.0
N630 G1 Y368.30000000000024
N635 G1 X0
N640 G1 Y374.65000000000026
N645 G1 X343.0
N650 G1 Y381.0000000000003
N655 G1 X0
N660 G1 Y387.3500000000003
N665 G1 X343.0
N670 G1 Y393.70000000000033
N675 G1 X0
N680 G1 Y400.05000000000035
N685 G1 X343.0
N690 G1 Y406.4000000000004
N695 G1 X0
N700 G1 Y412.7500000000004
N705 G1 X343.0
N710 G1 Y419.1000000000004
N715 G1 X0
N720 G1 Y425.45000000000044
N725 G1 X343.0
N730 G1 Y431.80000000000047
N735 G1 X0
N740 G1 Y438.1500000000005
N745 G1 X343.0
N750 G1 Y444.5000000000005
N755 G1 X0
N760 G1 Y450.85000000000053
N765 G1 X343.0
N770 G1 Y457.20000000000056
N775 G1 X0
N780 G1 Y463.5500000000006
N785 G1 X343.0
N790 G1 Y469.9000000000006
N795 G1 X0
N800 G1 Y476.2500000000006
N805 G1 X343.0
N810 G1 Y482.60000000000065
N815 G1 X0
N820 G1 Y488.95000000000067
N825 G1 X343.0
N830 G1 Y495.3000000000007
N835 G1 X0
N840 G1 Y501.6500000000007
N845 G1 X343.0
N850 G1 Y508.00000000000074
N855 G1 X0
N860 G1 Y514.3500000000007
N865 G1 X343.0
N870 G1 Y520.7000000000007
N875 G1 X0
N880 G1 Y527.0500000000008
N885 G1 X343.0
N890 G1 Y533.4000000000008
N895 G1 X0
N900 G1 Y539.7500000000008
N905 G1 X343.0
N910 G1 Y546.1000000000008
N915 G1 X0

N920 G1 Z15.
N925 G17
N930 M9
N935 G0 Z5 X0 Y0
N940 M30

%
