%
(Header)
(Generated by gcodetools from Inkscape.)
(Using default header. To add your own header create file "header" in the output dir.)
M3
(Header end.)
G21 (All units in mm)

(Start cutting path id: path4291)
(Change tool to Default tool)

G00 Z5.000000
G00 X96.928239 Y194.192904

G01 Z-0.125000 F100.0(Penetrate)
G02 X96.550066 Y193.777029 Z-0.125000 I-0.401798 J-0.014511 F400.000000
G02 X96.414786 Y193.952208 Z-0.125000 I-0.007872 J0.133745
G02 X96.665742 Y194.175561 Z-0.125000 I0.316419 J-0.102862
G02 X96.950376 Y194.165577 Z-0.125000 I0.121292 J-0.604425
G01 X96.928239 Y194.192904 Z-0.125000
G01 X96.928239 Y194.192904 Z-0.125000
G00 Z5.000000

(End cutting path id: path4291)


(Start cutting path id: path4067)
(Change tool to Default tool)

G00 Z5.000000
G00 X96.928239 Y194.192904

G01 Z-0.125000 F100.0(Penetrate)
G01 X96.950411 Y194.165518 Z-0.125000 F400.000000
G03 X94.669329 Y195.170042 Z-0.125000 I-1.974745 J-1.392057
G03 X93.535026 Y193.410500 Z-0.125000 I0.173484 J-1.357228
G02 X93.775361 Y192.204213 Z-0.125000 I-5.781623 J-1.778990
G02 X93.589584 Y191.007891 Z-0.125000 I-2.446502 J-0.232668
G03 X94.142697 Y191.152609 Z-0.125000 I0.227850 J0.258516
G02 X94.390373 Y191.100765 Z-0.125000 I0.120443 J-0.042139
G03 X94.935705 Y190.318471 Z-0.125000 I0.751520 J-0.057342
G03 X95.419609 Y190.246861 Z-0.125000 I0.515438 J1.812269
G03 X96.668327 Y190.589966 Z-0.125000 I0.038557 J2.303559
G03 X97.441537 Y191.539390 Z-0.125000 I-0.980098 J1.587753
G03 X97.558805 Y193.019935 Z-0.125000 I-2.614878 J0.952030
G03 X96.928239 Y194.192904 Z-0.125000 I-2.196720 J-0.424940
G01 X96.928239 Y194.192904 Z-0.125000
G00 Z5.000000

(End cutting path id: path4067)


(Start cutting path id: path4289)
(Change tool to Default tool)

G00 Z5.000000
G00 X95.221772 Y193.902667

G01 Z-0.125000 F100.0(Penetrate)
G02 X95.029090 Y194.204088 Z-0.125000 I0.094881 J0.272948 F400.000000
G02 X95.275174 Y194.428252 Z-0.125000 I0.247460 J-0.024502
G02 X95.557258 Y194.112813 Z-0.125000 I0.001564 J-0.282449
G02 X95.221772 Y193.902667 Z-0.125000 I-0.252133 J0.029651
G01 X95.221772 Y193.902667 Z-0.125000
G00 Z5.000000

(End cutting path id: path4289)


(Start cutting path id: path4067)
(Change tool to Default tool)

G00 Z5.000000
G00 X91.568605 Y193.856679

G01 Z-0.125000 F100.0(Penetrate)
G03 X87.976156 Y197.493057 Z-0.125000 I-74.451384 J-69.959278 F400.000000
G02 X83.778323 Y202.738546 Z-0.125000 I18.051196 J18.748371
G03 X83.008372 Y203.073471 Z-0.125000 I-0.622038 J-0.377515
G03 X78.962648 Y202.155261 Z-0.125000 I22.830077 J-109.963667
G03 X75.761600 Y196.306947 Z-0.125000 I1.082679 J-4.392796
G02 X76.571944 Y192.382696 Z-0.125000 I-15.349326 J-5.215374
G02 X78.196183 Y189.835021 Z-0.125000 I-4.249791 J-4.500996
G02 X78.790277 Y186.033087 Z-0.125000 I-11.047477 J-3.673676
G03 X81.114990 Y183.272028 Z-0.125000 I2.765807 J-0.030482
G03 X85.209740 Y182.901577 Z-0.125000 I4.691734 J29.043984
G03 X85.792658 Y182.937657 Z-0.125000 I0.072278 J3.559173
G03 X90.125645 Y185.597800 Z-0.125000 I-0.921918 J6.360646
G02 X92.289285 Y187.910767 Z-0.125000 I9.376888 J-6.603049
G03 X92.826374 Y190.055764 Z-0.125000 I-1.156310 J1.429270
G03 X91.659901 Y191.653770 Z-0.125000 I-3.985214 J-1.684289
G03 X91.029304 Y191.791720 Z-0.125000 I-0.443317 J-0.516222
G02 X88.688553 Y191.676337 Z-0.125000 I-1.417231 J4.950187
G03 X86.416212 Y192.026873 Z-0.125000 I-7.560026 J-41.467208
G02 X86.148067 Y192.147321 Z-0.125000 I0.063170 J0.499332
G02 X85.912300 Y192.707853 Z-0.125000 I0.456247 J0.521752
G02 X88.643760 Y192.409591 Z-0.125000 I-22.110109 J-215.139074
G03 X91.575127 Y192.384609 Z-0.125000 I1.582425 J13.685510
G03 X90.063821 Y193.556909 Z-0.125000 I-2.525691 J-1.695747
G02 X88.707342 Y194.537894 Z-0.125000 I0.988744 J2.795552
G02 X89.965495 Y194.172522 Z-0.125000 I0.201492 J-1.655068
G03 X91.568605 Y193.856679 Z-0.125000 I1.096293 J1.338068
G01 X91.568605 Y193.856679 Z-0.125000
G00 Z5.000000

(End cutting path id: path4067)


(Start cutting path id: path4067)
(Change tool to Default tool)

G00 Z5.000000
G00 X92.204288 Y197.693588

G01 Z-0.125000 F100.0(Penetrate)
G03 X92.360897 Y198.045080 Z-0.125000 I-1.261972 J0.772914 F400.000000
G03 X92.573823 Y199.744669 Z-0.125000 I-5.024274 J1.492578
G02 X92.718678 Y204.589418 Z-0.125000 I34.911945 J1.380695
G02 X93.854178 Y209.262972 Z-0.125000 I17.266260 J-1.720341
G03 X93.815615 Y209.806276 Z-0.125000 I-0.584145 J0.231557
G03 X93.381807 Y210.121718 Z-0.125000 I-0.567300 J-0.324156
G02 X90.968813 Y212.452672 Z-0.125000 I0.643023 J3.080093
G03 X88.512730 Y214.833613 Z-0.125000 I-3.124608 J-0.765952
G02 X87.909975 Y215.120666 Z-0.125000 I0.297628 J1.401319
G02 X87.374619 Y215.646174 Z-0.125000 I2.447105 J3.028408
G02 X87.150973 Y215.926880 Z-0.125000 I5.401978 J4.533367
G03 X86.832679 Y216.062410 Z-0.125000 I-0.277241 J-0.209579
G02 X84.006531 Y216.078430 Z-0.125000 I-1.348804 J11.346264
G03 X81.333061 Y213.164726 Z-0.125000 I-0.312497 J-2.396642
G03 X84.154141 Y204.564007 Z-0.125000 I43.700759 J9.571053
G02 X84.931583 Y202.577568 Z-0.125000 I-21.551953 J-9.580241
G03 X87.875646 Y198.451336 Z-0.125000 I8.339069 J2.836510
G02 X91.552455 Y194.997385 Z-0.125000 I-16.296009 J-21.031467
G02 X91.922341 Y194.538718 Z-0.125000 I-5.146709 J-4.528976
G03 X92.752371 Y194.588840 Z-0.125000 I0.398761 J0.294218
G03 X92.556262 Y195.302887 Z-0.125000 I-0.456711 J0.258521
G02 X91.504281 Y196.265515 Z-0.125000 I1.612024 J2.817783
G02 X88.041456 Y203.124867 Z-0.125000 I22.465952 J15.645296
G01 X88.105736 Y203.150273 Z-0.125000
G03 X88.849918 Y201.760166 Z-0.125000 I10.968103 J4.977436
G03 X89.796071 Y200.513312 Z-0.125000 I7.222401 J4.498172
G03 X89.213504 Y203.452763 Z-0.125000 I-18.150239 J-2.069723
G03 X88.138830 Y206.160820 Z-0.125000 I-14.030127 J-4.000493
G01 X88.545600 Y206.391659 Z-0.125000
G03 X89.507227 Y204.212608 Z-0.125000 I49.172041 J20.398187
G02 X90.443590 Y201.996138 Z-0.125000 I-28.485006 J-13.339706
G03 X90.145257 Y204.463816 Z-0.125000 I-3.768675 J0.796253
G02 X89.715062 Y206.795461 Z-0.125000 I4.057196 J1.954072
G02 X91.117450 Y202.466353 Z-0.125000 I-12.087651 J-6.307423
G03 X92.204288 Y197.693588 Z-0.125000 I30.963805 J4.540845
G01 X92.204288 Y197.693588 Z-0.125000
G00 Z5.000000

(End cutting path id: path4067)


(Start cutting path id: path4067)
(Change tool to Default tool)

G00 Z5.000000
G00 X98.078117 Y202.012983

G01 Z-0.125000 F100.0(Penetrate)
G02 X98.354616 Y201.315242 Z-0.125000 I-0.409428 J-0.565903 F400.000000
G03 X98.958742 Y200.737729 Z-0.125000 I0.488368 J-0.093866
G02 X98.963492 Y200.266086 Z-0.125000 I-1.730211 J-0.253270
G02 X98.804782 Y199.390369 Z-0.125000 I-8.167926 J1.028067
G03 X99.862121 Y198.998999 Z-0.125000 I0.552490 J-0.131330
G02 X105.154192 Y206.162772 Z-0.125000 I24.756470 J-12.751685
G03 X105.866886 Y208.334574 Z-0.125000 I-1.730715 J1.770787
G02 X105.463855 Y211.484049 Z-0.125000 I44.270666 J7.265745
G03 X105.330937 Y212.921920 Z-0.125000 I-2304.401675 J-212.296397
G03 X104.894325 Y213.996749 Z-0.125000 I-1.997367 J-0.185267
G02 X103.810017 Y215.971430 Z-0.125000 I4.975620 J4.017180
G03 X102.540114 Y217.870374 Z-0.125000 I-4.142673 J-1.396288
G03 X100.441240 Y217.560112 Z-0.125000 I-0.916895 J-1.051756
G02 X99.462050 Y216.165064 Z-0.125000 I-13.961925 J8.758759
G02 X98.947852 Y215.608873 Z-0.125000 I-3.622615 J2.833323
G03 X98.450172 Y214.848584 Z-0.125000 I1.245951 J-1.358624
G02 X96.313224 Y210.708614 Z-0.125000 I-15.151869 J5.199507
G02 X95.785314 Y210.292475 Z-0.125000 I-0.985347 J0.707082
G03 X94.046963 Y208.319577 Z-0.125000 I1.113544 J-2.733453
G03 X93.210194 Y202.992843 Z-0.125000 I24.901504 J-6.640833
G03 X93.446884 Y197.173582 Z-0.125000 I31.772072 J-1.622163
G03 X94.179060 Y196.061574 Z-0.125000 I1.517213 J0.201929
G02 X94.762869 Y200.484740 Z-0.125000 I24.001347 J-0.917806
G02 X95.524843 Y202.007732 Z-0.125000 I3.497344 J-0.797659
G02 X94.882510 Y198.949045 Z-0.125000 I-2.279249 J-1.118141
G03 X95.226965 Y196.390148 Z-0.125000 I0.986768 J-1.169803
G03 X95.857663 Y196.595858 Z-0.125000 I0.204577 J0.442475
G03 X96.987706 Y198.960003 Z-0.125000 I-18.704801 J10.392901
G03 X98.009815 Y201.819067 Z-0.125000 I-34.097745 J13.802098
G02 X98.078117 Y202.012983 Z-0.125000 I2.682020 J-0.835694
G01 X98.078117 Y202.012983 Z-0.125000
G00 Z5.000000

(End cutting path id: path4067)


(Start cutting path id: path4181)
(Change tool to Default tool)

G00 Z5.000000
G00 X99.866957 Y192.066947

G01 Z-0.125000 F100.0(Penetrate)
G02 X103.243193 Y191.863154 Z-0.125000 I1.353038 J-5.653164 F400.000000
G02 X106.381991 Y190.666279 Z-0.125000 I-66.442939 J-178.960373
G02 X104.709071 Y190.806707 Z-0.125000 I-0.655849 J2.221835
G03 X103.189911 Y191.378764 Z-0.125000 I-3.781041 J-7.737794
G03 X101.532078 Y191.642253 Z-0.125000 I-2.042394 J-7.503258
G02 X99.866957 Y192.066947 Z-0.125000 I0.213609 J4.314126
G01 X99.866957 Y192.066947 Z-0.125000
G00 Z5.000000

(End cutting path id: path4181)


(Start cutting path id: path4067)
(Change tool to Default tool)

G00 Z5.000000
G00 X102.386102 Y186.823123

G01 Z-0.125000 F100.0(Penetrate)
G02 X98.268853 Y189.805026 Z-0.125000 I9.093508 J16.889209 F400.000000
G03 X97.514920 Y189.705485 Z-0.125000 I-0.336735 J-0.354490
G03 X97.496400 Y189.018366 Z-0.125000 I0.588589 J-0.359673
G03 X97.998420 Y188.512740 Z-0.125000 I1.106982 J0.597053
G02 X103.229250 Y184.928198 Z-0.125000 I-15.442662 J-28.143962
G03 X108.961664 Y182.555280 Z-0.125000 I6.605758 J7.847420
G03 X113.149017 Y185.217029 Z-0.125000 I0.348138 J4.076883
G03 X113.375590 Y188.799697 Z-0.125000 I-5.889796 J2.170978
G02 X112.802062 Y194.370102 Z-0.125000 I22.016769 J5.081571
G02 X113.028037 Y197.959309 Z-0.125000 I43.603544 J-0.943542
G02 X113.075456 Y198.390654 Z-0.125000 I40.440091 J-4.227448
G03 X112.932413 Y198.814697 Z-0.125000 I-0.521678 J0.060169
G02 X112.179146 Y200.386672 Z-0.125000 I2.005471 J1.927457
G03 X111.303987 Y201.931176 Z-0.125000 I-2.330437 J-0.300293
G02 X110.976419 Y202.638382 Z-0.125000 I0.533918 J0.676768
G03 X109.958324 Y204.266892 Z-0.125000 I-1.714602 J0.060579
G02 X109.207752 Y205.154681 Z-0.125000 I0.541479 J1.218965
G03 X108.729542 Y205.701719 Z-0.125000 I-0.780983 J-0.200180
G03 X105.163380 Y204.809773 Z-0.125000 I-1.171475 J-2.891284
G03 X101.674207 Y200.597441 Z-0.125000 I539.494028 J-450.426820
G03 X97.799727 Y195.571898 Z-0.125000 I78.835577 J-64.785174
G03 X97.767782 Y195.055261 Z-0.125000 I0.392480 J-0.283574
G03 X99.896000 Y194.334490 Z-0.125000 I1.457178 J0.800226
G03 X103.739702 Y196.445271 Z-0.125000 I-10.221374 J23.168027
G02 X103.278925 Y195.130980 Z-0.125000 I-1.769923 J-0.117401
G02 X99.443157 Y193.218408 Z-0.125000 I-4.400896 J4.023530
G03 X98.885727 Y192.664096 Z-0.125000 I0.058678 J-0.616447
G02 X98.724981 Y191.787250 Z-0.125000 I-5.494599 J0.554131
G03 X99.765969 Y190.585523 Z-0.125000 I0.927006 J-0.248726
G02 X103.700120 Y189.024368 Z-0.125000 I0.527311 J-4.408823
G02 X101.010259 Y189.899831 Z-0.125000 I0.593419 J6.393315
G03 X98.138421 Y190.383947 Z-0.125000 I-2.060458 J-3.462786
G02 X100.358098 Y188.748238 Z-0.125000 I-16.537342 J-24.765297
G02 X102.386102 Y186.823123 Z-0.125000 I-11.302621 J-13.937448
G01 X102.386102 Y186.823123 Z-0.125000
G00 Z5.000000

(End cutting path id: path4067)


(Start cutting path id: path4067)
(Change tool to Default tool)

G00 Z5.000000
G00 X93.890067 Y183.417012

G01 Z-0.125000 F100.0(Penetrate)
G02 X93.619904 Y184.565722 Z-0.125000 I0.801888 J0.794720 F400.000000
G03 X94.290264 Y188.252680 Z-0.125000 I-12.834742 J4.238024
G03 X93.962346 Y188.573969 Z-0.125000 I-0.309012 J0.012598
G03 X93.749859 Y188.259336 Z-0.125000 I0.014634 J-0.238951
G02 X93.686450 Y187.422222 Z-0.125000 I-1.029294 J-0.342993
G03 X91.924061 Y183.538716 Z-0.125000 I40.541308 J-20.739867
G02 X91.769456 Y183.213114 Z-0.125000 I-2.609761 J1.039675
G02 X91.355773 Y183.020861 Z-0.125000 I-0.339166 J0.188605
G02 X92.100781 Y185.147746 Z-0.125000 I3.138446 J0.094585
G03 X91.995977 Y185.913725 Z-0.125000 I-0.395725 J0.336015
G03 X91.214721 Y185.652435 Z-0.125000 I-0.290654 J-0.429567
G02 X89.203023 Y183.244966 Z-0.125000 I-4.149826 J1.423395
G03 X87.133763 Y180.972506 Z-0.125000 I2.359065 J-4.226466
G03 X89.094286 Y176.325326 Z-0.125000 I3.171192 J-1.399294
G02 X92.685247 Y174.342129 Z-0.125000 I-4.864536 J-13.050840
G03 X94.758890 Y174.191482 Z-0.125000 I1.151822 J1.507653
G02 X97.089634 Y174.225742 Z-0.125000 I1.197282 J-2.153775
G03 X101.906122 Y173.941690 Z-0.125000 I2.727086 J5.264368
G03 X103.145600 Y174.996071 Z-0.125000 I-0.848323 J2.252971
G03 X104.212970 Y182.175526 Z-0.125000 I-8.624536 J4.951281
G03 X103.354175 Y183.663786 Z-0.125000 I-2.857526 J-0.657013
G03 X100.450021 Y186.048488 Z-0.125000 I-20.488208 J-21.990357
G03 X97.178327 Y188.096096 Z-0.125000 I-17.190055 J-23.828897
G03 X96.730798 Y187.996739 Z-0.125000 I-0.166195 J-0.308984
G03 X97.797069 Y186.431033 Z-0.125000 I4.351493 J1.817510
G02 X99.151369 Y181.961045 Z-0.125000 I-3.357152 J-3.457292
G02 X97.953850 Y184.353680 Z-0.125000 I11.903343 J7.453649
G03 X96.306670 Y186.666986 Z-0.125000 I-5.351250 J-2.067249
G01 X96.306670 Y181.834928 Z-0.125000
G03 X96.161428 Y181.829656 Z-0.125000 I166.658193 J-4471.860247
G03 X96.016160 Y181.824368 Z-0.125000 I32.321323 J-894.807832
G03 X95.754520 Y184.971684 Z-0.125000 I-166.554941 J-12.261319
G03 X94.983938 Y188.040697 Z-0.125000 I-10.296632 J-0.954080
G03 X94.510499 Y185.771636 Z-0.125000 I10.640962 J-3.404159
G02 X93.890067 Y183.417012 Z-0.125000 I-7.802453 J0.796853
G01 X93.890067 Y183.417012 Z-0.125000
G00 Z5.000000

(End cutting path id: path4067)


(Start cutting path id: path4183)
(Change tool to Default tool)

G00 Z5.000000
G00 X86.649231 Y186.647213

G01 Z-0.125000 F100.0(Penetrate)
G03 X89.612261 Y188.391714 Z-0.125000 I-44.857848 J79.579508 F400.000000
G03 X92.231653 Y190.462592 Z-0.125000 I-7.420854 J12.078452
G02 X90.451060 Y187.531740 Z-0.125000 I-4.285140 J0.597058
G02 X86.649231 Y186.647213 Z-0.125000 I-2.980633 J4.198525
G01 X86.649231 Y186.647213 Z-0.125000
G00 Z5.000000

(End cutting path id: path4183)


(Start cutting path id: path4067)
(Change tool to Default tool)

G00 Z5.000000
G00 X86.356961 Y180.920299

G01 Z-0.125000 F100.0(Penetrate)
G02 X83.986535 Y181.377335 Z-0.125000 I-0.212598 J5.272998 F400.000000
G03 X81.774702 Y182.114332 Z-0.125000 I-4.793413 J-10.698208
G02 X78.438568 Y186.862829 Z-0.125000 I0.951491 J4.214661
G03 X77.500760 Y189.724302 Z-0.125000 I-3.503459 J0.436202
G02 X76.121512 Y191.893594 Z-0.125000 I4.921145 J4.652005
G02 X75.061856 Y196.149935 Z-0.125000 I15.576273 J6.137934
G02 X75.335267 Y200.004557 Z-0.125000 I10.525217 J1.190447
G02 X77.248019 Y202.345929 Z-0.125000 I3.504067 J-0.910615
G02 X81.181034 Y203.526651 Z-0.125000 I5.546507 J-11.334714
G03 X82.536997 Y203.936386 Z-0.125000 I-0.550561 J4.270558
G03 X82.939552 Y204.935549 Z-0.125000 I-0.357959 J0.724894
G03 X82.256908 Y206.643110 Z-0.125000 I-25.299561 J-9.123957
G03 X81.178737 Y207.667745 Z-0.125000 I-1.763262 J-0.775821
G03 X79.918346 Y207.448704 Z-0.125000 I-0.445677 J-1.171263
G02 X76.953634 Y206.440066 Z-0.125000 I-2.745712 J3.209096
G03 X74.098592 Y206.070913 Z-0.125000 I-0.415849 J-8.008868
G02 X66.745852 Y206.975835 Z-0.125000 I-2.693793 J8.436157
G03 X63.578145 Y207.475114 Z-0.125000 I-2.178168 J-3.521032
G02 X62.390459 Y207.472607 Z-0.125000 I-0.598981 J2.433567
G03 X61.864120 Y206.953238 Z-0.125000 I-0.102182 J-0.422833
G03 X63.064490 Y203.916091 Z-0.125000 I10.474504 J2.384050
G02 X63.873780 Y201.607327 Z-0.125000 I-5.538918 J-3.237776
G02 X63.907372 Y201.094244 Z-0.125000 I-3.184114 J-0.466107
G03 X64.085801 Y200.628555 Z-0.125000 I0.671343 J-0.009801
G02 X65.264945 Y198.354768 Z-0.125000 I-3.550449 J-3.283832
G03 X65.810471 Y195.910024 Z-0.125000 I133.892501 J28.593890
G03 X68.941885 Y189.596067 Z-0.125000 I14.945403 J3.478697
G03 X70.111295 Y188.221605 Z-0.125000 I54.072196 J44.820618
G02 X71.340003 Y183.972092 Z-0.125000 I-3.942264 J-3.442261
G03 X72.298468 Y182.304375 Z-0.125000 I1.517840 J-0.236954
G02 X76.942085 Y177.893576 Z-0.125000 I-3.089430 J-7.902264
G03 X80.787721 Y171.804782 Z-0.125000 I23.647948 J10.677031
G02 X81.911560 Y170.391217 Z-0.125000 I-22.338697 J-18.913659
G02 X82.950824 Y168.896674 Z-0.125000 I-21.951893 J-16.373345
G03 X83.535404 Y171.742367 Z-0.125000 I-2.361982 J1.968104
G02 X83.985426 Y175.228344 Z-0.125000 I4.150645 J1.236208
G03 X84.372794 Y176.524456 Z-0.125000 I-2.284808 J1.388799
G02 X86.356961 Y180.920299 Z-0.125000 I6.349417 J-0.220238
G01 X86.356961 Y180.920299 Z-0.125000
G00 Z5.000000

(End cutting path id: path4067)


(Start cutting path id: path4067)
(Change tool to Default tool)

G00 Z5.000000
G00 X97.841337 Y172.160937

G01 Z-0.125000 F100.0(Penetrate)
G01 X97.822374 Y172.412408 Z-0.125000 F400.000000
G02 X95.823432 Y172.795897 Z-0.125000 I-0.300138 J3.837027
G03 X93.777794 Y173.166567 Z-0.125000 I-1.672490 J-3.400043
G02 X90.164718 Y175.142294 Z-0.125000 I-0.359652 J3.633829
G03 X87.542625 Y174.967953 Z-0.125000 I-1.273683 J-0.649130
G03 X86.306704 Y165.363372 Z-0.125000 I21.845737 J-7.692926
G03 X87.640286 Y158.352035 Z-0.125000 I33.827696 J2.801656
G03 X88.901607 Y155.350774 Z-0.125000 I14.929074 J4.508475
G03 X89.502662 Y154.967359 Z-0.125000 I0.650986 J0.357684
G03 X89.915225 Y155.281744 Z-0.125000 I0.026487 J0.393134
G03 X90.216265 Y159.230060 Z-0.125000 I-15.545681 J3.170917
G02 X93.008426 Y167.272212 Z-0.125000 I11.371305 J0.557769
G02 X97.841337 Y172.160937 Z-0.125000 I41.597515 J-36.289371
G01 X97.841337 Y172.160937 Z-0.125000
G00 Z5.000000

(End cutting path id: path4067)


(Start cutting path id: path4067)
(Change tool to Default tool)

G00 Z5.000000
G00 X96.476401 Y166.068596

G01 Z-0.125000 F100.0(Penetrate)
G02 X94.561727 Y160.731148 Z-0.125000 I-24.423919 J5.749315 F400.000000
G02 X91.996529 Y155.573825 Z-0.125000 I-663.663095 J326.882405
G03 X93.562127 Y156.369782 Z-0.125000 I-0.261193 J2.451445
G02 X95.840390 Y158.470592 Z-0.125000 I12.823928 J-11.621394
G03 X97.169468 Y159.777114 Z-0.125000 I-4.681659 J6.091756
G03 X98.113834 Y162.031299 Z-0.125000 I-3.512712 J2.796521
G02 X98.494013 Y163.519707 Z-0.125000 I5.927072 J-0.721173
G03 X98.700739 Y164.930564 Z-0.125000 I-2.861460 J1.139850
G02 X98.512920 Y167.599096 Z-0.125000 I74.702540 J6.598654
G02 X98.755590 Y170.270502 Z-0.125000 I9.396744 J0.493126
G03 X97.764719 Y170.953716 Z-0.125000 I-0.627939 J0.149436
G03 X95.453152 Y169.109281 Z-0.125000 I10.901379 J-16.033050
G03 X92.174343 Y164.514891 Z-0.125000 I9.626535 J-10.337187
G03 X90.881366 Y157.692267 Z-0.125000 I13.832088 J-6.155192
G02 X90.884200 Y156.630210 Z-0.125000 I-12.803472 J-0.565195
G03 X91.124669 Y155.339999 Z-0.125000 I2.964386 J-0.115013
G03 X94.074704 Y160.641895 Z-0.125000 I-35.838634 J23.412687
G03 X96.476401 Y166.068596 Z-0.125000 I-133.317297 J62.247089
G01 X96.476401 Y166.068596 Z-0.125000
G00 Z5.000000

(End cutting path id: path4067)


(Start cutting path id: path4067)
(Change tool to Default tool)

G00 Z5.000000
G00 X70.129999 Y165.198217

G01 Z-0.125000 F100.0(Penetrate)
G03 X67.166254 Y165.767020 Z-0.125000 I-1.881950 J-1.800203 F400.000000
G02 X65.840459 Y165.991142 Z-0.125000 I-0.497623 J1.089737
G03 X63.133584 Y166.963160 Z-0.125000 I-2.446022 J-2.556620
G03 X58.741868 Y165.069036 Z-0.125000 I0.538723 J-7.287463
G03 X57.448926 Y163.450993 Z-0.125000 I4.496500 J-4.918655
G02 X56.283285 Y161.560759 Z-0.125000 I-28.020580 J15.974777
G03 X56.137179 Y160.290408 Z-0.125000 I1.169676 J-0.778105
G03 X56.979928 Y159.565056 Z-0.125000 I1.081893 J0.404747
G03 X57.546308 Y159.768858 Z-0.125000 I0.118463 J0.559691
G02 X59.797089 Y160.225970 Z-0.125000 I1.397277 J-1.110192
G03 X62.925395 Y159.699076 Z-0.125000 I2.328786 J4.276378
G03 X65.969953 Y161.249656 Z-0.125000 I-0.930785 J5.591870
G03 X65.328359 Y161.490899 Z-0.125000 I-0.489133 J-0.327075
G02 X64.466327 Y161.855408 Z-0.125000 I-0.197220 J0.735162
G02 X66.675586 Y162.435750 Z-0.125000 I2.641722 J-5.561264
G03 X69.063494 Y163.475905 Z-0.125000 I-0.273906 J3.889876
G03 X64.862770 Y163.663833 Z-0.125000 I-3.057313 J-21.296603
G03 X60.945621 Y163.186273 Z-0.125000 I1.539923 J-28.934941
G02 X65.099885 Y164.167468 Z-0.125000 I4.258448 J-8.744843
G03 X69.216505 Y164.401700 Z-0.125000 I-0.478917 J44.708702
G03 X66.005167 Y165.256907 Z-0.125000 I-3.397171 J-6.299569
G02 X62.562263 Y165.368643 Z-0.125000 I6.906552 J265.908610
G02 X67.670601 Y165.655552 Z-0.125000 I2.872452 J-5.523484
G03 X70.129999 Y165.198217 Z-0.125000 I2.461910 J6.397760
G01 X70.129999 Y165.198217 Z-0.125000
G00 Z5.000000

(End cutting path id: path4067)


(Start cutting path id: path4067)
(Change tool to Default tool)

G00 Z5.000000
G00 X63.241962 Y157.419676

G01 Z-0.125000 F100.0(Penetrate)
G02 X64.415190 Y157.903814 Z-0.125000 I1.427813 J-1.796437 F400.000000
G03 X64.902309 Y158.502467 Z-0.125000 I-0.061086 J0.547214
G03 X64.283131 Y159.137322 Z-0.125000 I-0.702628 J-0.065905
G03 X63.282699 Y159.063792 Z-0.125000 I-0.310983 J-2.611431
G02 X60.184045 Y159.152334 Z-0.125000 I-1.403019 J5.164528
G03 X58.019344 Y159.035274 Z-0.125000 I-0.934274 J-2.796804
G03 X56.883969 Y157.761486 Z-0.125000 I0.888373 J-1.934735
G02 X55.996243 Y156.353828 Z-0.125000 I-3.235529 J1.056708
G03 X55.908319 Y155.961711 Z-0.125000 I0.249470 J-0.261854
G03 X56.421423 Y155.597834 Z-0.125000 I0.530951 J0.204992
G02 X58.619933 Y154.483518 Z-0.125000 I-0.091096 J-2.905682
G03 X61.529904 Y153.281853 Z-0.125000 I2.515974 J1.968475
G03 X63.840095 Y154.024574 Z-0.125000 I-0.803253 J6.462689
G02 X65.187574 Y154.575553 Z-0.125000 I3.160942 J-5.807230
G03 X69.764352 Y157.902047 Z-0.125000 I-2.258060 J7.918509
G03 X70.880423 Y160.002861 Z-0.125000 I-9.579572 J6.436076
G02 X69.570723 Y158.861348 Z-0.125000 I-4.559736 J3.909462
G03 X68.286670 Y157.724455 Z-0.125000 I3.045947 J-4.733794
G02 X67.872089 Y157.366386 Z-0.125000 I-1.281257 J1.064431
G02 X67.443936 Y157.492406 Z-0.125000 I-0.156849 J0.257440
G03 X65.937130 Y157.794991 Z-0.125000 I-0.868236 J-0.420553
G02 X63.241962 Y157.419676 Z-0.125000 I-1.630904 J1.846890
G01 X63.241962 Y157.419676 Z-0.125000
G00 Z5.000000

(End cutting path id: path4067)


(Start cutting path id: path4281)
(Change tool to Default tool)

G00 Z5.000000
G00 X63.318295 Y154.980253

G01 Z-0.125000 F100.0(Penetrate)
G02 X64.811663 Y156.118687 Z-0.125000 I2.759068 J-2.070577 F400.000000
G03 X66.426174 Y156.755736 Z-0.125000 I-2349.104643 J5955.834163
G02 X64.901037 Y155.774682 Z-0.125000 I-3.087170 J3.123273
G03 X63.318295 Y154.980253 Z-0.125000 I3.107220 J-8.164387
G01 X63.318295 Y154.980253 Z-0.125000
G00 Z5.000000

(End cutting path id: path4281)


(Start cutting path id: path4067)
(Change tool to Default tool)

G00 Z5.000000
G00 X77.032875 Y148.009004

G01 Z-0.125000 F100.0(Penetrate)
G02 X77.008071 Y150.358886 Z-0.125000 I1.406447 J1.189918 F400.000000
G02 X79.108567 Y152.921970 Z-0.125000 I236.334719 J-191.538579
G03 X79.034398 Y153.666295 Z-0.125000 I-0.404919 J0.335509
G03 X78.544197 Y153.619522 Z-0.125000 I-0.221240 J-0.273459
G02 X77.449843 Y152.573945 Z-0.125000 I-5.373809 J4.529005
G03 X76.365047 Y151.397997 Z-0.125000 I2.862870 J-3.729285
G03 X75.577422 Y150.144493 Z-0.125000 I47.448810 J-30.688171
G02 X74.454686 Y148.774875 Z-0.125000 I-5.464631 J3.334608
G02 X74.688683 Y149.757742 Z-0.125000 I2.099247 J0.019508
G02 X80.982885 Y155.795919 Z-0.125000 I11.978213 J-6.186473
G03 X82.146340 Y156.347016 Z-0.125000 I-38.073231 J81.882414
G03 X83.300655 Y157.333321 Z-0.125000 I-1.294879 J2.684076
G03 X81.143189 Y157.097877 Z-0.125000 I-0.748192 J-3.146600
G02 X79.246050 Y156.478187 Z-0.125000 I-3.227643 J6.667384
G03 X76.125335 Y154.578023 Z-0.125000 I0.916050 J-5.017183
G02 X75.034499 Y153.737694 Z-0.125000 I-2.145032 J1.656303
G03 X71.080635 Y147.889002 Z-0.125000 I2.517905 J-5.962970
G02 X69.742795 Y142.332216 Z-0.125000 I-13.175442 J0.232650
G03 X77.289973 Y143.829546 Z-0.125000 I1.763876 J10.878470
G03 X79.652112 Y145.844417 Z-0.125000 I-5.318591 J8.627330
G03 X82.612590 Y152.088878 Z-0.125000 I-9.885017 J8.510460
G03 X82.810719 Y155.394576 Z-0.125000 I-14.242354 J2.512410
G03 X81.263310 Y154.628640 Z-0.125000 I0.204190 J-2.358592
G03 X77.032875 Y148.009004 Z-0.125000 I17.253321 J-15.687741
G01 X77.032875 Y148.009004 Z-0.125000
G00 Z5.000000

(End cutting path id: path4067)


(Start cutting path id: path4151)
(Change tool to Default tool)

G00 Z5.000000
G00 X70.923680 Y130.829355

G01 Z-0.125000 F100.0(Penetrate)
G02 X70.083831 Y130.946990 Z-0.125000 I-0.265195 J1.163499 F400.000000
G02 X68.834719 Y131.982299 Z-0.125000 I2.072098 J3.771196
G02 X70.190731 Y131.316504 Z-0.125000 I0.257988 J-1.188339
G03 X70.924249 Y130.824826 Z-0.125000 I0.780527 J0.371449
G01 X70.924125 Y130.825500 Z-0.125000
G02 X70.923731 Y130.829355 Z-0.125000 I0.914962 J0.095454
G01 X70.923680 Y130.829355 Z-0.125000
G00 Z5.000000

(End cutting path id: path4151)


(Start cutting path id: path4067)
(Change tool to Default tool)

G00 Z5.000000
G00 X70.924145 Y130.825158

G01 Z-0.125000 F100.0(Penetrate)
G02 X72.943541 Y128.828198 Z-0.125000 I-9.418399 J-11.543732 F400.000000
G03 X74.922122 Y126.716068 Z-0.125000 I19.419905 J16.209191
G03 X74.244933 Y128.658014 Z-0.125000 I-5.932309 J-0.979648
G02 X73.547955 Y130.643235 Z-0.125000 I5.442314 J3.025665
G02 X75.471860 Y126.509987 Z-0.125000 I-0.504642 J-2.749280
G03 X77.451206 Y124.576524 Z-0.125000 I1.242397 J-0.708011
G03 X77.670070 Y125.425135 Z-0.125000 I-0.322206 J0.535629
G02 X76.589923 Y129.093867 Z-0.125000 I7.018192 J4.059669
G02 X77.424911 Y127.180634 Z-0.125000 I-2.900596 J-2.404724
G03 X78.260208 Y125.278488 Z-0.125000 I3.688591 J0.485308
G03 X78.470290 Y125.861697 Z-0.125000 I-0.291795 J0.434552
G02 X78.651173 Y126.491241 Z-0.125000 I0.583963 J0.172971
G02 X79.173753 Y125.536232 Z-0.125000 I-1.251650 J-1.305383
G02 X79.346332 Y124.542794 Z-0.125000 I-21.535546 J-4.252838
G03 X80.932322 Y122.584151 Z-0.125000 I2.458249 J0.369100
G02 X85.142879 Y119.979873 Z-0.125000 I-4.473929 J-11.939302
G03 X87.357753 Y119.537992 Z-0.125000 I1.465863 J1.575625
G03 X87.689269 Y121.172247 Z-0.125000 I-0.341571 J0.920041
G02 X84.319981 Y125.153948 Z-0.125000 I15.895952 J16.867429
G03 X81.887597 Y127.073452 Z-0.125000 I-4.179768 J-2.795675
G02 X80.836748 Y128.692903 Z-0.125000 I0.561437 J1.514981
G03 X80.660419 Y131.935296 Z-0.125000 I-13.643324 J0.884035
G03 X79.552982 Y132.817258 Z-0.125000 I-1.051596 J-0.184180
G02 X76.711428 Y134.096955 Z-0.125000 I-0.178047 J3.399318
G03 X76.444258 Y134.237392 Z-0.125000 I-0.293096 J-0.233239
G03 X76.183791 Y134.252761 Z-0.125000 I-0.873820 J-12.594215
G02 X74.416007 Y135.245051 Z-0.125000 I0.110326 J2.267362
G03 X73.418996 Y135.731624 Z-0.125000 I-0.923084 J-0.626693
G03 X63.713342 Y136.458364 Z-0.125000 I-3867.698161 J-51588.154601
G03 X63.390866 Y136.453771 Z-0.125000 I-0.135470 J-1.811496
G03 X61.332679 Y135.646824 Z-0.125000 I0.425423 J-4.113343
G02 X59.678397 Y135.022165 Z-0.125000 I-1.900398 J2.529973
G03 X59.358081 Y134.996023 Z-0.125000 I3.425962 J-43.953667
G03 X59.030101 Y134.855272 Z-0.125000 I0.048163 J-0.564739
G02 X56.942315 Y133.637216 Z-0.125000 I-4.086475 J4.606049
G03 X54.862221 Y132.346028 Z-0.125000 I1.781393 J-5.190913
G02 X54.763693 Y132.277783 Z-0.125000 I-0.242486 J0.244843
G02 X54.653841 Y132.249523 Z-0.125000 I-0.132941 J0.289128
G03 X52.900568 Y131.383059 Z-0.125000 I0.189698 J-2.590940
G02 X51.491076 Y130.065494 Z-0.125000 I-7.752517 J6.880715
G03 X50.083230 Y128.889925 Z-0.125000 I15.076421 J-19.486120
G03 X48.892147 Y127.152936 Z-0.125000 I3.003880 J-3.336679
G02 X48.403394 Y126.500454 Z-0.125000 I-1.385175 J0.528294
G03 X47.293743 Y124.713806 Z-0.125000 I1.778282 J-2.342370
G02 X52.433221 Y124.455116 Z-0.125000 I2.241177 J-6.657022
G02 X57.393720 Y120.120941 Z-0.125000 I-4.708609 J-10.394796
G03 X59.902820 Y117.046018 Z-0.125000 I13.537886 J8.485591
G03 X63.044279 Y114.668200 Z-0.125000 I11.959018 J12.535596
G03 X65.463715 Y113.123639 Z-0.125000 I2.865882 J1.821976
G02 X66.969236 Y112.409743 Z-0.125000 I-0.357967 J-2.699336
G03 X69.917628 Y111.127168 Z-0.125000 I3.267697 J3.481624
G02 X72.818064 Y110.560671 Z-0.125000 I-0.786509 J-11.735166
G03 X76.187515 Y111.076635 Z-0.125000 I1.177848 J3.568092
G03 X78.402245 Y114.912936 Z-0.125000 I-3.136669 J4.368269
G02 X79.505572 Y117.302228 Z-0.125000 I3.999864 J-0.397663
G02 X83.488623 Y119.199187 Z-0.125000 I4.509828 J-4.339210
G02 X83.966849 Y119.213951 Z-0.125000 I0.377235 J-4.466393
G03 X84.576990 Y119.488331 Z-0.125000 I0.017503 J0.776658
G03 X73.211527 Y119.981281 Z-0.125000 I-6.008438 J-7.263010
G02 X69.957922 Y119.705623 Z-0.125000 I-1.867564 J2.703880
G02 X74.157102 Y121.469974 Z-0.125000 I10.143818 J-18.263198
G03 X78.454992 Y122.857238 Z-0.125000 I-27.135969 J91.421375
G03 X69.347407 Y125.452599 Z-0.125000 I-9.659648 J-16.619680
G03 X65.127839 Y125.341771 Z-0.125000 I-1.102944 J-38.388889
G02 X66.571519 Y126.156605 Z-0.125000 I1.904096 J-1.687240
G03 X67.853432 Y126.901523 Z-0.125000 I-0.397325 J2.159215
G03 X56.424065 Y127.135771 Z-0.125000 I-6.118346 J-19.578249
G02 X53.259003 Y126.606836 Z-0.125000 I-4.319755 J16.114630
G02 X55.968576 Y128.197328 Z-0.125000 I3.932262 J-3.595760
G02 X61.707192 Y128.684326 Z-0.125000 I4.515321 J-19.152520
G02 X72.806061 Y126.029847 Z-0.125000 I-2.066066 J-33.169057
G03 X73.716599 Y127.009057 Z-0.125000 I0.281102 J0.651557
G03 X71.260554 Y129.731165 Z-0.125000 I-6.470163 J-3.368710
G02 X70.923662 Y130.829394 Z-0.125000 I0.496276 J0.753024
G01 X70.924145 Y130.825158 Z-0.125000
G00 Z5.000000

(End cutting path id: path4067)


(Start cutting path id: path4153)
(Change tool to Default tool)

G00 Z5.000000
G00 X80.951793 Y123.362190

G01 Z-0.125000 F100.0(Penetrate)
G02 X80.802055 Y124.593268 Z-0.125000 I3.518007 J1.052545 F400.000000
G02 X80.934159 Y125.475324 Z-0.125000 I4.460502 J-0.217121
G02 X81.153796 Y124.619306 Z-0.125000 I-2.568990 J-1.115339
G02 X80.951793 Y123.362190 Z-0.125000 I-2.541733 J-0.236362
G01 X80.951793 Y123.362190 Z-0.125000
G00 Z5.000000

(End cutting path id: path4153)


(Start cutting path id: path4067)
(Change tool to Default tool)

G00 Z5.000000
G00 X91.802280 Y104.518378

G01 Z-0.125000 F100.0(Penetrate)
G02 X98.422572 Y105.122648 Z-0.125000 I6.955461 J-39.635442 F400.000000
G03 X105.056377 Y105.313002 Z-0.125000 I-1.357716 J163.004796
G03 X101.477741 Y106.475513 Z-0.125000 I-4.628185 J-8.157821
G02 X97.896671 Y107.234511 Z-0.125000 I2.120889 J18.834185
G02 X100.148375 Y107.417017 Z-0.125000 I1.593344 J-5.676542
G03 X102.363913 Y107.573313 Z-0.125000 I0.683911 J6.086443
G03 X98.006609 Y108.534722 Z-0.125000 I-6.255430 J-17.996094
G02 X93.678098 Y109.220025 Z-0.125000 I3.816782 J38.120051
G01 X93.730966 Y109.730151 Z-0.125000
G01 X100.389469 Y108.922879 Z-0.125000
G01 X100.417783 Y109.213057 Z-0.125000
G03 X94.492643 Y110.959173 Z-0.125000 I-14.077669 J-36.844085
G02 X88.546048 Y112.610072 Z-0.125000 I10.194831 J48.257490
G02 X95.022498 Y111.413712 Z-0.125000 I-5.042040 J-45.423058
G03 X101.444121 Y109.838348 Z-0.125000 I58.633886 J225.132216
G03 X99.811708 Y110.621240 Z-0.125000 I-1.700897 J-1.453228
G02 X99.367410 Y111.256310 Z-0.125000 I0.014802 J0.483307
G02 X99.862129 Y111.464878 Z-0.125000 I0.338503 J-0.111905
G02 X102.154461 Y110.329000 Z-0.125000 I-86.370963 J-177.187384
G03 X104.410395 Y109.318259 Z-0.125000 I12.271297 J24.366119
G03 X105.163820 Y109.604464 Z-0.125000 I0.219653 J0.556556
G03 X104.352212 Y111.141595 Z-0.125000 I-0.950111 J0.481170
G02 X93.508609 Y115.375024 Z-0.125000 I3.161208 J24.101433
G02 X93.244311 Y115.589004 Z-0.125000 I1.472622 J2.089131
G02 X93.118490 Y116.027505 Z-0.125000 I0.299378 J0.323204
G02 X93.530742 Y116.076572 Z-0.125000 I0.236599 J-0.231496
G03 X95.980333 Y114.576087 Z-0.125000 I77.936983 J124.484938
G03 X98.298350 Y113.299626 Z-0.125000 I18.658056 J31.139546
G03 X98.861601 Y113.492651 Z-0.125000 I0.187337 J0.371647
G03 X98.626582 Y114.315368 Z-0.125000 I-0.584776 J0.277878
G03 X97.984392 Y114.686216 Z-0.125000 I-4.263320 J-6.641243
G02 X91.014134 Y119.067640 Z-0.125000 I22.372978 J43.327490
G03 X88.456084 Y119.162861 Z-0.125000 I-1.347364 J-1.788301
G02 X84.240190 Y118.073173 Z-0.125000 I-3.761211 J5.851473
G03 X78.965754 Y114.093133 Z-0.125000 I-0.330593 J-5.046809
G02 X78.668477 Y113.334872 Z-0.125000 I-2.481465 J0.535456
G02 X78.175834 Y112.716786 Z-0.125000 I-2.468409 J1.462063
G03 X77.014243 Y110.757418 Z-0.125000 I2.878114 J-3.030264
G03 X76.434772 Y108.527607 Z-0.125000 I228.081507 J-60.462717
G03 X77.445853 Y106.474439 Z-0.125000 I1.707258 J-0.434798
G02 X79.900712 Y103.410075 Z-0.125000 I-1.651059 J-3.838137
G03 X80.726858 Y102.375930 Z-0.125000 I1.387517 J0.261379
G02 X84.029062 Y100.328789 Z-0.125000 I-5.307199 J-12.247877
G03 X86.702941 Y100.045737 Z-0.125000 I1.545798 J1.831476
G02 X89.480645 Y99.900705 Z-0.125000 I1.268490 J-2.377718
G03 X91.406603 Y100.213125 Z-0.125000 I0.797031 J1.179218
G02 X96.185942 Y103.162469 Z-0.125000 I6.270985 J-4.814904
G03 X97.754249 Y103.534394 Z-0.125000 I-3.535536 J18.400906
G02 X99.318512 Y103.957717 Z-0.125000 I19.056308 J-67.315121
G03 X99.305923 Y104.084052 Z-0.125000 I-764.674639 J-76.058107
G03 X99.293320 Y104.210418 Z-0.125000 I-8574.706928 J-864.224086
G03 X95.551374 Y104.380403 Z-0.125000 I-2.947632 J-23.615836
G02 X91.802280 Y104.518378 Z-0.125000 I-0.892980 J26.740366
G01 X91.802280 Y104.518378 Z-0.125000
G00 Z5.000000

(End cutting path id: path4067)


(Start cutting path id: path4067)
(Change tool to Default tool)

G00 Z5.000000
G00 X100.393748 Y113.534970

G01 Z-0.125000 F100.0(Penetrate)
G03 X101.163033 Y113.166565 Z-0.125000 I1.471917 J2.086194 F400.000000
G02 X101.927189 Y112.765390 Z-0.125000 I-0.584378 J-2.041487
G02 X102.302939 Y112.433850 Z-0.125000 I-4.567413 J-5.555150
G03 X102.871414 Y112.197389 Z-0.125000 I0.594913 J0.628665
G02 X105.972199 Y110.312348 Z-0.125000 I-0.112360 J-3.677655
G03 X108.455440 Y107.433787 Z-0.125000 I8.237044 J4.595444
G03 X113.371684 Y105.041703 Z-0.125000 I8.262852 J10.733922
G03 X122.958525 Y104.232026 Z-0.125000 I7.218928 J28.313942
G02 X126.138672 Y103.576237 Z-0.125000 I0.468853 J-5.765082
G03 X128.390161 Y103.766074 Z-0.125000 I0.978306 J1.843566
G02 X131.085337 Y104.893975 Z-0.125000 I3.469487 J-4.506429
G03 X131.572699 Y105.582021 Z-0.125000 I-0.078655 J0.572343
G03 X128.105841 Y108.615857 Z-0.125000 I-3.727779 J-0.762086
G02 X124.206563 Y109.331560 Z-0.125000 I1.206573 J17.553461
G02 X120.181681 Y112.760769 Z-0.125000 I1.919101 J6.329077
G03 X113.539592 Y114.199514 Z-0.125000 I-3.887709 J-1.896683
G02 X111.444017 Y113.846885 Z-0.125000 I-1.353207 J1.638704
G02 X109.249069 Y115.067024 Z-0.125000 I2.925212 J7.846610
G02 X108.903454 Y115.392600 Z-0.125000 I1.488040 J1.925855
G03 X108.465620 Y115.470631 Z-0.125000 I-0.267472 J-0.233430
G02 X107.143353 Y115.068673 Z-0.125000 I-1.625774 J2.972268
G03 X105.866432 Y114.632440 Z-0.125000 I0.254812 J-2.832862
G02 X105.160039 Y114.388400 Z-0.125000 I-0.860727 J1.347067
G02 X104.419780 Y114.545616 Z-0.125000 I-0.121279 J1.250326
G03 X102.385191 Y114.805429 Z-0.125000 I-1.334959 J-2.357724
G03 X100.393748 Y113.534970 Z-0.125000 I1.010214 J-3.779531
G01 X100.393748 Y113.534970 Z-0.125000
G00 Z5.000000

(End cutting path id: path4067)


(Start cutting path id: path4067)
(Change tool to Default tool)

G00 Z5.000000
G00 X113.016752 Y121.034049

G01 Z-0.125000 F100.0(Penetrate)
G03 X113.085211 Y119.701819 Z-0.125000 I1.942292 J-0.568066 F400.000000
G03 X114.732848 Y116.284774 Z-0.125000 I28.313075 J11.546293
G03 X115.476829 Y116.196526 Z-0.125000 I0.404126 J0.226796
G03 X115.503062 Y116.748716 Z-0.125000 I-0.314636 J0.291666
G02 X114.119655 Y118.699095 Z-0.125000 I26.744094 J20.435437
G02 X113.016752 Y121.034049 Z-0.125000 I7.725208 J5.076914
G01 X113.016752 Y121.034049 Z-0.125000
G00 Z5.000000

(End cutting path id: path4067)


(Start cutting path id: path4067)
(Change tool to Default tool)

G00 Z5.000000
G00 X118.107513 Y116.027291

G01 Z-0.125000 F100.0(Penetrate)
G02 X122.110497 Y111.665133 Z-0.125000 I-7.613154 J-11.004070 F400.000000
G03 X123.357789 Y111.247682 Z-0.125000 I0.857624 J0.490375
G02 X123.633778 Y111.018456 Z-0.125000 I0.079462 J-0.185086
G03 X124.354674 Y110.022984 Z-0.125000 I0.799725 J-0.179623
G02 X126.025617 Y109.663049 Z-0.125000 I-0.711809 J-7.362980
G03 X127.024380 Y110.726665 Z-0.125000 I0.258050 J0.758424
G02 X127.158005 Y119.131253 Z-0.125000 I9.821899 J4.047196
G03 X126.638643 Y121.448411 Z-0.125000 I-1.805592 J0.812082
G03 X124.686531 Y121.820684 Z-0.125000 I-1.302116 J-1.523648
G02 X122.183358 Y121.122570 Z-0.125000 I-7.231991 J21.094426
G03 X118.882640 Y118.674550 Z-0.125000 I1.057754 J-4.875417
G03 X118.777911 Y118.014737 Z-0.125000 I0.849340 J-0.473030
G02 X118.644391 Y116.938804 Z-0.125000 I-1.707395 J-0.334369
G02 X118.107513 Y116.027291 Z-0.125000 I-5.209953 J2.454779
G01 X118.107513 Y116.027291 Z-0.125000
G00 Z5.000000

(End cutting path id: path4067)


(Start cutting path id: path4275)
(Change tool to Default tool)

G00 Z5.000000
G00 X120.349536 Y117.948136

G01 Z-0.125000 F100.0(Penetrate)
G02 X119.921436 Y117.974171 Z-0.125000 I-0.208212 J0.109017 F400.000000
G02 X120.026260 Y118.210773 Z-0.125000 I0.172498 J0.065098
G02 X120.195679 Y118.188085 Z-0.125000 I0.064381 J-0.163144
G02 X120.349536 Y117.948136 Z-0.125000 I-0.243252 J-0.325278
G01 X120.349536 Y117.948136 Z-0.125000
G00 Z5.000000

(End cutting path id: path4275)


(Start cutting path id: path4279)
(Change tool to Default tool)

G00 Z5.000000
G00 X121.418699 Y119.494557

G01 Z-0.125000 F100.0(Penetrate)
G02 X121.451073 Y119.037542 Z-0.125000 I-0.201655 J-0.243939 F400.000000
G02 X121.264273 Y119.067605 Z-0.125000 I-0.083573 J0.076091
G02 X121.269970 Y119.303169 Z-0.125000 I0.250639 J0.111790
G02 X121.418699 Y119.494557 Z-0.125000 I0.564719 J-0.285364
G01 X121.418699 Y119.494557 Z-0.125000
G00 Z5.000000

(End cutting path id: path4279)


(Start cutting path id: path4273)
(Change tool to Default tool)

G00 Z5.000000
G00 X123.407654 Y119.483646

G01 Z-0.125000 F100.0(Penetrate)
G02 X122.872383 Y119.395316 Z-0.125000 I-0.283725 J0.053336 F400.000000
G02 X123.161125 Y119.817841 Z-0.125000 I0.248623 J0.140019
G02 X123.337807 Y119.682480 Z-0.125000 I-0.031862 J-0.224577
G02 X123.407654 Y119.483646 Z-0.125000 I-1.459622 J-0.624430
G01 X123.407654 Y119.483646 Z-0.125000
G00 Z5.000000

(End cutting path id: path4273)


(Start cutting path id: path4271)
(Change tool to Default tool)

G00 Z5.000000
G00 X125.799652 Y120.675923

G01 Z-0.125000 F100.0(Penetrate)
G02 X125.545806 Y121.368612 Z-0.125000 I0.026138 J0.402436 F400.000000
G02 X126.208769 Y121.144276 Z-0.125000 I0.273496 J-0.283527
G02 X126.056876 Y120.797707 Z-0.125000 I-0.349948 J-0.053197
G02 X125.799652 Y120.675923 Z-0.125000 I-0.527113 J0.780793
G01 X125.799652 Y120.675923 Z-0.125000
G00 Z5.000000

(End cutting path id: path4271)


(Start cutting path id: path4067)
(Change tool to Default tool)

G00 Z5.000000
G00 X128.645749 Y123.259986

G01 Z-0.125000 F100.0(Penetrate)
G03 X129.896413 Y123.751541 Z-0.125000 I0.409666 J0.794497 F400.000000
G03 X130.626146 Y125.836788 Z-0.125000 I-113.998422 J41.064083
G02 X134.834798 Y130.182783 Z-0.125000 I6.698280 J-2.275776
G03 X136.238124 Y131.365597 Z-0.125000 I-0.966448 J2.570504
G03 X139.951501 Y139.597237 Z-0.125000 I-36.835948 J21.570463
G02 X141.294963 Y143.168670 Z-0.125000 I43.172007 J-14.201563
G03 X141.380877 Y148.801272 Z-0.125000 I-6.876790 J2.921848
G02 X140.605187 Y152.345537 Z-0.125000 I10.893672 J4.241178
G03 X139.635413 Y155.339186 Z-0.125000 I-6.258980 J-0.373658
G02 X139.032907 Y157.944968 Z-0.125000 I3.385503 J2.155339
G03 X138.265626 Y161.663177 Z-0.125000 I-6.070415 J0.685595
G02 X137.619814 Y163.043019 Z-0.125000 I8.101047 J4.632609
G03 X134.564883 Y166.566148 Z-0.125000 I-6.231370 J-2.317226
G02 X132.756845 Y168.067345 Z-0.125000 I2.900113 J5.332287
G03 X130.519298 Y169.343112 Z-0.125000 I-2.765749 J-2.250719
G03 X128.327856 Y168.536908 Z-0.125000 I-0.359942 J-2.403114
G02 X125.313045 Y166.723320 Z-0.125000 I-4.317221 J3.764092
G03 X118.740211 Y162.137505 Z-0.125000 I2.457923 J-10.526252
G02 X117.785389 Y160.695464 Z-0.125000 I-239.207485 J157.349821
G03 X117.100414 Y158.917981 Z-0.125000 I3.630884 J-2.419931
G02 X116.930836 Y158.432892 Z-0.125000 I-1.356357 J0.201971
G02 X116.616707 Y158.071318 Z-0.125000 I-1.094484 J0.633628
G03 X115.649954 Y156.738041 Z-0.125000 I1.848834 J-2.357713
G02 X115.024825 Y155.274453 Z-0.125000 I-13.674900 J4.975535
G02 X114.090528 Y153.637864 Z-0.125000 I-14.008210 J6.912038
G03 X113.147505 Y152.033574 Z-0.125000 I16.339291 J-10.683756
G03 X113.969358 Y142.126830 Z-0.125000 I8.198957 J-4.307286
G02 X117.328654 Y134.727634 Z-0.125000 I-14.628920 J-11.103820
G03 X120.025048 Y126.999975 Z-0.125000 I30.316061 J6.243861
G02 X121.315760 Y122.636530 Z-0.125000 I-11.295348 J-5.713797
G03 X122.214847 Y122.366655 Z-0.125000 I0.506351 J0.054318
G02 X123.863823 Y123.412824 Z-0.125000 I2.427827 J-2.004106
G03 X124.236340 Y124.162697 Z-0.125000 I-0.136638 J0.535343
G03 X122.608431 Y127.987989 Z-0.125000 I-535.449491 J-225.609444
G02 X121.157576 Y131.858663 Z-0.125000 I40.158059 J17.259800
G02 X121.594175 Y133.549606 Z-0.125000 I1.554934 J0.500355
G02 X122.076409 Y131.092696 Z-0.125000 I-10.080966 J-3.254437
G03 X123.219151 Y128.688308 Z-0.125000 I3.686469 J0.278330
G03 X122.746431 Y131.699084 Z-0.125000 I-16.168044 J-0.996034
G02 X122.778683 Y134.554729 Z-0.125000 I5.356738 J1.367505
G03 X123.723446 Y129.530733 Z-0.125000 I69.863160 J10.536950
G03 X125.334839 Y124.509923 Z-0.125000 I29.099847 J6.570396
G03 X125.553926 Y126.984530 Z-0.125000 I-3.026935 J1.514989
G02 X124.207132 Y136.290822 Z-0.125000 I31.479653 J9.306292
G02 X124.650931 Y135.445107 Z-0.125000 I-0.882061 J-1.002173
G03 X125.297660 Y130.342275 Z-0.125000 I296.823426 J35.026788
G03 X126.088759 Y125.464983 Z-0.125000 I93.709021 J12.696837
G03 X126.867228 Y124.564969 Z-0.125000 I1.164039 J0.220162
G03 X126.981036 Y130.968441 Z-0.125000 I-19.716036 J3.553160
G02 X127.104871 Y137.245447 Z-0.125000 I19.207099 J2.760800
G03 X127.492563 Y132.433358 Z-0.125000 I1169.488069 J91.799622
G02 X127.626555 Y127.589531 Z-0.125000 I-44.088301 J-3.643354
G03 X127.789492 Y127.566831 Z-0.125000 I98.051649 J702.757516
G02 X127.952402 Y127.544148 Z-0.125000 I-293.965780 J-2107.782012
G01 X129.653038 Y136.918318 Z-0.125000
G02 X129.057775 Y131.368250 Z-0.125000 I-3.394850 J-2.442847
G03 X128.863119 Y126.848664 Z-0.125000 I2.122190 J-2.355387
G03 X129.990999 Y131.455818 Z-0.125000 I-2.688746 J3.099869
G02 X131.534464 Y132.591194 Z-0.125000 I0.921594 J0.363961
G02 X131.627295 Y132.147880 Z-0.125000 I-0.224492 J-0.278386
G03 X130.468580 Y129.478384 Z-0.125000 I18.511040 J-9.621085
G03 X129.440312 Y126.404415 Z-0.125000 I90.470507 J-31.972080
G03 X128.645749 Y123.259986 Z-0.125000 I26.489799 J-8.366289
G01 X128.645749 Y123.259986 Z-0.125000
G00 Z5.000000

(End cutting path id: path4067)


(Start cutting path id: path4067)
(Change tool to Default tool)

G00 Z5.000000
G00 X136.001844 Y125.784905

G01 Z-0.125000 F100.0(Penetrate)
G03 X136.051746 Y125.787022 Z-0.125000 I-0.755096 J18.383929 F400.000000
G02 X136.101677 Y125.789199 Z-0.125000 I5.546959 J-126.663780
G02 X136.195348 Y127.995881 Z-0.125000 I26.039192 J-0.000000
G03 X134.051262 Y129.036343 Z-0.125000 I-1.271997 J0.108184
G02 X132.734507 Y127.825485 Z-0.125000 I-71.462211 J76.390644
G03 X131.655261 Y125.862105 Z-0.125000 I2.296621 J-2.540739
G02 X129.604084 Y121.789487 Z-0.125000 I-7.674259 J1.312300
G02 X128.528161 Y120.702020 Z-0.125000 I-33.900150 J32.464310
G03 X127.149187 Y112.842722 Z-0.125000 I4.784183 J-4.890047
G02 X127.663738 Y110.680540 Z-0.125000 I-4.685532 J-2.257369
G03 X128.135764 Y110.000606 Z-0.125000 I0.745414 J0.013670
G03 X131.951242 Y110.887253 Z-0.125000 I1.264971 J3.209325
G03 X132.647541 Y112.195379 Z-0.125000 I-2.218095 J2.020044
G02 X133.279702 Y113.323826 Z-0.125000 I2.346399 J-0.573170
G03 X134.418884 Y114.984650 Z-0.125000 I-3.980771 J3.951568
G03 X135.041866 Y116.914105 Z-0.125000 I-8.554232 J3.827292
G02 X135.421494 Y118.669405 Z-0.125000 I96.875961 J-20.033167
G03 X136.001844 Y125.784905 Z-0.125000 I-24.830523 J5.606628
G01 X136.001844 Y125.784905 Z-0.125000
G00 Z5.000000

(End cutting path id: path4067)


(Start cutting path id: path4067)
(Change tool to Default tool)

G00 Z5.000000
G00 X137.632686 Y111.800517

G01 Z-0.125000 F100.0(Penetrate)
G02 X141.559732 Y109.454612 Z-0.125000 I-7.151658 J-16.431777 F400.000000
G03 X148.293911 Y105.330472 Z-0.125000 I20.917052 J26.594709
G03 X149.329189 Y105.213441 Z-0.125000 I0.694243 J1.503756
G02 X150.267285 Y104.950679 Z-0.125000 I0.216991 J-1.031262
G03 X153.447398 Y103.707476 Z-0.125000 I3.142096 J3.348514
G03 X161.544816 Y107.319226 Z-0.125000 I-0.091810 J11.088775
G03 X164.133284 Y112.667965 Z-0.125000 I-7.692111 J7.023221
G03 X164.570962 Y119.533675 Z-0.125000 I-34.770570 J5.663369
G02 X165.292280 Y122.345581 Z-0.125000 I5.155066 J0.176079
G03 X166.106939 Y126.788876 Z-0.125000 I-5.585188 J3.320350
G02 X166.185312 Y127.712317 Z-0.125000 I1.786521 J0.313424
G03 X166.096708 Y128.552550 Z-0.125000 I-0.918313 J0.327950
G02 X164.970364 Y133.494215 Z-0.125000 I6.673406 J4.120250
G03 X164.236573 Y136.189378 Z-0.125000 I-3.833603 J0.403728
G03 X162.459361 Y138.420174 Z-0.125000 I-31.765279 J-23.483181
G03 X159.927502 Y139.780575 Z-0.125000 I-3.025229 J-2.594054
G02 X155.840752 Y143.217156 Z-0.125000 I0.607885 J4.871144
G03 X146.398577 Y146.484816 Z-0.125000 I-5.911670 J-1.806458
G03 X140.767917 Y138.612812 Z-0.125000 I8.241540 J-11.844722
G02 X137.229366 Y131.853353 Z-0.125000 I-18.159605 J5.200545
G03 X135.988335 Y127.379529 Z-0.125000 I4.455898 J-3.645101
G03 X137.819791 Y126.951337 Z-0.125000 I0.999787 J0.145437
G02 X140.177019 Y129.885826 Z-0.125000 I21.263540 J-14.666655
G03 X142.511546 Y132.849360 Z-0.125000 I-16.766894 J15.609417
G02 X142.798422 Y133.205571 Z-0.125000 I2.049217 J-1.356723
G02 X143.369861 Y133.396690 Z-0.125000 I0.470689 J-0.457493
G02 X142.269695 Y131.614613 Z-0.125000 I-4.385136 J1.476533
G03 X141.132686 Y129.735379 Z-0.125000 I3.317294 J-3.290676
G03 X142.517139 Y130.614981 Z-0.125000 I-1.601042 J4.049299
G02 X143.781221 Y131.232181 Z-0.125000 I1.625191 J-1.725464
G03 X143.802723 Y131.043026 Z-0.125000 I3.636323 J0.317565
G02 X143.800011 Y130.994998 Z-0.125000 I-0.122498 J-0.017172
G03 X141.590816 Y129.002836 Z-0.125000 I12.016278 J-15.546392
G03 X140.203231 Y127.046437 Z-0.125000 I6.036602 J-5.751760
G03 X138.880352 Y123.377508 Z-0.125000 I13.760936 J-7.034635
G03 X139.172925 Y123.218677 Z-0.125000 I0.168935 J-0.037695
G03 X141.551230 Y125.920136 Z-0.125000 I-24.125829 J23.637485
G02 X143.566077 Y127.564292 Z-0.125000 I4.721988 J-3.729972
G02 X142.377454 Y125.801002 Z-0.125000 I-2.958933 J0.712333
G03 X141.209312 Y124.387555 Z-0.125000 I2.079550 J-2.908069
G03 X144.488255 Y126.218398 Z-0.125000 I1.189780 J1.720795
G02 X146.151720 Y126.670567 Z-0.125000 I0.880579 J0.046385
G02 X146.010140 Y126.217153 Z-0.125000 I-0.299541 J-0.155279
G03 X145.659455 Y126.011078 Z-0.125000 I2.161980 J-4.080540
G02 X144.721273 Y125.503041 Z-0.125000 I-3.676574 J5.669176
G03 X139.754102 Y121.537693 Z-0.125000 I5.077796 J-11.454397
G03 X147.525219 Y125.112375 Z-0.125000 I-2.743065 J16.197524
G02 X149.310810 Y125.023035 Z-0.125000 I0.844314 J-1.013645
G02 X144.150344 Y122.267609 Z-0.125000 I-27.053009 J44.455824
G03 X139.061808 Y119.816689 Z-0.125000 I81.018614 J-174.716575
G03 X142.453928 Y120.329783 Z-0.125000 I0.508430 J8.108103
G02 X145.681126 Y121.326628 Z-0.125000 I9.479776 J-24.967648
G02 X149.078056 Y121.942777 Z-0.125000 I7.107653 J-29.513672
G03 X152.474248 Y122.793409 Z-0.125000 I-1.745785 J14.175183
G01 X152.575047 Y122.276276 Z-0.125000
G02 X148.296215 Y121.093257 Z-0.125000 I-6.257546 J14.303258
G03 X144.024731 Y119.766348 Z-0.125000 I1.636241 J-12.805932
G03 X147.000276 Y119.600726 Z-0.125000 I2.831944 J24.066396
G02 X149.955827 Y118.925014 Z-0.125000 I0.039289 J-6.629775
G02 X143.986625 Y118.809596 Z-0.125000 I-4.692378 J88.264829
G03 X141.922398 Y118.548384 Z-0.125000 I-0.107453 J-7.437733
G03 X139.105796 Y117.357894 Z-0.125000 I3.017601 J-11.066571
G02 X136.308090 Y116.143042 Z-0.125000 I-6.275518 J10.623135
G03 X135.777202 Y115.654309 Z-0.125000 I0.229852 J-0.782384
G03 X135.762958 Y114.827636 Z-0.125000 I1.121164 J-0.432777
G03 X136.867008 Y114.349271 Z-0.125000 I0.771649 J0.267702
G02 X144.306511 Y116.843835 Z-0.125000 I16.726118 J-37.541418
G02 X144.741400 Y116.542645 Z-0.125000 I0.080725 J-0.348005
G02 X144.480313 Y116.205231 Z-0.125000 I-0.297712 J-0.039354
G03 X141.288476 Y115.372334 Z-0.125000 I1.516591 J-12.344239
G03 X138.231427 Y113.998443 Z-0.125000 I18.604588 J-45.485191
G02 X137.263270 Y113.613519 Z-0.125000 I-2.944579 J5.996172
G03 X136.236209 Y112.874700 Z-0.125000 I0.589232 J-1.902401
G03 X142.738786 Y113.064133 Z-0.125000 I1.749332 J51.651641
G02 X149.347527 Y112.210116 Z-0.125000 I1.400343 J-15.161170
G03 X143.623840 Y112.386888 Z-0.125000 I-11.110266 J-266.986239
G03 X137.632686 Y111.800517 Z-0.125000 I-0.516591 J-25.621819
G01 X137.632686 Y111.800517 Z-0.125000
G00 Z5.000000

(End cutting path id: path4067)


(Start cutting path id: path4277)
(Change tool to Default tool)

G00 Z5.000000
G00 X124.787066 Y111.384730

G01 Z-0.125000 F100.0(Penetrate)
G02 X124.805734 Y111.026840 Z-0.125000 I-0.070966 J-0.183133 F400.000000
G02 X124.567523 Y111.225040 Z-0.125000 I-0.076867 J0.149865
G02 X124.662021 Y111.322774 Z-0.125000 I0.141675 J-0.042433
G03 X124.787066 Y111.384730 Z-0.125000 I-0.164952 J0.490091
G01 X124.787066 Y111.384730 Z-0.125000
G00 Z5.000000

(End cutting path id: path4277)


(Start cutting path id: path4067)
(Change tool to Default tool)

G00 Z5.000000
G00 X127.709220 Y102.360252

G01 Z-0.125000 F100.0(Penetrate)
G03 X127.828493 Y100.660262 Z-0.125000 I2.883597 J-0.651863 F400.000000
G02 X127.719831 Y99.569145 Z-0.125000 I-1.150849 J-0.436359
G02 X127.218263 Y100.930484 Z-0.125000 I1.718410 J1.406195
G03 X126.670045 Y102.431675 Z-0.125000 I-2.465905 J-0.049824
G03 X126.675348 Y100.622272 Z-0.125000 I7.898668 J-0.881561
G02 X126.365110 Y99.016037 Z-0.125000 I-2.681354 J-0.315185
G02 X126.280982 Y101.908752 Z-0.125000 I6.288007 J1.630454
G03 X125.671418 Y102.718027 Z-0.125000 I-0.666664 J0.132060
G03 X125.249075 Y102.342811 Z-0.125000 I-0.032737 J-0.388454
G02 X124.790845 Y99.229914 Z-0.125000 I-14.044115 J0.477169
G02 X124.406343 Y97.996636 Z-0.125000 I-14.228408 J3.759451
G02 X123.766009 Y96.802925 Z-0.125000 I-4.372554 J1.576938
G02 X124.527011 Y99.907534 Z-0.125000 I1.642908 J1.242864
G03 X124.591006 Y103.023470 Z-0.125000 I-0.745571 J1.573938
G03 X123.997865 Y102.854801 Z-0.125000 I-0.207926 J-0.396060
G03 X123.100135 Y101.151330 Z-0.125000 I17.193347 J-10.149194
G02 X122.243631 Y99.325047 Z-0.125000 I-519.885196 J242.705647
G02 X121.870538 Y99.230089 Z-0.125000 I-0.225694 J0.106332
G02 X122.506313 Y101.429137 Z-0.125000 I0.719893 J0.983298
G03 X123.683619 Y103.260906 Z-0.125000 I-0.093715 J1.354454
G03 X123.325694 Y103.470972 Z-0.125000 I-0.308628 J-0.115899
G02 X122.984406 Y103.449075 Z-0.125000 I-0.297599 J1.967787
G03 X120.914046 Y103.360823 Z-0.125000 I-0.353140 J-16.044518
G03 X119.257218 Y102.196307 Z-0.125000 I0.223771 J-2.079267
G02 X117.804944 Y100.069730 Z-0.125000 I-7.935364 J3.860010
G03 X114.630409 Y96.402831 Z-0.125000 I55.602263 J-51.344005
G03 X112.246826 Y87.458562 Z-0.125000 I8.794158 J-7.133317
G03 X114.578335 Y83.912005 Z-0.125000 I5.126595 J0.830581
G03 X121.572247 Y80.594329 Z-0.125000 I16.659202 J26.088170
G03 X122.489846 Y80.774698 Z-0.125000 I0.298195 J0.907234
G02 X124.325761 Y81.615858 Z-0.125000 I2.402315 J-2.819176
G03 X126.639367 Y82.854628 Z-0.125000 I-0.605012 J3.909862
G02 X127.780166 Y83.397190 Z-0.125000 I1.238475 J-1.133426
G03 X129.024481 Y84.142805 Z-0.125000 I-0.091099 J1.563121
G02 X130.825913 Y85.973661 Z-0.125000 I4.846514 J-2.966957
G02 X133.016436 Y86.858196 Z-0.125000 I3.501765 J-5.517361
G03 X136.336957 Y89.162461 Z-0.125000 I-1.030154 J5.029108
G02 X137.731536 Y90.206022 Z-0.125000 I2.047165 J-1.282147
G03 X139.265500 Y91.177256 Z-0.125000 I-0.855132 J3.047580
G03 X142.000607 Y94.836954 Z-0.125000 I-23.427417 J20.360587
G03 X144.137723 Y98.846235 Z-0.125000 I-24.444419 J15.604134
G03 X144.172479 Y100.353384 Z-0.125000 I-1.824993 J0.796061
G03 X143.167486 Y101.779710 Z-0.125000 I-3.311976 J-1.266403
G02 X139.705669 Y108.950089 Z-0.125000 I6.459334 J7.539391
G02 X139.728863 Y109.236181 Z-0.125000 I1.217949 J0.045243
G03 X139.594896 Y109.511961 Z-0.125000 I-0.247945 J0.049983
G03 X136.361713 Y110.182316 Z-0.125000 I-2.861469 J-5.668977
G03 X135.008824 Y109.887420 Z-0.125000 I0.260758 J-4.447040
G03 X133.311827 Y109.167892 Z-0.125000 I11.026812 J-28.367500
G02 X131.410302 Y109.022995 Z-0.125000 I-1.146043 J2.490274
G03 X131.096715 Y109.021750 Z-0.125000 I-0.154656 J-0.539479
G03 X130.795531 Y108.803048 Z-0.125000 I0.157624 J-0.533806
G03 X130.824312 Y108.111162 Z-0.125000 I0.475721 J-0.326753
G02 X132.426114 Y105.434121 Z-0.125000 I-8.314848 J-6.792911
G02 X131.660870 Y104.302534 Z-0.125000 I-0.755558 J-0.313593
G03 X130.638638 Y104.122736 Z-0.125000 I-0.033239 J-2.806841
G03 X130.411056 Y103.074154 Z-0.125000 I0.225049 J-0.597832
G02 X130.515132 Y102.470480 Z-0.125000 I-0.377451 J-0.375883
G02 X130.201545 Y102.594231 Z-0.125000 I-0.078243 J0.260923
G03 X129.815332 Y102.665910 Z-0.125000 I-0.223988 J-0.130553
G03 X129.853699 Y102.213455 Z-0.125000 I0.670621 J-0.170986
G02 X129.753492 Y101.690945 Z-0.125000 I-0.425243 J-0.189311
G02 X129.422749 Y102.039586 Z-0.125000 I0.811121 J1.100683
G02 X129.405628 Y102.680198 Z-0.125000 I0.507270 J0.334092
G03 X129.111535 Y103.030256 Z-0.125000 I-0.209564 J0.122507
G03 X128.630531 Y101.916435 Z-0.125000 I0.292363 J-0.787028
G03 X128.880460 Y101.345666 Z-0.125000 I22.042779 J9.312020
G02 X128.800917 Y100.485844 Z-0.125000 I-0.794124 J-0.360126
G02 X128.272779 Y101.340508 Z-0.125000 I0.520353 J0.912063
G03 X127.709220 Y102.360252 Z-0.125000 I-1.336799 J-0.073182
G01 X127.709220 Y102.360252 Z-0.125000
G00 Z5.000000

(End cutting path id: path4067)


(Start cutting path id: path4067)
(Change tool to Default tool)

G00 Z5.000000
G00 X116.269343 Y100.235290

G01 Z-0.125000 F100.0(Penetrate)
G01 X116.152273 Y100.490743 Z-0.125000 F400.000000
G02 X108.161784 Y96.319797 Z-0.125000 I-110.082298 J201.150769
G02 X107.729276 Y96.526430 Z-0.125000 I-0.135460 J0.272430
G02 X108.842202 Y97.720976 Z-0.125000 I0.967484 J0.214337
G03 X115.610263 Y101.355032 Z-0.125000 I0.943913 J6.361501
G03 X110.669734 Y100.362380 Z-0.125000 I2.071170 J-23.099492
G03 X106.133650 Y98.729314 Z-0.125000 I18.966813 J-59.799530
G02 X110.006550 Y101.194416 Z-0.125000 I4.415818 J-2.662761
G03 X113.500735 Y101.618351 Z-0.125000 I-12.148952 J114.746904
G03 X114.312177 Y102.097027 Z-0.125000 I-0.165139 J1.207049
G02 X115.678832 Y103.064832 Z-0.125000 I2.174534 J-1.621857
G03 X113.817333 Y103.071449 Z-0.125000 I-0.943469 J-3.574790
G02 X112.057914 Y103.182984 Z-0.125000 I-0.708121 J2.762510
G03 X106.285617 Y104.168110 Z-0.125000 I-5.213659 J-13.145365
G03 X97.162106 Y102.413343 Z-0.125000 I1.223927 J-30.958720
G03 X90.544074 Y98.230165 Z-0.125000 I5.907259 J-16.672273
G03 X88.367760 Y91.702336 Z-0.125000 I5.464196 J-5.448405
G02 X87.299428 Y87.696266 Z-0.125000 I-5.259186 J-0.742975
G03 X87.214310 Y85.134342 Z-0.125000 I1.720390 J-1.339535
G02 X88.191173 Y82.634191 Z-0.125000 I-5.032413 J-3.407189
G03 X88.686740 Y81.420875 Z-0.125000 I2.748974 J0.414929
G03 X90.926190 Y79.490630 Z-0.125000 I5.173619 J3.738162
G02 X93.248138 Y77.830888 Z-0.125000 I-4.605276 J-8.896754
G03 X93.766876 Y77.653447 Z-0.125000 I0.450815 J0.470956
G02 X94.467120 Y77.704597 Z-0.125000 I1.162840 J-11.100536
G02 X98.250580 Y76.409717 Z-0.125000 I0.228506 J-5.507149
G03 X100.982775 Y76.038111 Z-0.125000 I1.658679 J1.965371
G02 X103.322687 Y75.794790 Z-0.125000 I0.964299 J-2.099375
G03 X107.767028 Y74.953290 Z-0.125000 I3.091667 J4.171450
G02 X110.645677 Y74.797789 Z-0.125000 I1.202767 J-4.456945
G03 X115.338543 Y73.696091 Z-0.125000 I6.229134 J15.988157
G03 X120.142198 Y75.828256 Z-0.125000 I0.484218 J5.386355
G02 X122.118948 Y78.422918 Z-0.125000 I242.084360 J-182.382230
G03 X121.751496 Y79.154359 Z-0.125000 I-0.359839 J0.277247
G02 X120.449146 Y79.538092 Z-0.125000 I-0.038090 J2.272611
G03 X114.801824 Y82.927336 Z-0.125000 I-37.176017 J-55.544936
G02 X113.075831 Y84.413581 Z-0.125000 I2.465462 J4.608499
G02 X111.627432 Y91.663205 Z-0.125000 I6.915392 J5.151122
G02 X113.147417 Y95.439488 Z-0.125000 I14.472114 J-3.631099
G02 X114.125097 Y97.130754 Z-0.125000 I182.828402 J-104.560409
G03 X113.999772 Y97.362965 Z-0.125000 I-0.133387 J0.077935
G03 X113.535568 Y97.261521 Z-0.125000 I-0.046932 J-0.898047
G03 X109.556092 Y95.103334 Z-0.125000 I72.852416 J-139.080385
G02 X109.287647 Y94.993005 Z-0.125000 I-0.586147 J1.044431
G02 X108.764206 Y95.159999 Z-0.125000 I-0.133525 J0.485325
G02 X112.611334 Y97.411882 Z-0.125000 I10.968408 J-14.326315
G03 X116.269343 Y100.235290 Z-0.125000 I-3.662763 J8.526840
G01 X116.269343 Y100.235290 Z-0.125000
G00 Z5.000000

(End cutting path id: path4067)


(Start cutting path id: path4133)
(Change tool to Default tool)

G00 Z5.000000
G00 X132.622313 Y82.264590

G01 Z-0.125000 F100.0(Penetrate)
G02 X134.183763 Y81.613557 Z-0.125000 I-0.210641 J-2.703227 F400.000000
G02 X136.821557 Y79.008765 Z-0.125000 I-18.143868 J-21.011746
G02 X139.214851 Y75.934753 Z-0.125000 I-23.034288 J-20.402174
G02 X139.363119 Y75.266462 Z-0.125000 I-0.762808 J-0.519832
G02 X138.938422 Y75.325041 Z-0.125000 I-0.152012 J0.466730
G02 X138.678779 Y75.589355 Z-0.125000 I0.504770 J0.755531
G03 X135.976354 Y79.055976 Z-0.125000 I-20.359061 J-13.084373
G03 X132.845187 Y81.863579 Z-0.125000 I-17.709027 J-16.600104
G02 X132.730830 Y82.037851 Z-0.125000 I0.184589 J0.245782
G03 X132.644122 Y82.292659 Z-0.125000 I-1.406418 J-0.336429
G01 X132.622313 Y82.264590 Z-0.125000
G01 X132.622313 Y82.264590 Z-0.125000
G00 Z5.000000

(End cutting path id: path4133)


(Start cutting path id: path4141)
(Change tool to Default tool)

G00 Z5.000000
G00 X130.454655 Y79.823176

G01 Z-0.125000 F100.0(Penetrate)
G03 X129.918937 Y80.602264 Z-0.125000 I-1.883561 J-0.721447 F400.000000
G02 X129.362682 Y81.816205 Z-0.125000 I1.121133 J1.248143
G02 X130.181772 Y81.051290 Z-0.125000 I-5.843228 J-7.078083
G02 X130.437384 Y79.816090 Z-0.125000 I-0.869567 J-0.823996
G01 X130.454655 Y79.823117 Z-0.125000
G01 X130.454655 Y79.823176 Z-0.125000
G00 Z5.000000

(End cutting path id: path4141)


(Start cutting path id: path4135)
(Change tool to Default tool)

G00 Z5.000000
G00 X136.183514 Y70.370634

G01 Z-0.125000 F100.0(Penetrate)
G02 X134.579268 Y73.143393 Z-0.125000 I12.598365 J9.139554 F400.000000
G03 X133.044284 Y75.984783 Z-0.125000 I-19.962199 J-8.948723
G03 X131.725389 Y77.879344 Z-0.125000 I-24.968772 J-15.975617
G02 X130.454655 Y79.823176 Z-0.125000 I13.615655 J10.288179
G01 X130.433398 Y79.813026 Z-0.125000
G02 X130.809869 Y79.721196 Z-0.125000 I0.132172 J-0.275754
G02 X136.078901 Y71.536052 Z-0.125000 I-53.039358 J-39.931583
G02 X136.276569 Y70.987002 Z-0.125000 I-1.681060 J-0.915316
G02 X136.155027 Y70.345415 Z-0.125000 I-0.864495 J-0.168537
G01 X136.183514 Y70.370634 Z-0.125000
G00 Z5.000000

(End cutting path id: path4135)


(Start cutting path id: path4139)
(Change tool to Default tool)

G00 Z5.000000
G00 X136.155010 Y70.345454

G01 Z-0.125000 F100.0(Penetrate)
G02 X137.241644 Y69.193468 Z-0.125000 I-0.523826 J-1.582597 F400.000000
G02 X137.588032 Y67.690144 Z-0.125000 I-21.411287 J-5.725037
G02 X136.758601 Y68.928691 Z-0.125000 I5.725885 J4.731511
G02 X136.187483 Y70.373952 Z-0.125000 I6.068300 J3.233461
G03 X136.181149 Y70.368516 Z-0.125000 I0.206754 J-0.247263
G03 X136.155010 Y70.345454 Z-0.125000 I18.350135 J-20.825021
G01 X136.155010 Y70.345454 Z-0.125000
G00 Z5.000000

(End cutting path id: path4139)


(Start cutting path id: path4067)
(Change tool to Default tool)

G00 Z5.000000
G00 X135.522744 Y68.807914

G01 Z-0.125000 F100.0(Penetrate)
G02 X135.073794 Y68.908337 Z-0.125000 I-0.170805 J0.290145 F400.000000
G02 X130.842825 Y75.221547 Z-0.125000 I383.669350 J261.700782
G03 X132.170685 Y70.447194 Z-0.125000 I17.866915 J2.397378
G02 X133.708023 Y65.862153 Z-0.125000 I-25.935650 J-11.246321
G02 X131.072910 Y72.000022 Z-0.125000 I116.492545 J53.647216
G02 X128.919972 Y78.727599 Z-0.125000 I47.063243 J18.769310
G03 X128.289472 Y76.400616 Z-0.125000 I3.556709 J-2.212605
G02 X128.022558 Y74.429305 Z-0.125000 I-6.168594 J-0.168503
G02 X127.939832 Y76.693796 Z-0.125000 I22.978039 J1.973184
G02 X128.317262 Y78.923030 Z-0.125000 I7.318045 J-0.092442
G03 X128.080436 Y80.146136 Z-0.125000 I-1.201436 J0.401852
G03 X127.634078 Y80.042850 Z-0.125000 I-0.196431 J-0.167238
G03 X126.952736 Y73.898990 Z-0.125000 I21.455765 J-5.489110
G02 X126.383434 Y71.099418 Z-0.125000 I-6.257970 J-0.185092
G02 X126.522404 Y76.481987 Z-0.125000 I19.185401 J2.197742
G02 X127.585835 Y81.781675 Z-0.125000 I82.419180 J-13.781629
G03 X125.773713 Y80.831486 Z-0.125000 I1.590446 J-5.236228
G02 X123.981204 Y80.099320 Z-0.125000 I-2.154102 J2.713411
G03 X123.601306 Y79.807237 Z-0.125000 I0.047760 J-0.455219
G03 X123.402202 Y79.209831 Z-0.125000 I6.887962 J-2.627507
G02 X120.966530 Y75.151410 Z-0.125000 I-8.798357 J2.520258
G02 X117.501645 Y72.816323 Z-0.125000 I-8.309176 J8.591248
G03 X117.406947 Y71.440494 Z-0.125000 I0.316022 J-0.712925
G02 X119.269952 Y67.639783 Z-0.125000 I-2.097243 J-3.384964
G03 X119.879494 Y66.604600 Z-0.125000 I1.004688 J-0.105462
G03 X120.773354 Y66.780277 Z-0.125000 I0.317414 J0.746828
G02 X123.956651 Y68.670449 Z-0.125000 I5.229446 J-5.181440
G02 X127.568097 Y68.602763 Z-0.125000 I1.696471 J-5.863105
G02 X132.749045 Y65.721174 Z-0.125000 I-4.964499 J-15.024242
G02 X133.474002 Y60.962265 Z-0.125000 I-2.330901 J-2.789756
G03 X132.607677 Y59.128585 Z-0.125000 I6.521529 J-4.202597
G03 X132.289840 Y57.025083 Z-0.125000 I6.344769 J-2.034452
G02 X131.706441 Y54.914745 Z-0.125000 I-3.959999 J-0.041075
G03 X131.602629 Y54.415279 Z-0.125000 I0.643299 J-0.394229
G03 X131.829712 Y53.788034 Z-0.125000 I1.603850 J0.225917
G03 X136.111857 Y46.892244 Z-0.125000 I3690.340599 J2286.849090
G02 X136.253886 Y46.513554 Z-0.125000 I-0.873222 J-0.543483
G03 X136.505445 Y46.318661 Z-0.125000 I0.230227 J0.037370
G02 X139.598532 Y45.473515 Z-0.125000 I0.418053 J-4.552650
G02 X141.318411 Y43.003257 Z-0.125000 I-2.658790 J-3.684990
G03 X143.526441 Y39.496980 Z-0.125000 I6.948903 J1.927600
G03 X144.561667 Y39.000255 Z-0.125000 I1.414951 J1.621783
G03 X144.754548 Y41.701655 Z-0.125000 I-7.135844 J1.867087
G02 X144.853731 Y47.116993 Z-0.125000 I20.495215 J2.333204
G02 X145.463312 Y48.731649 Z-0.125000 I4.074030 J-0.615674
G03 X146.767405 Y52.888763 Z-0.125000 I-6.916933 J4.452958
G02 X147.056535 Y54.524542 Z-0.125000 I5.991520 J-0.215582
G03 X146.970281 Y56.403072 Z-0.125000 I-2.539928 J0.824623
G02 X147.009230 Y57.359024 Z-0.125000 I1.018090 J0.437289
G03 X147.248041 Y58.509705 Z-0.125000 I-1.862732 J0.986711
G02 X147.255744 Y60.118163 Z-0.125000 I9.712964 J0.757735
G03 X146.391279 Y70.133764 Z-0.125000 I-29.000264 J2.542042
G02 X145.264726 Y74.767870 Z-0.125000 I108.924524 J28.933583
G03 X144.638518 Y75.958959 Z-0.125000 I-2.492791 J-0.550413
G02 X143.983074 Y77.133190 Z-0.125000 I2.055017 J1.917136
G03 X142.568934 Y80.710498 Z-0.125000 I-17.061178 J-4.676264
G03 X141.587314 Y82.357787 Z-0.125000 I-16.311229 J-8.603745
G03 X139.462556 Y85.128062 Z-0.125000 I-22.385458 J-14.969337
G03 X137.171460 Y87.188254 Z-0.125000 I-9.741763 J-8.529572
G03 X135.912777 Y87.174082 Z-0.125000 I-0.619507 J-0.880517
G02 X133.191433 Y85.707521 Z-0.125000 I-6.513549 J8.828374
G03 X131.496970 Y84.876742 Z-0.125000 I3.174699 J-8.618553
G03 X131.691934 Y83.259752 Z-0.125000 I0.476989 J-0.762737
G02 X132.622313 Y82.264590 Z-0.125000 I-0.445296 J-1.348796
G01 X132.644088 Y82.292620 Z-0.125000
G02 X131.437356 Y82.645885 Z-0.125000 I-0.181228 J1.618632
G03 X130.343020 Y83.209241 Z-0.125000 I-1.897414 J-2.341215
G03 X128.821422 Y82.985385 Z-0.125000 I-0.507291 J-1.835080
G03 X128.430588 Y81.892546 Z-0.125000 I0.500710 J-0.795377
G02 X129.079134 Y79.538912 Z-0.125000 I-21.784582 J-7.268935
G03 X130.030631 Y77.306163 Z-0.125000 I6.371141 J1.395974
G03 X132.851414 Y73.141575 Z-0.125000 I389.371817 J260.694078
G02 X135.518637 Y68.808519 Z-0.125000 I-42.903304 J-29.396667
G01 X135.522744 Y68.807914 Z-0.125000
G00 Z5.000000

(End cutting path id: path4067)


(Start cutting path id: path4137)
(Change tool to Default tool)

G00 Z5.000000
G00 X135.518620 Y68.808500

G01 Z-0.125000 F100.0(Penetrate)
G03 X137.252604 Y65.688682 Z-0.125000 I12.024295 J4.641281 F400.000000
G02 X138.321512 Y63.115745 Z-0.125000 I-4.452867 J-3.358415
G02 X137.988904 Y63.117387 Z-0.125000 I-0.164511 J0.364169
G02 X137.866550 Y63.244028 Z-0.125000 I0.102834 J0.221779
G03 X135.641356 Y67.003971 Z-0.125000 I-14.994188 J-6.335378
G02 X135.522502 Y68.807953 Z-0.125000 I1.249995 J0.988261
G01 X135.518620 Y68.807953 Z-0.125000
G01 X135.518620 Y68.808500 Z-0.125000
G00 Z5.000000

(End cutting path id: path4137)


(Start cutting path id: path4067)
(Change tool to Default tool)

G00 Z5.000000
G00 X144.148789 Y79.397532

G01 Z-0.125000 F100.0(Penetrate)
G03 X144.269256 Y79.470379 Z-0.125000 I-783.309148 J1293.815050 F400.000000
G03 X144.389728 Y79.543245 Z-0.125000 I-857.679557 J1420.170404
G02 X144.209988 Y80.124800 Z-0.125000 I9.098522 J3.130624
G03 X143.989791 Y80.665661 Z-0.125000 I-2.381307 J-0.654230
G03 X143.468628 Y81.337641 Z-0.125000 I-2.418909 J-1.337929
G02 X143.132097 Y81.990183 Z-0.125000 I0.760149 J0.805076
G03 X142.562348 Y83.636158 Z-0.125000 I-4.451258 J-0.619192
G02 X142.109762 Y85.428639 Z-0.125000 I2.879533 J1.680435
G03 X141.523667 Y88.521457 Z-0.125000 I-7.179329 J0.241444
G02 X141.184932 Y91.407297 Z-0.125000 I4.642462 J2.007724
G03 X140.159935 Y91.851181 Z-0.125000 I-0.565455 J0.099658
G03 X137.677823 Y87.882643 Z-0.125000 I22.331191 J-16.727470
G02 X139.749818 Y86.123215 Z-0.125000 I-1.313793 J-3.646950
G03 X141.405890 Y84.116883 Z-0.125000 I6.294890 J3.509300
G02 X142.886594 Y81.799587 Z-0.125000 I-2.966801 J-3.527441
G03 X144.148789 Y79.397532 Z-0.125000 I6.049066 J1.645923
G01 X144.148789 Y79.397532 Z-0.125000
G00 Z5.000000

(End cutting path id: path4067)


(Start cutting path id: path4129)
(Change tool to Default tool)

G00 Z5.000000
G00 X162.030387 Y89.316494

G01 Z-0.125000 F100.0(Penetrate)
G02 X163.595211 Y88.560937 Z-0.125000 I-0.009868 J-2.018660 F400.000000
G02 X164.584765 Y87.074219 Z-0.125000 I-7.856709 J-6.302076
G02 X162.999811 Y88.515174 Z-0.125000 I0.528326 J2.173273
G03 X162.033147 Y89.330002 Z-0.125000 I-1.167896 J-0.404713
G01 X162.031282 Y89.325313 Z-0.125000
G03 X162.030387 Y89.316533 Z-0.125000 I0.080655 J-0.012661
G01 X162.030387 Y89.316494 Z-0.125000
G00 Z5.000000

(End cutting path id: path4129)


(Start cutting path id: path4067)
(Change tool to Default tool)

G00 Z5.000000
G00 X162.030870 Y89.326684

G01 Z-0.125000 F100.0(Penetrate)
G03 X159.029271 Y91.882196 Z-0.125000 I-23.912262 J-25.045818 F400.000000
G03 X155.704218 Y93.468352 Z-0.125000 I-5.510823 J-7.274091
G03 X155.887353 Y93.071717 Z-0.125000 I0.657990 J0.063212
G02 X162.974007 Y85.628842 Z-0.125000 I-436.474648 J-422.679809
G02 X169.712628 Y78.272247 Z-0.125000 I-335.778235 J-314.336540
G02 X169.783520 Y77.457654 Z-0.125000 I-0.507132 J-0.454516
G01 X169.783520 Y77.473270 Z-0.125000
G03 X169.331312 Y78.208055 Z-0.125000 I-2.827122 J-1.233349
G03 X168.871648 Y78.234281 Z-0.125000 I-0.242023 J-0.200569
G03 X168.980646 Y76.822045 Z-0.125000 I0.634705 J-0.661336
G02 X171.301864 Y73.553676 Z-0.125000 I-3.423299 J-4.889707
G01 X171.325537 Y73.579402 Z-0.125000
G02 X170.565548 Y73.958320 Z-0.125000 I-0.017381 J0.916748
G03 X165.448839 Y80.954281 Z-0.125000 I-752.540022 J-545.023950
G03 X160.338141 Y87.708117 Z-0.125000 I-292.652799 J-216.142806
G03 X159.264074 Y88.082758 Z-0.125000 I-0.825605 J-0.639992
G03 X159.616006 Y86.320106 Z-0.125000 I4.879727 J0.057829
G03 X162.914894 Y78.436211 Z-0.125000 I283.040078 J113.801396
G02 X162.449105 Y78.538048 Z-0.125000 I-0.091007 J0.699891
G02 X162.291375 Y78.724457 Z-0.125000 I0.213365 J0.340475
G03 X160.152262 Y83.479101 Z-0.125000 I-82.079457 J-34.069016
G02 X158.438076 Y88.536081 Z-0.125000 I19.218375 J9.333556
G03 X157.688187 Y90.022132 Z-0.125000 I-3.104414 J-0.634316
G03 X154.852835 Y92.836171 Z-0.125000 I-26.493345 J-23.858566
G03 X151.627385 Y95.388880 Z-0.125000 I-24.347726 J-27.450228
G03 X150.837988 Y95.592300 Z-0.125000 I-0.663927 J-0.943068
G03 X152.654567 Y89.745453 Z-0.125000 I41.095843 J9.562600
G02 X154.649705 Y84.080420 Z-0.125000 I-79.357626 J-31.132382
G02 X153.864255 Y85.097047 Z-0.125000 I2.019550 J2.372045
G02 X150.761120 Y94.308007 Z-0.125000 I35.048024 J16.935733
G03 X148.833767 Y97.346162 Z-0.125000 I-4.932451 J-0.998645
G03 X145.966047 Y99.434050 Z-0.125000 I-99.824104 J-134.095395
G03 X145.195364 Y99.109327 Z-0.125000 I-0.285051 J-0.400386
G03 X145.116717 Y96.046652 Z-0.125000 I11.776028 J-1.834749
G03 X145.734674 Y92.021737 Z-0.125000 I41.238092 J4.271507
G03 X146.388035 Y89.431582 Z-0.125000 I28.695184 J5.860822
G03 X146.640009 Y88.605411 Z-0.125000 I125.856236 J37.933368
G02 X146.504847 Y87.159052 Z-0.125000 I-1.814508 J-0.559929
G02 X145.297640 Y91.860652 Z-0.125000 I55.962580 J16.875024
G02 X144.577162 Y96.645850 Z-0.125000 I39.230564 J8.353542
G03 X142.720615 Y92.335168 Z-0.125000 I6.702941 J-5.441991
G03 X142.680397 Y88.155722 Z-0.125000 I17.053975 J-2.254026
G03 X144.302306 Y80.606691 Z-0.125000 I38.637171 J4.352445
G03 X145.997053 Y78.398694 Z-0.125000 I3.933449 J1.264717
G02 X148.058214 Y76.298231 Z-0.125000 I-3.616934 J-5.610787
G03 X150.407079 Y74.546247 Z-0.125000 I3.391909 J2.096954
G02 X150.545724 Y74.461149 Z-0.125000 I-0.075511 J-0.278518
G02 X150.663392 Y74.302350 Z-0.125000 I-0.758358 J-0.684925
G03 X152.317979 Y73.092624 Z-0.125000 I2.262874 J1.358634
G02 X156.056448 Y70.985950 Z-0.125000 I-1.785534 J-7.539030
G03 X156.376595 Y70.734551 Z-0.125000 I1.136580 J1.117843
G03 X156.754332 Y70.638892 Z-0.125000 I0.349359 J0.585912
G02 X158.849562 Y69.817148 Z-0.125000 I0.116044 J-2.786130
G03 X160.892569 Y68.907269 Z-0.125000 I2.193884 J2.177479
G02 X161.027540 Y68.842462 Z-0.125000 I-0.009334 J-0.192391
G02 X161.159476 Y68.680432 Z-0.125000 I-1.928706 J-1.705218
G03 X162.360558 Y68.118062 Z-0.125000 I1.127460 J0.844183
G02 X163.147465 Y67.755866 Z-0.125000 I0.048686 J-0.930139
G03 X164.385447 Y67.140204 Z-0.125000 I1.250503 J0.962021
G02 X165.325854 Y66.647739 Z-0.125000 I-0.009219 J-1.161734
G03 X166.536302 Y66.125822 Z-0.125000 I1.031100 J0.726748
G02 X167.454673 Y65.723154 Z-0.125000 I0.135087 J-0.940510
G03 X168.776334 Y64.751536 Z-0.125000 I2.055967 J1.411952
G02 X169.986672 Y64.376829 Z-0.125000 I-134.425492 J-436.347708
G02 X172.919671 Y63.103143 Z-0.125000 I-4.402927 J-14.152752
G03 X175.857327 Y61.929129 Z-0.125000 I5.708890 J10.022617
G02 X176.438834 Y61.679052 Z-0.125000 I-0.467004 J-1.887060
G02 X176.907838 Y61.199545 Z-0.125000 I-0.804457 J-1.255955
G03 X177.933355 Y60.289851 Z-0.125000 I1.995096 J1.216222
G02 X179.022059 Y59.701572 Z-0.125000 I-3.806167 J-8.345471
G03 X179.261129 Y60.963978 Z-0.125000 I-2.246680 J1.079308
G02 X179.233786 Y62.059130 Z-0.125000 I11.252535 J0.828853
G02 X179.569657 Y63.866855 Z-0.125000 I5.766553 J-0.136346
G03 X179.595937 Y65.260715 Z-0.125000 I-2.055812 J0.735938
G02 X179.233000 Y67.682317 Z-0.125000 I7.454422 J2.355228
G03 X178.951886 Y70.101615 Z-0.125000 I-9.832443 J0.083484
G03 X178.173187 Y72.571677 Z-0.125000 I-19.207294 J-4.697411
G02 X177.820469 Y75.295546 Z-0.125000 I5.337528 J2.075936
G02 X175.106214 Y82.482077 Z-0.125000 I519.653442 J200.371939
G02 X174.615069 Y84.494333 Z-0.125000 I8.477667 J3.135266
G03 X174.166631 Y85.730673 Z-0.125000 I-2.945765 J-0.368974
G02 X171.976766 Y89.378840 Z-0.125000 I58.318109 J37.487622
G03 X165.463529 Y98.031588 Z-0.125000 I-35.034085 J-19.593675
G02 X163.926306 Y99.765902 Z-0.125000 I14.885773 J14.742543
G03 X162.946183 Y100.728723 Z-0.125000 I-4.339865 J-3.437576
G03 X161.944529 Y101.406056 Z-0.125000 I-6.383476 J-8.360713
G03 X154.619955 Y103.315465 Z-0.125000 I-6.956769 J-11.683068
G02 X151.456261 Y103.673336 Z-0.125000 I-0.309262 J11.429004
G02 X146.753794 Y105.242408 Z-0.125000 I8.881238 J34.447944
G02 X142.268243 Y107.817776 Z-0.125000 I7.652218 J18.521921
G02 X141.606011 Y108.540773 Z-0.125000 I1.671240 J2.195566
G03 X140.903808 Y108.596511 Z-0.125000 I-0.371945 J-0.234721
G03 X141.252559 Y105.459937 Z-0.125000 I1.602846 J-1.409457
G02 X144.885703 Y101.015098 Z-0.125000 I-6.622500 J-9.120390
G03 X145.001103 Y100.908525 Z-0.125000 I0.184676 J0.084206
G03 X145.183633 Y100.852695 Z-0.125000 I0.632939 J1.743046
G02 X146.967014 Y99.973583 Z-0.125000 I-1.147406 J-4.576097
G03 X148.875950 Y99.702776 Z-0.125000 I1.185892 J1.495920
G02 X151.436410 Y99.847727 Z-0.125000 I1.490532 J-3.642352
G02 X155.666679 Y98.285182 Z-0.125000 I-7.817103 J-27.670760
G02 X159.968828 Y95.913191 Z-0.125000 I-14.395744 J-31.197441
G02 X160.267360 Y95.440027 Z-0.125000 I-0.363184 J-0.559900
G02 X159.753038 Y95.526297 Z-0.125000 I-0.131301 J0.793482
G03 X154.604468 Y97.996216 Z-0.125000 I-27.724009 J-51.189871
G03 X150.204732 Y99.407047 Z-0.125000 I-10.201528 J-24.248114
G03 X148.844185 Y98.570834 Z-0.125000 I-0.252071 J-1.114807
G03 X161.435853 Y91.323901 Z-0.125000 I51.101690 J74.227457
G02 X162.030145 Y89.316553 Z-0.125000 I-0.599934 J-1.269262
G01 X162.030870 Y89.326684 Z-0.125000
G00 Z5.000000

(End cutting path id: path4067)


(Start cutting path id: path4127)
(Change tool to Default tool)

G00 Z5.000000
G00 X169.783537 Y77.457674

G01 Z-0.125000 F100.0(Penetrate)
G02 X170.413121 Y77.477240 Z-0.125000 I0.324153 J-0.291445 F400.000000
G02 X172.267794 Y75.378524 Z-0.125000 I-13.889178 J-14.142979
G02 X174.066576 Y72.771332 Z-0.125000 I-25.626520 J-19.604641
G02 X174.246949 Y72.228158 Z-0.125000 I-1.048084 J-0.649573
G02 X173.539279 Y72.721002 Z-0.125000 I0.564096 J1.564469
G02 X173.078453 Y73.361310 Z-0.125000 I3.953229 J3.331099
G03 X171.456142 Y75.456848 Z-0.125000 I-10.186573 J-6.210437
G02 X169.785504 Y77.476842 Z-0.125000 I11.911481 J11.552246
G01 X169.784103 Y77.471321 Z-0.125000
G03 X169.783606 Y77.457713 Z-0.125000 I0.268863 J-0.016622
G01 X169.783537 Y77.457674 Z-0.125000
G00 Z5.000000

(End cutting path id: path4127)


(Start cutting path id: path4131)
(Change tool to Default tool)

G00 Z5.000000
G00 X171.302123 Y73.553637

G01 Z-0.125000 F100.0(Penetrate)
G02 X172.461353 Y72.215413 Z-0.125000 I-1.930450 J-2.843445 F400.000000
G03 X173.268009 Y70.598623 Z-0.125000 I85.947584 J41.871690
G03 X172.142888 Y71.868356 Z-0.125000 I-26.274430 J-22.148636
G02 X171.325157 Y73.578583 Z-0.125000 I2.319062 J2.159449
G01 X171.302123 Y73.553637 Z-0.125000
G01 X171.302123 Y73.553637 Z-0.125000
G00 Z5.000000

(End cutting path id: path4131)


(Start cutting path id: path4145)
(Change tool to Default tool)

G00 Z5.000000
G00 X170.545004 Y111.003883

G01 Z-0.125000 F100.0(Penetrate)
G03 X171.727897 Y109.934051 Z-0.125000 I2.848952 J1.961166 F400.000000
G02 X172.951789 Y108.575274 Z-0.125000 I-1.339736 J-2.437329
G02 X171.183620 Y109.507376 Z-0.125000 I0.525414 J3.139826
G02 X170.544314 Y111.008567 Z-0.125000 I1.652182 J1.590332
G01 X170.545004 Y111.003883 Z-0.125000
G00 Z5.000000

(End cutting path id: path4145)


(Start cutting path id: path4147)
(Change tool to Default tool)

G00 Z5.000000
G00 X170.544314 Y111.008587

G01 Z-0.125000 F100.0(Penetrate)
G02 X169.202273 Y111.452132 Z-0.125000 I-0.357960 J1.169006 F400.000000
G03 X168.327033 Y112.588484 Z-0.125000 I-27.412018 J-20.208026
G02 X169.606868 Y111.824814 Z-0.125000 I0.111637 J-1.267182
G03 X170.545177 Y111.002868 Z-0.125000 I1.332123 J0.574166
G01 X170.545084 Y111.005181 Z-0.125000
G02 X170.545177 Y111.008528 Z-0.125000 I0.088275 J-0.000756
G01 X170.544314 Y111.008587 Z-0.125000
G00 Z5.000000

(End cutting path id: path4147)


(Start cutting path id: path4143)
(Change tool to Default tool)

G00 Z5.000000
G00 X167.808662 Y115.567721

G01 Z-0.125000 F100.0(Penetrate)
G02 X167.852019 Y116.114372 Z-0.125000 I0.336165 J0.248382 F400.000000
G02 X172.498829 Y120.365717 Z-0.125000 I62.727448 J-63.897228
G02 X172.949777 Y120.569597 Z-0.125000 I0.578228 J-0.678291
G02 X173.450611 Y120.463276 Z-0.125000 I0.105894 J-0.733947
G01 X173.448540 Y120.465228 Z-0.125000
G03 X170.613538 Y118.026673 Z-0.125000 I6609.017232 J-7686.349933
G03 X167.781728 Y115.585289 Z-0.125000 I1288.720876 J-1497.675605
G01 X167.788294 Y115.580143 Z-0.125000
G03 X167.808576 Y115.568697 Z-0.125000 I0.418469 J0.717806
G01 X167.808662 Y115.567721 Z-0.125000
G00 Z5.000000

(End cutting path id: path4143)


(Start cutting path id: path4067)
(Change tool to Default tool)

G00 Z5.000000
G00 X167.808662 Y115.567721

G01 Z-0.125000 F100.0(Penetrate)
G01 X167.785783 Y115.580409 Z-0.125000 F400.000000
G03 X168.349602 Y115.159434 Z-0.125000 I0.394738 J-0.059374
G03 X170.735146 Y116.463925 Z-0.125000 I-9.143173 J19.553761
G02 X173.675064 Y118.286190 Z-0.125000 I108.015761 J-170.982491
G02 X174.623230 Y118.154322 Z-0.125000 I0.393297 J-0.646806
G02 X173.222975 Y117.204145 Z-0.125000 I-1.914758 J1.314885
G03 X171.523288 Y116.208276 Z-0.125000 I0.722780 J-3.181990
G03 X174.381638 Y116.973001 Z-0.125000 I0.330987 J4.487115
G02 X176.974163 Y117.633012 Z-0.125000 I2.208292 J-3.252451
G02 X176.444809 Y117.087706 Z-0.125000 I-0.776852 J0.224540
G03 X175.948136 Y116.633921 Z-0.125000 I0.247370 J-0.769448
G03 X180.310531 Y117.351641 Z-0.125000 I1.284674 J5.808038
G02 X181.210681 Y116.943092 Z-0.125000 I0.310047 J-0.512795
G02 X180.644709 Y116.168619 Z-0.125000 I-0.654659 J-0.115624
G02 X177.739978 Y116.176245 Z-0.125000 I-1.424591 J10.583111
G03 X177.162532 Y116.185570 Z-0.125000 I-0.326465 J-2.332354
G03 X176.661360 Y115.735238 Z-0.125000 I0.061340 J-0.572306
G03 X177.204762 Y114.983758 Z-0.125000 I0.608717 J-0.132041
G02 X178.884835 Y113.593724 Z-0.125000 I-0.206683 J-1.960142
G03 X175.229837 Y115.467105 Z-0.125000 I-39.891757 J-73.327344
G03 X173.468711 Y115.732271 Z-0.125000 I-1.309789 J-2.718154
G03 X169.414823 Y114.795708 Z-0.125000 I4.048906 J-26.767420
G03 X169.220150 Y114.540346 Z-0.125000 I0.083232 J-0.265336
G03 X169.604271 Y113.894829 Z-0.125000 I0.692713 J-0.024840
G03 X173.059154 Y112.228872 Z-0.125000 I70.657453 J142.114906
G02 X176.556233 Y110.564349 Z-0.125000 I-116.840351 J-249.981607
G02 X177.097549 Y109.877211 Z-0.125000 I-0.436450 J-0.900617
G02 X172.749849 Y111.768946 Z-0.125000 I-1.134697 J3.334112
G03 X164.825997 Y111.462554 Z-0.125000 I-3.900149 J-1.750850
G02 X160.109435 Y105.516165 Z-0.125000 I-11.155927 J4.004929
G02 X157.978007 Y104.164547 Z-0.125000 I-74.670152 J115.394374
G03 X164.860532 Y102.059055 Z-0.125000 I10.513586 J22.065574
G02 X166.532689 Y101.800274 Z-0.125000 I-28.358821 J-188.777579
G03 X173.283150 Y102.721432 Z-0.125000 I1.852025 J11.622989
G02 X174.232144 Y103.104574 Z-0.125000 I4.678907 J-10.222218
G02 X177.243783 Y103.590217 Z-0.125000 I2.853665 J-8.115633
G03 X180.340943 Y104.564562 Z-0.125000 I0.093875 J5.111256
G03 X182.523114 Y105.110768 Z-0.125000 I0.330863 J3.310300
G02 X184.508512 Y106.077409 Z-0.125000 I4.497036 J-6.714293
G02 X184.969609 Y106.133441 Z-0.125000 I0.372306 J-1.138536
G03 X185.474615 Y106.334482 Z-0.125000 I0.046023 J0.619187
G02 X187.635821 Y107.614720 Z-0.125000 I3.171415 J-2.889442
G03 X191.115218 Y109.366715 Z-0.125000 I-2.022328 J8.347240
G02 X191.743293 Y109.830641 Z-0.125000 I4.237655 J-5.079935
G02 X192.409670 Y110.155736 Z-0.125000 I1.645243 J-2.526885
G03 X195.459399 Y111.535309 Z-0.125000 I-5.777696 J16.833070
G03 X198.427832 Y113.354082 Z-0.125000 I-28.112629 J49.214631
G02 X197.771504 Y114.073079 Z-0.125000 I0.573961 J1.182993
G03 X197.162833 Y114.610851 Z-0.125000 I-0.812705 J-0.306506
G02 X194.303983 Y117.064428 Z-0.125000 I0.973040 J4.026085
G03 X189.321944 Y122.648729 Z-0.125000 I-10.408382 J-4.271329
G02 X188.623598 Y123.276961 Z-0.125000 I0.996691 J1.810186
G03 X180.703094 Y126.557783 Z-0.125000 I-6.524150 J-4.549309
G02 X178.782565 Y127.302192 Z-0.125000 I-0.348060 J1.951654
G03 X177.989061 Y127.466264 Z-0.125000 I-0.491782 J-0.377560
G02 X175.239157 Y127.006323 Z-0.125000 I-2.019715 J3.624943
G03 X169.972573 Y126.615198 Z-0.125000 I-1.870637 J-10.464868
G03 X167.331184 Y124.246501 Z-0.125000 I1.435270 J-4.257588
G03 X165.670112 Y113.952865 Z-0.125000 I17.487720 J-8.102814
G02 X167.373552 Y115.542070 Z-0.125000 I36.320763 J-37.223998
G02 X167.808662 Y115.567780 Z-0.125000 I0.233804 J-0.262143
G01 X167.808662 Y115.567721 Z-0.125000
G00 Z5.000000

(End cutting path id: path4067)


(Start cutting path id: path4149)
(Change tool to Default tool)

G00 Z5.000000
G00 X173.450611 Y120.463256

G01 Z-0.125000 F100.0(Penetrate)
G02 X173.541809 Y121.027712 Z-0.125000 I0.904935 J0.143387 F400.000000
G02 X173.998280 Y121.348861 Z-0.125000 I0.536532 J-0.277629
G02 X173.718990 Y120.810468 Z-0.125000 I-0.401875 J-0.133165
G03 X173.448299 Y120.464506 Z-0.125000 I0.110523 J-0.365356
G01 X173.450542 Y120.462554 Z-0.125000
G01 X173.450611 Y120.463256 Z-0.125000
G00 Z5.000000

(End cutting path id: path4149)


(Start cutting path id: path4067)
(Change tool to Default tool)

G00 Z5.000000
G00 X142.491548 Y144.270141

G01 Z-0.125000 F100.0(Penetrate)
G03 X142.638402 Y144.391129 Z-0.125000 I-0.335788 J0.557197 F400.000000
G02 X145.852783 Y147.254427 Z-0.125000 I14.788022 J-13.365346
G02 X148.881558 Y148.803262 Z-0.125000 I6.751771 J-9.467382
G02 X151.718475 Y148.444486 Z-0.125000 I1.048707 J-3.103089
G03 X153.401683 Y149.217630 Z-0.125000 I0.597796 J0.917364
G02 X155.275725 Y154.651114 Z-0.125000 I14.336921 J-1.904967
G02 X158.785321 Y159.064217 Z-0.125000 I17.449506 J-10.274932
G03 X161.247663 Y161.732473 Z-0.125000 I-18.880253 J19.893516
G02 X162.220410 Y162.283333 Z-0.125000 I1.183029 J-0.954774
G03 X163.039090 Y162.761976 Z-0.125000 I-0.172389 J1.234321
G02 X165.682278 Y165.290299 Z-0.125000 I9.350190 J-7.129182
G02 X171.800634 Y167.718978 Z-0.125000 I8.265611 J-11.901766
G01 X168.379106 Y169.600238 Z-0.125000
G02 X166.434398 Y169.836379 Z-0.125000 I-0.676357 J2.555724
G03 X164.741814 Y170.486194 Z-0.125000 I-3.259777 J-5.961537
G03 X154.088360 Y172.096878 Z-0.125000 I-15.041124 J-63.448035
G03 X146.857369 Y171.477848 Z-0.125000 I-1.604853 J-23.796160
G03 X143.906195 Y172.808431 Z-0.125000 I-15.212943 J-29.803569
G03 X142.204195 Y173.054778 Z-0.125000 I-1.373669 J-3.487917
G03 X138.577476 Y172.017905 Z-0.125000 I0.870966 J-9.907532
G03 X135.311620 Y168.527675 Z-0.125000 I3.157630 J-6.227705
G03 X135.869434 Y167.090850 Z-0.125000 I1.015112 J-0.432599
G02 X138.136425 Y163.929970 Z-0.125000 I-1.618464 J-3.554153
G03 X138.164115 Y163.855876 Z-0.125000 I0.154827 J0.015639
G02 X139.582094 Y159.680104 Z-0.125000 I-6.358385 J-4.487775
G03 X141.790942 Y152.464854 Z-0.125000 I14.833230 J0.595258
G02 X142.491548 Y144.270141 Z-0.125000 I-7.740785 J-4.789103
G01 X142.491548 Y144.270141 Z-0.125000
G00 Z5.000000

(End cutting path id: path4067)


(Start cutting path id: path4067)
(Change tool to Default tool)

G00 Z5.000000
G00 X115.358109 Y132.458870

G01 Z-0.125000 F100.0(Penetrate)
G02 X117.070157 Y130.612843 Z-0.125000 I-0.868062 J-2.521971 F400.000000
G03 X117.755404 Y128.178359 Z-0.125000 I67.393839 J17.656014
G02 X119.180663 Y121.676033 Z-0.125000 I-41.564572 J-12.517995
G03 X120.112376 Y121.119564 Z-0.125000 I0.689672 J0.096507
G03 X120.484287 Y121.689702 Z-0.125000 I-0.198675 J0.535970
G03 X119.597956 Y125.910494 Z-0.125000 I-14.678989 J-0.879007
G02 X116.685673 Y134.319767 Z-0.125000 I201.045213 J74.334516
G03 X114.875299 Y139.201214 Z-0.125000 I-58.281810 J-18.838447
G03 X113.733420 Y141.580969 Z-0.125000 I-24.484558 J-10.284604
G02 X112.829767 Y144.176447 Z-0.125000 I7.485716 J4.061308
G03 X110.780196 Y149.271724 Z-0.125000 I-13.009432 J-2.273176
G03 X106.015199 Y152.316023 Z-0.125000 I-5.881107 J-3.953943
G02 X103.556003 Y153.542849 Z-0.125000 I0.721773 J4.524973
G03 X101.100691 Y155.170394 Z-0.125000 I-5.650766 J-5.858925
G03 X91.979998 Y155.029377 Z-0.125000 I-4.402000 J-10.312048
G03 X87.474436 Y149.220741 Z-0.125000 I3.371279 J-7.266712
G02 X87.354450 Y148.941354 Z-0.125000 I-0.677016 J0.125293
G02 X87.154748 Y148.699334 Z-0.125000 I-2.061840 J1.497917
G03 X85.328789 Y144.419184 Z-0.125000 I4.982397 J-4.655108
G02 X84.948941 Y143.115479 Z-0.125000 I-2.992923 J0.164830
G03 X82.476819 Y137.164673 Z-0.125000 I23.801921 J-13.376839
G03 X82.170774 Y131.154903 Z-0.125000 I13.001761 J-3.674787
G02 X82.097816 Y130.646062 Z-0.125000 I-0.814413 J-0.142879
G02 X81.807727 Y130.101684 Z-0.125000 I-8.890673 J4.388194
G03 X82.587768 Y127.763974 Z-0.125000 I1.431922 J-0.821196
G02 X84.966523 Y125.683383 Z-0.125000 I-2.028735 J-4.719587
G03 X89.392191 Y121.127439 Z-0.125000 I11.880271 J7.113026
G02 X98.763510 Y114.961189 Z-0.125000 I-223.966656 J-350.583435
G03 X99.747050 Y114.708469 Z-0.125000 I0.844570 J1.246674
G03 X100.743303 Y115.158825 Z-0.125000 I-0.154725 J1.669381
G02 X104.114863 Y115.486507 Z-0.125000 I1.896958 J-2.008995
G03 X105.555027 Y115.552457 Z-0.125000 I0.672772 J1.066086
G02 X107.009996 Y116.351574 Z-0.125000 I3.333102 J-4.344542
G02 X108.878084 Y116.637044 Z-0.125000 I1.643813 J-4.501925
G03 X105.918966 Y120.084903 Z-0.125000 I-58.887973 J-47.546732
G02 X103.481508 Y123.458500 Z-0.125000 I13.564717 J12.367984
G02 X106.571119 Y119.745299 Z-0.125000 I-4.910994 J-7.228221
G03 X109.514578 Y117.446170 Z-0.125000 I3.607713 J1.585028
G03 X107.834293 Y119.692236 Z-0.125000 I-7.051359 J-3.523587
G02 X106.154890 Y122.032554 Z-0.125000 I4.971019 J5.339910
G02 X109.125504 Y118.627116 Z-0.125000 I-3.737972 J-6.259064
G03 X111.497218 Y116.687209 Z-0.125000 I3.035254 J1.291104
G02 X108.136147 Y121.186623 Z-0.125000 I22.063007 J19.986178
G02 X105.295367 Y126.683372 Z-0.125000 I37.718747 J22.975911
G02 X105.901624 Y126.158947 Z-0.125000 I-0.459747 J-1.144128
G03 X108.243661 Y122.241804 Z-0.125000 I160.532450 J93.322709
G03 X111.898063 Y118.640254 Z-0.125000 I9.137402 J5.616702
G01 X111.963136 Y118.708913 Z-0.125000
G03 X110.838961 Y120.292176 Z-0.125000 I-29.577845 J-19.810622
G02 X106.586937 Y128.795725 Z-0.125000 I21.102740 J15.866831
G02 X109.272889 Y124.572514 Z-0.125000 I-21.571155 J-16.684932
G03 X111.776858 Y120.145165 Z-0.125000 I56.367780 J28.958094
G03 X112.054579 Y121.164962 Z-0.125000 I-0.691389 J0.736000
G03 X110.789472 Y124.953633 Z-0.125000 I-51.261228 J-15.011504
G03 X109.176394 Y128.945301 Z-0.125000 I-82.687791 J-31.093311
G02 X109.246153 Y129.184243 Z-0.125000 I0.178908 J0.077422
G02 X109.754662 Y129.027328 Z-0.125000 I0.191179 J-0.282863
G02 X110.759482 Y126.311146 Z-0.125000 I-57.258969 J-22.726242
G03 X111.779688 Y123.397465 Z-0.125000 I243.945374 J83.780362
G03 X112.313640 Y123.024814 Z-0.125000 I0.528696 J0.188679
G03 X111.606765 Y125.799786 Z-0.125000 I-6.047008 J-0.062849
G02 X110.881912 Y128.530863 Z-0.125000 I5.495121 J2.920185
G02 X111.531262 Y127.580254 Z-0.125000 I-1.730920 J-1.879456
G03 X113.754283 Y122.056395 Z-0.125000 I262.776326 J102.542449
G03 X116.029486 Y116.928340 Z-0.125000 I106.110057 J44.009889
G03 X116.756294 Y116.703664 Z-0.125000 I0.466353 J0.220693
G03 X116.875532 Y117.021084 Z-0.125000 I-0.135689 J0.232077
G03 X115.008351 Y122.436854 Z-0.125000 I-303.141892 J-101.483659
G03 X113.037636 Y127.875444 Z-0.125000 I-408.327722 J-144.884382
G02 X112.869521 Y128.472148 Z-0.125000 I3.651603 J1.350831
G02 X114.847862 Y125.684608 Z-0.125000 I-0.055696 J-2.135321
G03 X116.847207 Y119.863400 Z-0.125000 I4.899704 J-1.571104
G03 X115.695993 Y124.084689 Z-0.125000 I-14.425867 J-1.666544
G02 X114.391230 Y128.032684 Z-0.125000 I19.368096 J8.590517
G02 X114.800425 Y127.690479 Z-0.125000 I-0.105236 J-0.541589
G02 X117.514206 Y119.751084 Z-0.125000 I-96.866996 J-37.543813
G03 X117.792148 Y119.804379 Z-0.125000 I0.136313 J0.040510
G03 X114.161592 Y132.140916 Z-0.125000 I-32.851835 J-2.965570
G02 X113.894974 Y132.745132 Z-0.125000 I4.380273 J2.293788
G02 X113.865871 Y133.840741 Z-0.125000 I1.626541 J0.591397
G01 X116.725392 Y128.308828 Z-0.125000
G01 X116.942606 Y128.445543 Z-0.125000
G03 X116.244958 Y130.480298 Z-0.125000 I-8.537182 J-1.790130
G02 X115.358109 Y132.458870 Z-0.125000 I29.948038 J14.611555
G01 X115.358109 Y132.458870 Z-0.125000
G00 Z5.000000

(End cutting path id: path4067)


(Start cutting path id: path4067)
(Change tool to Default tool)

G00 Z5.000000
G00 X141.986998 Y174.275846

G01 Z-0.125000 F100.0(Penetrate)
G02 X144.949838 Y173.387141 Z-0.125000 I-0.695217 J-7.701011 F400.000000
G03 X149.256476 Y172.439579 Z-0.125000 I3.824721 J7.122681
G02 X172.632123 Y168.019568 Z-0.125000 I2.905465 J-48.656340
G03 X175.560087 Y166.781628 Z-0.125000 I19.990310 J43.199320
G03 X176.127838 Y167.040589 Z-0.125000 I0.156753 J0.408185
G03 X176.023348 Y167.573343 Z-0.125000 I-0.494670 J0.179603
G03 X169.765204 Y173.444565 Z-0.125000 I-38.999070 J-35.298264
G03 X144.590862 Y176.036202 Z-0.125000 I-14.612102 J-18.373724
G03 X143.276930 Y175.344998 Z-0.125000 I19.011241 J-37.733495
G03 X141.986998 Y174.275846 Z-0.125000 I2.131114 J-3.883919
G01 X141.986998 Y174.275846 Z-0.125000
G00 Z5.000000

(End cutting path id: path4067)


(Start cutting path id: path4081)
(Change tool to Default tool)

G00 Z5.000000
G00 X152.266213 Y183.812186

G01 Z-0.125000 F100.0(Penetrate)
G02 X154.058671 Y184.963925 Z-0.125000 I2.666694 J-2.179515 F400.000000
G02 X158.635601 Y185.768040 Z-0.125000 I7.137069 J-27.195640
G02 X163.389122 Y185.852767 Z-0.125000 I2.953209 J-32.298681
G02 X165.428604 Y185.315488 Z-0.125000 I-0.291686 J-5.246742
G02 X164.573246 Y185.008213 Z-0.125000 I-1.574041 J3.037472
G02 X163.775072 Y185.071454 Z-0.125000 I-0.293401 J1.365488
G03 X158.201682 Y185.575131 Z-0.125000 I-3.663630 J-9.451799
G03 X152.266213 Y183.812186 Z-0.125000 I5.889664 J-30.702490
G01 X152.266213 Y183.812186 Z-0.125000
G00 Z5.000000

(End cutting path id: path4081)


(Start cutting path id: path4093)
(Change tool to Default tool)

G00 Z5.000000
G00 X157.905815 Y181.706314

G01 Z-0.125000 F100.0(Penetrate)
G03 X160.709613 Y181.580538 Z-0.125000 I2.872568 J32.721216 F400.000000
G02 X163.564070 Y180.981004 Z-0.125000 I-0.015004 J-7.166428
G02 X160.752575 Y181.203060 Z-0.125000 I-0.549040 J10.957968
G03 X157.881090 Y181.187912 Z-0.125000 I-1.400719 J-6.646761
G02 X157.893447 Y181.447142 Z-0.125000 I2818.849052 J-131.112290
G02 X157.905815 Y181.706314 Z-0.125000 R14101.803769
G01 X157.905815 Y181.706314 Z-0.125000
G00 Z5.000000

(End cutting path id: path4093)


(Start cutting path id: path4079)
(Change tool to Default tool)

G00 Z5.000000
G00 X157.513780 Y188.137456

G01 Z-0.125000 F100.0(Penetrate)
G03 X151.555568 Y185.428397 Z-0.125000 I340.949570 J-757.779541 F400.000000
G03 X145.730060 Y181.562181 Z-0.125000 I9.438569 J-20.543744
G02 X146.668502 Y183.105683 Z-0.125000 I2.392142 J-0.397377
G02 X150.674225 Y185.631132 Z-0.125000 I17.686518 J-23.613797
G02 X155.110971 Y187.607396 Z-0.125000 I17.850053 J-34.105253
G02 X157.513780 Y188.137456 Z-0.125000 I3.098623 J-8.335230
G01 X157.513780 Y188.137456 Z-0.125000
G00 Z5.000000

(End cutting path id: path4079)


(Start cutting path id: path4075)
(Change tool to Default tool)

G00 Z5.000000
G00 X175.706317 Y173.469004

G01 Z-0.125000 F100.0(Penetrate)
G02 X175.115156 Y173.396867 Z-0.125000 I-0.355036 J0.451172 F400.000000
G02 X174.716783 Y173.724515 Z-0.125000 I0.405854 J0.899468
G03 X173.389211 Y175.034066 Z-0.125000 I-4.386057 J-3.118719
G02 X171.985911 Y176.123630 Z-0.125000 I9.057605 J13.114182
G03 X168.347448 Y178.040170 Z-0.125000 I-5.891395 J-6.772546
G02 X167.899558 Y179.017723 Z-0.125000 I0.174007 J0.671108
G03 X167.708007 Y179.481664 Z-0.125000 I-0.299807 J0.147731
G03 X164.084942 Y180.574880 Z-0.125000 I-16.658807 J-48.659290
G02 X165.681796 Y180.750113 Z-0.125000 I1.000581 J-1.754555
G02 X171.247530 Y178.411991 Z-0.125000 I-9.104623 J-29.466383
G02 X170.948590 Y178.160446 Z-0.125000 I-0.311791 J0.067132
G03 X170.585845 Y177.798412 Z-0.125000 I0.015244 J-0.378020
G02 X173.207032 Y175.857601 Z-0.125000 I-15.889925 J-24.200787
G02 X175.680022 Y173.434766 Z-0.125000 I-13.604258 J-16.359388
G01 X175.706317 Y173.469004 Z-0.125000
G00 Z5.000000

(End cutting path id: path4075)


(Start cutting path id: path4099)
(Change tool to Default tool)

G00 Z5.000000
G00 X175.680039 Y173.434786

G01 Z-0.125000 F100.0(Penetrate)
G02 X176.556671 Y172.823300 Z-0.125000 I-2.176304 J-4.054089 F400.000000
G02 X177.383832 Y171.520986 Z-0.125000 I-1.855555 J-2.092393
G02 X176.309021 Y172.264965 Z-0.125000 I7.410523 J11.854209
G02 X175.703643 Y173.465588 Z-0.125000 I0.935175 J1.224467
G01 X175.680039 Y173.434786 Z-0.125000
G01 X175.680039 Y173.434786 Z-0.125000
G00 Z5.000000

(End cutting path id: path4099)


(Start cutting path id: path4067)
(Change tool to Default tool)

G00 Z5.000000
G00 X173.848754 Y166.402791

G01 Z-0.125000 F100.0(Penetrate)
G03 X172.482269 Y166.934748 Z-0.125000 I-1.027262 J-0.617734 F400.000000
G03 X166.945065 Y164.491554 Z-0.125000 I6.676412 J-22.627579
G03 X161.822091 Y160.803161 Z-0.125000 I20.487698 J-33.858242
G03 X156.885793 Y155.546966 Z-0.125000 I20.705117 J-24.391014
G03 X154.884543 Y151.676161 Z-0.125000 I10.699465 J-7.984480
G02 X153.389485 Y147.528743 Z-0.125000 I-64.045375 J20.743859
G03 X153.374361 Y147.118128 Z-0.125000 I0.569339 J-0.226556
G03 X153.591050 Y146.761818 Z-0.125000 I0.832275 J0.262101
G03 X156.887280 Y148.087652 Z-0.125000 I1.363659 J1.370120
G02 X158.677307 Y153.816007 Z-0.125000 I10.856981 J-0.248791
G02 X164.337098 Y161.330991 Z-0.125000 I62.698542 J-41.331631
G02 X168.858845 Y164.186887 Z-0.125000 I6.888724 J-5.899338
G03 X171.146142 Y165.487283 Z-0.125000 I-1.372374 J5.075689
G02 X173.848754 Y166.402791 Z-0.125000 I2.315539 J-2.388695
G01 X173.848754 Y166.402791 Z-0.125000
G00 Z5.000000

(End cutting path id: path4067)


(Start cutting path id: path4067)
(Change tool to Default tool)

G00 Z5.000000
G00 X183.780571 Y161.094007

G01 Z-0.125000 F100.0(Penetrate)
G03 X183.145463 Y163.876314 Z-0.125000 I-4.173557 J0.510957 F400.000000
G02 X182.319373 Y166.219736 Z-0.125000 I4.552024 J2.921969
G03 X180.552225 Y170.722041 Z-0.125000 I-9.117921 J-0.980818
G03 X179.906928 Y171.368968 Z-0.125000 I-2.565241 J-1.913477
G02 X179.149421 Y173.454112 Z-0.125000 I1.216043 J1.621943
G03 X178.487831 Y176.686361 Z-0.125000 I-3.832219 J0.899439
G02 X178.368158 Y177.007448 Z-0.125000 I0.503401 J0.370469
G02 X178.356060 Y177.423753 Z-0.125000 I4.150411 J0.328940
G03 X178.239070 Y179.433567 Z-0.125000 I-12.727677 J0.267439
G03 X177.431005 Y181.280240 Z-0.125000 I-3.674310 J-0.507667
G02 X177.152240 Y181.758162 Z-0.125000 I1.345691 J1.105185
G02 X177.031310 Y182.326764 Z-0.125000 I1.713160 J0.661515
G03 X176.134940 Y184.358733 Z-0.125000 I-3.108986 J-0.157783
G02 X174.953529 Y185.583843 Z-0.125000 I46.660188 J46.178022
G02 X173.604623 Y187.284280 Z-0.125000 I9.464073 J8.892813
G03 X171.943914 Y188.719745 Z-0.125000 I-3.413061 J-2.270236
G02 X171.539187 Y189.212094 Z-0.125000 I0.319092 J0.674828
G03 X171.008109 Y189.770661 Z-0.125000 I-0.761085 J-0.191874
G02 X169.471385 Y190.755625 Z-0.125000 I0.993076 J3.240648
G03 X168.009105 Y191.879188 Z-0.125000 I-3.692666 J-3.292547
G03 X167.341111 Y192.150862 Z-0.125000 I-1.999520 J-3.959351
G02 X166.687909 Y192.758097 Z-0.125000 I0.311598 J0.990128
G03 X165.487024 Y193.758473 Z-0.125000 I-1.519420 J-0.602983
G02 X164.372261 Y194.439964 Z-0.125000 I0.368622 J1.855475
G03 X158.689528 Y195.800090 Z-0.125000 I-3.706065 J-2.932725
G03 X155.675128 Y193.955409 Z-0.125000 I6.296317 J-13.674101
G03 X152.955563 Y191.623818 Z-0.125000 I26.426738 J-33.575952
G02 X150.109356 Y189.493795 Z-0.125000 I-11.226566 J12.034695
G03 X149.535543 Y188.772297 Z-0.125000 I0.658095 J-1.112317
G02 X148.862405 Y188.059885 Z-0.125000 I-1.074243 J0.340800
G03 X146.808758 Y186.349623 Z-0.125000 I1.465153 J-3.847445
G02 X141.604522 Y179.579614 Z-0.125000 I-33.374804 J20.270554
G03 X138.771658 Y176.199178 Z-0.125000 I23.604564 J-22.658248
G02 X136.107751 Y173.258992 Z-0.125000 I-15.136726 J11.037494
G02 X133.672639 Y174.411588 Z-0.125000 I-0.973802 J1.091281
G02 X134.708237 Y179.231951 Z-0.125000 I14.584902 J-0.611969
G03 X134.815757 Y181.182512 Z-0.125000 I-2.828954 J1.134183
G02 X134.634665 Y186.237418 Z-0.125000 I10.449316 J2.905045
G02 X135.011000 Y187.128950 Z-0.125000 I2.388232 J-0.482930
G03 X135.130364 Y187.897677 Z-0.125000 I-0.745665 J0.509414
G02 X137.125842 Y194.958825 Z-0.125000 I6.546279 J1.962558
G03 X138.090459 Y195.925015 Z-0.125000 I-7.906782 J8.858537
G03 X140.998644 Y201.858972 Z-0.125000 I-9.206511 J8.191655
G02 X145.559587 Y208.404793 Z-0.125000 I9.525411 J-1.775158
G03 X146.103560 Y209.223826 Z-0.125000 I-0.583249 J0.977533
G02 X147.075481 Y210.409183 Z-0.125000 I1.458995 J-0.205151
G03 X147.924072 Y210.856162 Z-0.125000 I-1.076065 J3.071927
G02 X151.712982 Y213.579134 Z-0.125000 I144.793944 J-197.477592
G02 X155.507407 Y216.146767 Z-0.125000 I70.499106 J-100.095438
G02 X156.291848 Y216.232934 Z-0.125000 I0.477714 J-0.735235
G03 X156.733347 Y216.337444 Z-0.125000 I0.142672 J0.382091
G03 X156.162786 Y217.808673 Z-0.125000 I-0.642699 J0.597003
G03 X155.101976 Y217.531551 Z-0.125000 I-0.136037 J-1.648185
G02 X151.486819 Y215.157950 Z-0.125000 I-97.342058 J144.318775
G02 X150.871989 Y215.179340 Z-0.125000 I-0.291894 J0.456832
G02 X150.687237 Y216.001490 Z-0.125000 I0.384308 J0.518194
G03 X152.936633 Y226.004015 Z-0.125000 I-16.988032 J9.074504
G02 X153.293068 Y228.512285 Z-0.125000 I6.721818 J0.324263
G03 X153.486180 Y230.076097 Z-0.125000 I-3.614389 J1.240163
G03 X152.988564 Y230.544568 Z-0.125000 I-0.510149 J-0.043364
G03 X152.755761 Y230.357953 Z-0.125000 I-0.005653 J-0.231467
G03 X151.928650 Y225.702633 Z-0.125000 I121.360133 J-23.963205
G02 X150.122773 Y219.395216 Z-0.125000 I-26.603491 J4.204616
G02 X142.519707 Y208.816266 Z-0.125000 I-27.211836 J11.535454
G03 X141.629494 Y207.511503 Z-0.125000 I2.145718 J-2.420048
G02 X140.706815 Y206.230856 Z-0.125000 I-2.754634 J1.011947
G03 X136.867855 Y199.000129 Z-0.125000 I6.432498 J-8.049622
G02 X136.632040 Y197.809671 Z-0.125000 I-5.226204 J0.416661
G03 X136.514627 Y196.674273 Z-0.125000 I2.624239 J-0.845146
G02 X136.273375 Y195.568958 Z-0.125000 I-1.786259 J-0.189107
G03 X135.260869 Y192.051534 Z-0.125000 I6.240084 J-3.700675
G02 X134.048916 Y189.881649 Z-0.125000 I-2.669212 J0.067443
G02 X132.693850 Y190.026744 Z-0.125000 I-0.588550 J0.903574
G02 X131.813984 Y191.612916 Z-0.125000 I2.385261 J2.360251
G02 X131.620347 Y194.068760 Z-0.125000 I7.808722 J1.851252
G02 X132.235420 Y195.381121 Z-0.125000 I2.035780 J-0.153807
G03 X132.937999 Y196.286629 Z-0.125000 I-2.831412 J2.922196
G03 X137.535665 Y213.093792 Z-0.125000 I-30.401936 J17.349006
G03 X137.481606 Y216.350920 Z-0.125000 I-50.790875 J0.786026
G02 X137.756330 Y219.618511 Z-0.125000 I12.391521 J0.603521
G03 X137.817230 Y220.042013 Z-0.125000 I-2.841740 J0.624777
G03 X137.715213 Y220.485415 Z-0.125000 I-0.779630 J0.054061
G02 X136.156696 Y224.884850 Z-0.125000 I11.236090 J6.456201
G03 X132.158345 Y232.453487 Z-0.125000 I-13.170322 J-2.117163
G02 X126.467078 Y240.435353 Z-0.125000 I17.550413 J18.533816
G03 X121.244120 Y243.155557 Z-0.125000 I-4.347938 J-1.974007
G02 X120.199054 Y243.297712 Z-0.125000 I-0.307667 J1.650686
G02 X119.271729 Y244.189627 Z-0.125000 I0.922450 J1.887099
G03 X117.424631 Y245.949051 Z-0.125000 I-3.613344 J-1.944118
G02 X115.783151 Y247.025922 Z-0.125000 I3.125541 J6.553770
G02 X108.393054 Y253.491777 Z-0.125000 I1252.934251 J1439.487518
G03 X107.914224 Y253.568385 Z-0.125000 I-0.300143 J-0.341271
G03 X107.722328 Y253.106095 Z-0.125000 I0.140874 J-0.329450
G02 X109.153238 Y247.860112 Z-0.125000 I-22.290158 J-8.898074
G02 X108.791231 Y243.561528 Z-0.125000 I-9.088615 J-1.399134
G03 X108.759323 Y238.384654 Z-0.125000 I7.938093 J-2.637463
G02 X108.817263 Y238.194284 Z-0.125000 I-7.312272 J-2.329527
G03 X110.946739 Y231.118407 Z-0.125000 I360.426477 J104.611515
G03 X113.146258 Y224.328219 Z-0.125000 I307.265876 J95.780105
G03 X113.794300 Y223.240938 Z-0.125000 I2.835906 J0.953497
G02 X113.971617 Y222.986834 Z-0.125000 I-0.804207 J-0.750103
G02 X114.053943 Y222.683947 Z-0.125000 I-0.696403 J-0.351916
G03 X115.347252 Y220.022773 Z-0.125000 I3.887753 J0.244562
G02 X116.927025 Y218.501287 Z-0.125000 I-19.355939 J-21.678337
G02 X117.709126 Y217.660973 Z-0.125000 I-24.477513 J-23.565944
G03 X119.097961 Y217.518046 Z-0.125000 I0.773378 J0.695794
G02 X119.474697 Y217.454430 Z-0.125000 I0.157494 J-0.214644
