%
(FOILEDAGAIN_CHUCK)
(T3  D=6.38 CR=3.19 - ZMIN=-17.1 - BALL END MILL)
N10 G90 G94 G17 G91.1
N15 G21
(WHEN USING FUSION 360 FOR PERSONAL USE, THE FEEDRATE OF)
(RAPID MOVES IS REDUCED TO MATCH THE FEEDRATE OF CUTTING)
(MOVES, WHICH CAN INCREASE MACHINING TIME. UNRESTRICTED RAPID)
(MOVES ARE AVAILABLE WITH A FUSION 360 SUBSCRIPTION.)
N20 G53 G0 Z0.
(MORPHED SPIRAL1)
N25 T3 M6
N30 S10000 M3
N35 G54
N40 G64 P0.1 Q0.1
N45 G0 X75.536 Y58.055
N50 G43 Z15. H3
N55 G1 Z-5.539 F2500.
N60 Z-6.883 F333.33
N65 X75.542 Y58.057 Z-6.976 F2500.
N70 X75.562 Y58.061 Z-7.068
N75 X75.595 Y58.069 Z-7.155
N80 X75.64 Y58.079 Z-7.237
N85 X75.696 Y58.091 Z-7.31
N90 X75.762 Y58.105 Z-7.375
N95 X75.836 Y58.122 Z-7.429
N100 X75.918 Y58.14 Z-7.472
N105 X76.004 Y58.159 Z-7.501
N110 X76.094 Y58.179 Z-7.518
N115 X76.186 Y58.199 Z-7.521
N120 X90.156 Y61.287 Z-6.896
N125 X107.85 Y65.043 Z-6.138
N130 X125.026 Y68.528 Z-5.44
N135 X141.917 Y71.795 Z-4.804
N140 X153.198 Y73.812 Z-4.417
N145 X164.107 Y75.613 Z-4.075
N150 X173.947 Y77.11 Z-3.79
N155 X187.571 Y78.959 Z-3.437
N160 X198.221 Y80.252 Z-3.192
N165 X212.244 Y81.732 Z-2.911
N170 X224.697 Y82.85 Z-2.696
N175 X239.19 Y83.946 Z-2.484
N180 X254.293 Y84.926 Z-2.292
N185 X272.768 Y85.935 Z-2.092
N190 X291.402 Y86.779 Z-1.925
N195 X310.649 Y87.469 Z-1.789
N200 X332.905 Y88.024 Z-1.677
N205 X352.351 Y88.352 Z-1.612
N210 X381.544 Y88.591 Z-1.562
N215 X408.811 Y88.601 Z-1.558
N220 X447.225 Y88.37 Z-1.601
N225 X471.639 Y88.136 Z-1.643
N230 X484.252 Y88.198 Z-1.634
N235 X512.96 Y88.41 Z-1.587
N240 X544.844 Y88.494 Z-1.568
N245 X572.414 Y88.38 Z-1.588
N250 X595.183 Y88.126 Z-1.637
N255 X615.932 Y87.742 Z-1.711
N260 X638.971 Y87.09 Z-1.838
N265 X658.934 Y86.308 Z-1.989
N270 X680.659 Y85.249 Z-2.198
N275 X698.056 Y84.198 Z-2.402
N280 X716.507 Y82.881 Z-2.657
N285 X730.328 Y81.688 Z-2.884
N290 X742.756 Y80.432 Z-3.122
N295 X753.338 Y79.216 Z-3.352
N300 X765.567 Y77.633 Z-3.652
N305 X775.014 Y76.298 Z-3.907
N310 X786.102 Y74.566 Z-4.236
N315 X799.664 Y72.219 Z-4.684
N320 X814.419 Y69.445 Z-5.219
N325 X833.611 Y65.607 Z-5.978
N330 X849.986 Y62.177 Z-6.669
N335 X866.423 Y58.607 Z-7.394
N340 X870.082 Y57.796 Z-7.56
N345 X870.716 Y57.884 Z-7.565
N350 X870.789 Y57.999 Z-7.554
N355 X870.713 Y58.324 Z-7.519
N360 X870.342 Y58.597 Z-7.482
N365 X862.126 Y60.458 Z-7.107
N370 X841.838 Y64.88 Z-6.221
N375 X824.828 Y68.42 Z-5.515
N380 X807.222 Y71.905 Z-4.839
N385 X794.605 Y74.237 Z-4.395
N390 X782.448 Y76.29 Z-4.006
N395 X769.968 Y78.192 Z-3.647
N400 X757.68 Y79.873 Z-3.329
N405 X747.028 Y81.177 Z-3.085
N410 X733.145 Y82.654 Z-2.807
N415 X720.371 Y83.822 Z-2.59
N420 X705.136 Y84.977 Z-2.37
N425 X689.967 Y85.984 Z-2.18
N430 X674.493 Y86.863 Z-2.011
N435 X659.839 Y87.581 Z-1.874
N440 X637.986 Y88.449 Z-1.71
N445 X616.689 Y89.05 Z-1.594
N450 X593.65 Y89.492 Z-1.511
N455 X564.43 Y89.781 Z-1.457
N460 X537.15 Y89.833 Z-1.449
N465 X499.605 Y89.666 Z-1.486
N470 X474.301 Y89.467 Z-1.533
N475 X459.57 Y89.578 Z-1.503
N480 X418.826 Y89.915 Z-1.445
N485 X393.112 Y89.954 Z-1.44
N490 X366.256 Y89.84 Z-1.465
N495 X342.251 Y89.527 Z-1.527
N500 X321.699 Y89.099 Z-1.613
N505 X302.219 Y88.503 Z-1.729
N510 X281.293 Y87.65 Z-1.897
N515 X263.814 Y86.764 Z-2.07
N520 X244.356 Y85.564 Z-2.301
N525 X231.973 Y84.68 Z-2.472
N530 X217.647 Y83.48 Z-2.696
N535 X204.147 Y82.119 Z-2.949
N540 X191.008 Y80.594 Z-3.233
N545 X176.642 Y78.665 Z-3.595
N550 X169.003 Y77.526 Z-3.81
N555 X158.325 Y75.809 Z-4.135
N560 X146.036 Y73.643 Z-4.547
N565 X131.437 Y70.85 Z-5.082
N570 X112.657 Y67.029 Z-5.833
N575 X94.746 Y63.199 Z-6.599
N580 X76.123 Y59.055 Z-7.433
N585 X75.691 Y58.883 Z-7.46
N590 X75.386 Y58.599 Z-7.497
N595 X75.262 Y58.186 Z-7.542
N600 X75.37 Y57.769 Z-7.583
N605 X75.679 Y57.468 Z-7.608
N610 X76.157 Y57.362
N615 X77.368 Y57.587 Z-7.558
N620 X94.623 Y61.291 Z-6.8
N625 X112.65 Y65.006 Z-6.044
N630 X129.317 Y68.284 Z-5.386
N635 X143.747 Y70.985 Z-4.859
N640 X154.689 Y72.881 Z-4.492
N645 X165.576 Y74.626 Z-4.157
N650 X174.127 Y75.892 Z-3.914
N655 X186.092 Y77.494 Z-3.606
N660 X198.859 Y79.002 Z-3.316
N665 X210.24 Y80.189 Z-3.088
N670 X222.989 Y81.344 Z-2.866
N675 X238.737 Y82.519 Z-2.635
N680 X253.507 Y83.454 Z-2.45
N685 X271.974 Y84.434 Z-2.252
N690 X292.76 Y85.342 Z-2.07
N695 X312.003 Y85.986 Z-1.94
N700 X334.687 Y86.512 Z-1.831
N705 X353.681 Y86.795 Z-1.772
N710 X382.987 Y86.998 Z-1.727
N715 X413.61 Y86.955 Z-1.73
N720 X453.068 Y86.667 Z-1.781
N725 X472.044 Y86.47 Z-1.818
N730 X487.76 Y86.545 Z-1.793
N735 X514.712 Y86.706 Z-1.763
N740 X549.028 Y86.75 Z-1.749
N745 X575.401 Y86.594 Z-1.776
N750 X601.681 Y86.257 Z-1.84
N755 X625.49 Y85.714 Z-1.944
N760 X641.7 Y85.21 Z-2.042
N765 X663.218 Y84.331 Z-2.213
N770 X681.864 Y83.395 Z-2.397
N775 X698.372 Y82.402 Z-2.591
N780 X716.225 Y81.139 Z-2.836
N785 X724.906 Y80.425 Z-2.973
N790 X738.917 Y79.112 Z-3.224
N795 X752.357 Y77.611 Z-3.509
N800 X765.084 Y76.014 Z-3.814
N805 X774.833 Y74.639 Z-4.077
N810 X784.747 Y73.143 Z-4.365
N815 X798.956 Y70.745 Z-4.826
N820 X814.124 Y67.953 Z-5.369
N825 X833.319 Y64.196 Z-6.119
N830 X850.554 Y60.661 Z-6.839
N835 X867.491 Y57.065 Z-7.578
N840 X869.216 Y56.808 Z-7.643
N845 X870.96 Y56.795 Z-7.683
N850 X872.295 Y56.957 Z-7.696
N855 X872.501 Y57.157 Z-7.68
N860 X872.479 Y57.607 Z-7.633
N865 X872.424 Y58.312 Z-7.558
N870 X872.143 Y58.795 Z-7.502
N875 X871.286 Y59.445 Z-7.415
N880 X870.502 Y59.827 Z-7.358
N885 X868.997 Y60.225 Z-7.283
N890 X849.339 Y64.688 Z-6.394
N895 X835.426 Y67.736 Z-5.794
N900 X819.141 Y71.161 Z-5.125
N905 X805.384 Y73.931 Z-4.603
N910 X794.038 Y76.066 Z-4.21
N915 X782.718 Y78.03 Z-3.852
N920 X770.658 Y79.926 Z-3.505
N925 X758.797 Y81.606 Z-3.199
N930 X745.941 Y83.221 Z-2.906
N935 X732.047 Y84.732 Z-2.632
N940 X719.231 Y85.916 Z-2.415
N945 X704.42 Y87.067 Z-2.199
N950 X690.088 Y88.05 Z-2.017
N955 X675.034 Y88.942 Z-1.851
N960 X660.368 Y89.694 Z-1.71
N965 X639.373 Y90.572 Z-1.548
N970 X620.231 Y91.17 Z-1.437
N975 X595.425 Y91.707 Z-1.339
N980 X566.195 Y92.038 Z-1.28
N985 X540.591 Y92.121 Z-1.268
N990 X519.748 Y92.087 Z-1.279
N995 X476.298 Y91.803 Z-1.334
N1000 X465.261 Y91.862 Z-1.326
N1005 X422.558 Y92.277 Z-1.261
N1010 X397.91 Y92.371 Z-1.248
N1015 X370.648 Y92.298 Z-1.267
N1020 X347.342 Y92.058 Z-1.317
N1025 X327.348 Y91.682 Z-1.393
N1030 X309.689 Y91.197 Z-1.489
N1035 X291.654 Y90.548 Z-1.615
N1040 X271.396 Y89.59 Z-1.8
N1045 X259.316 Y88.92 Z-1.928
N1050 X242.016 Y87.809 Z-2.141
N1055 X230.496 Y86.955 Z-2.305
N1060 X217.311 Y85.815 Z-2.516
N1065 X206.285 Y84.697 Z-2.722
N1070 X195.633 Y83.472 Z-2.945
N1075 X187.934 Y82.496 Z-3.124
N1080 X176.339 Y80.89 Z-3.42
N1085 X167.37 Y79.508 Z-3.672
N1090 X157.544 Y77.876 Z-3.972
N1095 X145.233 Y75.644 Z-4.384
N1100 X132.333 Y73.115 Z-4.856
N1105 X116.593 Y69.853 Z-5.48
N1110 X96.919 Y65.552 Z-6.319
N1115 X77.242 Y61.058 Z-7.207
N1120 X75.621 Y60.658 Z-7.284
N1125 X74.517 Y60.128 Z-7.357
N1130 X73.509 Y59.292 Z-7.467
N1135 X72.833 Y58.651 Z-7.548
N1140 X72.77 Y58.337 Z-7.582
N1145 X72.781 Y57.146 Z-7.706
N1150 X72.985 Y56.651 Z-7.753
N1155 X73.379 Y56.341 Z-7.776
N1160 X74.692 Y56.032 Z-7.779
N1165 X76.431 Y55.895 Z-7.755
N1170 X78.169 Y56.032 Z-7.702
N1175 X90.297 Y58.547 Z-7.177
N1180 X111.549 Y62.8 Z-6.296
N1185 X126.285 Y65.619 Z-5.719
N1190 X142.002 Y68.489 Z-5.146
N1195 X153.776 Y70.491 Z-4.754
N1200 X165.061 Y72.251 Z-4.411
N1205 X176.125 Y73.824 Z-4.105
N1210 X188.881 Y75.444 Z-3.788
N1215 X200.291 Y76.734 Z-3.538
N1220 X210.619 Y77.759 Z-3.337
N1225 X224.327 Y78.947 Z-3.105
N1230 X239.155 Y80.001 Z-2.894
N1235 X255.839 Y81.011 Z-2.69
N1240 X274.67 Y81.96 Z-2.496
N1245 X289.819 Y82.604 Z-2.365
N1250 X309.158 Y83.254 Z-2.232
N1255 X326.895 Y83.697 Z-2.14
N1260 X352.763 Y84.116 Z-2.052
N1265 X382.048 Y84.308 Z-2.007
N1270 X413.029 Y84.278 Z-2.008
N1275 X441.223 Y84.09 Z-2.041
N1280 X471.257 Y83.801 Z-2.082
N1285 X487.351 Y83.87 Z-2.071
N1290 X515.605 Y84.031 Z-2.041
N1295 X541.227 Y84.076 Z-2.027
N1300 X570.75 Y83.965 Z-2.046
N1305 X599.028 Y83.63 Z-2.109
N1310 X620.628 Y83.185 Z-2.196
N1315 X639.529 Y82.649 Z-2.302
N1320 X656.566 Y82.01 Z-2.427
N1325 X680.409 Y80.899 Z-2.649
N1330 X698.2 Y79.865 Z-2.854
N1335 X716.035 Y78.644 Z-3.095
N1340 X725.136 Y77.918 Z-3.235
N1345 X738.662 Y76.688 Z-3.474
N1350 X752.386 Y75.203 Z-3.759
N1355 X760.15 Y74.276 Z-3.939
N1360 X772.418 Y72.667 Z-4.251
N1365 X784.614 Y70.897 Z-4.597
N1370 X799.002 Y68.537 Z-5.056
N1375 X814.15 Y65.837 Z-5.589
N1380 X833.352 Y62.203 Z-6.327
N1385 X851.026 Y58.697 Z-7.053
N1390 X867.908 Y55.224 Z-7.779
N1395 X869.719 Y54.9 Z-7.853
N1400 X871.026 Y54.926 Z-7.879
N1405 X872.374 Y55.233 Z-7.877
N1410 X873.464 Y55.559 Z-7.867
N1415 X874.38 Y55.709 Z-7.872
N1420 X874.726 Y55.963 Z-7.854
N1425 X874.848 Y56.388 Z-7.812
N1430 X874.738 Y57.527 Z-7.691
N1435 X874.634 Y58.425 Z-7.596
N1440 X874.294 Y59.12 Z-7.516
N1445 X873.771 Y59.67 Z-7.447
N1450 X872.729 Y60.461 Z-7.354
N1455 X871.593 Y61.111 Z-7.271
N1460 X870.384 Y61.611 Z-7.197
N1465 X867.811 Y62.268 Z-7.074
N1470 X848.452 Y66.791 Z-6.194
N1475 X834.969 Y69.831 Z-5.61
N1480 X819.54 Y73.176 Z-4.974
N1485 X806.21 Y75.948 Z-4.462
N1490 X795.275 Y78.082 Z-4.076
N1495 X783.066 Y80.269 Z-3.681
N1500 X771.045 Y82.212 Z-3.331
N1505 X759.142 Y83.956 Z-3.018
N1510 X746.457 Y85.593 Z-2.725
N1515 X739.555 Y86.401 Z-2.581
N1520 X728.882 Y87.526 Z-2.379
N1525 X715.556 Y88.753 Z-2.16
N1530 X702.593 Y89.754 Z-1.974
N1535 X689.367 Y90.667 Z-1.806
N1540 X675.6 Y91.507 Z-1.652
N1545 X660.919 Y92.286 Z-1.509
N1550 X640.341 Y93.177 Z-1.346
N1555 X621.603 Y93.794 Z-1.234
N1560 X598.031 Y94.329 Z-1.137
N1565 X573.912 Y94.65 Z-1.079
N1570 X546.268 Y94.802 Z-1.056
N1575 X522.385 Y94.776 Z-1.065
N1580 X501.061 Y94.669 Z-1.09
N1585 X475.128 Y94.467 Z-1.124
N1590 X457.862 Y94.618 Z-1.103
N1595 X418.402 Y94.988 Z-1.045
N1600 X393.979 Y95.048 Z-1.038
N1605 X367.989 Y94.961 Z-1.06
N1610 X343.598 Y94.671 Z-1.118
N1615 X319.432 Y94.141 Z-1.222
N1620 X300.292 Y93.507 Z-1.343
N1625 X280.642 Y92.664 Z-1.505
N1630 X263.958 Y91.78 Z-1.673
N1635 X244.893 Y90.552 Z-1.903
N1640 X232.491 Y89.632 Z-2.077
N1645 X217.957 Y88.362 Z-2.308
N1650 X206.908 Y87.22 Z-2.516
N1655 X193.178 Y85.586 Z-2.811
N1660 X181.294 Y83.963 Z-3.103
N1665 X169.174 Y82.115 Z-3.438
N1670 X158.042 Y80.23 Z-3.778
N1675 X145.708 Y77.936 Z-4.194
N1680 X132.36 Y75.248 Z-4.687
N1685 X116.623 Y71.887 Z-5.319
N1690 X96.957 Y67.455 Z-6.168
N1695 X77.722 Y62.927 Z-7.046
N1700 X75.394 Y62.353 Z-7.156
N1705 X74.18 Y61.867 Z-7.229
N1710 X72.938 Y61.089 Z-7.325
N1715 X71.43 Y59.781 Z-7.47
N1720 X70.648 Y59.027 Z-7.558
N1725 X70.488 Y58.61 Z-7.605
N1730 X70.553 Y57.559 Z-7.713
N1735 X70.521 Y56.373 Z-7.837
N1740 X70.749 Y55.767 Z-7.895
N1745 X71.189 Y55.287 Z-7.935
N1750 X71.907 Y54.968 Z-7.952
N1755 X73.919 Y54.371 Z-7.969
N1760 X75.206 Y54.137 Z-7.967
N1765 X76.513 Y54.08 Z-7.951
N1770 X77.796 Y54.2 Z-7.913
N1775 X95.903 Y57.81 Z-7.144
N1780 X116.661 Y61.78 Z-6.305
N1785 X131.408 Y64.455 Z-5.748
N1790 X144.824 Y66.793 Z-5.278
N1795 X154.407 Y68.356 Z-4.967
N1800 X165.84 Y70.07 Z-4.627
N1805 X176.889 Y71.58 Z-4.329
N1810 X191.459 Y73.35 Z-3.979
N1815 X204.94 Y74.761 Z-3.7
N1820 X218.169 Y75.955 Z-3.463
N1825 X231.786 Y76.988 Z-3.257
N1830 X246.05 Y77.89 Z-3.071
N1835 X255.992 Y78.452 Z-2.955
N1840 X275.672 Y79.404 Z-2.757
N1845 X289.931 Y79.983 Z-2.637
N1850 X305.524 Y80.502 Z-2.529
N1855 X323.466 Y80.974 Z-2.431
N1860 X340.918 Y81.284 Z-2.363
N1865 X368.04 Y81.568 Z-2.301
N1870 X391.58 Y81.642 Z-2.281
N1875 X416.829 Y81.576 Z-2.29
N1880 X452.926 Y81.308 Z-2.339
N1885 X471.462 Y81.133 Z-2.363
N1890 X489.561 Y81.213 Z-2.348
N1895 X516.094 Y81.355 Z-2.319
N1900 X543.415 Y81.392 Z-2.306
N1905 X574.345 Y81.261 Z-2.329
N1910 X602.828 Y80.902 Z-2.398
N1915 X627.296 Y80.369 Z-2.504
N1920 X643.691 Y79.869 Z-2.603
N1925 X666.484 Y78.978 Z-2.783
N1930 X687.911 Y77.901 Z-2.998
N1935 X705.868 Y76.825 Z-3.215
N1940 X721.549 Y75.727 Z-3.436
N1945 X736.964 Y74.391 Z-3.698
N1950 X750.292 Y73.044 Z-3.962
N1955 X764. Y71.427 Z-4.279
N1960 X774.922 Y70.007 Z-4.56
N1965 X785.544 Y68.48 Z-4.863
N1970 X799.48 Y66.263 Z-5.311
N1975 X812.039 Y64.107 Z-5.75
N1980 X828.667 Y61.103 Z-6.374
N1985 X848.929 Y57.247 Z-7.188
N1990 X867.539 Y53.561 Z-7.975
N1995 X869.085 Y53.284 Z-8.037
N2000 X870.392 Y53.219 Z-8.069
N2005 X871.696 Y53.325 Z-8.078
N2010 X872.975 Y53.601 Z-8.066
N2015 X874.663 Y54.145 Z-8.041
N2020 X876.491 Y54.462 Z-8.049
N2025 X876.948 Y54.746 Z-8.03
N2030 X877.175 Y55.247 Z-7.983
N2035 X877.095 Y55.843 Z-7.919
N2040 X876.933 Y56.992 Z-7.796
N2045 X876.973 Y58.076 Z-7.684
N2050 X876.864 Y58.912 Z-7.595
N2055 X876.606 Y59.433 Z-7.543
N2060 X876.065 Y59.992 Z-7.484
N2065 X874.168 Y61.471 Z-7.314
N2070 X872.674 Y62.373 Z-7.201
N2075 X871.089 Y63.101 Z-7.1
N2080 X869.203 Y63.704 Z-6.999
N2085 X849.029 Y68.566 Z-6.069
N2090 X830.259 Y72.907 Z-5.251
N2095 X811.309 Y77.076 Z-4.484
N2100 X796.939 Y80.009 Z-3.957
N2105 X784.273 Y82.36 Z-3.537
N2110 X772.258 Y84.369 Z-3.179
N2115 X759.877 Y86.251 Z-2.848
N2120 X746.819 Y87.986 Z-2.541
N2125 X735.991 Y89.27 Z-2.315
N2130 X724.811 Y90.423 Z-2.111
N2135 X713.137 Y91.475 Z-1.925
N2140 X699.283 Y92.555 Z-1.729
N2145 X679.652 Y93.874 Z-1.491
N2150 X662.341 Y94.836 Z-1.315
N2155 X642.18 Y95.744 Z-1.15
N2160 X625.787 Y96.32 Z-1.047
N2165 X606.371 Y96.833 Z-0.956
N2170 X581.093 Y97.26 Z-0.881
N2175 X552.816 Y97.467 Z-0.847
N2180 X529.363 Y97.483 Z-0.848
N2185 X504.095 Y97.37 Z-0.874
N2190 X474.903 Y97.136 Z-0.915
N2195 X465.302 Y97.202 Z-0.903
N2200 X425.243 Y97.621 Z-0.842
N2205 X396.09 Y97.728 Z-0.826
N2210 X367.53 Y97.633 Z-0.85
N2215 X343.55 Y97.337 Z-0.908
N2220 X325.007 Y96.934 Z-0.986
N2225 X304.995 Y96.325 Z-1.102
N2230 X285.762 Y95.512 Z-1.253
N2235 X266.342 Y94.495 Z-1.445
N2240 X252.483 Y93.624 Z-1.606
N2245 X236.016 Y92.442 Z-1.826
N2250 X222.454 Y91.272 Z-2.036
N2255 X209.486 Y89.967 Z-2.27
N2260 X197.672 Y88.57 Z-2.518
N2265 X187.51 Y87.218 Z-2.758
N2270 X175.372 Y85.434 Z-3.077
N2275 X162.37 Y83.27 Z-3.461
N2280 X152.104 Y81.382 Z-3.796
N2285 X139.651 Y78.921 Z-4.239
N2290 X124.287 Y75.608 Z-4.842
N2295 X114.951 Y73.535 Z-5.23
N2300 X95.719 Y69.062 Z-6.074
N2305 X78.286 Y64.828 Z-6.88
N2310 X75.021 Y64.008 Z-7.036
N2315 X73.797 Y63.546 Z-7.107
N2320 X72.262 Y62.686 Z-7.218
N2325 X71.127 Y61.834 Z-7.317
N2330 X69.529 Y60.414 Z-7.473
N2335 X68.623 Y59.566 Z-7.566
N2340 X68.298 Y59.003 Z-7.619
N2345 X68.245 Y58.335 Z-7.683
N2350 X68.367 Y56.948 Z-7.825
N2355 X68.243 Y55.965 Z-7.93
N2360 X68.116 Y55.223 Z-8.01
N2365 X68.264 Y54.597 Z-8.071
N2370 X68.688 Y54.107 Z-8.113
N2375 X69.31 Y53.866 Z-8.124
N2380 X70.272 Y53.653 Z-8.125
N2385 X72.257 Y53.054 Z-8.156
N2390 X73.95 Y52.636 Z-8.179
N2395 X75.684 Y52.44 Z-8.174
N2400 X77.428 Y52.469 Z-8.139
N2405 X79.387 Y52.767 Z-8.066
N2410 X98.433 Y56.418 Z-7.278
N2415 X120.926 Y60.542 Z-6.396
N2420 X140.291 Y63.871 Z-5.698
N2425 X155.641 Y66.304 Z-5.199
N2430 X166.621 Y67.884 Z-4.876
N2435 X177.652 Y69.333 Z-4.581
N2440 X192.825 Y71.105 Z-4.22
N2445 X205.615 Y72.376 Z-3.96
N2450 X217.877 Y73.441 Z-3.741
N2455 X231.932 Y74.485 Z-3.528
N2460 X252.657 Y75.721 Z-3.269
N2465 X274.93 Y76.772 Z-3.043
N2470 X290.043 Y77.365 Z-2.917
N2475 X306.056 Y77.877 Z-2.809
N2480 X323.965 Y78.326 Z-2.713
N2485 X341.839 Y78.628 Z-2.646
N2490 X368.074 Y78.889 Z-2.588
N2495 X390.273 Y78.961 Z-2.57
N2500 X427.445 Y78.837 Z-2.59
N2505 X464.402 Y78.527 Z-2.658
N2510 X475.224 Y78.469 Z-2.676
N2515 X506.513 Y78.65 Z-2.62
N2520 X539.93 Y78.714 Z-2.6
N2525 X558.679 Y78.67 Z-2.607
N2530 X584.135 Y78.483 Z-2.643
N2535 X609.247 Y78.117 Z-2.718
N2540 X631.083 Y77.616 Z-2.82
N2545 X648.394 Y77.075 Z-2.932
N2550 X668.943 Y76.263 Z-3.099
N2555 X689.94 Y75.226 Z-3.314
N2560 X709.183 Y74.09 Z-3.55
N2565 X723.083 Y73.108 Z-3.751
N2570 X737.596 Y71.882 Z-3.999
N2575 X746.596 Y71.011 Z-4.176
N2580 X756.078 Y69.997 Z-4.382
N2585 X769.915 Y68.35 Z-4.717
N2590 X783.887 Y66.468 Z-5.101
N2595 X798.667 Y64.207 Z-5.562
N2600 X811.651 Y62.06 Z-6.005
N2605 X828.696 Y59.09 Z-6.63
N2610 X850.689 Y55.054 Z-7.497
N2615 X866.792 Y51.971 Z-8.164
N2620 X868.486 Y51.668 Z-8.232
N2625 X870.227 Y51.555 Z-8.277
N2630 X871.967 Y51.669 Z-8.294
N2635 X873.679 Y52.008 Z-8.281
N2640 X875.864 Y52.719 Z-8.229
N2645 X877.378 Y53.028 Z-8.218
N2650 X878.902 Y53.265 Z-8.227
N2655 X879.338 Y53.583 Z-8.204
N2660 X879.551 Y54.078 Z-8.157
N2665 X879.533 Y54.456 Z-8.118
N2670 X879.232 Y55.907 Z-7.96
N2675 X879.155 Y57.425 Z-7.8
N2680 X879.227 Y58.398 Z-7.701
N2685 X879.045 Y59.249 Z-7.626
N2690 X878.619 Y60.006 Z-7.554
N2695 X877.829 Y60.732 Z-7.475
N2700 X876.714 Y61.713 Z-7.367
N2705 X875.315 Y62.908 Z-7.233
N2710 X873.846 Y63.85 Z-7.118
N2715 X872.266 Y64.589 Z-7.015
N2720 X870.784 Y65.066 Z-6.936
N2725 X853.544 Y69.38 Z-6.126
N2730 X841.401 Y72.326 Z-5.578
N2735 X825.13 Y76.127 Z-4.872
N2740 X809.567 Y79.603 Z-4.247
N2745 X796.887 Y82.252 Z-3.779
N2750 X784.341 Y84.641 Z-3.359
N2755 X772.609 Y86.66 Z-3.004
N2760 X760.484 Y88.556 Z-2.675
N2765 X747.974 Y90.275 Z-2.379
N2770 X736.248 Y91.712 Z-2.135
N2775 X725.911 Y92.81 Z-1.948
N2780 X712.471 Y94.056 Z-1.735
N2785 X694.402 Y95.472 Z-1.486
N2790 X675.86 Y96.684 Z-1.271
N2795 X662.02 Y97.467 Z-1.134
N2800 X642.711 Y98.362 Z-0.975
N2805 X626.739 Y98.947 Z-0.874
N2810 X607.291 Y99.482 Z-0.782
N2815 X582.333 Y99.926 Z-0.708
N2820 X553.886 Y100.149 Z-0.673
N2825 X521.926 Y100.142 Z-0.68
N2830 X485.142 Y99.893 Z-0.732
N2835 X472.394 Y99.812 Z-0.757
N2840 X451.357 Y100.046 Z-0.713
N2845 X421.946 Y100.32 Z-0.669
N2850 X393.523 Y100.406 Z-0.659
N2855 X368.268 Y100.316 Z-0.682
N2860 X343.938 Y100.012 Z-0.742
N2865 X325.817 Y99.61 Z-0.818
N2870 X305.529 Y98.98 Z-0.936
N2875 X287.831 Y98.226 Z-1.073
N2880 X269.699 Y97.27 Z-1.248
N2885 X260.173 Y96.692 Z-1.352
N2890 X243.245 Y95.517 Z-1.565
N2895 X231.695 Y94.601 Z-1.732
N2900 X217.946 Y93.334 Z-1.952
N2905 X206.853 Y92.123 Z-2.161
N2910 X193.508 Y90.451 Z-2.449
N2915 X182.395 Y88.873 Z-2.72
N2920 X169.333 Y86.786 Z-3.08
N2925 X157.748 Y84.716 Z-3.436
N2930 X145.179 Y82.247 Z-3.865
N2935 X133.572 Y79.786 Z-4.303
N2940 X116.68 Y75.973 Z-4.996
N2945 X96.181 Y71.072 Z-5.903
N2950 X79.185 Y66.83 Z-6.697
N2955 X74.647 Y65.662 Z-6.916
N2960 X73.174 Y65.104 Z-7.002
N2965 X71.455 Y64.17 Z-7.123
N2970 X70.341 Y63.4 Z-7.215
N2975 X69.352 Y62.587 Z-7.307
N2980 X67.627 Y61.046 Z-7.477
N2985 X66.61 Y60.118 Z-7.579
N2990 X66.206 Y59.604 Z-7.631
N2995 X65.986 Y59. Z-7.685
N3000 X65.976 Y58.374 Z-7.735
N3005 X66.122 Y57.026 Z-7.868
N3010 X66.099 Y55.941 Z-7.981
N3015 X65.788 Y54.373 Z-8.151
N3020 X65.823 Y53.731 Z-8.217
N3025 X66.13 Y53.161 Z-8.269
N3030 X66.603 Y52.799 Z-8.296
N3035 X67.068 Y52.662 Z-8.299
N3040 X68.1 Y52.497 Z-8.301
N3045 X70.404 Y51.833 Z-8.344
N3050 X72.275 Y51.265 Z-8.383
N3055 X74.422 Y50.882 Z-8.394
N3060 X76.6 Y50.77 Z-8.369
N3065 X78.775 Y50.931 Z-8.31
N3070 X89.546 Y52.921 Z-7.872
N3075 X111.009 Y56.785 Z-7.028
N3080 X127.042 Y59.53 Z-6.434
N3085 X141.98 Y61.984 Z-5.916
N3090 X156.876 Y64.244 Z-5.446
N3095 X167.835 Y65.751 Z-5.134
N3100 X178.85 Y67.134 Z-4.848
N3105 X193.545 Y68.775 Z-4.51
N3110 X206.323 Y69.994 Z-4.257
N3115 X219.422 Y71.081 Z-4.032
N3120 X233.43 Y72.059 Z-3.828
N3125 X253.246 Y73.188 Z-3.587
N3130 X275.497 Y74.194 Z-3.368
N3135 X296.895 Y74.973 Z-3.202
N3140 X315.578 Y75.481 Z-3.091
N3145 X337.556 Y75.903 Z-2.998
N3150 X357.198 Y76.128 Z-2.947
N3155 X376.332 Y76.24 Z-2.919
N3160 X393.331 Y76.273 Z-2.911
N3165 X430.93 Y76.137 Z-2.934
N3170 X471.693 Y75.802 Z-2.996
N3175 X493.92 Y75.896 Z-2.977
N3180 X533.182 Y76.039 Z-2.941
N3185 X565.146 Y75.959 Z-2.953
N3190 X593.528 Y75.706 Z-3.004
N3195 X616.348 Y75.317 Z-3.084
N3200 X636.677 Y74.817 Z-3.188
N3205 X654.487 Y74.24 Z-3.309
N3210 X677.969 Y73.259 Z-3.515
N3215 X698.12 Y72.227 Z-3.732
N3220 X716.335 Y71.099 Z-3.968
N3225 X731.706 Y69.948 Z-4.206
N3230 X743.735 Y68.871 Z-4.426
N3235 X754.058 Y67.827 Z-4.64
N3240 X768.719 Y66.169 Z-4.982
N3245 X783.523 Y64.253 Z-5.378
N3250 X798.715 Y62.012 Z-5.841
N3255 X811.263 Y60.013 Z-6.259
N3260 X828.726 Y57.083 Z-6.885
N3265 X851.165 Y53.118 Z-7.75
N3270 X867.49 Y50.11 Z-8.412
N3275 X869.66 Y49.899 Z-8.477
N3280 X871.84 Y49.97 Z-8.507
N3285 X873.992 Y50.323 Z-8.5
N3290 X875.741 Y50.828 Z-8.467
N3295 X877.487 Y51.407 Z-8.425
N3300 X879.33 Y51.76 Z-8.413
N3305 X880.675 Y51.95
N3310 X881.314 Y52.063 Z-8.41
N3315 X881.73 Y52.406 Z-8.381
N3320 X881.933 Y52.907 Z-8.334
N3325 X881.913 Y53.308 Z-8.292
N3330 X881.59 Y54.694 Z-8.14
N3335 X881.413 Y56.188 Z-7.981
N3340 X881.408 Y57.433 Z-7.851
N3345 X881.477 Y58.502 Z-7.755
N3350 X881.234 Y59.562 Z-7.664
N3355 X880.703 Y60.479 Z-7.577
N3360 X879.966 Y61.187 Z-7.5
N3365 X878.393 Y62.538 Z-7.348
N3370 X877.108 Y63.686 Z-7.222
N3375 X875.694 Y64.704 Z-7.102
N3380 X874.18 Y65.567 Z-6.992
N3385 X872.581 Y66.266 Z-6.895
N3390 X870.583 Y66.881 Z-6.793
N3395 X853.512 Y71.273 Z-5.986
N3400 X841.795 Y74.2 Z-5.454
N3405 X827.441 Y77.666 Z-4.826
N3410 X810.388 Y81.595 Z-4.138
N3415 X799.148 Y84.012 Z-3.724
N3420 X786.671 Y86.505 Z-3.301
N3425 X778.095 Y88.071 Z-3.037
N3430 X766.477 Y90.022 Z-2.709
N3435 X752.59 Y92.097 Z-2.361
N3440 X739.798 Y93.756 Z-2.083
N3445 X727.438 Y95.155 Z-1.849
N3450 X713.975 Y96.452 Z-1.631
N3455 X695.276 Y97.973 Z-1.369
N3460 X676.861 Y99.22 Z-1.152
N3465 X662.57 Y100.056 Z-1.008
N3470 X643.678 Y100.96 Z-0.85
N3475 X629.436 Y101.507 Z-0.757
N3480 X609.085 Y102.112 Z-0.656
N3485 X583.345 Y102.591 Z-0.576
N3490 X555.401 Y102.826 Z-0.539
N3495 X525.909 Y102.834 Z-0.543
N3500 X492.827 Y102.64 Z-0.584
N3505 X474.671 Y102.473 Z-0.605
N3510 X460.979 Y102.597 Z-0.584
N3515 X425.284 Y102.98 Z-0.539
N3520 X397.885 Y103.092 Z-0.525
N3525 X370.034 Y103.007 Z-0.546
N3530 X344.505 Y102.688 Z-0.607
N3535 X327.064 Y102.299 Z-0.679
N3540 X307.632 Y101.69 Z-0.791
N3545 X291.207 Y101.013 Z-0.913
N3550 X272.184 Y100.005 Z-1.092
N3555 X261.765 Y99.376 Z-1.206
N3560 X244.379 Y98.148 Z-1.423
N3565 X232.384 Y97.181 Z-1.595
N3570 X218.568 Y95.878 Z-1.818
N3575 X208.342 Y94.765 Z-2.008
N3580 X198.398 Y93.524 Z-2.217
N3585 X186.511 Y91.859 Z-2.497
N3590 X175.617 Y90.167 Z-2.785
N3595 X165.116 Y88.35 Z-3.091
N3600 X155.673 Y86.583 Z-3.39
N3605 X144.718 Y84.362 Z-3.769
N3610 X133.187 Y81.848 Z-4.203
N3615 X116.282 Y77.921 Z-4.896
N3620 X96.216 Y72.986 Z-5.787
N3625 X79.235 Y68.627 Z-6.585
N3630 X74.283 Y67.318 Z-6.826
N3635 X72.511 Y66.641 Z-6.922
N3640 X70.651 Y65.65 Z-7.037
N3645 X69.043 Y64.555 Z-7.16
N3650 X67.583 Y63.333 Z-7.298
N3655 X66.053 Y61.937 Z-7.452
N3660 X64.764 Y60.837 Z-7.576
N3665 X64.038 Y60. Z-7.663
N3670 X63.722 Y59.191 Z-7.735
N3675 X63.707 Y58.412 Z-7.797
N3680 X63.879 Y56.95 Z-7.927
N3685 X63.892 Y55.799 Z-8.046
N3690 X63.704 Y54.689 Z-8.166
N3695 X63.472 Y53.432 Z-8.302
N3700 X63.421 Y52.54 Z-8.396
N3705 X63.605 Y52.036 Z-8.444
N3710 X63.995 Y51.662 Z-8.481
N3715 X64.459 Y51.504 Z-8.493
N3720 X66.029 Y51.299 Z-8.49
N3725 X68.413 Y50.649 Z-8.53
N3730 X70.609 Y49.935 Z-8.581
N3735 X72.734 Y49.443 Z-8.606
N3740 X74.898 Y49.17 Z-8.602
N3745 X77.079 Y49.119 Z-8.57
N3750 X79.253 Y49.29 Z-8.51
N3755 X83.854 Y50.09 Z-8.328
N3760 X100.068 Y52.949 Z-7.692
N3765 X121.734 Y56.606 Z-6.884
N3770 X140.218 Y59.562 Z-6.246
N3775 X156.383 Y61.937 Z-5.745
N3780 X167.75 Y63.447 Z-5.427
N3785 X179.181 Y64.828 Z-5.138
N3790 X193.832 Y66.402 Z-4.808
N3795 X208.335 Y67.727 Z-4.53
N3800 X221.483 Y68.749 Z-4.315
N3805 X237.177 Y69.759 Z-4.1
N3810 X253.834 Y70.654 Z-3.906
N3815 X276.063 Y71.616 Z-3.694
N3820 X298.828 Y72.405 Z-3.522
N3825 X320.893 Y72.948 Z-3.401
N3830 X344.302 Y73.32 Z-3.317
N3835 X368.144 Y73.531 Z-3.268
N3840 X391.589 Y73.593 Z-3.251
N3845 X428.964 Y73.465 Z-3.273
N3850 X451.632 Y73.299 Z-3.306
N3855 X471.786 Y73.129 Z-3.345
N3860 X483.532 Y73.162 Z-3.318
N3865 X528.284 Y73.348 Z-3.284
N3870 X559.419 Y73.319 Z-3.286
N3875 X592.737 Y73.041 Z-3.342
N3880 X614.708 Y72.697 Z-3.414
N3885 X639.917 Y72.091 Z-3.542
N3890 X659.43 Y71.437 Z-3.68
N3895 X681.795 Y70.507 Z-3.879
N3900 X702.741 Y69.415 Z-4.11
N3905 X719.629 Y68.376 Z-4.331
N3910 X731.749 Y67.48 Z-4.519
N3915 X745.356 Y66.292 Z-4.766
N3920 X760.387 Y64.775 Z-5.082
N3925 X771.035 Y63.563 Z-5.335
N3930 X785.754 Y61.679 Z-5.729
N3935 X795.42 Y60.32 Z-6.014
N3940 X807.856 Y58.438 Z-6.412
N3945 X826.604 Y55.442 Z-7.061
N3950 X850.782 Y51.342 Z-7.975
N3955 X866.962 Y48.48 Z-8.619
N3960 X869.131 Y48.251 Z-8.684
N3965 X871.312 Y48.256 Z-8.716
N3970 X873.48 Y48.496 Z-8.723
N3975 X875.61 Y48.967 Z-8.701
N3980 X877.856 Y49.717 Z-8.646
N3985 X879.535 Y50.193 Z-8.615
N3990 X881.931 Y50.588 Z-8.609
N3995 X882.767 Y50.7 Z-8.61
N4000 X883.64 Y50.743 Z-8.621
N4005 X884.12 Y50.985 Z-8.599
N4010 X884.336 Y51.314 Z-8.561
N4015 X884.369 Y51.84 Z-8.501
N4020 X883.661 Y54.789 Z-8.178
N4025 X883.511 Y56.031 Z-8.046
N4030 X883.608 Y57.083 Z-7.938
N4035 X883.86 Y58.573 Z-7.818
N4040 X883.762 Y59.437 Z-7.747
N4045 X883.411 Y60.233 Z-7.675
N4050 X882.689 Y61.075 Z-7.587
N4055 X881.294 Y62.269 Z-7.453
N4060 X879.33 Y64.069 Z-7.254
N4065 X877.865 Y65.263 Z-7.132
N4070 X876.044 Y66.463 Z-7.007
N4075 X874.102 Y67.456 Z-6.889
N4080 X872.063 Y68.231 Z-6.778
N4085 X862.408 Y70.844 Z-6.309
N4090 X844.731 Y75.439 Z-5.487
N4095 X828.26 Y79.536 Z-4.758
N4100 X811.208 Y83.582 Z-4.061
N4105 X800.393 Y85.98 Z-3.656
N4110 X787.905 Y88.551 Z-3.227
N4115 X776.75 Y90.648 Z-2.881
N4120 X766.205 Y92.438 Z-2.583
N4125 X752.878 Y94.481 Z-2.247
N4130 X740.738 Y96.098 Z-1.98
N4135 X728.529 Y97.539 Z-1.743
N4140 X714.61 Y98.92 Z-1.515
N4145 X697.19 Y100.382 Z-1.267
N4150 X679.605 Y101.648 Z-1.053
N4155 X663.121 Y102.643 Z-0.883
N4160 X644.645 Y103.556 Z-0.726
N4165 X631.696 Y104.077 Z-0.639
N4170 X610.991 Y104.73 Z-0.531
N4175 X588.18 Y105.192 Z-0.453
N4180 X565.888 Y105.448 Z-0.414
N4185 X535.941 Y105.542 Z-0.404
N4190 X500.147 Y105.375 Z-0.441
N4195 X474.882 Y105.141 Z-0.464
N4200 X466.236 Y105.199 Z-0.453
N4205 X427.923 Y105.639 Z-0.409
N4210 X402.481 Y105.762 Z-0.39
N4215 X383.734 Y105.755 Z-0.396
N4220 X360.109 Y105.58 Z-0.431
N4225 X339.427 Y105.242 Z-0.494
N4230 X320.745 Y104.779 Z-0.579
N4235 X303.402 Y104.168 Z-0.687
N4240 X285.864 Y103.359 Z-0.829
N4245 X268.569 Y102.383 Z-1.002
N4250 X260.744 Y101.883 Z-1.089
N4255 X243.772 Y100.645 Z-1.304
N4260 X232.204 Y99.685 Z-1.472
N4265 X218.798 Y98.39 Z-1.689
N4270 X208.95 Y97.295 Z-1.873
N4275 X199.425 Y96.1 Z-2.073
N4280 X187.523 Y94.405 Z-2.352
N4285 X177.461 Y92.825 Z-2.616
N4290 X167.772 Y91.155 Z-2.894
N4295 X156.596 Y89.041 Z-3.246
N4300 X142.716 Y86.154 Z-3.73
N4305 X129.077 Y83.027 Z-4.257
N4310 X113.312 Y79.222 Z-4.922
N4315 X95.92 Y74.818 Z-5.706
N4320 X77.578 Y69.981 Z-6.576
N4325 X73.496 Y68.839 Z-6.778
N4330 X71.915 Y68.208 Z-6.865
N4335 X69.85 Y67.127 Z-6.992
N4340 X68.03 Y65.924 Z-7.116
N4345 X66.135 Y64.374 Z-7.262
N4350 X64.589 Y62.933 Z-7.415
N4355 X62.831 Y61.458 Z-7.583
N4360 X61.96 Y60.494 Z-7.684
N4365 X61.575 Y59.714 Z-7.756
N4370 X61.426 Y58.857 Z-7.828
N4375 X61.605 Y57.323 Z-7.944
N4380 X61.796 Y56.077 Z-8.066
N4385 X61.683 Y54.947 Z-8.186
N4390 X61.236 Y53.092 Z-8.389
N4395 X61.091 Y51.766 Z-8.53
N4400 X61.202 Y51.132 Z-8.6
N4405 X61.554 Y50.639 Z-8.656
N4410 X62.097 Y50.334 Z-8.685
N4415 X63.854 Y50.099 Z-8.682
N4420 X64.506 Y49.963 Z-8.688
N4425 X67.266 Y49.194 Z-8.735
N4430 X70.044 Y48.275 Z-8.802
N4435 X72.599 Y47.708 Z-8.831
N4440 X75.201 Y47.427 Z-8.833
N4445 X77.819 Y47.436 Z-8.793
N4450 X80.419 Y47.734 Z-8.711
N4455 X104.33 Y51.777 Z-7.793
N4460 X124.582 Y55.033 Z-7.06
N4465 X144.5 Y58.038 Z-6.398
N4470 X159.351 Y60.095 Z-5.952
N4475 X170.698 Y61.509 Z-5.646
N4480 X182.333 Y62.828 Z-5.362
N4485 X195.857 Y64.186 Z-5.073
N4490 X211.298 Y65.522 Z-4.79
N4495 X227.804 Y66.67 Z-4.542
N4500 X243.777 Y67.585 Z-4.342
N4505 X259.22 Y68.325 Z-4.178
N4510 X280.795 Y69.19 Z-3.986
N4515 X300.405 Y69.815 Z-3.847
N4520 X325.772 Y70.385 Z-3.718
N4525 X353.952 Y70.752 Z-3.632
N4530 X382.1 Y70.895 Z-3.596
N4535 X419.799 Y70.843 Z-3.602
N4540 X464.695 Y70.516 Z-3.672
N4545 X475.272 Y70.463 Z-3.689
N4550 X506.255 Y70.615 Z-3.64
N4555 X537.706 Y70.677 Z-3.621
N4560 X569.831 Y70.571 Z-3.639
N4565 X586.798 Y70.428 Z-3.668
N4570 X606.72 Y70.17 Z-3.723
N4575 X630.957 Y69.684 Z-3.827
N4580 X653.709 Y69.028 Z-3.968
N4585 X670.733 Y68.393 Z-4.104
N4590 X693.415 Y67.375 Z-4.326
N4595 X712.905 Y66.306 Z-4.558
N4600 X727.542 Y65.322 Z-4.769
N4605 X741.47 Y64.217 Z-5.006
N4610 X753.267 Y63.138 Z-5.238
N4615 X770.134 Y61.346 Z-5.623
N4620 X784.094 Y59.651 Z-5.988
N4625 X795.039 Y58.177 Z-6.305
N4630 X808.328 Y56.244 Z-6.726
N4635 X827.065 Y53.362 Z-7.365
N4640 X851.691 Y49.352 Z-8.274
N4645 X866.903 Y46.777 Z-8.862
N4650 X869.512 Y46.565 Z-8.931
N4655 X872.129 Y46.64 Z-8.959
N4660 X874.721 Y47.004 Z-8.946
N4665 X877.257 Y47.65 Z-8.897
N4670 X879.891 Y48.549 Z-8.83
N4675 X881.587 Y48.962 Z-8.809
N4680 X884.859 Y49.45 Z-8.807
N4685 X886.07 Y49.526 Z-8.82
N4690 X886.529 Y49.807 Z-8.792
N4695 X886.764 Y50.284 Z-8.736
N4700 X886.735 Y50.75 Z-8.676
N4705 X885.902 Y54.22 Z-8.289
N4710 X885.73 Y55.504 Z-8.151
N4715 X885.808 Y56.713 Z-8.027
N4720 X886.13 Y58.563 Z-7.885
N4725 X886.07 Y59.431 Z-7.815
N4730 X885.789 Y60.255 Z-7.742
N4735 X885.252 Y61.04 Z-7.664
N4740 X884.198 Y62.091 Z-7.551
N4745 X882.018 Y63.933 Z-7.348
N4750 X880.379 Y65.457 Z-7.212
N4755 X878.609 Y66.823 Z-7.08
N4760 X876.764 Y67.987 Z-6.957
N4765 X874.818 Y68.973 Z-6.839
N4770 X872.789 Y69.774 Z-6.727
N4775 X868.186 Y71.086 Z-6.499
N4780 X858.937 Y73.614 Z-6.053
N4785 X843.853 Y77.62 Z-5.35
N4790 X826.929 Y81.924 Z-4.598
N4795 X810.388 Y85.947 Z-3.92
N4800 X798.651 Y88.59 Z-3.482
N4805 X786.517 Y91.13 Z-3.066
N4810 X773.661 Y93.536 Z-2.673
N4815 X765.247 Y94.971 Z-2.438
N4820 X753.699 Y96.783 Z-2.146
N4825 X742.304 Y98.359 Z-1.889
N4830 X735.871 Y99.171 Z-1.758
N4835 X727.295 Y100.161 Z-1.597
N4840 X716.614 Y101.254 Z-1.42
N4845 X701.534 Y102.583 Z-1.197
N4850 X687.108 Y103.698 Z-1.009
N4855 X677.992 Y104.34 Z-0.905
N4860 X663.235 Y105.253 Z-0.753
N4865 X644.686 Y106.191 Z-0.595
N4870 X625.669 Y106.95 Z-0.47
N4875 X606.999 Y107.493 Z-0.381
N4880 X583.392 Y107.947 Z-0.308
N4885 X556.735 Y108.184 Z-0.272
N4890 X529.388 Y108.208 Z-0.273
N4895 X497.072 Y108.021 Z-0.312
N4900 X474.14 Y107.811 Z-0.359
N4905 X454.909 Y108.021 Z-0.317
N4910 X425.941 Y108.333 Z-0.272
N4915 X397.833 Y108.456 Z-0.257
N4920 X376.245 Y108.398 Z-0.27
N4925 X355.782 Y108.204 Z-0.308
N4930 X332.176 Y107.756 Z-0.389
N4935 X312.71 Y107.155 Z-0.494
N4940 X298.511 Y106.587 Z-0.593
N4945 X282.702 Y105.806 Z-0.728
N4950 X263.642 Y104.668 Z-0.927
N4955 X245.776 Y103.353 Z-1.15
N4960 X229.464 Y101.955 Z-1.388
N4965 X216.1 Y100.592 Z-1.614
N4970 X203.089 Y99.021 Z-1.871
N4975 X194.085 Y97.794 Z-2.072
N4980 X183.872 Y96.238 Z-2.326
N4985 X171.367 Y94.142 Z-2.671
N4990 X161.03 Y92.203 Z-2.987
N4995 X147.811 Y89.485 Z-3.436
N5000 X134.966 Y86.569 Z-3.918
N5005 X126.969 Y84.643 Z-4.238
N5010 X112.505 Y81.047 Z-4.857
N5015 X95.34 Y76.577 Z-5.638
N5020 X79.214 Y72.224 Z-6.406
N5025 X73.137 Y70.496 Z-6.707
N5030 X71.719 Y69.951 Z-6.785
N5035 X69.811 Y69.027 Z-6.898
N5040 X67.57 Y67.674 Z-7.045
N5045 X65.421 Y66.049 Z-7.205
N5050 X63.301 Y64.098 Z-7.38
N5055 X61.246 Y62.392 Z-7.555
N5060 X60.084 Y61.241 Z-7.679
N5065 X59.579 Y60.532 Z-7.75
N5070 X59.262 Y59.721 Z-7.823
N5075 X59.154 Y58.857 Z-7.894
N5080 X59.4 Y56.966 Z-8.036
N5085 X59.576 Y55.884 Z-8.137
N5090 X59.505 Y54.709 Z-8.261
N5095 X58.979 Y52.547 Z-8.498
N5100 X58.769 Y50.777 Z-8.69
N5105 X58.837 Y50.211 Z-8.76
N5110 X59.098 Y49.699 Z-8.82
N5115 X59.545 Y49.296 Z-8.863
N5120 X60.195 Y49.069 Z-8.88
N5125 X62.336 Y48.79 Z-8.876
N5130 X63.891 Y48.35 Z-8.904
N5135 X66.117 Y47.737 Z-8.941
N5140 X68.84 Y46.822 Z-9.014
N5145 X71.386 Y46.21 Z-9.064
N5150 X73.978 Y45.843 Z-9.078
N5155 X76.593 Y45.726 Z-9.056
N5160 X79.207 Y45.859 Z-9.
N5165 X83.222 Y46.462 Z-8.855
N5170 X98.256 Y48.907 Z-8.288
N5175 X120.38 Y52.351 Z-7.497
N5180 X136.634 Y54.755 Z-6.956
N5185 X151.849 Y56.881 Z-6.486
N5190 X166.278 Y58.704 Z-6.087
N5195 X179.844 Y60.216 Z-5.756
N5200 X193.493 Y61.561 Z-5.462
N5205 X207.701 Y62.779 Z-5.196
N5210 X220.128 Y63.674 Z-4.999
N5215 X236.688 Y64.685 Z-4.776
N5220 X256.32 Y65.634 Z-4.561
N5225 X279.18 Y66.526 Z-4.358
N5230 X300.063 Y67.173 Z-4.211
N5235 X325.85 Y67.728 Z-4.083
N5240 X343.962 Y67.976 Z-4.024
N5245 X375.569 Y68.207 Z-3.968
N5250 X411.904 Y68.181
N5255 X446.951 Y67.986 Z-4.008
N5260 X472.592 Y67.795 Z-4.05
N5265 X496.941 Y67.89 Z-4.023
N5270 X522.565 Y67.979 Z-4.
N5275 X549.873 Y67.971 Z-3.997
N5280 X580.874 Y67.815 Z-4.03
N5285 X603.394 Y67.561 Z-4.084
N5290 X622.346 Y67.226 Z-4.157
N5295 X644.307 Y66.691 Z-4.275
N5300 X666.678 Y65.96 Z-4.437
N5305 X683.238 Y65.288 Z-4.586
N5310 X698.04 Y64.594 Z-4.741
N5315 X716.635 Y63.565 Z-4.968
N5320 X730.948 Y62.606 Z-5.177
N5325 X745.7 Y61.432 Z-5.432
N5330 X761.822 Y59.902 Z-5.764
N5335 X774.915 Y58.485 Z-6.073
N5340 X786.762 Y57.058 Z-6.384
N5345 X796.388 Y55.797 Z-6.661
N5350 X809.666 Y53.936 Z-7.075
N5355 X828.821 Y51.095 Z-7.72
N5360 X854.326 Y47.107 Z-8.643
N5365 X866.453 Y45.131 Z-9.103
N5370 X869.061 Y44.907 Z-9.172
N5375 X871.679 Y44.934 Z-9.202
N5380 X874.282 Y45.212 Z-9.196
N5385 X876.846 Y45.739 Z-9.159
N5390 X879.458 Y46.545 Z-9.082
N5395 X881.513 Y47.239 Z-9.026
N5400 X883.641 Y47.72 Z-9.004
N5405 X886.653 Y48.172 Z-9.002
N5410 X888.305 Y48.279 Z-9.019
N5415 X888.782 Y48.532 Z-8.996
N5420 X889.082 Y48.98 Z-8.945
N5425 X889.132 Y49.526 Z-8.877
N5430 X888.699 Y51.339 Z-8.654
N5435 X888.219 Y53.375 Z-8.431
N5440 X888.018 Y55.092 Z-8.247
N5445 X888.068 Y56.589 Z-8.097
N5450 X888.374 Y58.779 Z-7.934
N5455 X888.26 Y59.86 Z-7.845
N5460 X887.838 Y60.862 Z-7.754
N5465 X887.249 Y61.612 Z-7.677
N5470 X886.02 Y62.8 Z-7.551
N5475 X883.795 Y64.667 Z-7.377
N5480 X881.831 Y66.494 Z-7.213
N5485 X879.706 Y68.126 Z-7.054
N5490 X877.483 Y69.509 Z-6.906
N5495 X875.136 Y70.668 Z-6.765
N5500 X872.687 Y71.592 Z-6.632
N5505 X862.641 Y74.455 Z-6.136
N5510 X845.511 Y79.151 Z-5.327
N5515 X827.582 Y83.835 Z-4.522
N5520 X811.915 Y87.76 Z-3.872
N5525 X802.45 Y89.983 Z-3.508
N5530 X790.066 Y92.686 Z-3.076
N5535 X778.89 Y94.919 Z-2.724
N5540 X769.871 Y96.576 Z-2.465
N5545 X756.643 Y98.755 Z-2.12
N5550 X746.038 Y100.315 Z-1.876
N5555 X734.222 Y101.851 Z-1.636
N5560 X721.985 Y103.237 Z-1.417
N5565 X708.962 Y104.485 Z-1.217
N5570 X694.332 Y105.734 Z-1.016
N5575 X677.251 Y106.981 Z-0.813
N5580 X663.35 Y107.862 Z-0.671
N5585 X645.219 Y108.804 Z-0.517
N5590 X626.621 Y109.57 Z-0.394
N5595 X608.356 Y110.129 Z-0.307
N5600 X585.609 Y110.588 Z-0.234
N5605 X563.295 Y110.827 Z-0.199
N5610 X535.056 Y110.905 Z-0.193
N5615 X501.495 Y110.739 Z-0.229
N5620 X474.65 Y110.478 Z-0.279
N5625 X462.786 Y110.586 Z-0.261
N5630 X427.964 Y110.997 Z-0.202
N5635 X398.276 Y111.136 Z-0.185
N5640 X376.669 Y111.083 Z-0.198
N5645 X354.001 Y110.847 Z-0.243
N5650 X331.675 Y110.405 Z-0.322
N5655 X312.196 Y109.78 Z-0.429
N5660 X298.852 Y109.233 Z-0.522
N5665 X283.898 Y108.482 Z-0.649
N5670 X267.004 Y107.463 Z-0.822
N5675 X250.433 Y106.277 Z-1.021
N5680 X232.993 Y104.808 Z-1.266
N5685 X220.558 Y103.562 Z-1.465
N5690 X207.606 Y102.064 Z-1.706
N5695 X198.985 Y100.913 Z-1.887
N5700 X186.897 Y99.118 Z-2.171
N5705 X176.215 Y97.337 Z-2.453
N5710 X169.015 Y96.046 Z-2.659
N5715 X157.691 Y93.821 Z-3.011
N5720 X149.425 Y92.072 Z-3.291
N5725 X139.38 Y89.796 Z-3.654
N5730 X126.574 Y86.668 Z-4.161
N5735 X111.757 Y82.882 Z-4.797
N5740 X93.764 Y78.076 Z-5.622
N5745 X75.17 Y72.86 Z-6.521
N5750 X72.543 Y72.072 Z-6.652
N5755 X70.724 Y71.343 Z-6.75
N5760 X68.248 Y70.076 Z-6.901
N5765 X66.038 Y68.673 Z-7.051
N5770 X63.986 Y67.096 Z-7.205
N5775 X61.669 Y64.963 Z-7.396
N5780 X60.349 Y63.833 Z-7.501
N5785 X58.698 Y62.438 Z-7.631
N5790 X57.66 Y61.31 Z-7.745
N5795 X57.141 Y60.354 Z-7.836
N5800 X56.899 Y59.293 Z-7.927
N5805 X56.926 Y58.356 Z-8.
N5810 X57.302 Y56.125 Z-8.166
N5815 X57.362 Y54.91 Z-8.291
N5820 X57.145 Y53.653 Z-8.426
N5825 X56.708 Y51.914 Z-8.618
N5830 X56.515 Y50.632 Z-8.755
N5835 X56.449 Y49.575 Z-8.886
N5840 X56.614 Y48.963 Z-8.96
N5845 X57.006 Y48.451 Z-9.018
N5850 X57.567 Y48.126 Z-9.049
N5855 X58.346 Y48.036 Z-9.045
N5860 X58.965 Y47.954 Z-9.044
N5865 X63.717 Y46.663 Z-9.121
N5870 X65.265 Y46.175 Z-9.161
N5875 X67.638 Y45.371 Z-9.24
N5880 X70.175 Y44.724 Z-9.295
N5885 X72.757 Y44.293 Z-9.327
N5890 X75.366 Y44.079 Z-9.325
N5895 X77.984 Y44.086 Z-9.29
N5900 X80.592 Y44.312 Z-9.22
N5905 X97.346 Y46.913 Z-8.606
N5910 X120.347 Y50.34 Z-7.805
N5915 X137.469 Y52.76 Z-7.249
N5920 X154.258 Y54.993 Z-6.746
N5925 X167.058 Y56.515 Z-6.404
N5930 X181.043 Y57.996 Z-6.072
N5935 X194.672 Y59.267 Z-5.788
N5940 X208.232 Y60.375 Z-5.541
N5945 X220.515 Y61.224 Z-5.35
N5950 X234.661 Y62.044 Z-5.164
N5955 X253.42 Y62.955 Z-4.956
N5960 X278.438 Y63.897 Z-4.737
N5965 X300.158 Y64.543 Z-4.588
N5970 X319.309 Y64.952 Z-4.491
N5975 X340.73 Y65.276 Z-4.415
N5980 X362.003 Y65.46 Z-4.369
N5985 X390.141 Y65.536 Z-4.347
N5990 X424.497 Y65.451 Z-4.362
N5995 X473.2 Y65.12 Z-4.439
N6000 X522.583 Y65.299 Z-4.385
N6005 X557.881 Y65.269 Z-4.387
N6010 X586.528 Y65.098 Z-4.425
N6015 X612.935 Y64.743 Z-4.503
N6020 X634.653 Y64.305 Z-4.601
N6025 X659.137 Y63.615 Z-4.757
N6030 X679.576 Y62.868 Z-4.927
N6035 X699.066 Y61.998 Z-5.124
N6040 X717.317 Y61.024 Z-5.344
N6045 X732.913 Y60.008 Z-5.571
N6050 X745.728 Y59.018 Z-5.791
N6055 X761.088 Y57.618 Z-6.102
N6060 X774.134 Y56.278 Z-6.401
N6065 X786.835 Y54.815 Z-6.728
N6070 X796.443 Y53.606 Z-6.999
N6075 X807.974 Y52.061 Z-7.347
N6080 X831.445 Y48.731 Z-8.115
N6085 X855.453 Y45.131 Z-8.962
N6090 X866.478 Y43.424 Z-9.366
N6095 X869.089 Y43.232 Z-9.43
N6100 X871.707 Y43.263 Z-9.46
N6105 X874.312 Y43.516 Z-9.455
N6110 X876.887 Y43.99 Z-9.416
N6115 X879.412 Y44.681 Z-9.349
N6120 X882.716 Y45.809 Z-9.238
N6125 X884.836 Y46.322 Z-9.204
N6130 X888.707 Y46.919 Z-9.2
N6135 X890.539 Y47.033 Z-9.22
N6140 X891.029 Y47.262 Z-9.2
N6145 X891.376 Y47.678 Z-9.154
N6150 X891.512 Y48.213 Z-9.088
N6155 X891.456 Y48.622 Z-9.035
N6160 X890.575 Y52.297 Z-8.599
N6165 X890.289 Y54.001 Z-8.415
N6170 X890.25 Y55.732 Z-8.234
N6175 X890.455 Y57.484 Z-8.098
N6180 X890.648 Y59.015 Z-7.983
N6185 X890.509 Y60.094 Z-7.894
N6190 X890.096 Y61.101 Z-7.802
N6195 X889.378 Y62.039 Z-7.714
N6200 X888.13 Y63.259 Z-7.606
N6205 X885.895 Y65.107 Z-7.431
N6210 X883.23 Y67.576 Z-7.211
N6215 X881.161 Y69.18 Z-7.055
N6220 X878.962 Y70.6 Z-6.906
N6225 X876.647 Y71.824 Z-6.777
N6230 X874.236 Y72.844 Z-6.65
N6235 X870.989 Y73.874 Z-6.486
N6240 X852.661 Y79.116 Z-5.598
N6245 X836.868 Y83.458 Z-4.87
N6250 X821.151 Y87.586 Z-4.186
N6255 X811.678 Y89.988 Z-3.804
N6260 X803.69 Y91.925 Z-3.497
N6265 X790.87 Y94.803 Z-3.047
N6270 X779.157 Y97.207 Z-2.675
N6275 X769.759 Y98.965 Z-2.404
N6280 X757.45 Y101.042 Z-2.081
N6285 X746.742 Y102.667 Z-1.832
N6290 X735.345 Y104.192 Z-1.597
N6295 X723.06 Y105.637 Z-1.374
N6300 X710.458 Y106.889 Z-1.178
N6305 X694.932 Y108.254 Z-0.962
N6310 X677.816 Y109.539 Z-0.757
N6315 X663.9 Y110.447 Z-0.613
N6320 X645.752 Y111.416 Z-0.457
N6325 X628.009 Y112.171 Z-0.338
N6330 X609.713 Y112.764 Z-0.247
N6335 X587.389 Y113.234 Z-0.173
N6340 X565.926 Y113.493 Z-0.136
N6345 X536.359 Y113.591 Z-0.127
N6350 X501.911 Y113.42 Z-0.165
N6355 X474.426 Y113.147 Z-0.219
N6360 X459.751 Y113.299 Z-0.197
N6365 X427.984 Y113.676 Z-0.141
N6370 X398.718 Y113.818 Z-0.125
N6375 X378.496 Y113.772 Z-0.137
N6380 X357.458 Y113.578 Z-0.174
N6385 X336.463 Y113.175 Z-0.244
N6390 X317.352 Y112.624 Z-0.338
N6395 X301.373 Y111.982 Z-0.445
N6400 X285.966 Y111.21 Z-0.573
N6405 X269.924 Y110.24 Z-0.733
N6410 X255.942 Y109.253 Z-0.893
N6415 X242.824 Y108.196 Z-1.064
N6420 X228.215 Y106.864 Z-1.282
N6425 X215.655 Y105.513 Z-1.494
N6430 X203.036 Y103.915 Z-1.74
N6435 X195.697 Y102.875 Z-1.901
N6440 X185.976 Y101.371 Z-2.137
N6445 X173.751 Y99.267 Z-2.464
N6450 X163.324 Y97.257 Z-2.776
N6455 X156.968 Y95.961 Z-2.979
N6460 X148.547 Y94.118 Z-3.268
N6465 X137.579 Y91.56 Z-3.671
N6470 X129.137 Y89.458 Z-4.002
N6475 X114.528 Y85.653 Z-4.624
N6480 X97.179 Y80.94 Z-5.413
N6485 X80.588 Y76.225 Z-6.208
N6490 X72.423 Y73.811 Z-6.615
N6495 X70.528 Y73.084 Z-6.714
N6500 X68.214 Y71.969 Z-6.839
N6505 X65.954 Y70.648 Z-6.97
N6510 X63.849 Y69.178 Z-7.106
N6515 X62.124 Y67.781 Z-7.239
N6520 X59.308 Y65.178 Z-7.472
N6525 X57.11 Y63.374 Z-7.644
N6530 X55.647 Y61.888 Z-7.773
N6535 X55.058 Y60.973 Z-7.849
N6540 X54.764 Y60.184 Z-7.92
N6545 X54.614 Y59.136 Z-8.007
N6550 X54.724 Y57.943 Z-8.098
N6555 X55.072 Y55.931 Z-8.246
N6560 X55.156 Y54.717 Z-8.363
N6565 X54.99 Y53.446 Z-8.499
N6570 X54.446 Y51.324 Z-8.732
N6575 X54.187 Y49.615 Z-8.923
N6580 X54.125 Y48.585 Z-9.055
N6585 X54.27 Y47.967 Z-9.131
N6590 X54.621 Y47.429 Z-9.193
N6595 X55.14 Y47.04 Z-9.232
N6600 X55.751 Y46.856 Z-9.244
N6605 X56.769 Y46.788 Z-9.234
N6610 X59.72 Y45.983 Z-9.281
N6615 X62.989 Y45.089 Z-9.352
N6620 X66.476 Y43.945 Z-9.463
N6625 X69.442 Y43.216 Z-9.537
N6630 X72.458 Y42.728 Z-9.572
N6635 X75.502 Y42.487 Z-9.571
N6640 X78.557 Y42.492 Z-9.535
N6645 X81.601 Y42.744 Z-9.458
N6650 X103.808 Y46.006 Z-8.675
N6655 X125.757 Y49.091 Z-7.941
N6660 X146.125 Y51.766 Z-7.318
N6665 X160.272 Y53.478 Z-6.928
N6670 X170.444 Y54.592 Z-6.675
N6675 X183.982 Y55.933 Z-6.371
N6680 X199.381 Y57.264 Z-6.069
N6685 X212.67 Y58.23 Z-5.849
N6690 X227.364 Y59.134 Z-5.642
N6695 X244.099 Y59.979 Z-5.447
N6700 X267.746 Y60.936 Z-5.222
N6705 X286.547 Y61.551 Z-5.077
N6710 X313.344 Y62.194 Z-4.924
N6715 X333.374 Y62.513 Z-4.847
N6720 X361.437 Y62.784 Z-4.781
N6725 X387.293 Y62.859 Z-4.759
N6730 X425.662 Y62.759 Z-4.777
N6735 X470.821 Y62.456 Z-4.853
N6740 X499.614 Y62.554 Z-4.817
N6745 X527.401 Y62.623 Z-4.797
N6750 X561.188 Y62.578 Z-4.803
N6755 X589.925 Y62.388 Z-4.845
N6760 X618.24 Y61.989 Z-4.934
N6765 X642.808 Y61.471 Z-5.053
N6770 X666.854 Y60.752 Z-5.218
N6775 X684.246 Y60.099 Z-5.368
N6780 X702.382 Y59.297 Z-5.552
N6785 X721.049 Y58.316 Z-5.777
N6790 X735.172 Y57.398 Z-5.985
N6795 X748.119 Y56.406 Z-6.208
N6800 X764.085 Y54.986 Z-6.528
N6805 X778.518 Y53.518 Z-6.862
N6810 X791.951 Y51.991 Z-7.213
N6815 X809.884 Y49.699 Z-7.741
N6820 X832.778 Y46.588 Z-8.475
N6825 X856.024 Y43.253 Z-9.276
N6830 X866.113 Y41.766 Z-9.635
N6835 X869.16 Y41.557 Z-9.705
N6840 X872.214 Y41.62 Z-9.73
N6845 X875.25 Y41.954 Z-9.71
N6850 X878.244 Y42.557 Z-9.655
N6855 X880.344 Y43.15 Z-9.592
N6860 X883.503 Y44.247 Z-9.474
N6865 X885.607 Y44.823 Z-9.424
N6870 X888.446 Y45.321 Z-9.398
N6875 X891.135 Y45.701 Z-9.4
N6880 X892.774 Y45.787 Z-9.42
N6885 X893.361 Y46.062 Z-9.396
N6890 X893.758 Y46.574 Z-9.338
N6895 X893.879 Y47.14 Z-9.269
N6900 X893.816 Y47.558 Z-9.215
N6905 X892.837 Y51.641 Z-8.72
N6910 X892.539 Y53.344 Z-8.536
N6915 X892.463 Y55.073 Z-8.355
N6920 X892.61 Y56.807 Z-8.215
N6925 X892.909 Y58.815 Z-8.066
N6930 X892.851 Y59.902 Z-7.978
N6935 X892.499 Y61.046 Z-7.881
N6940 X891.922 Y61.993 Z-7.812
N6945 X890.588 Y63.398 Z-7.692
N6950 X888.569 Y65.075 Z-7.532
N6955 X886.716 Y66.736 Z-7.38
N6960 X884.676 Y68.617 Z-7.211
N6965 X882.614 Y70.231 Z-7.075
N6970 X880.06 Y71.905 Z-6.922
N6975 X877.364 Y73.341 Z-6.771
N6980 X874.55 Y74.528 Z-6.622
N6985 X871.816 Y75.415 Z-6.484
N6990 X853.904 Y80.676 Z-5.611
N6995 X837.366 Y85.356 Z-4.843
N7000 X819.363 Y90.187 Z-4.062
N7005 X807.847 Y93.128 Z-3.608
N7010 X802.802 Y94.358 Z-3.421
N7015 X791.673 Y96.916 Z-3.033
N7020 X784.144 Y98.523 Z-2.792
N7025 X775.011 Y100.349 Z-2.518
N7030 X764.554 Y102.26 Z-2.23
N7035 X754.13 Y103.994 Z-1.973
N7040 X743.557 Y105.567 Z-1.736
N7045 X732.277 Y107.071 Z-1.515
N7050 X718.926 Y108.582 Z-1.286
N7055 X706.304 Y109.807 Z-1.096
N7060 X693.356 Y110.945 Z-0.923
N7065 X678.092 Y112.114 Z-0.743
N7070 X661.4 Y113.206 Z-0.573
N7075 X644.105 Y114.133 Z-0.429
N7080 X625.431 Y114.936 Z-0.31
N7085 X605.175 Y115.54 Z-0.216
N7090 X582.908 Y115.99 Z-0.151
N7095 X555.058 Y116.248 Z-0.117
N7100 X523.138 Y116.238 Z-0.125
N7105 X495.727 Y116.03 Z-0.165
N7110 X474.355 Y115.816 Z-0.212
N7115 X460.644 Y115.958 Z-0.19
N7120 X428.005 Y116.355 Z-0.13
N7125 X399.161 Y116.498 Z-0.114
N7130 X379.356 Y116.457 Z-0.125
N7135 X358.135 Y116.259 Z-0.162
N7140 X338.597 Y115.889 Z-0.225
N7145 X318.146 Y115.305 Z-0.323
N7150 X301.715 Y114.633 Z-0.431
N7155 X286.726 Y113.87 Z-0.555
N7160 X271.101 Y112.911 Z-0.709
N7165 X257.098 Y111.91 Z-0.868
N7170 X243.498 Y110.806 Z-1.045
N7175 X230.514 Y109.618 Z-1.237
N7180 X218.205 Y108.287 Z-1.437
N7185 X205.959 Y106.774 Z-1.67
N7190 X195.751 Y105.313 Z-1.888
N7195 X185.527 Y103.687 Z-2.134
N7200 X177.938 Y102.379 Z-2.332
N7205 X167.684 Y100.465 Z-2.622
N7210 X155.005 Y97.825 Z-3.021
N7215 X146.988 Y96.006 Z-3.298
N7220 X139.038 Y94.118 Z-3.586
N7225 X126.628 Y90.943 Z-4.075
N7230 X108.886 Y86.175 Z-4.845
N7235 X94.336 Y82.062 Z-5.516
N7240 X78.955 Y77.558 Z-6.258
N7245 X72.075 Y75.473 Z-6.602
N7250 X69.652 Y74.53 Z-6.723
N7255 X67.031 Y73.234 Z-6.859
N7260 X64.415 Y71.657 Z-7.013
N7265 X61.861 Y69.797 Z-7.171
N7270 X59.705 Y67.945 Z-7.319
N7275 X57.757 Y66.109 Z-7.483
N7280 X55.536 Y64.296 Z-7.657
N7285 X54.256 Y63.11 Z-7.765
N7290 X53.234 Y61.948 Z-7.861
N7295 X52.712 Y60.992 Z-7.928
N7300 X52.453 Y60.16 Z-7.991
N7305 X52.341 Y59.135 Z-8.075
N7310 X52.522 Y57.529 Z-8.196
N7315 X52.752 Y56.165 Z-8.297
N7320 X52.937 Y54.871 Z-8.399
N7325 X52.887 Y53.658 Z-8.527
N7330 X52.665 Y52.583 Z-8.644
N7335 X52.186 Y50.734 Z-8.847
N7340 X51.87 Y48.694 Z-9.084
N7345 X51.795 Y47.453 Z-9.243
N7350 X51.934 Y46.834 Z-9.319
N7355 X52.273 Y46.289 Z-9.382
N7360 X52.78 Y45.884 Z-9.423
N7365 X53.432 Y45.667 Z-9.439
N7370 X54.725 Y45.587 Z-9.425
N7375 X57.061 Y44.972 Z-9.461
N7380 X59.74 Y44.22 Z-9.527
N7385 X62.256 Y43.497 Z-9.592
N7390 X65.653 Y42.388 Z-9.715
N7395 X69.048 Y41.574 Z-9.797
N7400 X72.498 Y41.045 Z-9.844
N7405 X75.98 Y40.805 Z-9.843
N7410 X79.471 Y40.856 Z-9.794
N7415 X82.945 Y41.198 Z-9.698
N7420 X111.19 Y45.132 Z-8.741
N7425 X131.345 Y47.768 Z-8.107
N7430 X149.556 Y50.017 Z-7.578
N7435 X165.58 Y51.822 Z-7.159
N7440 X181.706 Y53.377 Z-6.796
N7445 X196.159 Y54.594 Z-6.514
N7450 X211.531 Y55.71 Z-6.255
N7455 X225.557 Y56.549 Z-6.059
N7460 X243.798 Y57.421 Z-5.852
N7465 X257.215 Y57.973 Z-5.72
N7470 X282.625 Y58.819 Z-5.517
N7475 X304.711 Y59.37 Z-5.383
N7480 X322.528 Y59.697 Z-5.304
N7485 X340.789 Y59.934 Z-5.245
N7490 X369.487 Y60.141 Z-5.193
N7495 X399.497 Y60.166 Z-5.183
N7500 X440.481 Y60.002 Z-5.218
N7505 X473.782 Y59.791 Z-5.263
N7510 X508.371 Y59.916 Z-5.231
N7515 X545.042 Y59.948 Z-5.219
N7520 X579.801 Y59.791 Z-5.252
N7525 X611.218 Y59.463 Z-5.328
N7530 X641.99 Y58.859 Z-5.468
N7535 X667.708 Y58.123 Z-5.641
N7540 X692.699 Y57.19 Z-5.86
N7545 X713.014 Y56.257 Z-6.08
N7550 X729.006 Y55.344 Z-6.291
N7555 X739.716 Y54.625 Z-6.457
N7560 X749.583 Y53.884 Z-6.628
N7565 X764.058 Y52.649 Z-6.913
N7570 X773.117 Y51.796 Z-7.111
N7575 X788.282 Y50.199 Z-7.481
N7580 X801.322 Y48.673 Z-7.837
N7585 X825.461 Y45.621 Z-8.561
N7590 X854.592 Y41.677 Z-9.524
N7595 X865.794 Y40.102 Z-9.911
N7600 X868.841 Y39.891 Z-9.979
N7605 X871.895 Y39.927 Z-10.006
N7610 X874.937 Y40.21 Z-9.994
N7615 X877.945 Y40.737 Z-9.942
N7620 X880.902 Y41.504 Z-9.853
N7625 X884.707 Y42.812 Z-9.704
N7630 X887.231 Y43.505 Z-9.638
N7635 X888.515 Y43.762 Z-9.622
N7640 X893.021 Y44.437 Z-9.596
N7645 X895.008 Y44.541 Z-9.62
N7650 X895.606 Y44.795 Z-9.599
N7655 X896.043 Y45.276 Z-9.547
N7660 X896.239 Y45.889 Z-9.473
N7665 X896.176 Y46.494 Z-9.395
N7670 X895.099 Y50.985 Z-8.842
N7675 X894.792 Y52.686 Z-8.658
N7680 X894.687 Y54.739 Z-8.442
N7685 X894.781 Y56.151 Z-8.331
N7690 X895.175 Y58.833 Z-8.132
N7695 X895.164 Y59.705 Z-8.063
N7700 X895.006 Y60.562 Z-7.999
N7705 X894.705 Y61.38 Z-7.947
N7710 X894.269 Y62.135 Z-7.893
N7715 X893.338 Y63.211 Z-7.804
N7720 X891.742 Y64.698 Z-7.67
N7725 X889.78 Y66.29 Z-7.517
N7730 X887.141 Y68.764 Z-7.311
N7735 X884.764 Y70.756 Z-7.158
N7740 X882.178 Y72.578 Z-7.
N7745 X879.639 Y74.07 Z-6.867
N7750 X876.89 Y75.402 Z-6.727
N7755 X874.041 Y76.503 Z-6.584
N7760 X862.674 Y79.982 Z-6.019
N7765 X845.842 Y84.948 Z-5.221
N7770 X830.614 Y89.262 Z-4.531
N7775 X816.217 Y93.187 Z-3.924
N7780 X804.63 Y96.144 Z-3.476
N7785 X794.056 Y98.669 Z-3.103
N7790 X783.211 Y101.037 Z-2.754
N7795 X774.922 Y102.722 Z-2.506
N7800 X764.873 Y104.598 Z-2.229
N7805 X754.417 Y106.377 Z-1.97
N7810 X744.263 Y107.926 Z-1.741
N7815 X733.261 Y109.432 Z-1.524
N7820 X720.87 Y110.893 Z-1.306
N7825 X709.104 Y112.089 Z-1.13
N7830 X695.261 Y113.361 Z-0.942
N7835 X679.102 Y114.639 Z-0.749
N7840 X662.386 Y115.766 Z-0.579
N7845 X645.509 Y116.703 Z-0.437
N7850 X625.988 Y117.574 Z-0.312
N7855 X605.659 Y118.197 Z-0.218
N7860 X583.532 Y118.657 Z-0.153
N7865 X558.532 Y118.907 Z-0.119
N7870 X532.298 Y118.944 Z-0.121
N7875 X503.562 Y118.789 Z-0.154
N7880 X475.222 Y118.481 Z-0.227
N7885 X469.393 Y118.501 Z-0.22
N7890 X437.19 Y118.939 Z-0.146
N7895 X407.681 Y119.157 Z-0.121
N7900 X385.938 Y119.169 Z-0.125
N7905 X361.604 Y118.973 Z-0.161
N7910 X342.476 Y118.647 Z-0.218
N7915 X323.635 Y118.131 Z-0.302
N7920 X304.984 Y117.422 Z-0.416
N7925 X290.1 Y116.684 Z-0.532
N7930 X272.713 Y115.617 Z-0.699
N7935 X258.254 Y114.575 Z-0.86
N7940 X244.196 Y113.419 Z-1.043
N7945 X230.757 Y112.167 Z-1.24
N7950 X218.433 Y110.81 Z-1.438
N7955 X206.041 Y109.247 Z-1.671
N7960 X196.344 Y107.84 Z-1.875
N7965 X185.674 Y106.116 Z-2.127
N7970 X174.174 Y104.067 Z-2.429
N7975 X166.054 Y102.465 Z-2.664
N7980 X153.679 Y99.81 Z-3.055
N7985 X143.536 Y97.428 Z-3.41
N7990 X133.02 Y94.776 Z-3.811
N7995 X120.755 Y91.493 Z-4.312
N8000 X106.941 Y87.64 Z-4.926
N8005 X90.122 Y82.739 Z-5.71
N8010 X73.626 Y77.738 Z-6.517
N8015 X70.511 Y76.692 Z-6.673
N8020 X67.712 Y75.47 Z-6.814
N8025 X65.092 Y74.061 Z-6.951
N8030 X62.52 Y72.413 Z-7.087
N8035 X60.562 Y70.954 Z-7.2
N8040 X58.256 Y68.987 Z-7.35
N8045 X55.755 Y66.648 Z-7.531
N8050 X52.975 Y64.356 Z-7.75
N8055 X51.497 Y62.863 Z-7.881
N8060 X50.961 Y62.176 Z-7.935
N8065 X50.542 Y61.411 Z-7.989
N8070 X50.251 Y60.589 Z-8.042
N8075 X50.096 Y59.731 Z-8.095
N8080 X50.098 Y58.661 Z-8.18
N8085 X50.521 Y55.971 Z-8.379
N8090 X50.716 Y54.678 Z-8.475
N8095 X50.695 Y53.464 Z-8.599
N8100 X50.425 Y52.048 Z-8.753
N8105 X49.926 Y50.145 Z-8.963
N8110 X49.69 Y48.869 Z-9.104
N8115 X49.488 Y46.942 Z-9.352
N8120 X49.442 Y45.879 Z-9.488
N8125 X49.619 Y45.272 Z-9.562
N8130 X50.035 Y44.776 Z-9.616
N8135 X50.59 Y44.5 Z-9.641
N8140 X51.428 Y44.447 Z-9.631
N8145 X52.684 Y44.385 Z-9.616
N8150 X56.07 Y43.466 Z-9.693
N8155 X59.859 Y42.436 Z-9.787
N8160 X62.743 Y41.469 Z-9.896
N8165 X66.096 Y40.495 Z-10.01
N8170 X69.512 Y39.778 Z-10.088
N8175 X72.973 Y39.321 Z-10.126
N8180 X76.458 Y39.127 Z-10.125
N8185 X79.948 Y39.198 Z-10.077
N8190 X83.507 Y39.543 Z-9.981
N8195 X112.012 Y43.306 Z-9.047
N8200 X137.6 Y46.458 Z-8.276
N8205 X155.823 Y48.543 Z-7.777
N8210 X169.402 Y49.92 Z-7.449
N8215 X183.777 Y51.212 Z-7.142
N8220 X200.193 Y52.501 Z-6.839
N8225 X216.002 Y53.521 Z-6.598
N8230 X229.257 Y54.234 Z-6.428
N8235 X244.183 Y54.901 Z-6.267
N8240 X261.504 Y55.556 Z-6.108
N8245 X279.701 Y56.126 Z-5.968
N8250 X301.169 Y56.665 Z-5.836
N8255 X322.326 Y57.039 Z-5.743
N8260 X347.528 Y57.325 Z-5.671
N8265 X371.341 Y57.457 Z-5.636
N8270 X407.677 Y57.475 Z-5.628
N8275 X454.102 Y57.241 Z-5.679
N8280 X475.22 Y57.124 Z-5.719
N8285 X520.729 Y57.262 Z-5.666
N8290 X560.957 Y57.217 Z-5.671
N8295 X589.87 Y57.037 Z-5.712
N8300 X615.049 Y56.739 Z-5.782
N8305 X643.582 Y56.183 Z-5.913
N8310 X668.338 Y55.503 Z-6.075
N8315 X695.935 Y54.513 Z-6.312
N8320 X716.311 Y53.579 Z-6.535
N8325 X732.806 Y52.651 Z-6.755
N8330 X746.696 Y51.713 Z-6.977
N8335 X762.885 Y50.417 Z-7.283
N8340 X773.216 Y49.494 Z-7.502
N8345 X787.922 Y48.019 Z-7.852
N8350 X799.501 Y46.738 Z-8.158
N8355 X811.073 Y45.383 Z-8.484
N8360 X834.514 Y42.486 Z-9.193
N8365 X854.215 Y39.941 Z-9.826
N8370 X865.523 Y38.432 Z-10.203
N8375 X869.006 Y38.213 Z-10.277
N8380 X872.496 Y38.288 Z-10.299
N8385 X875.967 Y38.657 Z-10.269
N8390 X879.395 Y39.318 Z-10.193
N8395 X882.755 Y40.264 Z-10.077
N8400 X886.327 Y41.509 Z-9.927
N8405 X888.856 Y42.186 Z-9.857
N8410 X891.488 Y42.655 Z-9.828
N8415 X895.319 Y43.201 Z-9.81
N8420 X897.7 Y43.319 Z-9.832
N8425 X898.279 Y43.61 Z-9.802
N8430 X898.643 Y44.145 Z-9.741
N8435 X898.704 Y44.78 Z-9.661
N8440 X898.14 Y47.082 Z-9.358
N8445 X897.361 Y50.329 Z-8.965
N8450 X897.057 Y51.941 Z-8.79
N8455 X896.909 Y54.099 Z-8.562
N8460 X897. Y55.839 Z-8.424
N8465 X897.472 Y59.05 Z-8.185
N8470 X897.462 Y59.922 Z-8.126
N8475 X897.307 Y60.779 Z-8.077
N8480 X897.009 Y61.599 Z-8.025
N8485 X896.578 Y62.357 Z-7.97
N8490 X895.766 Y63.319 Z-7.891
N8495 X894.211 Y64.849 Z-7.755
N8500 X891.559 Y67.026 Z-7.553
N8505 X889.087 Y69.347 Z-7.384
N8510 X886.896 Y71.258 Z-7.243
N8515 X884.454 Y73.092 Z-7.113
N8520 X881.88 Y74.738 Z-6.977
N8525 X879.191 Y76.186 Z-6.836
N8530 X876.401 Y77.429 Z-6.699
N8535 X873.177 Y78.569 Z-6.54
N8540 X858.052 Y83.252 Z-5.798
N8545 X844.15 Y87.423 Z-5.145
N8550 X830.448 Y91.387 Z-4.528
N8555 X816.198 Y95.357 Z-3.931
N8560 X804.315 Y98.452 Z-3.478
N8565 X793.525 Y101.073 Z-3.102
N8570 X782.281 Y103.564 Z-2.748
N8575 X772.01 Y105.661 Z-2.449
N8580 X760.084 Y107.845 Z-2.138
N8585 X750.395 Y109.452 Z-1.91
N8590 X740.438 Y110.947 Z-1.701
N8595 X728.828 Y112.471 Z-1.482
N8600 X716.739 Y113.865 Z-1.287
N8605 X701.911 Y115.32 Z-1.07
N8610 X688.466 Y116.488 Z-0.897
N8615 X675.322 Y117.5 Z-0.751
N8620 X661.63 Y118.43 Z-0.616
N8625 X645.17 Y119.357 Z-0.479
N8630 X626.009 Y120.229 Z-0.356
N8635 X605.707 Y120.864 Z-0.262
N8640 X583.567 Y121.335 Z-0.198
N8645 X559.418 Y121.584 Z-0.164
N8650 X533.601 Y121.63 Z-0.165
N8655 X505.281 Y121.482 Z-0.196
N8660 X475.496 Y121.148 Z-0.26
N8665 X466.795 Y121.209 Z-0.249
N8670 X431.973 Y121.672 Z-0.185
N8675 X402.013 Y121.857 Z-0.164
N8680 X382.211 Y121.832 Z-0.174
N8685 X357.353 Y121.597 Z-0.216
N8690 X338.065 Y121.205 Z-0.28
N8695 X318.338 Y120.612 Z-0.374
N8700 X302.397 Y119.938 Z-0.478
N8705 X287.375 Y119.144 Z-0.6
N8710 X271.712 Y118.145 Z-0.754
N8715 X257.669 Y117.103 Z-0.911
N8720 X242.813 Y115.84 Z-1.103
N8725 X228.831 Y114.481 Z-1.311
N8730 X217.361 Y113.176 Z-1.498
N8735 X206.194 Y111.735 Z-1.709
N8740 X193.615 Y109.852 Z-1.978
N8745 X184.661 Y108.35 Z-2.193
N8750 X173.421 Y106.283 Z-2.49
N8755 X161.864 Y103.91 Z-2.83
N8760 X149.989 Y101.235 Z-3.217
N8765 X138.715 Y98.448 Z-3.618
N8770 X127.099 Y95.354 Z-4.071
N8775 X111.2 Y90.896 Z-4.752
N8780 X92.224 Y85.286 Z-5.627
N8785 X76.5 Y80.437 Z-6.391
N8790 X70.593 Y78.513 Z-6.684
N8795 X67.771 Y77.345 Z-6.821
N8800 X65.05 Y75.967 Z-6.952
N8805 X62.433 Y74.392 Z-7.083
N8810 X59.607 Y72.379 Z-7.234
N8815 X56.97 Y70.175 Z-7.38
N8820 X54.495 Y67.836 Z-7.549
N8825 X52.413 Y66.107 Z-7.685
N8830 X50.748 Y64.698 Z-7.817
N8835 X49.35 Y63.269 Z-7.943
N8840 X48.579 Y62.215 Z-8.025
N8845 X48.059 Y61.016 Z-8.106
N8850 X47.816 Y59.732 Z-8.179
N8855 X47.815 Y58.861 Z-8.234
N8860 X48.146 Y56.514 Z-8.409
N8865 X48.449 Y54.92 Z-8.525
N8870 X48.515 Y53.646 Z-8.633
N8875 X48.384 Y52.382 Z-8.768
N8880 X47.986 Y50.811 Z-8.941
N8885 X47.495 Y48.707 Z-9.172
N8890 X47.262 Y47.104 Z-9.375
N8895 X47.081 Y44.476 Z-9.712
N8900 X47.214 Y43.86 Z-9.788
N8905 X47.63 Y43.408 Z-9.837
N8910 X48.167 Y43.229 Z-9.853
N8915 X50.154 Y43.241 Z-9.819
N8920 X50.876 Y43.129 Z-9.823
N8925 X54.791 Y42.045 Z-9.918
N8930 X58.712 Y40.983 Z-10.027
N8935 X62.75 Y39.64 Z-10.191
N8940 X66.122 Y38.738 Z-10.3
N8945 X69.549 Y38.071 Z-10.381
N8950 X73.014 Y37.644 Z-10.422
N8955 X76.5 Y37.457 Z-10.419
N8960 X79.99 Y37.513 Z-10.377
N8965 X83.458 Y37.81 Z-10.291
N8970 X113.738 Y41.585 Z-9.335
N8975 X131.495 Y43.668 Z-8.816
N8980 X151.656 Y45.898 Z-8.272
N8985 X167.141 Y47.443 Z-7.899
N8990 X183.673 Y48.859 Z-7.557
N8995 X200.933 Y50.141 Z-7.248
N9000 X217.992 Y51.164 Z-7.
N9005 X232.087 Y51.861 Z-6.831
N9010 X248.727 Y52.533 Z-6.665
N9015 X266.452 Y53.141 Z-6.514
N9020 X287.318 Y53.725 Z-6.368
N9025 X308.147 Y54.158 Z-6.259
N9030 X333.092 Y54.516 Z-6.167
N9035 X359.914 Y54.745 Z-6.108
N9040 X392.238 Y54.807 Z-6.089
N9045 X433.525 Y54.681 Z-6.115
N9050 X472.592 Y54.448 Z-6.17
N9055 X522.482 Y54.584 Z-6.13
N9060 X563.513 Y54.526 Z-6.14
N9065 X584.8 Y54.403 Z-6.168
N9070 X611.469 Y54.123 Z-6.235
N9075 X637.61 Y53.688 Z-6.341
N9080 X666.613 Y52.957 Z-6.518
N9085 X687.602 Y52.27 Z-6.685
N9090 X710.889 Y51.343 Z-6.912
N9095 X728.664 Y50.435 Z-7.13
N9100 X741.923 Y49.623 Z-7.325
N9105 X755.212 Y48.685 Z-7.55
N9110 X771.577 Y47.353 Z-7.87
N9115 X786.259 Y45.967 Z-8.203
N9120 X803.309 Y44.181 Z-8.639
N9125 X825.455 Y41.654 Z-9.267
N9130 X854.792 Y38.083 Z-10.172
N9135 X865.301 Y36.757 Z-10.509
N9140 X868.785 Y36.543 Z-10.58
N9145 X872.276 Y36.601 Z-10.6
N9150 X875.751 Y36.928 Z-10.572
N9155 X879.191 Y37.525 Z-10.501
N9160 X882.573 Y38.387 Z-10.385
N9165 X885.883 Y39.5 Z-10.241
N9170 X888.366 Y40.329 Z-10.137
N9175 X890.907 Y40.958 Z-10.075
N9180 X894.952 Y41.611 Z-10.032
N9185 X897.169 Y41.934 Z-10.022
N9190 X900.245 Y42.059 Z-10.054
N9195 X900.744 Y42.263 Z-10.033
N9200 X901.083 Y42.683 Z-9.978
N9205 X901.178 Y43.215 Z-9.908
N9210 X901.146 Y43.407 Z-9.883
N9215 X900.106 Y47.659 Z-9.323
N9220 X899.346 Y50.854 Z-8.959
N9225 X899.115 Y52.478 Z-8.785
N9230 X899.093 Y54.213 Z-8.616
N9235 X899.304 Y55.944 Z-8.486
N9240 X899.9 Y58.567 Z-8.298
N9245 X900.007 Y59.652 Z-8.238
N9250 X899.879 Y60.733 Z-8.179
N9255 X899.502 Y61.754 Z-8.114
N9260 X898.948 Y62.601 Z-8.05
N9265 X897.294 Y64.378 Z-7.897
N9270 X895.687 Y65.854 Z-7.769
N9275 X893.009 Y68.049 Z-7.594
N9280 X891.34 Y69.619 Z-7.48
N9285 X889.015 Y71.743 Z-7.35
N9290 X886.264 Y73.893 Z-7.201
N9295 X883.353 Y75.819 Z-7.063
N9300 X880.299 Y77.51 Z-6.917
N9305 X877.121 Y78.955 Z-6.764
N9310 X874.131 Y80.051 Z-6.618
N9315 X861.782 Y83.984 Z-6.008
N9320 X846.646 Y88.664 Z-5.292
N9325 X835.056 Y92.133 Z-4.766
N9330 X820.574 Y96.297 Z-4.145
N9335 X810.696 Y99.012 Z-3.757
N9340 X802.277 Y101.203 Z-3.448
N9345 X792.623 Y103.566 Z-3.118
N9350 X781.952 Y105.979 Z-2.789
N9355 X770.406 Y108.343 Z-2.462
N9360 X759.457 Y110.372 Z-2.183
N9365 X749.393 Y112.061 Z-1.953
N9370 X739.396 Y113.563 Z-1.748
N9375 X726.873 Y115.228 Z-1.52
N9380 X712.785 Y116.82 Z-1.302
N9385 X696.46 Y118.393 Z-1.077
N9390 X679.814 Y119.776 Z-0.88
N9395 X663.2 Y120.951 Z-0.711
N9400 X647.011 Y121.9 Z-0.575
N9405 X629.199 Y122.747 Z-0.456
N9410 X610.119 Y123.42 Z-0.365
N9415 X596.22 Y123.773 Z-0.316
N9420 X573.812 Y124.138 Z-0.266
N9425 X551.576 Y124.303 Z-0.25
N9430 X521.712 Y124.277 Z-0.263
N9435 X493.477 Y124.032 Z-0.305
N9440 X475.053 Y123.818 Z-0.341
N9445 X462.015 Y123.951 Z-0.322
N9450 X434.632 Y124.325 Z-0.279
N9455 X409.243 Y124.512 Z-0.258
N9460 X384.381 Y124.526 Z-0.264
N9465 X358.939 Y124.29 Z-0.305
N9470 X341.071 Y123.945 Z-0.361
N9475 X323.074 Y123.421 Z-0.443
N9480 X304.828 Y122.692 Z-0.554
N9485 X290.313 Y121.943 Z-0.667
N9490 X273.324 Y120.858 Z-0.827
N9495 X258.39 Y119.738 Z-0.991
N9500 X243.076 Y118.415 Z-1.188
N9505 X228.641 Y116.98 Z-1.401
N9510 X217.59 Y115.698 Z-1.579
N9515 X205.949 Y114.167 Z-1.797
N9520 X193.783 Y112.309 Z-2.053
N9525 X185.225 Y110.856 Z-2.255
N9530 X173.524 Y108.67 Z-2.559
N9535 X161.947 Y106.247 Z-2.894
N9540 X150.485 Y103.62 Z-3.261
N9545 X139.175 Y100.787 Z-3.657
N9550 X127.13 Y97.516 Z-4.121
N9555 X110.382 Y92.704 Z-4.836
N9560 X91.515 Y86.994 Z-5.704
N9565 X74.051 Y81.45 Z-6.553
N9570 X70.773 Y80.36 Z-6.715
N9575 X67.535 Y79.054 Z-6.867
N9580 X64.406 Y77.506 Z-7.014
N9585 X61.405 Y75.724 Z-7.155
N9590 X58.547 Y73.718 Z-7.286
N9595 X56.676 Y72.217 Z-7.385
N9600 X54.724 Y70.472 Z-7.493
N9605 X52.538 Y68.41 Z-7.624
N9610 X49.493 Y65.917 Z-7.824
N9615 X47.903 Y64.423 Z-7.941
N9620 X46.919 Y63.343 Z-8.033
N9625 X46.213 Y62.244 Z-8.116
N9630 X45.746 Y61.023 Z-8.195
N9635 X45.539 Y59.732 Z-8.267
N9640 X45.597 Y58.448 Z-8.335
N9645 X45.971 Y55.98 Z-8.518
N9650 X46.27 Y54.293 Z-8.642
N9655 X46.289 Y52.985 Z-8.756
N9660 X46.076 Y51.492 Z-8.917
N9665 X45.508 Y49.385 Z-9.15
N9670 X45.169 Y47.779 Z-9.33
N9675 X44.899 Y45.761 Z-9.591
N9680 X44.739 Y43.346 Z-9.901
N9685 X44.826 Y42.784 Z-9.972
N9690 X45.139 Y42.308 Z-10.035
N9695 X45.616 Y42.005 Z-10.071
N9700 X46.16 Y41.925 Z-10.073
N9705 X47.988 Y42.026 Z-10.029
N9710 X48.916 Y41.907 Z-10.031
N9715 X52.37 Y40.963 Z-10.119
N9720 X55.041 Y40.226 Z-10.195
N9725 X57.564 Y39.528 Z-10.272
N9730 X62.462 Y37.87 Z-10.49
N9735 X65.835 Y36.969 Z-10.614
N9740 X69.262 Y36.304 Z-10.698
N9745 X72.727 Y35.878 Z-10.748
N9750 X76.213 Y35.693 Z-10.752
N9755 X79.704 Y35.75 Z-10.71
N9760 X83.33 Y36.067 Z-10.619
N9765 X114.129 Y39.694 Z-9.687
N9770 X131.891 Y41.657 Z-9.187
N9775 X150.218 Y43.572 Z-8.709
N9780 X167.176 Y45.174 Z-8.312
N9785 X182.264 Y46.411 Z-8.006
N9790 X198.445 Y47.556 Z-7.723
N9795 X209.21 Y48.215 Z-7.56
N9800 X223.327 Y48.956 Z-7.377
N9805 X239.245 Y49.646 Z-7.204
N9810 X258.314 Y50.315 Z-7.034
N9815 X279.089 Y50.9 Z-6.885
N9820 X305.552 Y51.479 Z-6.737
N9825 X334.192 Y51.868 Z-6.636
N9830 X352.028 Y52.011 Z-6.598
N9835 X384.14 Y52.121 Z-6.567
N9840 X414.982 Y52.082 Z-6.574
N9845 X461.647 Y51.847 Z-6.634
N9850 X475.224 Y51.786 Z-6.654
N9855 X527.958 Y51.915 Z-6.605
N9860 X568.504 Y51.826 Z-6.623
N9865 X590.282 Y51.691 Z-6.656
N9870 X613.685 Y51.43 Z-6.719
N9875 X641.319 Y50.968 Z-6.833
N9880 X665.194 Y50.402 Z-6.975
N9885 X694.868 Y49.46 Z-7.21
N9890 X716.366 Y48.582 Z-7.428
N9895 X734.265 Y47.675 Z-7.652
N9900 X749.704 Y46.7 Z-7.891
N9905 X766.534 Y45.462 Z-8.195
N9910 X782.713 Y44.087 Z-8.535
N9915 X800.158 Y42.386 Z-8.956
N9920 X824.622 Y39.773 Z-9.613
N9925 X855.38 Y36.229 Z-10.525
N9930 X864.698 Y35.122 Z-10.813
N9935 X868.181 Y34.885 Z-10.886
N9940 X871.672 Y34.899 Z-10.914
N9945 X875.152 Y35.164 Z-10.894
N9950 X878.605 Y35.679 Z-10.828
N9955 X882.012 Y36.44 Z-10.722
N9960 X885.332 Y37.437 Z-10.581
N9965 X888.719 Y38.648 Z-10.416
N9970 X891.24 Y39.353 Z-10.331
N9975 X893.814 Y39.831 Z-10.29
N9980 X896.302 Y40.076 Z-10.288
N9985 X897.738 Y40.146 Z-10.298
N9990 X899.039 Y40.013 Z-10.337
N9995 X900.782 Y39.591 Z-10.427
N10000 X901.434 Y39.586 Z-10.438
N10005 X902.061 Y39.767 Z-10.419
N10010 X902.61 Y40.118 Z-10.372
N10015 X903.037 Y40.611 Z-10.307
N10020 X903.344 Y41.36 Z-10.205
N10025 X903.394 Y41.842 Z-10.137
N10030 X903.389 Y43.242 Z-9.948
N10035 X903.245 Y44.404 Z-9.798
N10040 X902.486 Y46.838 Z-9.474
N10045 X901.762 Y49.56 Z-9.153
N10050 X901.424 Y51.255 Z-8.968
N10055 X901.298 Y52.892 Z-8.795
N10060 X901.373 Y54.629 Z-8.653
N10065 X901.72 Y56.581 Z-8.51
N10070 X902.183 Y58.595 Z-8.376
N10075 X902.344 Y59.889 Z-8.317
N10080 X902.241 Y60.972 Z-8.259
N10085 X901.863 Y61.992 Z-8.193
N10090 X901.379 Y62.717 Z-8.138
N10095 X899.727 Y64.492 Z-7.991
N10100 X897.827 Y66.291 Z-7.858
N10105 X895.364 Y68.283 Z-7.695
N10110 X892.965 Y70.497 Z-7.56
N10115 X891.048 Y72.281 Z-7.453
N10120 X888.792 Y74.139 Z-7.348
N10125 X885.959 Y76.18 Z-7.218
N10130 X882.982 Y78.003 Z-7.09
N10135 X880.613 Y79.249 Z-6.985
N10140 X877.422 Y80.665 Z-6.838
N10145 X874.956 Y81.565 Z-6.719
N10150 X859.384 Y86.629 Z-5.958
N10155 X848.299 Y90.135 Z-5.434
N10160 X833.366 Y94.694 Z-4.761
N10165 X819.785 Y98.677 Z-4.191
N10170 X813.936 Y100.336 Z-3.963
N10175 X805.204 Y102.699 Z-3.632
N10180 X793.72 Y105.599 Z-3.24
N10185 X782.303 Y108.241 Z-2.887
N10190 X770.741 Y110.658 Z-2.56
N10195 X760.19 Y112.658 Z-2.292
N10200 X749.684 Y114.463 Z-2.054
N10205 X740.083 Y115.941 Z-1.86
N10210 X727.449 Y117.659 Z-1.633
N10215 X714.474 Y119.17 Z-1.433
N10220 X699.175 Y120.718 Z-1.222
N10225 X681.916 Y122.209 Z-1.015
N10230 X663.753 Y123.535 Z-0.831
N10235 X649.595 Y124.4 Z-0.712
N10240 X633.959 Y125.189 Z-0.604
N10245 X618.298 Y125.809 Z-0.519
N10250 X599.695 Y126.372 Z-0.447
N10255 X581.691 Y126.718 Z-0.402
N10260 X556.388 Y126.97 Z-0.373
N10265 X529.661 Y126.983 Z-0.378
N10270 X504.804 Y126.832 Z-0.41
N10275 X475.483 Y126.485 Z-0.468
N10280 X462.472 Y126.615 Z-0.448
N10285 X435.525 Y126.992 Z-0.406
N10290 X410.558 Y127.189 Z-0.386
N10295 X384.805 Y127.209 Z-0.392
N10300 X359.789 Y126.975 Z-0.431
N10305 X341.896 Y126.633 Z-0.487
N10310 X323.884 Y126.103 Z-0.568
N10315 X307.367 Y125.441 Z-0.666
N10320 X297.413 Y124.948 Z-0.739
N10325 X285.409 Y124.259 Z-0.838
N10330 X271.018 Y123.29 Z-0.979
N10335 X257.805 Y122.266 Z-1.124
N10340 X242.905 Y120.948 Z-1.314
N10345 X228.884 Y119.529 Z-1.519
N10350 X217.818 Y118.222 Z-1.693
N10355 X206.136 Y116.664 Z-1.909
N10360 X193.952 Y114.769 Z-2.16
N10365 X185.359 Y113.289 Z-2.36
N10370 X173.2 Y110.972 Z-2.671
N10375 X162.03 Y108.588 Z-2.989
N10380 X150.302 Y105.861 Z-3.36
N10385 X138.37 Y102.79 Z-3.773
N10390 X127.16 Y99.68 Z-4.2
N10395 X110.963 Y94.922 Z-4.886
N10400 X96.592 Y90.507 Z-5.535
N10405 X79.619 Y85.077 Z-6.345
N10410 X70.684 Y82.116 Z-6.787
N10415 X67.437 Y80.834 Z-6.939
N10420 X64.287 Y79.328 Z-7.084
N10425 X61.251 Y77.605 Z-7.213
N10430 X58.343 Y75.674 Z-7.33
N10435 X55.374 Y73.376 Z-7.466
N10440 X52.964 Y71.218 Z-7.581
N10445 X50.317 Y68.758 Z-7.729
N10450 X47.587 Y66.549 Z-7.898
N10455 X45.682 Y64.754 Z-8.031
N10460 X44.55 Y63.508 Z-8.117
N10465 X43.833 Y62.415 Z-8.2
N10470 X43.342 Y61.203 Z-8.279
N10475 X43.096 Y59.919 Z-8.353
N10480 X43.103 Y58.612 Z-8.418
N10485 X43.26 Y57.706 Z-8.465
N10490 X43.805 Y55.442 Z-8.627
N10495 X44.014 Y53.71 Z-8.757
N10500 X43.988 Y52.402 Z-8.873
N10505 X43.733 Y50.781 Z-9.048
N10510 X42.904 Y47.934 Z-9.364
N10515 X42.569 Y46.307 Z-9.568
N10520 X42.423 Y45.187 Z-9.713
N10525 X42.275 Y43.579 Z-9.92
N10530 X42.339 Y42.692 Z-10.031
N10535 X42.611 Y41.894 Z-10.136
N10540 X43.162 Y41.109 Z-10.239
N10545 X43.803 Y40.593 Z-10.303
N10550 X44.601 Y40.246 Z-10.341
N10555 X45.558 Y40.129 Z-10.345
N10560 X46.979 Y40.228 Z-10.309
N10565 X48.076 Y40.105 Z-10.312
N10570 X51.437 Y39.284 Z-10.391
N10575 X54.051 Y38.622 Z-10.465
N10580 X56.588 Y37.975 Z-10.541
N10585 X61.26 Y36.42 Z-10.759
N10590 X65.052 Y35.4 Z-10.905
N10595 X68.909 Y34.657 Z-11.01
N10600 X72.809 Y34.194 Z-11.065
N10605 X76.732 Y34.014 Z-11.071
N10610 X80.658 Y34.117 Z-11.021
N10615 X85.734 Y34.621 Z-10.883
N10620 X114.954 Y37.848 Z-10.036
N10625 X132.721 Y39.691 Z-9.557
N10630 X151.486 Y41.526 Z-9.088
N10635 X169.093 Y43.078 Z-8.696
N10640 X186.096 Y44.348 Z-8.376
N10645 X203.683 Y45.474 Z-8.094
N10650 X219.629 Y46.306 Z-7.885
N10655 X234.318 Y46.933 Z-7.726
N10660 X249.946 Y47.483 Z-7.585
N10665 X273.348 Y48.166 Z-7.408
N10670 X302.746 Y48.788 Z-7.245
N10675 X328.013 Y49.149 Z-7.151
N10680 X358.574 Y49.373 Z-7.089
N10685 X391.748 Y49.437 Z-7.069
N10690 X410.948 Y49.412 Z-7.074
N10695 X452.295 Y49.231 Z-7.117
N10700 X476.964 Y49.12 Z-7.152
N10705 X532.871 Y49.223 Z-7.11
N10710 X563.276 Y49.169 Z-7.121
N10715 X591.415 Y49.001 Z-7.161
N10720 X624.172 Y48.642 Z-7.251
N10725 X655.861 Y48.025 Z-7.406
N10730 X683.813 Y47.269 Z-7.597
N10735 X711.121 Y46.31 Z-7.841
N10740 X730.133 Y45.439 Z-8.058
N10745 X743.847 Y44.675 Z-8.25
N10750 X760.448 Y43.588 Z-8.524
N10755 X774.559 Y42.526 Z-8.792
N10760 X790.894 Y41.123 Z-9.148
N10765 X809.539 Y39.325 Z-9.606
N10770 X830.445 Y37.174 Z-10.164
N10775 X860.809 Y33.863 Z-11.036
N10780 X865.899 Y33.321 Z-11.181
N10785 X869.387 Y33.171 Z-11.237
N10790 X872.876 Y33.262 Z-11.245
N10795 X876.352 Y33.592 Z-11.205
N10800 X879.796 Y34.161 Z-11.124
N10805 X883.193 Y34.966 Z-11.003
N10810 X886.7 Y36.05 Z-10.84
N10815 X889.311 Y36.917 Z-10.715
N10820 X891.435 Y37.414 Z-10.654
N10825 X893.594 Y37.724 Z-10.629
N10830 X895.622 Y37.843 Z-10.634
N10835 X897.748 Y37.864 Z-10.658
N10840 X899.044 Y37.687 Z-10.704
N10845 X900.439 Y37.33 Z-10.781
N10850 X901.526 Y37.267 Z-10.805
N10855 X902.58 Y37.454 Z-10.787
N10860 X903.573 Y37.899 Z-10.729
N10865 X904.417 Y38.585 Z-10.636
N10870 X905.05 Y39.456 Z-10.511
N10875 X905.436 Y40.444 Z-10.372
N10880 X905.546 Y41.116 Z-10.277
N10885 X905.687 Y42.991 Z-10.026
N10890 X905.613 Y44.176 Z-9.874
N10895 X905.335 Y45.359 Z-9.718
N10900 X904.561 Y47.772 Z-9.408
N10905 X903.941 Y49.809 Z-9.181
N10910 X903.604 Y51.504 Z-8.996
N10915 X903.507 Y52.797 Z-8.863
N10920 X903.586 Y54.54 Z-8.728
N10925 X903.89 Y56.189 Z-8.608
N10930 X904.327 Y58.326 Z-8.473
N10935 X904.546 Y60.268 Z-8.385
N10940 X904.587 Y61.263 Z-8.337
N10945 X904.414 Y62.116 Z-8.287
N10950 X904.02 Y62.892 Z-8.233
N10955 X903.257 Y63.709 Z-8.175
N10960 X900.568 Y66.329 Z-7.986
N10965 X898.911 Y67.653 Z-7.885
N10970 X897.521 Y68.708 Z-7.806
N10975 X895.669 Y70.327 Z-7.701
N10980 X893.003 Y72.873 Z-7.573
N10985 X890.119 Y75.278 Z-7.449
N10990 X887.291 Y77.326 Z-7.34
N10995 X884.044 Y79.333 Z-7.207
N11000 X881.045 Y80.903 Z-7.086
N11005 X877.848 Y82.305 Z-6.944
N11010 X872.949 Y84.028 Z-6.707
N11015 X858.392 Y88.862 Z-6.004
N11020 X849.349 Y91.78 Z-5.577
N11025 X835.176 Y96.217 Z-4.945
N11030 X819.271 Y100.997 Z-4.281
N11035 X806.859 Y104.503 Z-3.814
N11040 X795.234 Y107.522 Z-3.418
N11045 X783.338 Y110.345 Z-3.052
N11050 X774.922 Y112.177 Z-2.813
N11055 X763.499 Y114.468 Z-2.518
N11060 X753.847 Y116.203 Z-2.293
N11065 X745.358 Y117.608 Z-2.113
N11070 X734.759 Y119.182 Z-1.911
N11075 X726.184 Y120.319 Z-1.764
N11080 X714.637 Y121.692 Z-1.59
N11085 X698.043 Y123.38 Z-1.362
N11090 X682.064 Y124.789 Z-1.173
N11095 X663.87 Y126.145 Z-0.99
N11100 X650.136 Y127.005 Z-0.876
N11105 X634.483 Y127.815 Z-0.768
N11110 X619.241 Y128.437 Z-0.685
N11115 X599.743 Y129.043 Z-0.608
N11120 X582.15 Y129.391 Z-0.565
N11125 X556.837 Y129.65 Z-0.535
N11130 X531.11 Y129.671 Z-0.54
N11135 X503.474 Y129.495 Z-0.575
N11140 X475.195 Y129.154 Z-0.645
N11145 X467.293 Y129.21 Z-0.634
N11150 X439.91 Y129.619 Z-0.578
N11155 X413.183 Y129.861 Z-0.554
N11160 X387.671 Y129.894 Z-0.556
N11165 X365.874 Y129.729 Z-0.587
N11170 X344.899 Y129.38 Z-0.643
N11175 X325.562 Y128.818 Z-0.727
N11180 X309.898 Y128.195 Z-0.817
N11185 X300.796 Y127.761 Z-0.879
N11190 X287.464 Y127.008 Z-0.985
N11195 X272.18 Y125.974 Z-1.131
N11200 X258.51 Y124.904 Z-1.278
N11205 X243.148 Y123.524 Z-1.472
N11210 X228.671 Y122.027 Z-1.681
N11215 X216.284 Y120.536 Z-1.878
N11220 X205.501 Y119.029 Z-2.073
N11225 X194.796 Y117.359 Z-2.29
N11230 X186.232 Y115.859 Z-2.485
N11235 X174.195 Y113.537 Z-2.786
N11240 X163.762 Y111.31 Z-3.08
N11245 X153.883 Y109.004 Z-3.379
N11250 X147.967 Y107.535 Z-3.576
N11255 X137.922 Y104.889 Z-3.925
N11260 X126.699 Y101.705 Z-4.348
N11265 X111.346 Y97.094 Z-4.99
N11270 X96.984 Y92.591 Z-5.631
N11275 X81.056 Y87.394 Z-6.382
N11280 X70.437 Y83.817 Z-6.904
N11285 X66.783 Y82.377 Z-7.072
N11290 X63.245 Y80.672 Z-7.223
N11295 X59.842 Y78.711 Z-7.35
N11300 X56.946 Y76.762 Z-7.461
N11305 X53.827 Y74.332 Z-7.575
N11310 X51.864 Y72.598 Z-7.659
N11315 X49.937 Y70.771 Z-7.743
N11320 X48.025 Y69.212 Z-7.85
N11325 X45.996 Y67.751 Z-7.964
N11330 X44.38 Y66.318 Z-8.056
N11335 X41.967 Y64.04 Z-8.224
N11340 X41.327 Y63.159 Z-8.276
N11345 X40.905 Y62.155 Z-8.329
N11350 X40.74 Y61.299 Z-8.378
N11355 X40.76 Y60.039 Z-8.441
N11360 X41.024 Y57.873 Z-8.538
N11365 X41.566 Y55.457 Z-8.696
N11370 X41.751 Y54.162 Z-8.792
N11375 X41.774 Y52.853 Z-8.894
N11380 X41.634 Y51.552 Z-9.02
N11385 X41.232 Y49.963 Z-9.196
N11390 X40.629 Y48.024 Z-9.413
N11395 X40.223 Y46.125 Z-9.638
N11400 X39.995 Y44.172 Z-9.89
N11405 X39.985 Y42.925 Z-10.049
N11410 X40.116 Y42.1 Z-10.151
N11415 X40.518 Y40.974 Z-10.303
N11420 X40.952 Y40.241 Z-10.401
N11425 X41.787 Y39.307 Z-10.527
N11430 X42.777 Y38.613 Z-10.619
N11435 X43.575 Y38.26 Z-10.662
N11440 X44.418 Y38.04 Z-10.684
N11445 X45.396 Y37.959
N11450 X47.41 Y37.93 Z-10.663
N11455 X50.012 Y37.475 Z-10.705
N11460 X53.999 Y36.592 Z-10.806
N11465 X56.556 Y36.027 Z-10.878
N11470 X59.417 Y35.146 Z-11.004
N11475 X63.186 Y34.045 Z-11.176
N11480 X67.023 Y33.208 Z-11.305
N11485 X70.91 Y32.64 Z-11.389
N11490 X74.826 Y32.343 Z-11.418
N11495 X78.753 Y32.319 Z-11.396
N11500 X82.672 Y32.569 Z-11.318
N11505 X114.793 Y35.899 Z-10.426
N11510 X133.429 Y37.707 Z-9.948
N11515 X152.629 Y39.459 Z-9.493
N11520 X170.196 Y40.893 Z-9.125
N11525 X187.188 Y42.073 Z-8.821
N11530 X205.627 Y43.161 Z-8.542
N11535 X221.579 Y43.923 Z-8.345
N11540 X241.133 Y44.653 Z-8.154
N11545 X256.343 Y45.129 Z-8.029
N11550 X286.955 Y45.869 Z-7.833
N11555 X310.183 Y46.276 Z-7.725
N11560 X334.529 Y46.545 Z-7.651
N11565 X358.876 Y46.7 Z-7.608
N11570 X394.589 Y46.749 Z-7.592
N11575 X437.198 Y46.627 Z-7.62
N11580 X474.946 Y46.446 Z-7.663
N11585 X535.224 Y46.541 Z-7.633
N11590 X567.711 Y46.471 Z-7.649
N11595 X600.27 Y46.255 Z-7.702
N11600 X621.886 Y46.009 Z-7.765
N11605 X651.893 Y45.501 Z-7.897
N11610 X684.017 Y44.697 Z-8.105
N11615 X712.717 Y43.742 Z-8.353
N11620 X732.351 Y42.874 Z-8.574
N11625 X748.112 Y42.02 Z-8.793
N11630 X762.672 Y41.099 Z-9.028
N11635 X780.134 Y39.827 Z-9.355
N11640 X794.002 Y38.679 Z-9.65
N11645 X818.348 Y36.421 Z-10.243
N11650 X843.249 Y33.962 Z-10.902
N11655 X864.336 Y31.769 Z-11.494
N11660 X868.386 Y31.516 Z-11.572
N11665 X872.313 Y31.557 Z-11.587
N11670 X876.227 Y31.881 Z-11.545
N11675 X880.107 Y32.487 Z-11.454
N11680 X883.933 Y33.371 Z-11.309
N11685 X887.894 Y34.578 Z-11.119
N11690 X890.002 Y35.14 Z-11.036
N11695 X892.152 Y35.515 Z-10.993
N11700 X894.325 Y35.701 Z-10.984
N11705 X896.457 Y35.713 Z-11.005
N11710 X897.758 Y35.69 Z-11.023
N11715 X899.052 Y35.5 Z-11.071
N11720 X900.437 Y35.189 Z-11.141
N11725 X901.743 Y35.134 Z-11.166
N11730 X903.029 Y35.325 Z-11.146
N11735 X904.257 Y35.771 Z-11.087
N11740 X905.364 Y36.467 Z-10.987
N11745 X906.294 Y37.376 Z-10.85
N11750 X907.004 Y38.445 Z-10.696
N11755 X907.448 Y39.543 Z-10.535
N11760 X907.669 Y40.659 Z-10.379
N11765 X907.848 Y42.505 Z-10.131
N11770 X907.832 Y43.78 Z-9.969
N11775 X907.562 Y45.367 Z-9.762
N11780 X906.918 Y47.456 Z-9.501
N11785 X906.157 Y49.914 Z-9.226
N11790 X905.82 Y51.608 Z-9.041
N11795 X905.724 Y53.346 Z-8.891
N11800 X905.87 Y55.043 Z-8.761
N11805 X906.369 Y57.26 Z-8.609
N11810 X906.684 Y59.198 Z-8.525
N11815 X906.804 Y60.963 Z-8.441
N11820 X906.73 Y61.832 Z-8.395
N11825 X906.52 Y62.678 Z-8.358
N11830 X906.181 Y63.481 Z-8.322
N11835 X905.719 Y64.222 Z-8.282
N11840 X904.925 Y65.088 Z-8.222
N11845 X902.764 Y67.039 Z-8.093
N11850 X901.224 Y68.421 Z-8.005
N11855 X898.754 Y70.176 Z-7.872
N11860 X897.059 Y71.519 Z-7.792
N11865 X894.406 Y73.968 Z-7.682
N11870 X891.477 Y76.396 Z-7.58
N11875 X888.649 Y78.442 Z-7.486
N11880 X885.318 Y80.524 Z-7.37
N11885 X881.847 Y82.361 Z-7.232
N11890 X878.253 Y83.945 Z-7.079
N11895 X873.16 Y85.767 Z-6.837
N11900 X856.468 Y91.431 Z-6.041
N11905 X838.667 Y97.21 Z-5.238
N11910 X822.213 Y102.291 Z-4.544
N11915 X810.867 Y105.608 Z-4.116
N11920 X802.875 Y107.8 Z-3.832
N11925 X795.821 Y109.666 Z-3.602
N11930 X786.094 Y112.038 Z-3.301
N11935 X777.201 Y114.065 Z-3.053
N11940 X765.12 Y116.559 Z-2.74
N11945 X755.634 Y118.336 Z-2.522
N11950 X744.184 Y120.263 Z-2.283
N11955 X735.604 Y121.554 Z-2.124
N11960 X727.002 Y122.724 Z-1.979
N11965 X714.958 Y124.191 Z-1.801
N11970 X698.766 Y125.879 Z-1.582
N11975 X682.745 Y127.328 Z-1.395
N11980 X665.511 Y128.653 Z-1.223
N11985 X649.446 Y129.677 Z-1.091
N11990 X634.197 Y130.477 Z-0.989
N11995 X618.053 Y131.148 Z-0.904
N12000 X599.654 Y131.719 Z-0.834
N12005 X580.308 Y132.094 Z-0.789
N12010 X558.334 Y132.322 Z-0.764
N12015 X534.153 Y132.362 Z-0.768
N12020 X517.154 Y132.284 Z-0.784
N12025 X486.657 Y131.972 Z-0.834
N12030 X474.367 Y131.826 Z-0.86
N12035 X466.91 Y131.887 Z-0.856
N12040 X434.284 Y132.363 Z-0.8
N12045 X412.451 Y132.543 Z-0.783
N12050 X384.766 Y132.57 Z-0.79
N12055 X359.282 Y132.324 Z-0.83
N12060 X343.497 Y132.011 Z-0.877
N12065 X325. Y131.454 Z-0.957
N12070 X308.87 Y130.795 Z-1.05
N12075 X292.505 Y129.94 Z-1.169
N12080 X275.837 Y128.852 Z-1.315
N12085 X259.54 Y127.576 Z-1.488
N12090 X243.256 Y126.088 Z-1.689
N12095 X228.744 Y124.561 Z-1.897
N12100 X215.849 Y122.974 Z-2.099
N12105 X206.754 Y121.694 Z-2.261
N12110 X196.925 Y120.15 Z-2.454
N12115 X187.357 Y118.482 Z-2.663
N12120 X178.737 Y116.84 Z-2.872
N12125 X167.512 Y114.483 Z-3.165
N12130 X157.876 Y112.268 Z-3.444
N12135 X149.279 Y110.162 Z-3.717
N12140 X138.034 Y107.152 Z-4.096
N12145 X125.936 Y103.647 Z-4.546
N12150 X112.894 Y99.642 Z-5.078
N12155 X100.4 Y95.675 Z-5.631
N12160 X88.205 Y91.664 Z-6.191
N12165 X73.063 Y86.524 Z-6.915
N12170 X68.098 Y84.742 Z-7.151
N12175 X64.497 Y83.176 Z-7.305
N12180 X61.011 Y81.366 Z-7.432
N12185 X57.659 Y79.32 Z-7.546
N12190 X54.455 Y77.049 Z-7.646
N12195 X51.554 Y74.693 Z-7.738
N12200 X49.088 Y72.458 Z-7.822
N12205 X47.508 Y71.215 Z-7.897
N12210 X45.396 Y69.79 Z-8.001
N12215 X43.7 Y68.438 Z-8.084
N12220 X40.753 Y65.83 Z-8.256
N12225 X39.851 Y64.884 Z-8.31
N12230 X39.161 Y63.774 Z-8.366
N12235 X38.713 Y62.546 Z-8.418
N12240 X38.54 Y61.487 Z-8.458
N12245 X38.536 Y60.509 Z-8.507
N12250 X38.672 Y58.859 Z-8.584
N12255 X39.074 Y56.687 Z-8.678
N12260 X39.447 Y55.052 Z-8.795
N12265 X39.586 Y53.351 Z-8.925
N12270 X39.504 Y52.045 Z-9.03
N12275 X39.284 Y50.853 Z-9.153
N12280 X38.44 Y48.076 Z-9.463
N12285 X38.106 Y46.568 Z-9.628
N12290 X37.917 Y45.252 Z-9.795
N12295 X37.802 Y44.012 Z-9.955
N12300 X37.824 Y42.738 Z-10.116
N12305 X38.051 Y41.411 Z-10.283
N12310 X38.441 Y40.292 Z-10.436
N12315 X39.054 Y39.172 Z-10.589
N12320 X39.792 Y38.231 Z-10.723
N12325 X40.688 Y37.405 Z-10.837
N12330 X41.769 Y36.7 Z-10.939
N12335 X42.956 Y36.191 Z-11.007
N12340 X44.229 Y35.89 Z-11.041
N12345 X46.015 Y35.793 Z-11.034
N12350 X47.458 Y35.726 Z-11.03
N12355 X50.24 Y35.297 Z-11.075
N12360 X53.508 Y34.651 Z-11.153
N12365 X56.115 Y34.18 Z-11.216
N12370 X58.763 Y33.463 Z-11.326
N12375 X62.085 Y32.507 Z-11.483
N12380 X65.916 Y31.643 Z-11.625
N12385 X69.796 Y31.035 Z-11.725
N12390 X73.708 Y30.685 Z-11.777
N12395 X77.634 Y30.595 Z-11.772
N12400 X81.558 Y30.765 Z-11.712
N12405 X106.494 Y33.181 Z-11.051
N12410 X132.129 Y35.544 Z-10.411
N12415 X154.708 Y37.458 Z-9.901
N12420 X172.374 Y38.77 Z-9.554
N12425 X189.319 Y39.849 Z-9.268
N12430 X207.22 Y40.816 Z-9.013
N12435 X224.703 Y41.565 Z-8.814
N12440 X239.889 Y42.091 Z-8.673
N12445 X260.738 Y42.677 Z-8.514
N12450 X292.082 Y43.353 Z-8.331
N12455 X319.825 Y43.74 Z-8.224
N12460 X349.009 Y43.975 Z-8.158
N12465 X375.376 Y44.063 Z-8.133
N12470 X401.456 Y44.061 Z-8.131
N12475 X430.262 Y43.983 Z-8.15
N12480 X477.488 Y43.773 Z-8.214
N12485 X530.372 Y43.86 Z-8.175
N12490 X560.827 Y43.816 Z-8.184
N12495 X596.287 Y43.621 Z-8.234
N12500 X617.981 Y43.402 Z-8.291
N12505 X649.991 Y42.922 Z-8.419
N12510 X673.514 Y42.395 Z-8.558
N12515 X701.296 Y41.614 Z-8.766
N12520 X720.817 Y40.918 Z-8.95
N12525 X738.388 Y40.136 Z-9.157
N12530 X757.394 Y39.109 Z-9.427
N12535 X776.288 Y37.859 Z-9.757
N12540 X790.903 Y36.755 Z-10.048
N12545 X810.094 Y35.146 Z-10.477
N12550 X838.045 Y32.603 Z-11.165
N12555 X862.581 Y30.245 Z-11.81
N12560 X867.078 Y29.883 Z-11.915
N12565 X871.005 Y29.833 Z-11.949
N12570 X874.927 Y30.048 Z-11.927
N12575 X878.825 Y30.527 Z-11.848
N12580 X882.682 Y31.267 Z-11.717
N12585 X886.417 Y32.239 Z-11.553
N12590 X888.945 Y32.955 Z-11.433
N12595 X891.086 Y33.373 Z-11.375
N12600 X893.255 Y33.613 Z-11.35
N12605 X895.508 Y33.671 Z-11.36
N12610 X898.197 Y33.586 Z-11.402
N12615 X900.234 Y33.222 Z-11.49
N12620 X901.54 Y33.137 Z-11.519
N12625 X903.043 Y33.269 Z-11.509
N12630 X904.501 Y33.657 Z-11.457
N12635 X905.687 Y34.208 Z-11.374
N12640 X906.769 Y34.944 Z-11.257
N12645 X907.716 Y35.845 Z-11.121
N12650 X908.467 Y36.829 Z-10.968
N12655 X909.056 Y37.91 Z-10.809
N12660 X909.472 Y39.064 Z-10.638
N12665 X909.725 Y40.425 Z-10.447
N12670 X909.913 Y42.665 Z-10.153
N12675 X909.825 Y44.361 Z-9.936
N12680 X909.466 Y46.101 Z-9.707
N12685 X908.308 Y50.035 Z-9.268
N12690 X907.99 Y51.733 Z-9.09
N12695 X907.91 Y53.472 Z-8.95
N12700 X908.071 Y55.193 Z-8.82
N12705 X908.415 Y56.737 Z-8.717
N12710 X908.812 Y58.882 Z-8.626
N12715 X908.957 Y60.836 Z-8.534
N12720 X908.883 Y62.03 Z-8.489
N12725 X908.585 Y63.304 Z-8.443
N12730 X908.068 Y64.505 Z-8.396
N12735 X907.35 Y65.597 Z-8.351
N12740 X906.514 Y66.489 Z-8.302
N12745 X903.761 Y68.848 Z-8.153
N12750 X902.181 Y70.197 Z-8.079
N12755 X899.654 Y71.898 Z-7.958
N12760 X898.279 Y72.916 Z-7.903
N12765 X896.771 Y74.204 Z-7.849
N12770 X894.547 Y76.166 Z-7.785
N12775 X891.192 Y78.754 Z-7.693
N12780 X887.925 Y80.933 Z-7.601
N12785 X884.519 Y82.889 Z-7.492
N12790 X880.99 Y84.614 Z-7.355
N12795 X877.354 Y86.098 Z-7.193
N12800 X862.429 Y91.32 Z-6.479
N12805 X847.415 Y96.394 Z-5.793
N12810 X833.59 Y100.873 Z-5.189
N12815 X820.89 Y104.853 Z-4.677
N12820 X809.524 Y108.226 Z-4.263
N12825 X799.806 Y110.898 Z-3.936
N12830 X792.344 Y112.83 Z-3.697
N12835 X783.468 Y115.004 Z-3.444
N12840 X773.553 Y117.218 Z-3.176
N12845 X763.736 Y119.243 Z-2.937
N12850 X754.451 Y120.987 Z-2.731
N12855 X744.708 Y122.648 Z-2.533
N12860 X736.479 Y123.919 Z-2.383
N12865 X727.845 Y125.123 Z-2.239
N12870 X715.983 Y126.605 Z-2.068
N12875 X699.505 Y128.375 Z-1.849
N12880 X683.004 Y129.898 Z-1.659
N12885 X666.169 Y131.224 Z-1.494
N12890 X650.071 Y132.277 Z-1.363
N12895 X635.225 Y133.078 Z-1.265
N12900 X619.923 Y133.74 Z-1.185
N12905 X603.24 Y134.287 Z-1.119
N12910 X587.262 Y134.654 Z-1.075
N12915 X567.525 Y134.936 Z-1.049
N12920 X540.245 Y135.061 Z-1.042
N12925 X520.618 Y134.992 Z-1.058
N12930 X489.159 Y134.68 Z-1.109
N12935 X474.603 Y134.493 Z-1.14
N12940 X467.401 Y134.548 Z-1.13
N12945 X432.579 Y135.062 Z-1.08
N12950 X411.591 Y135.227 Z-1.066
N12955 X384.741 Y135.251 Z-1.073
N12960 X359.236 Y134.998 Z-1.114
N12965 X343.84 Y134.689 Z-1.16
N12970 X325.312 Y134.122 Z-1.239
N12975 X310.022 Y133.491 Z-1.325
N12980 X295.366 Y132.726 Z-1.427
N12985 X280.921 Y131.811 Z-1.549
N12990 X266.874 Y130.761 Z-1.688
N12995 X255.789 Y129.815 Z-1.808
N13000 X242.062 Y128.516 Z-1.975
N13005 X228.384 Y127.044 Z-2.171
N13010 X215.44 Y125.417 Z-2.371
N13015 X206.28 Y124.099 Z-2.531
N13020 X193.785 Y122.071 Z-2.777
N13025 X182.53 Y119.978 Z-3.025
N13030 X172.05 Y117.842 Z-3.287
N13035 X164.815 Y116.238 Z-3.481
N13040 X153.809 Y113.579 Z-3.795
N13045 X146.408 Y111.664 Z-4.034
N13050 X136.159 Y108.849 Z-4.382
N13055 X125.174 Y105.585 Z-4.784
N13060 X112.968 Y101.756 Z-5.273
N13065 X100.899 Y97.849 Z-5.8
N13070 X88.255 Y93.62 Z-6.374
N13075 X73.855 Y88.627 Z-7.054
N13080 X67.4 Y86.275 Z-7.355
N13085 X63.801 Y84.702 Z-7.504
N13090 X60.311 Y82.902 Z-7.621
N13095 X56.943 Y80.882 Z-7.724
N13100 X53.711 Y78.65 Z-7.802
N13105 X50.711 Y76.293 Z-7.877
N13110 X48.242 Y74.143 Z-7.941
N13115 X46.633 Y72.931 Z-8.005
N13120 X44.484 Y71.545 Z-8.099
N13125 X42.749 Y70.223 Z-8.169
N13130 X40.509 Y68.301 Z-8.278
N13135 X38.949 Y67.031 Z-8.354
N13140 X38.053 Y66.079 Z-8.405
N13145 X37.336 Y64.985 Z-8.449
N13150 X36.82 Y63.784 Z-8.483
N13155 X36.523 Y62.516 Z-8.525
N13160 X36.406 Y60.801 Z-8.578
N13165 X36.546 Y58.814 Z-8.672
N13170 X36.913 Y56.753 Z-8.76
N13175 X37.29 Y55.037 Z-8.865
N13180 X37.422 Y53.298 Z-8.998
N13185 X37.281 Y51.613 Z-9.135
N13190 X36.895 Y50.011 Z-9.301
N13195 X36.252 Y47.719 Z-9.556
N13200 X35.914 Y45.774 Z-9.77
N13205 X35.753 Y43.695 Z-10.037
N13210 X35.835 Y42.157 Z-10.23
N13215 X35.983 Y41.003 Z-10.376
N13220 X36.261 Y39.85 Z-10.537
N13225 X36.73 Y38.666 Z-10.702
N13230 X37.318 Y37.635 Z-10.852
N13235 X38.075 Y36.654 Z-10.995
N13240 X39.208 Y35.592 Z-11.155
N13245 X40.258 Y34.886 Z-11.259
N13250 X41.401 Y34.34 Z-11.343
N13255 X42.651 Y33.955 Z-11.396
N13260 X43.898 Y33.765 Z-11.416
N13265 X47.48 Y33.605 Z-11.405
N13270 X50.991 Y33.093 Z-11.468
N13275 X55.254 Y32.39 Z-11.56
N13280 X57.389 Y31.941 Z-11.633
N13285 X62.605 Y30.557 Z-11.872
N13290 X66.455 Y29.78 Z-12.015
N13295 X70.346 Y29.245 Z-12.106
N13300 X74.263 Y28.954 Z-12.145
N13305 X78.19 Y28.908 Z-12.131
N13310 X82.306 Y29.122 Z-12.06
N13315 X114.324 Y31.993 Z-11.263
N13320 X140.195 Y34.147 Z-10.673
N13325 X159.322 Y35.607 Z-10.28
N13330 X173.267 Y36.546 Z-10.027
N13335 X190.698 Y37.565 Z-9.754
N13340 X210.628 Y38.536 Z-9.494
N13345 X229.163 Y39.232 Z-9.306
N13350 X254.014 Y39.947 Z-9.11
N13355 X280.981 Y40.53 Z-8.949
N13360 X312.157 Y41.007 Z-8.816
N13365 X340.913 Y41.265 Z-8.743
N13370 X373.768 Y41.381 Z-8.708
N13375 X402.024 Y41.377 Z-8.707
N13380 X444.597 Y41.24 Z-8.741
N13385 X475.382 Y41.109 Z-8.766
N13390 X531.464 Y41.186 Z-8.748
N13395 X574.465 Y41.08 Z-8.773
N13400 X597.532 Y40.943 Z-8.809
N13405 X630.197 Y40.595 Z-8.901
N13410 X659.664 Y40.113 Z-9.031
N13415 X690.3 Y39.389 Z-9.226
N13420 X715.584 Y38.633 Z-9.431
N13425 X736.056 Y37.813 Z-9.649
N13430 X751.86 Y37.043 Z-9.855
N13435 X770.912 Y35.946 Z-10.149
N13440 X786.989 Y34.856 Z-10.44
N13445 X807.34 Y33.298 Z-10.86
N13450 X832.462 Y31.207 Z-11.439
N13455 X864.77 Y28.343 Z-12.245
N13460 X868.847 Y28.149 Z-12.308
N13465 X872.774 Y28.213 Z-12.311
N13470 X876.689 Y28.523 Z-12.265
N13475 X880.578 Y29.077 Z-12.17
N13480 X884.423 Y29.874 Z-12.023
N13485 X888.793 Y31.002 Z-11.818
N13490 X891.371 Y31.453 Z-11.749
N13495 X893.98 Y31.67 Z-11.726
N13500 X897.611 Y31.656 Z-11.759
N13505 X899.204 Y31.467 Z-11.81
N13510 X900.681 Y31.235 Z-11.868
N13515 X902.425 Y31.226 Z-11.886
N13520 X904.251 Y31.517 Z-11.849
N13525 X905.498 Y31.915 Z-11.787
N13530 X906.681 Y32.474 Z-11.694
N13535 X907.779 Y33.184 Z-11.578
N13540 X908.772 Y34.032 Z-11.441
N13545 X909.631 Y34.986 Z-11.288
N13550 X910.565 Y36.407 Z-11.065
N13555 X911.238 Y37.961 Z-10.834
N13560 X911.563 Y39.188 Z-10.656
N13565 X911.713 Y40.253 Z-10.506
N13570 X911.864 Y42.088 Z-10.265
N13575 X911.849 Y43.787 Z-10.049
N13580 X911.624 Y45.471 Z-9.831
N13585 X911.443 Y46.262 Z-9.74
N13590 X910.412 Y50.125 Z-9.312
N13595 X910.173 Y51.399 Z-9.186
N13600 X910.053 Y53.139 Z-9.045
N13605 X910.165 Y54.88 Z-8.911
N13610 X910.411 Y56.211 Z-8.824
N13615 X910.812 Y58.108 Z-8.745
N13620 X911.013 Y60.146 Z-8.652
N13625 X911.016 Y61.434 Z-8.607
N13630 X910.787 Y63.47 Z-8.551
N13635 X910.503 Y64.523 Z-8.531
N13640 X909.962 Y65.714 Z-8.496
N13645 X909.221 Y66.791 Z-8.462
N13650 X908.318 Y67.708 Z-8.42
N13655 X905.36 Y70.065 Z-8.281
N13660 X903.129 Y71.927 Z-8.195
N13665 X900.532 Y73.617 Z-8.085
N13670 X899.164 Y74.591 Z-8.039
N13675 X897.601 Y75.873 Z-7.997
N13680 X895.344 Y77.788 Z-7.949
N13685 X892.663 Y79.819 Z-7.9
N13690 X889.403 Y82.011 Z-7.824
N13695 X886.014 Y83.996 Z-7.735
N13700 X882.509 Y85.767 Z-7.616
N13705 X878.9 Y87.317 Z-7.464
N13710 X867.695 Y91.374 Z-6.937
N13715 X853.013 Y96.496 Z-6.265
N13720 X838.919 Y101.251 Z-5.656
N13725 X823.744 Y106.149 Z-5.031
N13730 X812.372 Y109.625 Z-4.614
N13735 X804.318 Y111.932 Z-4.331
N13740 X795.574 Y114.319 Z-4.059
N13745 X784.113 Y117.201 Z-3.726
N13750 X773.323 Y119.656 Z-3.442
N13755 X763.877 Y121.632 Z-3.218
N13760 X755.417 Y123.256 Z-3.035
N13765 X745.232 Y125.033 Z-2.834
N13770 X737.784 Y126.219 Z-2.701
N13775 X725.227 Y127.98 Z-2.499
N13780 X715.641 Y129.182 Z-2.368
N13785 X699.374 Y130.95 Z-2.156
N13790 X682.827 Y132.503 Z-1.971
N13795 X666.392 Y133.824 Z-1.814
N13800 X650.696 Y134.875 Z-1.689
N13805 X635.818 Y135.699 Z-1.592
N13810 X620.484 Y136.379 Z-1.514
N13815 X605.081 Y136.903 Z-1.454
N13820 X592.568 Y137.219 Z-1.419
N13825 X571.672 Y137.572 Z-1.382
N13830 X550.726 Y137.721 Z-1.373
N13835 X523.209 Y137.693 Z-1.388
N13840 X492.036 Y137.39 Z-1.436
N13845 X475.039 Y137.16 Z-1.471
N13850 X462.655 Y137.299 Z-1.455
N13855 X430.874 Y137.763 Z-1.415
N13860 X408.548 Y137.922 Z-1.402
N13865 X383.842 Y137.925 Z-1.413
N13870 X359.19 Y137.672 Z-1.452
N13875 X344.183 Y137.367 Z-1.497
N13880 X325.623 Y136.791 Z-1.575
N13885 X310.737 Y136.169 Z-1.657
N13890 X296.484 Y135.42 Z-1.754
N13895 X283.747 Y134.616 Z-1.856
N13900 X271.401 Y133.714 Z-1.971
N13905 X258.122 Y132.61 Z-2.107
N13910 X242.604 Y131.128 Z-2.295
N13915 X228.456 Y129.581 Z-2.492
N13920 X215.03 Y127.859 Z-2.695
N13925 X205.806 Y126.503 Z-2.853
N13930 X193.266 Y124.425 Z-3.095
N13935 X182.657 Y122.42 Z-3.323
N13940 X172.525 Y120.322 Z-3.567
N13945 X163.319 Y118.238 Z-3.81
N13950 X152.725 Y115.613 Z-4.105
N13955 X146.994 Y114.111 Z-4.29
N13960 X136.706 Y111.238 Z-4.628
N13965 X127.283 Y108.415 Z-4.959
N13970 X115.114 Y104.554 Z-5.431
N13975 X102.632 Y100.464 Z-5.965
N13980 X88.339 Y95.591 Z-6.599
N13985 X73.133 Y90.201 Z-7.306
N13990 X66.703 Y87.809 Z-7.601
N13995 X62.714 Y86.04 Z-7.756
N14000 X58.85 Y84.012 Z-7.876
N14005 X55.128 Y81.734 Z-7.967
N14010 X51.754 Y79.359 Z-8.026
N14015 X48.867 Y77.056 Z-8.074
N14020 X47.054 Y75.56 Z-8.112
N14025 X45.384 Y74.383 Z-8.168
N14030 X43.244 Y73.037 Z-8.25
N14035 X41.457 Y71.652 Z-8.311
N14040 X38.958 Y69.621 Z-8.411
N14045 X36.647 Y67.934 Z-8.514
N14050 X35.741 Y66.993 Z-8.555
N14055 X35.066 Y65.874 Z-8.579
N14060 X34.762 Y65.056 Z-8.592
N14065 X34.542 Y63.779 Z-8.609
N14070 X34.354 Y60.979 Z-8.669
N14075 X34.475 Y58.835 Z-8.754
N14080 X34.821 Y56.727 Z-8.845
N14085 X35.169 Y55.016 Z-8.935
N14090 X35.291 Y53.304 Z-9.066
N14095 X35.155 Y51.565 Z-9.207
N14100 X34.792 Y49.964 Z-9.359
N14105 X34.331 Y48.234 Z-9.551
N14110 X33.914 Y45.792 Z-9.816
N14115 X33.769 Y43.863 Z-10.056
N14120 X33.836 Y42.074 Z-10.282
N14125 X34.108 Y39.389 Z-10.64
N14130 X34.331 Y38.139 Z-10.82
N14135 X34.857 Y36.667 Z-11.038
N14140 X35.644 Y35.317 Z-11.248
N14145 X36.461 Y34.337 Z-11.4
N14150 X37.355 Y33.538 Z-11.531
N14155 X38.445 Y32.822 Z-11.644
N14160 X39.635 Y32.279 Z-11.731
N14165 X40.895 Y31.926 Z-11.785
N14170 X42.236 Y31.77 Z-11.801
N14175 X47.016 Y31.589 Z-11.788
N14180 X49.679 Y31.28 Z-11.826
N14185 X54.395 Y30.559 Z-11.932
N14190 X56.975 Y30.113 Z-12.003
N14195 X62.213 Y28.829 Z-12.245
N14200 X66.5 Y28.017 Z-12.393
N14205 X70.831 Y27.482 Z-12.495
N14210 X75.188 Y27.228 Z-12.535
N14215 X79.551 Y27.256 Z-12.508
N14220 X83.675 Y27.534 Z-12.425
N14225 X118.646 Y30.408 Z-11.607
N14230 X147.413 Y32.583 Z-10.996
N14235 X169.558 Y34.046 Z-10.59
N14240 X188.289 Y35.078 Z-10.303
N14245 X201.292 Y35.695 Z-10.132
N14250 X219.955 Y36.428 Z-9.928
N14255 X242.179 Y37.101 Z-9.74
N14260 X272.022 Y37.764 Z-9.553
N14265 X302.159 Y38.244 Z-9.417
N14270 X333.229 Y38.541 Z-9.331
N14275 X357.515 Y38.666 Z-9.294
N14280 X385.726 Y38.707 Z-9.28
N14285 X431.592 Y38.611 Z-9.303
N14290 X474.946 Y38.439 Z-9.36
N14295 X532.337 Y38.503 Z-9.326
N14300 X567.249 Y38.439 Z-9.342
N14305 X602.33 Y38.235 Z-9.397
N14310 X624.501 Y38.02 Z-9.456
N14315 X647.969 Y37.697 Z-9.546
N14320 X676.803 Y37.147 Z-9.699
N14325 X705.057 Y36.443 Z-9.895
N14330 X725.908 Y35.769 Z-10.082
N14335 X743.89 Y35.041 Z-10.283
N14340 X764.418 Y34.027 Z-10.563
N14345 X784.121 Y32.839 Z-10.892
N14350 X804.734 Y31.406 Z-11.29
N14355 X834.614 Y29.114 Z-11.937
N14360 X862.652 Y26.821 Z-12.592
N14365 X866.276 Y26.555 Z-12.67
N14370 X870.639 Y26.468 Z-12.71
N14375 X874.999 Y26.661 Z-12.684
N14380 X879.337 Y27.136 Z-12.593
N14385 X883.635 Y27.888 Z-12.444
N14390 X888.348 Y29.001 Z-12.235
N14395 X890.927 Y29.454 Z-12.154
N14400 X893.534 Y29.691 Z-12.12
N14405 X896.304 Y29.716 Z-12.134
N14410 X898.131 Y29.663 Z-12.16
N14415 X900.276 Y29.346 Z-12.241
N14420 X902.018 Y29.265 Z-12.271
N14425 X904.506 Y29.526 Z-12.24
N14430 X906.279 Y29.796 Z-12.202
N14435 X907.532 Y30.173 Z-12.137
N14440 X908.72 Y30.72 Z-12.043
N14445 X909.82 Y31.428 Z-11.921
N14450 X910.801 Y32.274 Z-11.774
N14455 X911.647 Y33.234 Z-11.614
N14460 X912.35 Y34.294 Z-11.439
N14465 X912.902 Y35.438 Z-11.257
N14470 X913.293 Y36.644 Z-11.07
N14475 X913.547 Y38.207 Z-10.833
N14480 X913.8 Y41.511 Z-10.38
N14485 X913.841 Y43.124 Z-10.176
N14490 X913.646 Y45.238 Z-9.905
N14495 X913.409 Y46.42 Z-9.776
N14500 X912.501 Y50.12 Z-9.367
N14505 X912.234 Y51.84 Z-9.218
N14510 X912.179 Y53.584 Z-9.078
N14515 X912.354 Y55.429 Z-8.943
N14520 X912.849 Y57.993 Z-8.836
N14525 X913.054 Y60.118 Z-8.741
N14530 X913.043 Y61.878 Z-8.698
N14535 X912.793 Y65.034 Z-8.66
N14540 X912.476 Y66.189 Z-8.658
N14545 X911.869 Y67.347 Z-8.638
N14550 X911.021 Y68.34 Z-8.616
N14555 X909.938 Y69.158 Z-8.57
N14560 X907.255 Y71.057 Z-8.453
N14565 X904.418 Y73.36 Z-8.368
N14570 X902.514 Y74.633 Z-8.298
N14575 X900.321 Y76.063 Z-8.228
N14580 X898.43 Y77.542 Z-8.192
N14585 X896.14 Y79.41 Z-8.161
N14590 X893.425 Y81.4 Z-8.13
N14595 X889.769 Y83.783 Z-8.062
N14600 X885.969 Y85.928 Z-7.972
N14605 X882.04 Y87.827 Z-7.841
N14610 X878.144 Y89.418 Z-7.675
N14615 X862.263 Y95.208 Z-6.941
N14620 X850.481 Y99.367 Z-6.418
N14625 X840.085 Y102.941 Z-5.985
N14630 X824.51 Y108.078 Z-5.352
N14635 X813.603 Y111.487 Z-4.961
N14640 X805.46 Y113.877 Z-4.677
N14645 X796.053 Y116.503 Z-4.396
N14650 X786.034 Y119.087 Z-4.108
N14655 X776.927 Y121.239 Z-3.871
N14660 X767.337 Y123.339 Z-3.639
N14665 X758.526 Y125.118 Z-3.444
N14670 X747.905 Y127.042 Z-3.233
N14675 X738.226 Y128.642 Z-3.061
N14680 X725.639 Y130.443 Z-2.863
N14685 X715.982 Y131.678 Z-2.735
N14690 X699.678 Y133.486 Z-2.528
N14695 X683.086 Y135.074 Z-2.347
N14700 X667.049 Y136.393 Z-2.198
N14705 X651.321 Y137.472 Z-2.075
N14710 X636.41 Y138.319 Z-1.98
N14715 X621.482 Y139. Z-1.905
N14720 X606.922 Y139.517 Z-1.849
N14725 X595.256 Y139.836 Z-1.816
N14730 X575.646 Y140.197 Z-1.778
N14735 X555.644 Y140.392 Z-1.767
N14740 X528.879 Y140.393 Z-1.775
N14745 X503.343 Y140.203 Z-1.811
N14750 X475.039 Y139.829 Z-1.869
N14755 X462.71 Y139.97 Z-1.852
N14760 X431.788 Y140.433 Z-1.814
N14765 X405.941 Y140.614 Z-1.8
N14770 X382.507 Y140.595 Z-1.815
N14775 X366.003 Y140.439 Z-1.84
N14780 X344.962 Y140.059 Z-1.895
N14785 X326.37 Y139.477 Z-1.971
N14790 X311.889 Y138.87 Z-2.048
N14795 X297.602 Y138.118 Z-2.142
N14800 X285.266 Y137.34 Z-2.238
N14805 X272.881 Y136.435 Z-2.348
N14810 X258.282 Y135.207 Z-2.495
N14815 X242.278 Y133.648 Z-2.684
N14820 X228.096 Y132.067 Z-2.879
N14825 X216.654 Y130.579 Z-3.044
N14830 X207.223 Y129.198 Z-3.199
N14835 X196.657 Y127.464 Z-3.391
N14840 X186.171 Y125.533 Z-3.605
N14845 X177.481 Y123.773 Z-3.8
N14850 X168.679 Y121.839 Z-4.014
N14855 X158.395 Y119.393 Z-4.286
N14860 X147.67 Y116.61 Z-4.605
N14865 X136.266 Y113.366 Z-4.966
N14870 X125.708 Y110.114 Z-5.328
N14875 X113.935 Y106.29 Z-5.777
N14880 X101.467 Y102.11 Z-6.303
N14885 X87.597 Y97.277 Z-6.91
N14890 X72.45 Y91.789 Z-7.603
N14895 X65.764 Y89.254 Z-7.905
N14900 X61.78 Y87.473 Z-8.054
N14905 X58.144 Y85.574 Z-8.157
N14910 X54.406 Y83.321 Z-8.229
N14915 X51.672 Y81.461 Z-8.259
N14920 X49.082 Y79.542 Z-8.289
N14925 X46.205 Y77.243 Z-8.318
N14930 X44.035 Y75.78 Z-8.379
N14935 X41.995 Y74.497 Z-8.446
N14940 X39.92 Y72.866 Z-8.501
N14945 X37.498 Y71.053 Z-8.584
N14950 X34.565 Y69.127 Z-8.703
N14955 X33.923 Y68.537 Z-8.728
N14960 X33.391 Y67.846 Z-8.742
N14965 X32.868 Y66.769 Z-8.74
N14970 X32.637 Y65.816 Z-8.737
N14975 X32.356 Y61.958 Z-8.747
N14980 X32.342 Y60.038 Z-8.794
N14985 X32.529 Y57.982 Z-8.88
N14990 X32.748 Y56.708 Z-8.934
N14995 X33.063 Y55.015 Z-9.005
N15000 X33.175 Y53.314 Z-9.135
N15005 X33.051 Y51.574 Z-9.276
N15010 X32.677 Y49.819 Z-9.431
N15015 X32.209 Y47.802 Z-9.653
N15020 X31.874 Y45.379 Z-9.914
N15025 X31.783 Y43.928 Z-10.09
N15030 X31.816 Y42.316 Z-10.294
N15035 X32.124 Y38.796 Z-10.761
N15040 X32.292 Y36.994 Z-11.028
N15045 X32.545 Y35.796 Z-11.211
N15050 X32.953 Y34.688 Z-11.389
N15055 X33.562 Y33.574 Z-11.569
N15060 X34.276 Y32.63 Z-11.727
N15065 X35.19 Y31.737 Z-11.877
N15070 X36.169 Y31.031 Z-12.
N15075 X37.333 Y30.435 Z-12.1
N15080 X38.577 Y30.029 Z-12.168
N15085 X39.868 Y29.824 Z-12.198
N15090 X47.446 Y29.51 Z-12.197
N15095 X50.941 Y29.08 Z-12.264
N15100 X55.691 Y28.414 Z-12.376
N15105 X58.381 Y27.879 Z-12.473
N15110 X63.509 Y26.756 Z-12.698
N15115 X67.822 Y26.085 Z-12.835
N15120 X72.166 Y25.672 Z-12.912
N15125 X76.527 Y25.519 Z-12.929
N15130 X80.89 Y25.625 Z-12.884
N15135 X102.333 Y27.253 Z-12.412
N15140 X128.216 Y29.136 Z-11.869
N15145 X153.845 Y30.847 Z-11.383
N15150 X174.548 Y32.047 Z-11.045
N15155 X193.776 Y32.967 Z-10.786
N15160 X209.227 Y33.587 Z-10.611
N15165 X227.468 Y34.18 Z-10.443
N15170 X250.362 Y34.752 Z-10.28
N15175 X271.212 Y35.158 Z-10.163
N15180 X302.093 Y35.613 Z-10.031
N15185 X329.054 Y35.856 Z-9.959
N15190 X365.099 Y36.004 Z-9.914
N15195 X404.466 Y36.006 Z-9.911
N15200 X428.466 Y35.947 Z-9.926
N15205 X475.061 Y35.779 Z-9.963
N15210 X532.337 Y35.822 Z-9.954
N15215 X575.278 Y35.723 Z-9.979
N15220 X601.814 Y35.576 Z-10.019
N15225 X635.399 Y35.24 Z-10.113
N15230 X654.954 Y34.961 Z-10.191
N15235 X681.805 Y34.463 Z-10.332
N15240 X711.637 Y33.75 Z-10.534
N15245 X731.873 Y33.097 Z-10.717
N15250 X747.079 Y32.506 Z-10.882
N15255 X764.787 Y31.679 Z-11.114
N15260 X785.62 Y30.533 Z-11.436
N15265 X807.693 Y29.102 Z-11.84
N15270 X829.758 Y27.563 Z-12.282
N15275 X864.771 Y24.957 Z-13.049
N15280 X869.373 Y24.785 Z-13.108
N15285 X874.009 Y24.901 Z-13.092
N15290 X878.519 Y25.296 Z-13.02
N15295 X882.835 Y25.939 Z-12.889
N15300 X887.053 Y26.817 Z-12.703
N15305 X889.62 Y27.331 Z-12.601
N15310 X892.219 Y27.648 Z-12.55
N15315 X894.835 Y27.765 Z-12.541
N15320 X898.117 Y27.707 Z-12.576
N15325 X900.729 Y27.372 Z-12.665
N15330 X902.474 Y27.352 Z-12.681
N15335 X906.659 Y27.796 Z-12.614
N15340 X907.897 Y27.944 Z-12.591
N15345 X909.377 Y28.313 Z-12.524
N15350 X910.773 Y28.929 Z-12.413
N15355 X912.041 Y29.77 Z-12.256
N15360 X913.132 Y30.797 Z-12.074
N15365 X913.912 Y31.801 Z-11.894
N15370 X914.681 Y33.21 Z-11.655
N15375 X915.102 Y34.405 Z-11.459
N15380 X915.35 Y35.647 Z-11.257
N15385 X915.511 Y37.749 Z-10.934
N15390 X915.766 Y41.395 Z-10.436
N15395 X915.806 Y43.009 Z-10.232
N15400 X915.641 Y45.131 Z-9.97
N15405 X915.39 Y46.543 Z-9.816
N15410 X914.587 Y50.127 Z-9.432
N15415 X914.342 Y51.854 Z-9.287
N15420 X914.293 Y53.599 Z-9.148
N15425 X914.441 Y55.337 Z-9.036
N15430 X914.959 Y58.413 Z-8.904
N15435 X915.106 Y60.463 Z-8.838
N15440 X915.052 Y62.405 Z-8.801
N15445 X914.821 Y66.032 Z-8.811
N15450 X914.693 Y66.894 Z-8.831
N15455 X914.421 Y67.723 Z-8.842
N15460 X914.014 Y68.494 Z-8.843
N15465 X913.483 Y69.185 Z-8.841
N15470 X912.628 Y69.936 Z-8.815
N15475 X909.135 Y72.162 Z-8.669
N15480 X907.224 Y73.568 Z-8.618
N15485 X904.998 Y75.31 Z-8.569
N15490 X902.284 Y77.017 Z-8.483
N15495 X900.137 Y78.516 Z-8.445
N15500 X896.937 Y81.03 Z-8.426
N15505 X893.823 Y83.226 Z-8.407
N15510 X890.128 Y85.547 Z-8.353
N15515 X886.303 Y87.649 Z-8.273
N15520 X882.362 Y89.524 Z-8.148
N15525 X878.023 Y91.278 Z-7.963
N15530 X862.596 Y97.018 Z-7.266
N15535 X849.459 Y101.74 Z-6.695
N15540 X840.423 Y104.905 Z-6.333
N15545 X825.276 Y110.007 Z-5.73
N15550 X814.349 Y113.494 Z-5.349
N15555 X805.345 Y116.19 Z-5.046
N15560 X798.265 Y118.221 Z-4.847
N15565 X787.205 Y121.136 Z-4.53
N15570 X777.101 Y123.585 Z-4.276
N15575 X767.507 Y125.72 Z-4.053
