%
(FOIL_ONE_STEP_FASTER)
(T1  D=6.35 CR=0. - ZMIN=0. - FLAT END MILL)
N10 G90 G94 G17 G91.1
N15 G21
(WHEN USING FUSION 360 FOR PERSONAL USE, THE FEEDRATE OF)
(RAPID MOVES IS REDUCED TO MATCH THE FEEDRATE OF CUTTING)
(MOVES, WHICH CAN INCREASE MACHINING TIME. UNRESTRICTED RAPID)
(MOVES ARE AVAILABLE WITH A FUSION 360 SUBSCRIPTION.)
N20 G53 G0 Z0.
(MORPHED SPIRAL1)
N25 T1 M6
N30 S12000 M3
N35 G54
N40 G0 X-397.523 Y-30.813
N45 G43 Z40.4 H1
N50 G1 Z13.123 F1000.
N55 Z11.779 F333.33
N60 X-397.516 Y-30.811 Z11.685 F1000.
N65 X-397.496 Y-30.807 Z11.594
N70 X-397.463 Y-30.8 Z11.507
N75 X-397.418 Y-30.79 Z11.426
N80 X-397.362 Y-30.777 Z11.352
N85 X-397.296 Y-30.763 Z11.288
N90 X-397.221 Y-30.746 Z11.234
N95 X-397.14 Y-30.728 Z11.192
N100 X-397.053 Y-30.709 Z11.163
N105 X-396.963 Y-30.689 Z11.147
N110 X-396.872 Y-30.669 Z11.144
N115 X-385.603 Y-28.168 Z11.713
N120 X-369.005 Y-24.627 Z12.518
N125 X-354.086 Y-21.567 Z13.21
N130 X-337.38 Y-18.289 Z13.933
N135 X-328.287 Y-16.6 Z14.298
N140 X-321.02 Y-15.314 Z14.576
N145 X-311.427 Y-13.705 Z14.918
N150 X-300.109 Y-11.982 Z15.286
N155 X-291.931 Y-10.85 Z15.529
N160 X-282.965 Y-9.697 Z15.775
N165 X-274.173 Y-8.653 Z15.996
N170 X-264.293 Y-7.61 Z16.22
N175 X-255.254 Y-6.749 Z16.404
N180 X-244.983 Y-5.894 Z16.588
N185 X-231.073 Y-4.89 Z16.81
N190 X-216.821 Y-4.004 Z17.006
N195 X-198.256 Y-3.024 Z17.226
N200 X-180.352 Y-2.248 Z17.399
N205 X-161.722 Y-1.603 Z17.543
N210 X-141.231 Y-1.114 Z17.658
N215 X-121.202 Y-0.787 Z17.732
N220 X-95.555 Y-0.586 Z17.783
N225 X-66.456 Y-0.581 Z17.79
N230 X-31.878 Y-0.784 Z17.75
N235 X1.245 Y-1.096 Z17.681
N240 X46.023 Y-0.82 Z17.756
N245 X82.276 Y-0.826 Z17.763
N250 X109.638 Y-1.034 Z17.722
N255 X131.644 Y-1.367 Z17.651
N260 X152.008 Y-1.85 Z17.549
N265 X172.416 Y-2.513 Z17.405
N270 X189.904 Y-3.253 Z17.245
N275 X210.132 Y-4.289 Z17.018
N280 X229.24 Y-5.49 Z16.759
N285 X242.278 Y-6.433 Z16.553
N290 X256.691 Y-7.661 Z16.292
N295 X269.95 Y-9.002 Z16.008
N300 X282.584 Y-10.472 Z15.696
N305 X295.171 Y-12.137 Z15.343
N310 X307.32 Y-13.952 Z14.96
N315 X315.92 Y-15.339 Z14.664
N320 X327.326 Y-17.318 Z14.24
N325 X339.148 Y-19.526 Z13.762
N330 X356.916 Y-23.036 Z12.986
N335 X375.012 Y-26.786 Z12.136
N340 X394.23 Y-30.927 Z11.189
N345 X396.81 Y-31.436 Z11.063
N350 X397.378 Y-31.407 Z11.051
N355 X397.73 Y-31.163 Z11.068
N360 X397.876 Y-30.76 Z11.107
N365 X397.774 Y-30.367 Z11.152
N370 X397.429 Y-30.043 Z11.197
N375 X396.931 Y-29.83 Z11.233
N380 X380.115 Y-26.041 Z12.085
N385 X363.755 Y-22.498 Z12.878
N390 X350.395 Y-19.705 Z13.496
N395 X333.255 Y-16.275 Z14.237
N400 X321.377 Y-14.064 Z14.704
N405 X309.501 Y-12.033 Z15.129
N410 X297.629 Y-10.185 Z15.511
N415 X285.749 Y-8.528 Z15.853
N420 X273.004 Y-6.945 Z16.176
N425 X259.27 Y-5.473 Z16.478
N430 X245.386 Y-4.209 Z16.739
N435 X232.877 Y-3.242 Z16.944
N440 X216.929 Y-2.17 Z17.171
N445 X198.352 Y-1.107 Z17.399
N450 X180.437 Y-0.254 Z17.578
N455 X162.633 Y0.444 Z17.722
N460 X141.622 Y1.033 Z17.849
N465 X121.459 Y1.441 Z17.931
N470 X95.117 Y1.744 Z17.992
N475 X63.96 Y1.85 Z18.008
N480 X24.185 Y1.702 Z17.965
N485 X-1.886 Y1.541 Z17.917
N490 X-46.008 Y1.968 Z18.008
N495 X-82.279 Y2.085 Z18.027
N500 X-108.793 Y1.968 Z17.995
N505 X-131.518 Y1.693 Z17.93
N510 X-151.74 Y1.267 Z17.833
N515 X-172.53 Y0.633 Z17.692
N520 X-190.04 Y-0.078 Z17.535
N525 X-209.355 Y-1.037 Z17.322
N530 X-229.006 Y-2.252 Z17.06
N535 X-242.523 Y-3.225 Z16.848
N540 X-256.083 Y-4.38 Z16.607
N545 X-268.658 Y-5.64 Z16.343
N550 X-281.888 Y-7.188 Z16.023
N555 X-294.833 Y-8.919 Z15.664
N560 X-305.424 Y-10.514 Z15.335
N565 X-313.319 Y-11.781 Z15.072
N570 X-324.298 Y-13.702 Z14.672
N575 X-337.769 Y-16.256 Z14.135
N580 X-357.16 Y-20.207 Z13.282
N585 X-377.657 Y-24.627 Z12.301
N590 X-396.241 Y-28.808 Z11.36
N595 X-397.387 Y-29.212 Z11.287
N600 X-398.423 Y-29.803 Z11.195
N605 X-398.733 Y-30.03 Z11.162
N610 X-399.064 Y-30.379 Z11.116
N615 X-399.117 Y-30.712 Z11.079
N620 X-398.949 Y-31.278 Z11.022
N625 X-398.611 Y-31.736 Z10.982
N630 X-398.085 Y-32.079 Z10.96
N635 X-397.103 Y-32.288 Z10.964
N640 X-396.144 Y-32.217 Z10.998
N645 X-378.904 Y-28.603 Z11.841
N650 X-363.114 Y-25.411 Z12.58
N655 X-349.758 Y-22.811 Z13.177
N660 X-332.621 Y-19.624 Z13.89
N665 X-320.779 Y-17.58 Z14.337
N670 X-308.931 Y-15.707 Z14.744
N675 X-297.079 Y-14.008 Z15.114
N680 X-285.24 Y-12.495 Z15.445
N685 X-271.944 Y-11. Z15.77
N690 X-259.613 Y-9.798 Z16.033
N695 X-246.497 Y-8.711 Z16.273
N700 X-230.886 Y-7.645 Z16.515
N705 X-215.787 Y-6.769 Z16.716
N710 X-197.241 Y-5.863 Z16.926
N715 X-179.356 Y-5.153 Z17.091
N720 X-161.624 Y-4.596 Z17.222
N725 X-139.536 Y-4.128 Z17.337
N730 X-115.054 Y-3.823 Z17.416
N735 X-88.022 Y-3.719 Z17.45
N740 X-57.131 Y-3.818 Z17.44
N745 X-3.594 Y-4.327 Z17.35
N750 X8.862 Y-4.346 Z17.355
N755 X53.941 Y-4.188 Z17.399
N760 X86.015 Y-4.283 Z17.391
N765 X112.968 Y-4.547 Z17.341
N770 X136.465 Y-4.963 Z17.254
N775 X155.316 Y-5.444 Z17.153
N780 X176.53 Y-6.185 Z16.993
N785 X194.796 Y-6.985 Z16.818
N790 X212.536 Y-7.936 Z16.612
N795 X230.743 Y-9.074 Z16.363
N800 X242.016 Y-9.875 Z16.185
N805 X256.383 Y-11.067 Z15.929
N810 X269.592 Y-12.364 Z15.651
N815 X282.169 Y-13.782 Z15.346
N820 X294.712 Y-15.384 Z15.001
N825 X306.882 Y-17.137 Z14.625
N830 X315.404 Y-18.462 Z14.338
N835 X326.781 Y-20.359 Z13.923
N840 X338.935 Y-22.543 Z13.442
N845 X356.343 Y-25.837 Z12.698
N850 X375.752 Y-29.694 Z11.805
N855 X395.535 Y-33.774 Z10.847
N860 X396.509 Y-33.902 Z10.807
N865 X397.752 Y-33.861 Z10.777
N870 X398.943 Y-33.602 Z10.773
N875 X399.67 Y-33.313 Z10.784
N880 X400.272 Y-32.856 Z10.817
N885 X400.718 Y-32.252 Z10.869
N890 X400.962 Y-31.614 Z10.931
N895 X401.035 Y-30.895 Z11.007
N900 X400.926 Y-30.23 Z11.081
N905 X400.63 Y-29.578 Z11.152
N910 X400.197 Y-29.052 Z11.209
N915 X399.334 Y-28.322 Z11.297
N920 X398.459 Y-27.793 Z11.369
N925 X397.372 Y-27.368 Z11.44
N930 X389.902 Y-25.561 Z11.833
N935 X383.464 Y-24.041 Z12.163
N940 X364.973 Y-19.798 Z13.082
N945 X350.993 Y-16.716 Z13.743
N950 X335.073 Y-13.346 Z14.441
N955 X321.939 Y-10.756 Z14.966
N960 X310.033 Y-8.606 Z15.397
N965 X298.137 Y-6.651 Z15.788
N970 X285.784 Y-4.835 Z16.152
N975 X273.425 Y-3.208 Z16.473
N980 X260.511 Y-1.726 Z16.767
N985 X246.579 Y-0.365 Z17.039
N990 X233.148 Y0.746 Z17.265
N995 X216.298 Y1.963 Z17.512
N1000 X200.084 Y2.957 Z17.715
N1005 X185.562 Y3.735 Z17.873
N1010 X167.843 Y4.519 Z18.03
N1015 X150.878 Y5.122 Z18.149
N1020 X130.573 Y5.658 Z18.254
N1025 X107.476 Y6.065 Z18.329
N1030 X79.34 Y6.314 Z18.37
N1035 X47.525 Y6.355 Z18.365
N1040 X-0.897 Y6.127 Z18.306
N1045 X-46.855 Y6.662 Z18.39
N1050 X-80.398 Y6.831 Z18.412
N1055 X-106.069 Y6.774 Z18.389
N1060 X-130.04 Y6.526 Z18.326
N1065 X-150.23 Y6.113 Z18.231
N1070 X-167.118 Y5.627 Z18.123
N1075 X-186. Y4.904 Z17.965
N1080 X-205.632 Y3.941 Z17.754
N1085 X-221.028 Y3.007 Z17.556
N1090 X-233.668 Y2.144 Z17.373
N1095 X-243.747 Y1.372 Z17.209
N1100 X-256.501 Y0.241 Z16.976
N1105 X-269.355 Y-1.113 Z16.701
N1110 X-280.757 Y-2.492 Z16.421
N1115 X-293.861 Y-4.3 Z16.056
N1120 X-305.232 Y-6.072 Z15.699
N1125 X-313.585 Y-7.474 Z15.416
N1130 X-324.651 Y-9.504 Z15.004
N1135 X-338.531 Y-12.275 Z14.438
N1140 X-357.938 Y-16.451 Z13.564
N1145 X-376.315 Y-20.624 Z12.669
N1150 X-394.597 Y-24.957 Z11.728
N1155 X-396.672 Y-25.577 Z11.609
N1160 X-398.665 Y-26.408 Z11.475
N1165 X-400.577 Y-27.452 Z11.326
N1170 X-402.242 Y-28.595 Z11.178
N1175 X-403.026 Y-29.253 Z11.098
N1180 X-403.399 Y-29.716 Z11.048
N1185 X-403.584 Y-30.187 Z11.004
N1190 X-403.614 Y-30.735 Z10.954
N1195 X-403.455 Y-32.176 Z10.803
N1200 X-403.497 Y-32.802 Z10.735
N1205 X-403.449 Y-33.233 Z10.69
N1210 X-403.234 Y-33.731 Z10.642
N1215 X-402.882 Y-34.12 Z10.61
N1220 X-402.343 Y-34.407 Z10.593
N1225 X-401.257 Y-34.65 Z10.597
N1230 X-399.263 Y-35.272 Z10.582
N1235 X-397.541 Y-35.521 Z10.587
N1240 X-396.236 Y-35.531 Z10.615
N1245 X-394.703 Y-35.346 Z10.673
N1250 X-372.763 Y-31.1 Z11.698
N1255 X-352.365 Y-27.321 Z12.601
N1260 X-331.839 Y-23.76 Z13.432
N1265 X-320.051 Y-21.859 Z13.866
N1270 X-308.247 Y-20.118 Z14.261
N1275 X-296.427 Y-18.539 Z14.62
N1280 X-283.778 Y-17.041 Z14.962
N1285 X-271.409 Y-15.744 Z15.257
N1290 X-259.141 Y-14.629 Z15.511
N1295 X-245.22 Y-13.563 Z15.757
N1300 X-230.547 Y-12.635 Z15.976
N1305 X-212.113 Y-11.653 Z16.21
N1310 X-194.374 Y-10.874 Z16.397
N1315 X-177.395 Y-10.264 Z16.544
N1320 X-160.581 Y-9.784 Z16.661
N1325 X-138.628 Y-9.356 Z16.769
N1330 X-114.114 Y-9.089 Z16.841
N1335 X-84.638 Y-8.997 Z16.872
N1340 X-50.984 Y-9.136 Z16.851
N1345 X1.263 Y-9.628 Z16.752
N1350 X53.097 Y-9.457 Z16.809
N1355 X86.88 Y-9.56 Z16.797
N1360 X113.793 Y-9.817 Z16.746
N1365 X136.371 Y-10.2 Z16.662
N1370 X158.25 Y-10.736 Z16.543
N1375 X178.955 Y-11.441 Z16.384
N1380 X194.553 Y-12.089 Z16.236
N1385 X215.939 Y-13.177 Z15.989
N1390 X233.015 Y-14.203 Z15.754
N1395 X243.378 Y-14.915 Z15.591
N1400 X256.823 Y-15.964 Z15.354
N1405 X270.116 Y-17.199 Z15.078
N1410 X282.451 Y-18.519 Z14.782
N1415 X296.191 Y-20.177 Z14.408
N1420 X310.731 Y-22.163 Z13.958
N1425 X325.627 Y-24.465 Z13.437
N1430 X338.161 Y-26.565 Z12.955
N1435 X355.915 Y-29.697 Z12.219
N1440 X375.663 Y-33.353 Z11.342
N1445 X394.338 Y-36.929 Z10.473
N1450 X396.125 Y-37.143 Z10.405
N1455 X397.866 Y-37.128 Z10.368
N1460 X399.591 Y-36.894 Z10.361
N1465 X401.011 Y-36.53 Z10.377
N1470 X402.834 Y-35.913 Z10.418
N1475 X403.912 Y-35.683 Z10.414
N1480 X404.497 Y-35.396 Z10.429
N1485 X404.992 Y-34.973 Z10.461
N1490 X405.376 Y-34.423 Z10.509
N1495 X405.609 Y-33.785 Z10.571
N1500 X405.667 Y-33.067 Z10.647
N1505 X405.599 Y-32.15 Z10.748
N1510 X405.673 Y-31.572 Z10.808
N1515 X405.829 Y-30.829 Z10.876
N1520 X405.812 Y-30.096 Z10.936
N1525 X405.591 Y-29.453 Z10.996
N1530 X405.241 Y-28.951 Z11.049
N1535 X404.579 Y-28.319 Z11.122
N1540 X403.493 Y-27.406 Z11.232
N1545 X402.405 Y-26.439 Z11.347
N1550 X401.133 Y-25.522 Z11.464
N1555 X399.633 Y-24.706 Z11.58
N1560 X398.068 Y-24.103 Z11.682
N1565 X395.417 Y-23.406 Z11.827
N1570 X386.548 Y-21.14 Z12.3
N1575 X366.342 Y-16.211 Z13.331
N1580 X350.183 Y-12.441 Z14.112
N1585 X334.636 Y-8.97 Z14.808
N1590 X322.667 Y-6.481 Z15.294
N1595 X310.717 Y-4.199 Z15.729
N1600 X298.788 Y-2.127 Z16.124
N1605 X286.811 Y-0.258 Z16.478
N1610 X273.96 Y1.528 Z16.815
N1615 X260.982 Y3.1 Z17.11
N1620 X246.987 Y4.544 Z17.385
N1625 X234.355 Y5.654 Z17.599
N1630 X217.462 Y6.949 Z17.851
N1635 X202.121 Y7.953 Z18.047
N1640 X187.528 Y8.797 Z18.209
N1645 X168.901 Y9.677 Z18.38
N1650 X151.68 Y10.324 Z18.501
N1655 X131.539 Y10.894 Z18.606
N1660 X108.782 Y11.321 Z18.681
N1665 X82.877 Y11.569 Z18.721
N1670 X54.483 Y11.633
N1675 X14.858 Y11.47 Z18.673
N1680 X-0.871 Y11.384 Z18.647
N1685 X-45.957 Y11.927 Z18.729
N1690 X-79.533 Y12.106 Z18.75
N1695 X-105.071 Y12.045 Z18.725
N1700 X-126.725 Y11.808 Z18.668
N1705 X-147.827 Y11.398 Z18.573
N1710 X-166.09 Y10.845 Z18.455
N1715 X-181.479 Y10.237 Z18.328
N1720 X-196.106 Y9.55 Z18.182
N1725 X-211.762 Y8.653 Z17.995
N1730 X-228.794 Y7.5 Z17.758
N1735 X-242.386 Y6.437 Z17.54
N1740 X-256.072 Y5.169 Z17.292
N1745 X-268.99 Y3.744 Z17.015
N1750 X-281.319 Y2.167 Z16.712
N1755 X-293.452 Y0.399 Z16.374
N1760 X-303.551 Y-1.226 Z16.059
N1765 X-313.87 Y-3.047 Z15.709
N1770 X-325.409 Y-5.287 Z15.277
N1775 X-337.378 Y-7.803 Z14.789
N1780 X-356.675 Y-12.168 Z13.916
N1785 X-372.524 Y-15.948 Z13.134
N1790 X-393.012 Y-21.064 Z12.07
N1795 X-397.979 Y-22.361 Z11.799
N1800 X-399.723 Y-22.985 Z11.695
N1805 X-401.506 Y-23.861 Z11.576
N1810 X-403.136 Y-24.909 Z11.447
N1815 X-404.365 Y-25.893 Z11.326
N1820 X-405.833 Y-27.213 Z11.17
N1825 X-406.912 Y-28.096 Z11.062
N1830 X-407.616 Y-28.875 Z10.975
N1835 X-407.937 Y-29.471 Z10.915
N1840 X-408.102 Y-30.122 Z10.857
N1845 X-408.107 Y-30.784 Z10.803
N1850 X-407.849 Y-33.086 Z10.585
N1855 X-407.882 Y-33.862 Z10.5
N1860 X-407.905 Y-34.513 Z10.43
N1865 X-407.771 Y-35.16 Z10.364
N1870 X-407.483 Y-35.76 Z10.307
N1875 X-407.104 Y-36.23 Z10.268
N1880 X-406.436 Y-36.717 Z10.233
N1885 X-405.655 Y-36.981 Z10.215
N1890 X-404.179 Y-37.304 Z10.205
N1895 X-401.702 Y-38.129 Z10.152
N1900 X-399.575 Y-38.588 Z10.138
N1905 X-397.409 Y-38.799 Z10.158
N1910 X-395.234 Y-38.76 Z10.212
N1915 X-393.437 Y-38.538 Z10.281
N1920 X-367.693 Y-33.932 Z11.428
N1925 X-346.633 Y-30.389 Z12.303
N1930 X-329.061 Y-27.584 Z12.972
N1935 X-318.46 Y-26.021 Z13.341
N1940 X-307.563 Y-24.529 Z13.69
N1945 X-295.775 Y-23.069 Z14.032
N1950 X-281.203 Y-21.473 Z14.406
N1955 X-267.014 Y-20.143 Z14.718
N1960 X-253.909 Y-19.098 Z14.965
N1965 X-238.769 Y-18.095 Z15.203
N1970 X-217.807 Y-16.979 Z15.478
N1975 X-196.729 Y-16.091 Z15.7
N1980 X-177.287 Y-15.435 Z15.864
N1985 X-156.224 Y-14.905 Z16.
N1990 X-134.003 Y-14.534 Z16.096
N1995 X-106.399 Y-14.308 Z16.161
N2000 X-76.873 Y-14.291 Z16.176
N2005 X-40.494 Y-14.49 Z16.141
N2010 X4.157 Y-14.876 Z16.063
N2015 X49.578 Y-14.734 Z16.113
N2020 X86.004 Y-14.823 Z16.105
N2025 X113.748 Y-15.075 Z16.053
N2030 X138.903 Y-15.478 Z15.963
N2035 X160.485 Y-16.005 Z15.843
N2040 X181.284 Y-16.672 Z15.687
N2045 X201.939 Y-17.538 Z15.485
N2050 X221.361 Y-18.501 Z15.257
N2055 X241.371 Y-19.69 Z14.976
N2060 X256.541 Y-20.79 Z14.721
N2065 X272.433 Y-22.197 Z14.398
N2070 X286.785 Y-23.668 Z14.057
N2075 X300.731 Y-25.315 Z13.675
N2080 X310.017 Y-26.513 Z13.396
N2085 X325.291 Y-28.707 Z12.881
N2090 X337.39 Y-30.588 Z12.431
N2095 X358.004 Y-33.972 Z11.603
N2100 X375.557 Y-36.991 Z10.851
N2105 X393.268 Y-40.127 Z10.06
N2110 X395.108 Y-40.356 Z9.992
N2115 X396.413 Y-40.419 Z9.959
N2120 X398.588 Y-40.344 Z9.929
N2125 X400.744 Y-40.046 Z9.92
N2130 X403.079 Y-39.459 Z9.946
N2135 X405.751 Y-38.551 Z10.006
N2140 X407.431 Y-38.189 Z10.016
N2145 X408.216 Y-37.817 Z10.047
N2150 X408.933 Y-37.248 Z10.105
N2155 X409.493 Y-36.535 Z10.167
N2160 X409.873 Y-35.718 Z10.245
N2165 X410.056 Y-34.829 Z10.335
N2170 X410.021 Y-33.866 Z10.44
N2175 X409.959 Y-32.999 Z10.535
N2180 X410.086 Y-31.966 Z10.638
N2185 X410.296 Y-30.987 Z10.711
N2190 X410.332 Y-30.222 Z10.771
N2195 X410.17 Y-29.369 Z10.846
N2200 X409.818 Y-28.61 Z10.92
N2205 X409.425 Y-28.091 Z10.976
N2210 X408.739 Y-27.398 Z11.056
N2215 X407.174 Y-26.111 Z11.214
N2220 X405.321 Y-24.444 Z11.39
N2225 X403.695 Y-23.227 Z11.519
N2230 X401.863 Y-22.133 Z11.651
N2235 X400.065 Y-21.3 Z11.768
N2240 X398.121 Y-20.629 Z11.883
N2245 X387.303 Y-17.704 Z12.47
N2250 X367.112 Y-12.492 Z13.516
N2255 X350.961 Y-8.508 Z14.306
N2260 X336.629 Y-5.118 Z14.952
N2265 X324.85 Y-2.51 Z15.437
N2270 X311.401 Y0.209 Z15.941
N2275 X300.239 Y2.259 Z16.319
N2280 X288.92 Y4.141 Z16.663
N2285 X277.607 Y5.834 Z16.973
N2290 X265.023 Y7.499 Z17.276
N2295 X251.596 Y9.023 Z17.555
N2300 X238.417 Y10.305 Z17.79
N2305 X219.494 Y11.866 Z18.084
N2310 X205.896 Y12.828 Z18.265
N2315 X189.493 Y13.85 Z18.456
N2320 X169.958 Y14.834 Z18.641
N2325 X151.72 Y15.549 Z18.772
N2330 X136.351 Y16.015 Z18.856
N2335 X117.206 Y16.45 Z18.932
N2340 X93.932 Y16.772 Z18.983
N2345 X65.283 Y16.92 Z19.
N2350 X30.375 Y16.834 Z18.966
N2355 X0. Y16.622 Z18.877
N2360 X-44.188 Y17.185 Z18.997
N2365 X-76.363 Y17.374 Z19.017
N2370 X-101.986 Y17.333 Z18.995
N2375 X-125.052 Y17.085 Z18.935
N2380 X-147.079 Y16.639 Z18.836
N2385 X-164.502 Y16.09 Z18.723
N2390 X-179.055 Y15.505 Z18.604
N2395 X-194.958 Y14.731 Z18.447
N2400 X-211.189 Y13.76 Z18.254
N2405 X-229.131 Y12.477 Z18.003
N2410 X-242.76 Y11.351 Z17.783
N2415 X-256.197 Y10.036 Z17.538
N2420 X-270.097 Y8.412 Z17.238
N2425 X-280.64 Y6.989 Z16.975
N2430 X-291.1 Y5.434 Z16.684
N2435 X-303.266 Y3.407 Z16.306
N2440 X-314.584 Y1.301 Z15.917
N2445 X-326.168 Y-1.07 Z15.474
N2450 X-338.15 Y-3.725 Z14.975
N2455 X-357.456 Y-8.341 Z14.086
N2460 X-373.297 Y-12.335 Z13.292
N2465 X-393.751 Y-17.733 Z12.213
N2470 X-398.435 Y-19.024 Z11.953
N2475 X-400.674 Y-19.823 Z11.82
N2480 X-402.711 Y-20.779 Z11.687
N2485 X-404.768 Y-22. Z11.539
N2490 X-406.634 Y-23.37 Z11.391
N2495 X-408.184 Y-24.737 Z11.256
N2500 X-409.698 Y-26.061 Z11.123
N2505 X-410.926 Y-27.067 Z11.007
N2510 X-411.716 Y-27.905 Z10.912
N2515 X-412.193 Y-28.62 Z10.837
N2520 X-412.495 Y-29.401 Z10.763
N2525 X-412.622 Y-30.246 Z10.69
N2530 X-412.6 Y-30.832 Z10.644
N2535 X-412.258 Y-33.855 Z10.378
N2540 X-412.247 Y-34.828 Z10.273
N2545 X-412.331 Y-35.79 Z10.168
N2550 X-412.244 Y-36.542 Z10.089
N2555 X-411.937 Y-37.425 Z10.003
N2560 X-411.551 Y-38.048 Z9.94
N2565 X-411.12 Y-38.527 Z9.887
N2570 X-410.413 Y-39.052 Z9.834
N2575 X-409.505 Y-39.43 Z9.805
N2580 X-407.659 Y-39.79 Z9.8
N2585 X-406.28 Y-40.247 Z9.771
N2590 X-403.718 Y-41.091 Z9.717
N2595 X-402.027 Y-41.507 Z9.69
N2600 X-399.449 Y-41.925 Z9.672
N2605 X-396.843 Y-42.09 Z9.694
N2610 X-395.102 Y-42.059 Z9.73
N2615 X-392.956 Y-41.864 Z9.798
N2620 X-387.474 Y-40.976 Z10.031
N2625 X-365.969 Y-37.438 Z10.939
N2630 X-345.854 Y-34.326 Z11.735
N2635 X-327.098 Y-31.575 Z12.416
N2640 X-313.753 Y-29.801 Z12.853
N2645 X-305.148 Y-28.744 Z13.11
N2650 X-292.153 Y-27.284 Z13.466
N2655 X-278.726 Y-25.965 Z13.789
N2660 X-265.113 Y-24.809 Z14.071
N2665 X-248.83 Y-23.653 Z14.355
N2670 X-230.741 Y-22.645 Z14.609
N2675 X-210.652 Y-21.738 Z14.841
N2680 X-192.12 Y-21.061 Z15.016
N2685 X-174.454 Y-20.539 Z15.151
N2690 X-154.328 Y-20.093 Z15.269
N2695 X-131.682 Y-19.762 Z15.358
N2700 X-105.475 Y-19.582 Z15.412
N2705 X-72.936 Y-19.584 Z15.422
N2710 X-31.105 Y-19.833 Z15.37
N2715 X3.026 Y-20.121 Z15.309
N2720 X57.72 Y-19.999 Z15.356
N2725 X94.164 Y-20.144 Z15.331
N2730 X124.563 Y-20.469 Z15.258
N2735 X150.687 Y-20.954 Z15.143
N2740 X172.602 Y-21.545 Z15.002
N2745 X194.068 Y-22.291 Z14.819
N2750 X216.221 Y-23.266 Z14.582
N2755 X233.213 Y-24.158 Z14.363
N2760 X244.323 Y-24.807 Z14.203
N2765 X259.791 Y-25.896 Z13.94
N2770 X274.659 Y-27.145 Z13.639
N2775 X289.94 Y-28.65 Z13.276
N2780 X301.528 Y-29.941 Z12.964
N2785 X313.211 Y-31.374 Z12.616
N2790 X324.972 Y-32.943 Z12.232
N2795 X341.151 Y-35.286 Z11.654
N2800 X357.262 Y-37.73 Z11.035
N2805 X379.326 Y-41.232 Z10.132
N2810 X392.319 Y-43.358 Z9.579
N2815 X394.214 Y-43.584 Z9.51
N2820 X396.388 Y-43.687 Z9.455
N2825 X398.998 Y-43.59 Z9.423
N2830 X401.588 Y-43.255 Z9.429
N2835 X403.293 Y-42.9 Z9.453
N2840 X405.148 Y-42.389 Z9.498
N2845 X407.241 Y-41.677 Z9.561
N2850 X408.57 Y-41.217 Z9.591
N2855 X410.533 Y-40.819 Z9.599
N2860 X411.356 Y-40.536 Z9.617
N2865 X412.043 Y-40.17 Z9.649
N2870 X412.87 Y-39.522 Z9.716
N2875 X413.567 Y-38.697 Z9.808
N2880 X414.015 Y-37.894 Z9.894
N2885 X414.329 Y-36.97 Z9.985
N2890 X414.466 Y-35.959 Z10.089
N2895 X414.432 Y-35.138 Z10.179
N2900 X414.322 Y-34.066 Z10.297
N2905 X414.387 Y-32.95 Z10.41
N2910 X414.759 Y-31.161 Z10.542
N2915 X414.825 Y-30.201 Z10.618
N2920 X414.67 Y-29.165 Z10.707
N2925 X414.306 Y-28.227 Z10.796
N2930 X413.844 Y-27.509 Z10.869
N2935 X412.875 Y-26.471 Z10.967
N2940 X411.767 Y-25.559 Z11.061
N2945 X410.399 Y-24.403 Z11.179
N2950 X408.668 Y-22.815 Z11.335
N2955 X407.045 Y-21.508 Z11.471
N2960 X405.124 Y-20.196 Z11.618
N2965 X403.029 Y-19.023 Z11.764
N2970 X400.817 Y-18.034 Z11.903
N2975 X398.514 Y-17.248 Z12.037
N2980 X386.134 Y-13.741 Z12.714
N2985 X370.282 Y-9.416 Z13.546
N2990 X353.015 Y-4.903 Z14.406
N2995 X337.071 Y-0.926 Z15.127
N3000 X325.591 Y1.746 Z15.594
N3005 X314.232 Y4.186 Z16.017
N3010 X300.889 Y6.776 Z16.465
N3015 X289.513 Y8.762 Z16.805
N3020 X278.153 Y10.547 Z17.109
N3025 X265.507 Y12.302 Z17.408
N3030 X252.884 Y13.818 Z17.666
N3035 X238.794 Y15.258 Z17.914
N3040 X220.657 Y16.835 Z18.193
N3045 X207.062 Y17.855 Z18.373
N3050 X189.718 Y18.989 Z18.573
N3055 X170.145 Y20.022 Z18.756
N3060 X152.745 Y20.742 Z18.879
N3065 X135.682 Y21.288 Z18.97
N3070 X119.486 Y21.673 Z19.033
N3075 X97.644 Y22.003 Z19.084
N3080 X72.111 Y22.178 Z19.103
N3085 X45.702 Y22.173 Z19.087
N3090 X0. Y21.871 Z19.015
N3095 X-45.903 Y22.467 Z19.092
N3100 X-76.369 Y22.647 Z19.111
N3105 X-102.022 Y22.599 Z19.088
N3110 X-124.974 Y22.332 Z19.028
N3115 X-143.791 Y21.951 Z18.948
N3120 X-163.786 Y21.319 Z18.821
N3125 X-179.35 Y20.651 Z18.694
N3130 X-194.371 Y19.875 Z18.544
N3135 X-209.747 Y18.939 Z18.362
N3140 X-228.6 Y17.529 Z18.101
N3145 X-243.135 Y16.267 Z17.865
N3150 X-254.466 Y15.112 Z17.661
N3155 X-266.522 Y13.693 Z17.413
N3160 X-276.533 Y12.354 Z17.177
N3165 X-288.372 Y10.559 Z16.866
N3170 X-300.32 Y8.527 Z16.511
N3175 X-310.129 Y6.68 Z16.19
N3180 X-320.658 Y4.525 Z15.814
N3185 X-333.217 Y1.714 Z15.32
N3190 X-343.205 Y-0.705 Z14.889
N3195 X-360.296 Y-5.054 Z14.087
N3200 X-378.724 Y-9.991 Z13.15
N3205 X-396.211 Y-14.898 Z12.205
N3210 X-399.558 Y-15.889 Z12.018
N3215 X-402.116 Y-16.861 Z11.871
N3220 X-404.54 Y-18.032 Z11.726
N3225 X-406.826 Y-19.391 Z11.58
N3230 X-408.824 Y-20.811 Z11.433
N3235 X-410.513 Y-22.213 Z11.288
N3240 X-412.563 Y-24.084 Z11.104
N3245 X-414.535 Y-25.675 Z10.938
N3250 X-415.325 Y-26.423 Z10.865
N3255 X-416.118 Y-27.318 Z10.785
N3260 X-416.644 Y-28.186 Z10.715
N3265 X-416.907 Y-28.865 Z10.653
N3270 X-417.104 Y-29.862 Z10.565
N3275 X-417.11 Y-30.708 Z10.496
N3280 X-416.719 Y-34.194 Z10.214
N3285 X-416.617 Y-35.301 Z10.098
N3290 X-416.689 Y-36.416 Z9.976
N3295 X-416.747 Y-37.284 Z9.881
N3300 X-416.625 Y-38.269 Z9.779
N3305 X-416.397 Y-39.003 Z9.702
N3310 X-416.051 Y-39.704 Z9.618
N3315 X-415.501 Y-40.454 Z9.532
N3320 X-414.696 Y-41.179 Z9.456
N3325 X-413.927 Y-41.633 Z9.414
N3330 X-412.816 Y-42.005 Z9.39
N3335 X-410.441 Y-42.477 Z9.382
N3340 X-407.794 Y-43.398 Z9.294
N3345 X-406.137 Y-43.935 Z9.242
N3350 X-403.607 Y-44.585 Z9.187
N3355 X-401.036 Y-45.044 Z9.163
N3360 X-398.437 Y-45.309 Z9.168
N3365 X-395.826 Y-45.378 Z9.202
N3370 X-394.086 Y-45.316 Z9.238
N3375 X-391.921 Y-45.117 Z9.305
N3380 X-383.276 Y-43.827 Z9.653
N3385 X-364.467 Y-41.004 Z10.403
N3390 X-344.278 Y-38.156 Z11.158
N3395 X-326.331 Y-35.749 Z11.777
N3400 X-311.882 Y-33.998 Z12.225
N3405 X-297.957 Y-32.472 Z12.61
N3410 X-281.991 Y-30.974 Z12.988
N3415 X-265.999 Y-29.69 Z13.312
N3420 X-248.806 Y-28.565 Z13.598
N3425 X-230.403 Y-27.627 Z13.843
N3430 X-209.537 Y-26.774 Z14.068
N3435 X-187.787 Y-26.053 Z14.261
N3440 X-162.566 Y-25.455 Z14.424
N3445 X-137.387 Y-25.078 Z14.53
N3450 X-110.694 Y-24.877 Z14.592
N3455 X-78.408 Y-24.846 Z14.61
N3460 X-33.085 Y-25.085 Z14.562
N3465 X3.037 Y-25.371 Z14.491
N3470 X58.602 Y-25.274 Z14.543
N3475 X95.881 Y-25.428 Z14.514
N3480 X125.365 Y-25.73 Z14.442
N3485 X152.007 Y-26.195 Z14.327
N3490 X175.787 Y-26.805 Z14.174
N3495 X199.689 Y-27.619 Z13.968
N3500 X218.983 Y-28.427 Z13.761
N3505 X239.65 Y-29.449 Z13.498
N3510 X256.492 Y-30.49 Z13.236
N3515 X271.967 Y-31.653 Z12.944
N3520 X286.812 Y-32.958 Z12.615
N3525 X300.84 Y-34.373 Z12.258
N3530 X312.478 Y-35.68 Z11.928
N3535 X326.039 Y-37.335 Z11.505
N3540 X350.855 Y-40.679 Z10.638
N3545 X373.581 Y-43.95 Z9.768
N3550 X391.481 Y-46.613 Z9.051
N3555 X393.034 Y-46.796 Z8.997
N3560 X394.771 Y-46.92 Z8.949
N3565 X397.383 Y-46.948 Z8.906
N3570 X399.99 Y-46.786 Z8.895
N3575 X402.579 Y-46.436 Z8.917
N3580 X405.135 Y-45.9 Z8.957
N3585 X407.216 Y-45.318 Z9.009
N3590 X409.63 Y-44.501 Z9.09
N3595 X411.385 Y-43.886 Z9.152
N3600 X412.586 Y-43.605 Z9.173
N3605 X414.586 Y-43.215 Z9.19
N3610 X415.421 Y-42.888 Z9.214
N3615 X416.371 Y-42.323 Z9.266
N3620 X417.237 Y-41.564 Z9.345
N3625 X417.967 Y-40.625 Z9.452
N3630 X418.481 Y-39.618 Z9.572
N3635 X418.744 Y-38.8 Z9.66
N3640 X418.913 Y-37.643 Z9.78
N3645 X418.887 Y-36.682 Z9.884
N3650 X418.706 Y-35.333 Z10.034
N3655 X418.71 Y-34.012 Z10.171
N3660 X418.874 Y-32.929 Z10.253
N3665 X419.255 Y-31.131 Z10.385
N3670 X419.31 Y-29.998 Z10.475
N3675 X419.14 Y-28.868 Z10.57
N3680 X418.827 Y-27.955 Z10.634
N3685 X418.281 Y-26.981 Z10.708
N3690 X417.794 Y-26.373 Z10.761
N3695 X416.876 Y-25.422 Z10.85
N3700 X415.793 Y-24.52 Z10.944
N3705 X414.147 Y-23.165 Z11.084
N3710 X411.962 Y-21.152 Z11.277
N3715 X409.747 Y-19.337 Z11.438
N3720 X407.566 Y-17.814 Z11.577
N3725 X405.156 Y-16.406 Z11.724
N3730 X402.672 Y-15.215 Z11.872
N3735 X400.633 Y-14.415 Z11.989
N3740 X398.488 Y-13.731 Z12.111
N3745 X388.806 Y-10.832 Z12.644
N3750 X372.45 Y-6.117 Z13.51
N3755 X357.428 Y-1.957 Z14.269
N3760 X340.808 Y2.448 Z15.039
N3765 X330.566 Y4.992 Z15.473
N3770 X318.97 Y7.678 Z15.926
N3775 X309.312 Y9.746 Z16.27
N3780 X300.74 Y11.444 Z16.552
N3785 X290.106 Y13.383 Z16.872
N3790 X278.699 Y15.258 Z17.181
N3795 X267.144 Y16.945 Z17.458
N3800 X255.188 Y18.47 Z17.708
N3805 X245.094 Y19.606 Z17.892
N3810 X229.755 Y21.085 Z18.144
N3815 X215.743 Y22.289 Z18.347
N3820 X202.147 Y23.3 Z18.518
N3825 X187.336 Y24.284 Z18.679
N3830 X172.225 Y25.112 Z18.815
N3835 X154.817 Y25.895 Z18.938
N3840 X136.996 Y26.501 Z19.033
N3845 X116.271 Y27.008 Z19.107
N3850 X92.886 Y27.34 Z19.148
N3855 X63.155 Y27.489 Z19.156
N3860 X28.344 Y27.354 Z19.116
N3865 X0. Y27.12 Z19.019
N3870 X-43.263 Y27.718 Z19.139
N3875 X-76.157 Y27.921 Z19.156
N3880 X-101.08 Y27.863 Z19.138
N3885 X-122.699 Y27.621 Z19.087
N3890 X-139.672 Y27.273 Z19.021
N3895 X-159.139 Y26.691 Z18.914
N3900 X-176.057 Y25.979 Z18.785
N3905 X-190.354 Y25.227 Z18.65
N3910 X-206.648 Y24.218 Z18.466
N3915 X-218.725 Y23.318 Z18.313
N3920 X-231.539 Y22.276 Z18.125
N3925 X-243.51 Y21.181 Z17.928
N3930 X-254.9 Y19.963 Z17.725
N3935 X-267.434 Y18.41 Z17.467
N3940 X-278.354 Y16.856 Z17.209
N3945 X-290.251 Y14.943 Z16.892
N3950 X-300.492 Y13.11 Z16.586
N3955 X-310.293 Y11.179 Z16.264
N3960 X-318.51 Y9.438 Z15.972
N3965 X-326.614 Y7.621 Z15.662
N3970 X-337.284 Y5.035 Z15.224
N3975 X-349.193 Y1.954 Z14.692
N3980 X-364.869 Y-2.296 Z13.93
N3985 X-380.638 Y-6.773 Z13.114
N3990 X-398.325 Y-12.009 Z12.15
N3995 X-400.975 Y-12.86 Z12.
N4000 X-403.769 Y-13.98 Z11.838
N4005 X-406.482 Y-15.33 Z11.676
N4010 X-408.874 Y-16.761 Z11.529
N4015 X-410.876 Y-18.156 Z11.399
N4020 X-413.198 Y-20.031 Z11.244
N4025 X-416.233 Y-22.778 Z11.015
N4030 X-418.378 Y-24.496 Z10.833
N4035 X-419.425 Y-25.48 Z10.736
N4040 X-420.245 Y-26.392 Z10.653
N4045 X-420.844 Y-27.303 Z10.58
N4050 X-421.277 Y-28.342 Z10.507
N4055 X-421.513 Y-29.49 Z10.435
N4060 X-421.54 Y-30.378 Z10.365
N4065 X-421.379 Y-31.518 Z10.278
N4070 X-421.023 Y-33.146 Z10.159
N4075 X-420.887 Y-34.542 Z10.051
N4080 X-420.9 Y-35.873 Z9.913
N4085 X-420.99 Y-37.025 Z9.786
N4090 X-421.182 Y-38.407 Z9.632
N4095 X-421.167 Y-39.34 Z9.532
N4100 X-421.054 Y-40.05 Z9.455
N4105 X-420.769 Y-40.969 Z9.34
N4110 X-420.264 Y-41.941 Z9.224
N4115 X-419.56 Y-42.831 Z9.124
N4120 X-418.799 Y-43.494 Z9.054
N4125 X-417.767 Y-44.096 Z8.999
N4130 X-416.769 Y-44.442 Z8.965
N4135 X-414.069 Y-44.944 Z8.939
N4140 X-412.942 Y-45.267 Z8.91
N4145 X-409.41 Y-46.502 Z8.785
N4150 X-406.906 Y-47.245 Z8.712
N4155 X-404.361 Y-47.834 Z8.648
N4160 X-401.785 Y-48.269 Z8.611
N4165 X-398.319 Y-48.604 Z8.604
N4170 X-395.708 Y-48.671 Z8.631
N4175 X-393.097 Y-48.58 Z8.685
N4180 X-390.929 Y-48.383 Z8.752
N4185 X-375.977 Y-46.352 Z9.318
N4190 X-362.838 Y-44.574 Z9.805
N4195 X-343.446 Y-42.095 Z10.483
N4200 X-325.564 Y-39.924 Z11.059
N4205 X-310.276 Y-38.255 Z11.5
N4210 X-296.425 Y-36.893 Z11.856
N4215 X-281.395 Y-35.618 Z12.192
N4220 X-265.492 Y-34.462 Z12.495
N4225 X-247.991 Y-33.429 Z12.769
N4230 X-227.681 Y-32.513 Z13.017
N4235 X-207.002 Y-31.769 Z13.222
N4240 X-180.866 Y-31.033 Z13.426
N4245 X-155.761 Y-30.553 Z13.563
N4250 X-129.057 Y-30.251 Z13.653
N4255 X-96.171 Y-30.113 Z13.699
N4260 X-56.32 Y-30.212 Z13.684
N4265 X4.711 Y-30.623 Z13.589
N4270 X59.485 Y-30.551 Z13.626
N4275 X100.802 Y-30.727 Z13.591
N4280 X130.254 Y-31.04 Z13.514
N4285 X158.505 Y-31.541 Z13.386
N4290 X181.847 Y-32.133 Z13.233
N4295 X204.501 Y-32.88 Z13.037
N4300 X228.192 Y-33.843 Z12.784
N4305 X243.543 Y-34.586 Z12.588
N4310 X261.551 Y-35.657 Z12.309
N4315 X279.143 Y-36.946 Z11.971
N4320 X295.278 Y-38.341 Z11.604
N4325 X311.745 Y-39.985 Z11.171
N4330 X326.428 Y-41.617 Z10.737
N4335 X352.079 Y-44.766 Z9.888
N4340 X378.011 Y-48.163 Z8.948
N4345 X389.999 Y-49.785 Z8.496
N4350 X392.574 Y-50.028 Z8.418
N4355 X395.184 Y-50.133 Z8.366
N4360 X398.666 Y-50.052 Z8.338
N4365 X402.132 Y-49.719 Z8.353
N4370 X404.712 Y-49.306 Z8.387
N4375 X407.265 Y-48.753 Z8.445
N4380 X409.784 Y-48.063 Z8.526
N4385 X411.971 Y-47.342 Z8.608
N4390 X414.286 Y-46.529 Z8.69
N4395 X416.04 Y-46.004 Z8.738
N4400 X419.261 Y-45.136 Z8.81
N4405 X420.747 Y-44.927 Z8.814
N4410 X421.557 Y-44.615 Z8.842
N4415 X422.222 Y-44.15 Z8.887
N4420 X422.739 Y-43.574 Z8.951
N4425 X423.155 Y-42.801 Z9.043
N4430 X423.362 Y-41.962 Z9.148
N4435 X423.35 Y-41.058 Z9.267
N4440 X423.108 Y-39.948 Z9.411
N4445 X423.029 Y-38.77 Z9.54
N4450 X422.965 Y-36.639 Z9.771
N4455 X423.042 Y-35.143 Z9.925
N4460 X423.325 Y-33.17 Z10.075
N4465 X423.679 Y-31.428 Z10.204
N4470 X423.745 Y-30.108 Z10.305
N4475 X423.598 Y-28.887 Z10.377
N4480 X423.264 Y-27.725 Z10.452
N4485 X422.786 Y-26.696 Z10.526
N4490 X422.047 Y-25.607 Z10.615
N4495 X421.207 Y-24.687 Z10.699
N4500 X419.996 Y-23.619 Z10.805
N4505 X417.542 Y-21.611 Z10.987
N4510 X414.946 Y-19.218 Z11.166
N4515 X412.588 Y-17.273 Z11.325
N4520 X410.101 Y-15.498 Z11.487
N4525 X408.24 Y-14.342 Z11.604
N4530 X406.092 Y-13.17 Z11.734
N4535 X403.293 Y-11.88 Z11.896
N4540 X400.394 Y-10.8 Z12.06
N4545 X387.918 Y-6.9 Z12.749
N4550 X372.061 Y-2.117 Z13.587
N4555 X356.994 Y2.246 Z14.347
N4560 X341.239 Y6.619 Z15.069
N4565 X331.329 Y9.197 Z15.484
N4570 X319.707 Y12.013 Z15.931
N4575 X310.001 Y14.186 Z16.271
N4580 X301.39 Y15.967 Z16.549
N4585 X290.699 Y18.004 Z16.864
N4590 X279.246 Y19.97 Z17.168
N4595 X267.644 Y21.738 Z17.44
N4600 X256.061 Y23.287 Z17.678
N4605 X245.469 Y24.532 Z17.869
N4610 X230.094 Y26.08 Z18.119
N4615 X216.04 Y27.342 Z18.321
N4620 X204.183 Y28.271 Z18.469
N4625 X189.3 Y29.322 Z18.633
N4630 X174.155 Y30.206 Z18.774
N4635 X156.712 Y31.042 Z18.904
N4640 X137.12 Y31.76 Z19.009
N4645 X115.792 Y32.286 Z19.087
N4650 X90.807 Y32.635 Z19.132
N4655 X63.89 Y32.762 Z19.138
N4660 X34.318 Y32.656 Z19.106
N4665 X0. Y32.37 Z19.019
N4670 X-44.978 Y33.001 Z19.118
N4675 X-74.019 Y33.193 Z19.135
N4680 X-100.016 Y33.139 Z19.114
N4685 X-121.897 Y32.887 Z19.058
N4690 X-140.637 Y32.483 Z18.983
N4695 X-157.362 Y31.964 Z18.888
N4700 X-174.503 Y31.227 Z18.757
N4705 X-188.834 Y30.454 Z18.624
N4710 X-205.164 Y29.408 Z18.441
N4715 X-216.414 Y28.555 Z18.301
N4720 X-230.141 Y27.411 Z18.101
N4725 X-243.884 Y26.096 Z17.878
N4730 X-255.334 Y24.814 Z17.674
N4735 X-266.622 Y23.373 Z17.444
N4740 X-277.595 Y21.767 Z17.189
N4745 X-287.309 Y20.164 Z16.939
N4750 X-297.655 Y18.302 Z16.642
N4755 X-307.817 Y16.274 Z16.322
N4760 X-316.727 Y14.347 Z16.018
N4765 X-325.847 Y12.218 Z15.679
N4770 X-336.049 Y9.669 Z15.273
N4775 X-344.804 Y7.333 Z14.893
N4780 X-361.868 Y2.546 Z14.089
N4785 X-380.602 Y-2.992 Z13.127
N4790 X-399.063 Y-8.725 Z12.121
N4795 X-401.925 Y-9.677 Z11.961
N4800 X-404.852 Y-10.859 Z11.8
N4805 X-407.563 Y-12.176 Z11.653
N4810 X-410.205 Y-13.69 Z11.506
N4815 X-412.799 Y-15.424 Z11.347
N4820 X-414.931 Y-17.059 Z11.206
N4825 X-417.328 Y-19.143 Z11.042
N4830 X-419.394 Y-21.036 Z10.897
N4835 X-421.031 Y-22.382 Z10.785
N4840 X-422.443 Y-23.506 Z10.687
N4845 X-423.674 Y-24.699 Z10.588
N4850 X-424.423 Y-25.527 Z10.515
N4855 X-425.018 Y-26.368 Z10.445
N4860 X-425.51 Y-27.35 Z10.372
N4865 X-425.857 Y-28.451 Z10.299
N4870 X-426.025 Y-29.691 Z10.227
N4875 X-425.973 Y-30.924 Z10.16
N4880 X-425.778 Y-31.89 Z10.089
N4885 X-425.423 Y-33.537 Z9.969
N4890 X-425.253 Y-35.261 Z9.835
N4895 X-425.255 Y-36.498 Z9.717
N4900 X-425.412 Y-41.16 Z9.204
N4905 X-425.616 Y-42.207 Z9.061
N4910 X-425.719 Y-43.072 Z8.945
N4915 X-425.6 Y-43.873 Z8.842
N4920 X-425.299 Y-44.585 Z8.756
N4925 X-424.829 Y-45.208 Z8.685
N4930 X-424.23 Y-45.691 Z8.628
N4935 X-423.596 Y-45.993 Z8.594
N4940 X-422.732 Y-46.163 Z8.585
N4945 X-421.573 Y-46.304 Z8.586
N4950 X-417.276 Y-47.476 Z8.487
N4955 X-415.031 Y-48.214 Z8.416
N4960 X-411.611 Y-49.389 Z8.267
N4965 X-408.892 Y-50.17 Z8.173
N4970 X-406.348 Y-50.765 Z8.107
N4975 X-403.779 Y-51.237 Z8.049
N4980 X-400.323 Y-51.673 Z8.008
N4985 X-396.847 Y-51.885 Z8.011
N4990 X-393.364 Y-51.874 Z8.056
N4995 X-390.756 Y-51.719 Z8.118
N5000 X-387.705 Y-51.386 Z8.217
N5005 X-359.765 Y-47.995 Z9.188
N5010 X-337.418 Y-45.463 Z9.901
N5015 X-317.735 Y-43.38 Z10.474
N5020 X-301.284 Y-41.869 Z10.888
N5025 X-286.548 Y-40.68 Z11.213
N5030 X-269.33 Y-39.5 Z11.536
N5035 X-251.282 Y-38.501 Z11.811
N5040 X-232.257 Y-37.679 Z12.041
N5045 X-208.075 Y-36.882 Z12.268
N5050 X-185.55 Y-36.296 Z12.437
N5055 X-158.044 Y-35.798 Z12.583
N5060 X-128.962 Y-35.505 Z12.674
N5065 X-93.958 Y-35.388 Z12.715
N5070 X-51.044 Y-35.516 Z12.691
N5075 X6.073 Y-35.873 Z12.601
N5080 X59.497 Y-35.825 Z12.634
N5085 X102.662 Y-36.004 Z12.595
N5090 X137.656 Y-36.382 Z12.497
N5095 X166.535 Y-36.904 Z12.358
N5100 X193.339 Y-37.597 Z12.17
N5105 X218.397 Y-38.443 Z11.94
N5110 X239.771 Y-39.317 Z11.7
N5115 X256.444 Y-40.169 Z11.47
N5120 X273.98 Y-41.261 Z11.175
N5125 X291.75 Y-42.588 Z10.816
N5130 X308.026 Y-44.002 Z10.429
N5135 X325.653 Y-45.747 Z9.947
N5140 X354.172 Y-48.898 Z9.061
N5145 X382.867 Y-52.288 Z8.086
N5150 X389.366 Y-53.08 Z7.858
N5155 X391.969 Y-53.301 Z7.786
N5160 X395.451 Y-53.409 Z7.728
N5165 X398.932 Y-53.303 Z7.714
N5170 X402.4 Y-52.984 Z7.732
N5175 X405.842 Y-52.451 Z7.791
N5180 X408.822 Y-51.813 Z7.875
N5185 X412.088 Y-50.917 Z7.994
N5190 X414.488 Y-50.121 Z8.096
N5195 X417.526 Y-49.057 Z8.233
N5200 X419.772 Y-48.414 Z8.295
N5205 X423.02 Y-47.553 Z8.365
N5210 X424.302 Y-47.463 Z8.354
N5215 X425.16 Y-47.327 Z8.358
N5220 X425.771 Y-47.097 Z8.381
N5225 X426.455 Y-46.673 Z8.433
N5230 X427.058 Y-46.08 Z8.512
N5235 X427.526 Y-45.339 Z8.602
N5240 X427.815 Y-44.484 Z8.708
N5245 X427.889 Y-43.561 Z8.827
N5250 X427.78 Y-42.814 Z8.928
N5255 X427.503 Y-41.668 Z9.086
N5260 X427.426 Y-40.946 Z9.174
N5265 X427.318 Y-37.992 Z9.495
N5270 X427.378 Y-36.329 Z9.67
N5275 X427.652 Y-34.064 Z9.844
N5280 X428.13 Y-31.711 Z10.017
N5285 X428.242 Y-30.567 Z10.082
N5290 X428.172 Y-29.165 Z10.157
N5295 X427.866 Y-27.759 Z10.244
N5300 X427.36 Y-26.479 Z10.333
N5305 X426.649 Y-25.283 Z10.42
N5310 X425.566 Y-24.003 Z10.51
N5315 X424.24 Y-22.759 Z10.604
N5320 X421.865 Y-20.857 Z10.767
N5325 X420.051 Y-19.247 Z10.893
N5330 X417.657 Y-17.046 Z11.062
N5335 X414.995 Y-14.877 Z11.226
N5340 X412.258 Y-12.936 Z11.374
N5345 X409.541 Y-11.273 Z11.522
N5350 X406.534 Y-9.704 Z11.684
N5355 X403.423 Y-8.35 Z11.854
N5360 X400.286 Y-7.238 Z12.028
N5365 X388.375 Y-3.346 Z12.681
N5370 X373.546 Y1.342 Z13.462
N5375 X359.037 Y5.753 Z14.191
N5380 X344.155 Y10.101 Z14.876
N5385 X332.093 Y13.402 Z15.38
N5390 X320.445 Y16.349 Z15.822
N5395 X308.265 Y19.16 Z16.239
N5400 X298.064 Y21.307 Z16.554
N5405 X286.63 Y23.483 Z16.877
N5410 X276.632 Y25.207 Z17.127
N5415 X265.178 Y26.968 Z17.386
N5420 X253.281 Y28.561 Z17.62
N5425 X241.223 Y29.982 Z17.826
N5430 X223.666 Y31.748 Z18.095
N5435 X207.611 Y33.136 Z18.307
N5440 X190.395 Y34.408 Z18.501
N5445 X175.215 Y35.346 Z18.643
N5450 X160.011 Y36.118 Z18.758
N5455 X143.038 Y36.803 Z18.86
N5460 X124.176 Y37.363 Z18.937
N5465 X99.752 Y37.834 Z18.996
N5470 X71.869 Y38.022 Z19.014
N5475 X46.492 Y38.002 Z18.994
N5480 X6.458 Y37.678 Z18.917
N5485 X-2.061 Y37.654 Z18.907
N5490 X-41.56 Y38.234 Z18.978
N5495 X-70.323 Y38.45 Z18.999
N5500 X-95.313 Y38.432 Z18.981
N5505 X-116.049 Y38.241 Z18.937
N5510 X-137.235 Y37.812 Z18.856
N5515 X-157.059 Y37.185 Z18.747
N5520 X-173.819 Y36.438 Z18.619
N5525 X-188.183 Y35.636 Z18.486
N5530 X-202.812 Y34.667 Z18.325
N5535 X-215.368 Y33.708 Z18.169
N5540 X-230.478 Y32.389 Z17.952
N5545 X-244.259 Y31.011 Z17.727
N5550 X-255.769 Y29.667 Z17.523
N5555 X-266.18 Y28.283 Z17.312
N5560 X-274.982 Y26.965 Z17.113
N5565 X-285.464 Y25.234 Z16.852
N5570 X-296.123 Y23.261 Z16.555
N5575 X-306.973 Y21.049 Z16.222
N5580 X-317.441 Y18.697 Z15.87
N5585 X-323.521 Y17.239 Z15.651
N5590 X-335.505 Y14.159 Z15.185
N5595 X-345.613 Y11.35 Z14.755
N5600 X-360.582 Y6.969 Z14.056
N5605 X-375.336 Y2.452 Z13.313
N5610 X-391.183 Y-2.607 Z12.476
N5615 X-401.497 Y-6.013 Z11.907
N5620 X-404.143 Y-7.004 Z11.764
N5625 X-407.528 Y-8.497 Z11.589
N5630 X-409.806 Y-9.653 Z11.473
N5635 X-412.195 Y-11.019 Z11.352
N5640 X-414.473 Y-12.504 Z11.23
N5645 X-416.961 Y-14.358 Z11.099
N5650 X-419.282 Y-16.292 Z10.974
N5655 X-422.353 Y-19.1 Z10.771
N5660 X-424.708 Y-21.073 Z10.609
N5665 X-426.492 Y-22.531 Z10.485
N5670 X-428.112 Y-24.045 Z10.367
N5675 X-430.147 Y-26.13 Z10.213
N5680 X-430.573 Y-26.831 Z10.167
N5685 X-430.725 Y-27.523 Z10.127
N5690 X-430.693 Y-28.084 Z10.1
N5695 X-429.842 Y-32.815 Z9.865
N5700 X-429.634 Y-34.182 Z9.762
N5705 X-429.566 Y-35.861 Z9.628
N5710 X-429.699 Y-38.807 Z9.336
N5715 X-429.87 Y-42.487 Z8.921
N5720 X-430.041 Y-43.81 Z8.742
N5725 X-430.096 Y-44.873 Z8.601
N5730 X-429.916 Y-45.91 Z8.469
N5735 X-429.644 Y-46.624 Z8.378
N5740 X-429.238 Y-47.318 Z8.279
N5745 X-428.6 Y-48.048 Z8.179
N5750 X-427.895 Y-48.591 Z8.109
N5755 X-426.963 Y-49.044 Z8.057
N5760 X-426.005 Y-49.277 Z8.04
N5765 X-424.423 Y-49.363 Z8.058
N5770 X-422.444 Y-49.787 Z8.028
N5775 X-419.215 Y-50.572 Z7.943
N5780 X-417.497 Y-51.098 Z7.879
N5785 X-413.572 Y-52.404 Z7.701
N5790 X-410.88 Y-53.185 Z7.586
N5795 X-408.418 Y-53.784 Z7.503
N5800 X-405.857 Y-54.296 Z7.436
N5805 X-403.275 Y-54.698 Z7.379
N5810 X-399.812 Y-55.063 Z7.338
N5815 X-396.333 Y-55.231
N5820 X-392.85 Y-55.202 Z7.38
N5825 X-390.242 Y-55.051 Z7.438
N5830 X-384.905 Y-54.501 Z7.605
N5835 X-358.129 Y-51.63 Z8.456
N5840 X-332.573 Y-49.073 Z9.203
N5845 X-314.817 Y-47.461 Z9.664
N5850 X-299.726 Y-46.253 Z10.009
N5855 X-283.109 Y-45.086 Z10.341
N5860 X-264.477 Y-44.008 Z10.649
N5865 X-245.154 Y-43.131 Z10.901
N5870 X-222.569 Y-42.365 Z11.126
N5875 X-200.119 Y-41.76 Z11.307
N5880 X-172.402 Y-41.213 Z11.472
N5885 X-142.909 Y-40.858 Z11.582
N5890 X-108.141 Y-40.677 Z11.643
N5895 X-63.141 Y-40.733 Z11.638
N5900 X6.988 Y-41.124 Z11.538
N5905 X64.99 Y-41.111 Z11.559
N5910 X106.528 Y-41.302 Z11.513
N5915 X141.258 Y-41.661 Z11.416
N5920 X171.874 Y-42.2 Z11.267
N5925 X199.821 Y-42.892 Z11.071
N5930 X224.262 Y-43.657 Z10.852
N5935 X243.686 Y-44.409 Z10.639
N5940 X262.46 Y-45.312 Z10.384
N5945 X279.053 Y-46.286 Z10.11
N5950 X297.425 Y-47.567 Z9.748
N5955 X313.283 Y-48.858 Z9.383
N5960 X332.231 Y-50.573 Z8.89
N5965 X359.707 Y-53.308 Z8.084
N5970 X389.072 Y-56.413 Z7.155
N5975 X391.675 Y-56.632 Z7.084
N5980 X395.156 Y-56.755 Z7.028
N5985 X398.638 Y-56.683 Z7.012
N5990 X402.111 Y-56.417 Z7.032
N5995 X405.563 Y-55.958 Z7.093
N6000 X408.559 Y-55.399 Z7.178
N6005 X411.304 Y-54.753 Z7.281
N6010 X414.4 Y-53.863 Z7.412
N6015 X417.537 Y-52.887 Z7.557
N6020 X419.451 Y-52.393 Z7.623
N6025 X423.59 Y-51.549 Z7.703
N6030 X425.432 Y-51.421 Z7.696
N6035 X426.721 Y-51.218 Z7.71
N6040 X427.837 Y-50.836 Z7.758
N6045 X428.751 Y-50.356 Z7.82
N6050 X429.732 Y-49.623 Z7.913
N6055 X430.581 Y-48.727 Z8.035
N6060 X431.284 Y-47.659 Z8.185
N6065 X431.702 Y-46.729 Z8.317
N6070 X431.974 Y-45.792 Z8.433
N6075 X432.135 Y-44.516 Z8.597
N6080 X432.105 Y-43.55 Z8.725
N6085 X431.943 Y-41.876 Z8.938
N6090 X431.753 Y-38.94 Z9.26
N6095 Y-37.308 Z9.43
N6100 X431.947 Y-35.009 Z9.609
N6105 X432.346 Y-32.827 Z9.771
N6110 X432.749 Y-30.893 Z9.861
N6115 X432.842 Y-29.704 Z9.918
N6120 X432.836 Y-28.621 Z9.975
N6125 X432.643 Y-27.292 Z10.047
N6130 X432.228 Y-26.022 Z10.103
N6135 X431.725 Y-25.034 Z10.148
N6140 X430.97 Y-23.986 Z10.209
N6145 X430.059 Y-23.053 Z10.277
N6150 X428.338 Y-21.421 Z10.401
N6155 X426.65 Y-20.061 Z10.52
N6160 X424.287 Y-18.313 Z10.674
N6165 X422.735 Y-16.986 Z10.763
N6170 X420.193 Y-14.713 Z10.897
N6175 X417.254 Y-12.363 Z11.049
N6180 X414.322 Y-10.305 Z11.181
N6185 X411.234 Y-8.425 Z11.33
N6190 X408.026 Y-6.749 Z11.492
N6195 X404.746 Y-5.299 Z11.655
N6200 X402.462 Y-4.434 Z11.775
N6205 X391.221 Y-0.578 Z12.387
N6210 X376.74 Y4.231 Z13.144
N6215 X362.732 Y8.716 Z13.842
N6220 X349.69 Y12.742 Z14.448
N6225 X339.533 Y15.732 Z14.881
N6230 X332.653 Y17.66 Z15.161
N6235 X321.372 Y20.639 Z15.58
N6240 X309.146 Y23.58 Z15.989
N6245 X298.882 Y25.829 Z16.302
N6250 X287.609 Y28.069 Z16.614
N6255 X277.327 Y29.916 Z16.868
N6260 X267.599 Y31.488 Z17.084
N6265 X255.902 Y33.164 Z17.317
N6270 X243.802 Y34.678 Z17.523
N6275 X225.132 Y36.664 Z17.807
N6280 X210.075 Y38.04 Z18.005
N6285 X191.573 Y39.483 Z18.212
N6290 X175.478 Y40.52 Z18.358
N6295 X161.099 Y41.286 Z18.464
N6300 X144.953 Y41.976 Z18.558
N6305 X126.922 Y42.55 Z18.633
N6310 X106.984 Y42.978 Z18.682
N6315 X88.487 Y43.206 Z18.706
N6320 X64.04 Y43.312 Z18.703
N6325 X41.234 Y43.241 Z18.677
N6330 X9.873 Y42.958 Z18.605
N6335 X-2.259 Y42.883 Z18.58
N6340 X-37.78 Y43.461 Z18.65
N6345 X-66.984 Y43.704 Z18.671
N6350 X-90.815 Y43.727 Z18.655
N6355 X-111.789 Y43.547 Z18.616
N6360 X-129.786 Y43.222 Z18.556
N6365 X-145.291 Y42.814 Z18.48
N6370 X-162.75 Y42.147 Z18.368
N6375 X-177.594 Y41.408 Z18.25
N6380 X-192.88 Y40.489 Z18.101
N6385 X-206.89 Y39.469 Z17.941
N6390 X-216.315 Y38.686 Z17.828
N6395 X-231.026 Y37.346 Z17.62
N6400 X-244.87 Y35.899 Z17.395
N6405 X-256.549 Y34.473 Z17.193
N6410 X-266.948 Y33.029 Z16.985
N6415 X-275.809 Y31.645 Z16.79
N6420 X-286.385 Y29.819 Z16.534
N6425 X-297.104 Y27.749 Z16.242
N6430 X-308.052 Y25.418 Z15.916
N6435 X-317.666 Y23.165 Z15.602
N6440 X-324.032 Y21.593 Z15.377
N6445 X-336.763 Y18.17 Z14.895
N6450 X-346.211 Y15.437 Z14.503
N6455 X-361.86 Y10.646 Z13.784
N6460 X-376.148 Y6.066 Z13.073
N6465 X-388.22 Y2.055 Z12.445
N6470 X-401.036 Y-2.324 Z11.754
N6475 X-403.958 Y-3.376 Z11.597
N6480 X-406.535 Y-4.431 Z11.465
N6485 X-409.194 Y-5.665 Z11.337
N6490 X-412.336 Y-7.327 Z11.191
N6495 X-415.428 Y-9.199 Z11.062
N6500 X-417.798 Y-10.809 Z10.954
N6505 X-420.718 Y-13.025 Z10.824
N6510 X-424.335 Y-16.081 Z10.649
N6515 X-425.709 Y-17.132 Z10.573
N6520 X-428.017 Y-18.715 Z10.441
N6525 X-429.883 Y-20.214 Z10.331
N6530 X-432.227 Y-22.374 Z10.168
N6535 X-433.165 Y-23.499 Z10.095
N6540 X-433.822 Y-24.563 Z10.039
N6545 X-434.382 Y-25.839 Z9.984
N6550 X-434.761 Y-27.243 Z9.936
N6555 X-434.922 Y-28.661 Z9.875
N6560 X-434.894 Y-30.257 Z9.793
N6565 X-434.631 Y-31.845 Z9.723
N6570 X-434.174 Y-33.715 Z9.629
N6575 X-434.017 Y-34.852 Z9.543
N6580 X-433.959 Y-36.123 Z9.442
N6585 X-434.062 Y-38.147 Z9.273
N6590 X-434.37 Y-43.142 Z8.722
N6595 X-434.396 Y-44.611 Z8.528
N6600 X-434.279 Y-45.733 Z8.383
N6605 X-433.933 Y-47.141 Z8.206
N6610 X-433.565 Y-48.086 Z8.072
N6615 X-433.036 Y-49.09 Z7.928
N6620 X-432.21 Y-50.243 Z7.768
N6625 X-431.274 Y-51.212 Z7.636
N6630 X-430.368 Y-51.929 Z7.527
N6635 X-429.231 Y-52.607 Z7.428
N6640 X-428.051 Y-53.105 Z7.36
N6645 X-426.943 Y-53.412 Z7.325
N6650 X-425.308 Y-53.612 Z7.315
N6655 X-423.69 Y-53.778 Z7.305
N6660 X-419.684 Y-54.497 Z7.221
N6665 X-417.144 Y-55.107 Z7.138
N6670 X-412.789 Y-56.324 Z6.94
N6675 X-409.902 Y-57.018 Z6.826
N6680 X-407.348 Y-57.524 Z6.747
N6685 X-403.905 Y-58.05 Z6.662
N6690 X-400.44 Y-58.402 Z6.61
N6695 X-396.09 Y-58.597 Z6.602
N6700 X-392.607 Y-58.555 Z6.64
N6705 X-389.131 Y-58.338 Z6.717
N6710 X-355.85 Y-55.236 Z7.674
N6715 X-328.25 Y-52.857 Z8.395
N6720 X-308.669 Y-51.363 Z8.841
N6725 X-288.837 Y-50.071 Z9.225
N6730 X-267.845 Y-48.966 Z9.555
N6735 X-249.91 Y-48.22 Z9.779
N6740 X-228.475 Y-47.54 Z9.986
N6745 X-200.958 Y-46.879 Z10.191
N6750 X-171.512 Y-46.388 Z10.346
N6755 X-138.663 Y-46.067 Z10.45
N6760 X-100.461 Y-45.95 Z10.494
N6765 X-55.474 Y-46.052 Z10.473
N6770 X2.863 Y-46.348 Z10.391
N6775 X73.591 Y-46.404 Z10.394
N6780 X117.344 Y-46.646 Z10.33
N6785 X154.36 Y-47.069 Z10.209
N6790 X186.498 Y-47.665 Z10.036
N6795 X215.578 Y-48.401 Z9.818
N6800 X242.816 Y-49.275 Z9.558
N6805 X262.461 Y-50.103 Z9.314
N6810 X282.731 Y-51.168 Z9.001
N6815 X299.758 Y-52.234 Z8.686
N6820 X317.73 Y-53.525 Z8.303
N6825 X340.559 Y-55.403 Z7.74
N6830 X372.545 Y-58.238 Z6.864
N6835 X390.069 Y-59.859 Z6.357
N6840 X393.547 Y-60.049 Z6.288
N6845 X397.901 Y-60.047 Z6.258
N6850 X402.246 Y-59.778 Z6.283
N6855 X405.705 Y-59.372 Z6.347
N6860 X408.713 Y-58.878 Z6.434
N6865 X411.467 Y-58.308 Z6.54
N6870 X414.101 Y-57.656 Z6.649
N6875 X417.326 Y-56.811 Z6.79
N6880 X419.779 Y-56.295 Z6.871
N6885 X423.571 Y-55.692 Z6.941
N6890 X426.313 Y-55.47 Z6.946
N6895 X427.593 Y-55.215 Z6.977
N6900 X428.982 Y-54.762 Z7.045
N6905 X430.406 Y-54.083 Z7.152
N6910 X431.668 Y-53.26 Z7.274
N6915 X432.911 Y-52.186 Z7.439
N6920 X433.698 Y-51.321 Z7.571
N6925 X434.616 Y-50.035 Z7.75
N6930 X435.227 Y-48.908 Z7.912
N6935 X435.803 Y-47.444 Z8.119
N6940 X436.18 Y-45.903 Z8.312
N6945 X436.334 Y-44.541 Z8.488
N6950 X436.337 Y-43.304 Z8.648
N6955 X436.229 Y-41.157 Z8.883
N6960 X436.053 Y-38.537 Z9.167
N6965 X436.09 Y-36.374 Z9.341
N6970 X436.264 Y-34.703 Z9.47
N6975 X436.516 Y-33.266 Z9.561
N6980 X436.87 Y-31.487 Z9.637
N6985 X437.015 Y-29.902 Z9.712
N6990 X436.961 Y-27.338 Z9.808
N6995 X436.821 Y-26.041 Z9.839
N7000 X436.484 Y-24.78 Z9.881
N7005 X436.016 Y-23.698 Z9.927
N7010 X435.302 Y-22.555 Z9.988
N7015 X434.332 Y-21.456 Z10.054
N7020 X433.271 Y-20.555 Z10.117
N7025 X430.534 Y-18.149 Z10.267
N7030 X428.997 Y-16.971 Z10.354
N7035 X426.361 Y-15.208 Z10.493
N7040 X424.836 Y-14.051 Z10.564
N7045 X421.617 Y-11.407 Z10.699
N7050 X419.178 Y-9.58 Z10.785
N7055 X416.66 Y-7.865 Z10.884
N7060 X413.913 Y-6.176 Z10.994
N7065 X410.494 Y-4.316 Z11.131
N7070 X406.901 Y-2.624 Z11.294
N7075 X403.29 Y-1.174 Z11.474
N7080 X392.105 Y2.824 Z12.071
N7085 X378.236 Y7.639 Z12.78
N7090 X364.198 Y12.338 Z13.46
N7095 X351.196 Y16.532 Z14.055
N7100 X341.009 Y19.664 Z14.479
N7105 X333.687 Y21.803 Z14.775
N7110 X322.704 Y24.83 Z15.165
N7115 X310.419 Y27.912 Z15.558
N7120 X300.099 Y30.269 Z15.861
N7125 X291.663 Y32.042 Z16.085
N7130 X281.57 Y33.988 Z16.33
N7135 X272.269 Y35.62 Z16.536
N7140 X261.418 Y37.314 Z16.748
N7145 X250.349 Y38.843 Z16.943
N7150 X239.156 Y40.192 Z17.114
N7155 X224.66 Y41.764 Z17.318
N7160 X210.598 Y43.099 Z17.494
N7165 X192.011 Y44.607 Z17.691
N7170 X176.721 Y45.638 Z17.825
N7175 X162.277 Y46.447 Z17.928
N7180 X146.07 Y47.175 Z18.02
N7185 X128.853 Y47.757 Z18.092
N7190 X109.733 Y48.204 Z18.138
N7195 X90.818 Y48.462 Z18.162
N7200 X68.666 Y48.589 Z18.164
N7205 X44.739 Y48.531 Z18.137
N7210 X16.966 Y48.292 Z18.083
N7215 X0.849 Y48.125 Z18.048
N7220 X-13.912 Y48.334 Z18.067
N7225 X-42.381 Y48.767 Z18.103
N7230 X-67.831 Y48.982 Z18.115
N7235 X-90.016 Y49. Z18.098
N7240 X-111.009 Y48.822 Z18.058
N7245 X-130.647 Y48.457 Z17.992
N7250 X-147.16 Y47.972 Z17.911
N7255 X-158.635 Y47.528 Z17.843
N7260 X-174.489 Y46.758 Z17.723
N7265 X-189.842 Y45.827 Z17.582
N7270 X-201.296 Y45.002 Z17.463
N7275 X-213.433 Y44.024 Z17.319
N7280 X-230.714 Y42.399 Z17.087
N7285 X-245.618 Y40.774 Z16.853
N7290 X-257.245 Y39.295 Z16.656
N7295 X-267.879 Y37.753 Z16.449
N7300 X-276.799 Y36.301 Z16.259
N7305 X-286.105 Y34.641 Z16.041
N7310 X-295.715 Y32.736 Z15.791
N7315 X-306.161 Y30.478 Z15.494
N7320 X-314.647 Y28.469 Z15.236
N7325 X-324.439 Y25.986 Z14.905
N7330 X-332.894 Y23.628 Z14.613
N7335 X-338.247 Y22.122 Z14.398
N7340 X-347.711 Y19.263 Z14.02
N7345 X-362.059 Y14.68 Z13.385
N7350 X-372.511 Y11.211 Z12.881
N7355 X-384.919 Y6.975 Z12.264
N7360 X-400.57 Y1.419 Z11.453
N7365 X-405.171 Y-0.287 Z11.214
N7370 X-408.245 Y-1.57 Z11.071
N7375 X-410.811 Y-2.759 Z10.958
N7380 X-413.913 Y-4.346 Z10.83
N7385 X-416.126 Y-5.604 Z10.747
N7390 X-418.12 Y-6.879 Z10.679
N7395 X-421.319 Y-9.123 Z10.584
N7400 X-423.88 Y-11.093 Z10.498
N7405 X-426.362 Y-13.04 Z10.412
N7410 X-428.234 Y-14.32 Z10.322
N7415 X-430.396 Y-15.736 Z10.212
N7420 X-431.986 Y-16.982 Z10.139
N7425 X-434.052 Y-18.704 Z10.04
N7430 X-435.97 Y-20.122 Z9.927
N7435 X-436.652 Y-20.662 Z9.887
N7440 X-437.403 Y-21.457 Z9.845
N7445 X-438.102 Y-22.519 Z9.81
N7450 X-438.6 Y-23.724 Z9.776
N7455 X-438.858 Y-24.994 Z9.739
N7460 X-439.008 Y-28.672 Z9.664
N7465 X-438.982 Y-30.2 Z9.605
N7470 X-438.796 Y-31.701 Z9.536
N7475 X-438.365 Y-33.801 Z9.447
N7480 X-438.229 Y-34.983 Z9.372
N7485 X-438.205 Y-36.64 Z9.238
N7490 X-438.415 Y-40.352 Z8.901
N7495 X-438.555 Y-43.216 Z8.589
N7500 X-438.548 Y-44.535 Z8.433
N7505 X-438.421 Y-45.907 Z8.255
N7510 X-438.203 Y-47.07 Z8.108
N7515 X-437.879 Y-48.23 Z7.962
N7520 X-437.428 Y-49.42 Z7.787
N7525 X-436.822 Y-50.648 Z7.611
N7530 X-436.197 Y-51.665 Z7.467
N7535 X-435.492 Y-52.615 Z7.321
N7540 X-434.673 Y-53.538 Z7.174
N7545 X-433.667 Y-54.476 Z7.029
N7550 X-432.761 Y-55.177 Z6.913
N7555 X-431.725 Y-55.843 Z6.8
N7560 X-430.547 Y-56.455 Z6.7
N7565 X-429.251 Y-56.973 Z6.619
N7570 X-427.843 Y-57.371 Z6.557
N7575 X-426.16 Y-57.644 Z6.519
N7580 X-423.636 Y-57.856 Z6.503
N7585 X-419.944 Y-58.405 Z6.429
N7590 X-417.381 Y-58.908 Z6.352
N7595 X-412.73 Y-60.004 Z6.144
N7600 X-409.698 Y-60.621 Z6.029
N7605 X-406.26 Y-61.176 Z5.929
N7610 X-402.8 Y-61.581 Z5.851
N7615 X-398.456 Y-61.878 Z5.806
N7620 X-394.103 Y-61.939 Z5.819
N7625 X-390.622 Y-61.818 Z5.871
N7630 X-380.039 Y-61. Z6.138
N7635 X-351.809 Y-58.77 Z6.852
N7640 X-323.89 Y-56.746 Z7.489
N7645 X-300.478 Y-55.3 Z7.94
N7650 X-282.142 Y-54.357 Z8.234
N7655 X-262.157 Y-53.524 Z8.494
N7660 X-239.335 Y-52.799 Z8.722
N7665 X-207.743 Y-52.109 Z8.946
N7670 X-176.161 Y-51.628 Z9.103
N7675 X-141.157 Y-51.327 Z9.205
N7680 X-103.516 Y-51.226 Z9.245
N7685 X-52.861 Y-51.34 Z9.219
N7690 X11.342 Y-51.632 Z9.144
N7695 X73.117 Y-51.683 Z9.135
N7700 X119.085 Y-51.919 Z9.069
N7705 X155.231 Y-52.291 Z8.958
N7710 X192.344 Y-52.906 Z8.77
N7715 X223.393 Y-53.627 Z8.547
N7720 X249.646 Y-54.413 Z8.304
N7725 X271.324 Y-55.271 Z8.04
N7730 X293.281 Y-56.349 Z7.707
N7735 X313.286 Y-57.537 Z7.34
N7740 X334.513 Y-58.976 Z6.89
N7745 X367.493 Y-61.433 Z6.102
N7750 X390.16 Y-63.215 Z5.523
N7755 X393.639 Y-63.376 Z5.464
N7760 X397.993 Y-63.372 Z5.441
N7765 X402.34 Y-63.14 Z5.47
N7770 X405.806 Y-62.79 Z5.534
N7775 X409.254 Y-62.295 Z5.633
N7780 X412.37 Y-61.72 Z5.755
N7785 X416.52 Y-60.803 Z5.93
N7790 X418.914 Y-60.342 Z6.014
N7795 X422.028 Y-59.887 Z6.09
N7800 X423.949 Y-59.653 Z6.125
N7805 X428.1 Y-59.461 Z6.118
N7810 X429.818 Y-59.185 Z6.156
N7815 X431.466 Y-58.701 Z6.239
N7820 X433.024 Y-58.023 Z6.362
N7825 X434.228 Y-57.328 Z6.481
N7830 X435.641 Y-56.28 Z6.662
N7835 X436.623 Y-55.361 Z6.824
N7840 X437.512 Y-54.348 Z6.986
N7845 X438.533 Y-52.875 Z7.225
N7850 X439.165 Y-51.692 Z7.401
N7855 X439.782 Y-50.156 Z7.625
N7860 X440.123 Y-48.949 Z7.803
N7865 X440.35 Y-47.732 Z7.965
N7870 X440.476 Y-46.239 Z8.158
N7875 X440.468 Y-43.869 Z8.458
N7880 X440.424 Y-41.543 Z8.709
N7885 X440.255 Y-38.818 Z8.983
N7890 X440.252 Y-36.647 Z9.159
N7895 X440.439 Y-34.559 Z9.31
N7900 X440.849 Y-31.98 Z9.424
N7905 X440.987 Y-29.935 Z9.519
N7910 X440.937 Y-28.313 Z9.56
N7915 X440.615 Y-23.968 Z9.65
N7920 X440.4 Y-22.681 Z9.655
N7925 X439.954 Y-21.455 Z9.67
N7930 X439.292 Y-20.332 Z9.698
N7935 X438.435 Y-19.347 Z9.73
N7940 X437.557 Y-18.632 Z9.772
N7945 X435.555 Y-17.279 Z9.878
N7950 X433.272 Y-15.498 Z9.985
N7955 X431.582 Y-14.173 Z10.046
N7960 X429.701 Y-12.922 Z10.126
N7965 X427.616 Y-11.561 Z10.217
N7970 X425.333 Y-9.846 Z10.285
N7975 X422.054 Y-7.389 Z10.367
N7980 X419.169 Y-5.437 Z10.436
N7985 X416.2 Y-3.615 Z10.52
N7990 X413.152 Y-1.929 Z10.621
N7995 X410.198 Y-0.459 Z10.738
N8000 X407.25 Y0.857 Z10.872
N8005 X403.694 Y2.255 Z11.045
N8010 X392.414 Y6.457 Z11.624
N8015 X383.233 Y9.805 Z12.066
N8020 X366.295 Y15.747 Z12.861
N8025 X352.701 Y20.321 Z13.462
N8030 X342.485 Y23.595 Z13.865
N8035 X335.089 Y25.85 Z14.142
N8040 X326.018 Y28.48 Z14.445
N8045 X319.802 Y30.138 Z14.656
N8050 X313.334 Y31.831 Z14.848
N8055 X305.321 Y33.782 Z15.075
N8060 X295.939 Y35.899 Z15.323
N8065 X286.475 Y37.869 Z15.552
N8070 X276.636 Y39.721 Z15.766
N8075 X265.715 Y41.573 Z15.978
N8080 X254.17 Y43.281 Z16.179
N8085 X243.052 Y44.75 Z16.342
N8090 X226.305 Y46.657 Z16.572
N8095 X211.12 Y48.158 Z16.754
N8100 X192.45 Y49.73 Z16.942
N8105 X177.094 Y50.805 Z17.069
N8110 X163.454 Y51.606 Z17.161
N8115 X147.186 Y52.373 Z17.249
N8120 X129.912 Y52.989 Z17.317
N8125 X109.146 Y53.504 Z17.362
N8130 X87.493 Y53.788 Z17.385
N8135 X61.55 Y53.882 Z17.374
N8140 X35.013 Y53.748 Z17.337
N8145 X2.557 Y53.372 Z17.251
N8150 X-9.524 Y53.512 Z17.264
N8155 X-37.947 Y53.989 Z17.308
N8160 X-66.065 Y54.254 Z17.318
N8165 X-87.837 Y54.272 Z17.303
N8170 X-107.464 Y54.137 Z17.261
N8175 X-126.699 Y53.8 Z17.204
N8180 X-145.56 Y53.273 Z17.113
N8185 X-162.495 Y52.565 Z17.01
N8190 X-176.6 Y51.813 Z16.904
N8195 X-191.149 Y50.882 Z16.771
N8200 X-202.649 Y50.009 Z16.653
N8205 X-214.887 Y48.971 Z16.517
N8210 X-229.957 Y47.511 Z16.316
N8215 X-245.502 Y45.763 Z16.084
N8220 X-256.58 Y44.315 Z15.91
N8225 X-267.387 Y42.715 Z15.711
N8230 X-276.933 Y41.115 Z15.522
N8235 X-287.18 Y39.215 Z15.293
N8240 X-296.883 Y37.211 Z15.054
N8245 X-306.515 Y35.051 Z14.793
N8250 X-315.987 Y32.727 Z14.515
N8255 X-325.591 Y30.195 Z14.201
N8260 X-332.802 Y28.111 Z13.97
N8265 X-339.122 Y26.264 Z13.726
N8270 X-349.212 Y23.089 Z13.34
N8275 X-359.395 Y19.709 Z12.914
N8280 X-370.719 Y15.863 Z12.392
N8285 X-386.402 Y10.28 Z11.65
N8290 X-400.491 Y5.081 Z10.946
N8295 X-406.562 Y2.739 Z10.647
N8300 X-409.719 Y1.392 Z10.505
N8305 X-412.53 Y0.079 Z10.393
N8310 X-415.284 Y-1.316 Z10.3
N8315 X-417.57 Y-2.58 Z10.235
N8320 X-420.446 Y-4.363 Z10.173
N8325 X-424.335 Y-7.025 Z10.096
N8330 X-427.49 Y-9.357 Z10.038
N8335 X-428.927 Y-10.342 Z9.991
N8340 X-431.271 Y-11.798 Z9.901
N8345 X-432.715 Y-12.772 Z9.852
N8350 X-434.702 Y-14.293 Z9.787
N8355 X-436.753 Y-15.767 Z9.699
N8360 X-439.412 Y-17.476 Z9.574
N8365 X-440.333 Y-18.247 Z9.541
N8370 X-441.197 Y-19.226 Z9.513
N8375 X-441.898 Y-20.326 Z9.496
N8380 X-442.419 Y-21.523
N8385 X-442.747 Y-22.786 Z9.491
N8390 X-442.887 Y-24.378 Z9.5
N8395 X-443.053 Y-29.099 Z9.419
N8400 X-442.981 Y-30.839 Z9.377
N8405 X-442.801 Y-32.178 Z9.318
N8410 X-442.476 Y-34.156 Z9.231
N8415 X-442.375 Y-35.923 Z9.133
N8420 X-442.48 Y-38.584 Z8.912
N8425 X-442.649 Y-42.12 Z8.574
N8430 X-442.667 Y-44.239 Z8.346
N8435 X-442.637 Y-47.572 Z7.925
N8440 X-442.539 Y-48.94 Z7.747
N8445 X-442.345 Y-50.13 Z7.573
N8450 X-441.99 Y-51.504 Z7.369
N8455 X-441.552 Y-52.716 Z7.192
N8460 X-441.039 Y-53.822 Z7.015
N8465 X-440.42 Y-54.905 Z6.838
N8470 X-439.674 Y-55.975 Z6.662
N8475 X-438.858 Y-56.948 Z6.489
N8480 X-437.868 Y-57.928 Z6.315
N8485 X-436.909 Y-58.717 Z6.172
N8490 X-435.795 Y-59.477 Z6.026
N8495 X-434.689 Y-60.092 Z5.911
N8500 X-433.451 Y-60.64 Z5.811
N8505 X-432.143 Y-61.076 Z5.728
N8510 X-430.635 Y-61.413 Z5.666
N8515 X-428.843 Y-61.599 Z5.64
N8520 X-424.487 Y-61.794 Z5.635
N8525 X-420.933 Y-62.202 Z5.574
N8530 X-418.371 Y-62.584 Z5.501
N8535 X-415.485 Y-63.126 Z5.387
N8540 X-411.814 Y-63.835 Z5.237
N8545 X-408.532 Y-64.355 Z5.13
N8550 X-405.13 Y-64.772 Z5.035
N8555 X-400.79 Y-65.127 Z4.961
N8560 X-395.568 Y-65.292 Z4.942
N8565 X-391.215 Y-65.212 Z4.984
N8570 X-381.857 Y-64.627 Z5.183
N8575 X-348.921 Y-62.481 Z5.901
N8580 X-319.94 Y-60.776 Z6.462
N8585 X-298.738 Y-59.723 Z6.806
N8590 X-278.368 Y-58.885 Z7.08
N8595 X-255.375 Y-58.141 Z7.324
N8600 X-228.474 Y-57.532 Z7.527
N8605 X-194.548 Y-57.007 Z7.705
N8610 X-158.664 Y-56.659 Z7.826
N8615 X-117.675 Y-56.507 Z7.883
N8620 X-65.54 Y-56.574 Z7.871
N8625 X19.17 Y-56.887 Z7.783
N8630 X84.844 Y-56.998 Z7.757
N8635 X131.819 Y-57.27 Z7.675
N8640 X170.694 Y-57.693 Z7.541
N8645 X208.794 Y-58.323 Z7.339
N8650 X240.317 Y-59.032 Z7.109
N8655 X265.638 Y-59.794 Z6.863
N8660 X288.433 Y-60.683 Z6.576
N8665 X311.277 Y-61.771 Z6.223
N8670 X335.384 Y-63.12 Z5.781
N8675 X375.158 Y-65.59 Z4.949
N8680 X391.112 Y-66.612 Z4.6
N8685 X395.464 Y-66.721 Z4.554
N8690 X400.687 Y-66.602 Z4.567
N8695 X405.031 Y-66.296 Z4.628
N8700 X408.493 Y-65.915 Z4.712
N8705 X412.273 Y-65.36 Z4.842
N8710 X416.418 Y-64.613 Z5.014
N8715 X418.951 Y-64.214 Z5.095
N8720 X423.142 Y-63.724 Z5.187
N8725 X425.004 Y-63.593 Z5.206
N8730 X431.77 Y-63.337 Z5.218
N8735 X433.489 Y-63.064 Z5.264
N8740 X434.975 Y-62.647 Z5.345
N8745 X436.618 Y-61.969 Z5.483
N8750 X437.888 Y-61.266 Z5.629
N8755 X439.314 Y-60.25 Z5.824
N8760 X440.642 Y-59.024 Z6.063
N8765 X441.561 Y-57.959 Z6.255
N8770 X442.268 Y-56.966 Z6.434
N8775 X442.867 Y-55.952 Z6.612
N8780 X443.466 Y-54.689 Z6.821
N8785 X443.916 Y-53.441 Z7.029
N8790 X444.229 Y-52.238 Z7.208
N8795 X444.452 Y-50.874 Z7.413
N8800 X444.536 Y-49.704 Z7.592
N8805 X444.583 Y-44.798 Z8.223
N8810 X444.587 Y-41.731 Z8.553
N8815 X444.454 Y-39.011 Z8.799
N8820 X444.436 Y-37.207 Z8.946
N8825 X444.509 Y-35.602 Z9.056
N8830 X444.753 Y-33.369 Z9.16
N8835 X445.005 Y-31.386 Z9.247
N8840 X445.092 Y-29.664 Z9.284
N8845 X444.997 Y-26.02 Z9.354
N8850 X444.854 Y-22.165 Z9.322
N8855 X444.649 Y-20.986 Z9.296
N8860 X444.234 Y-19.749 Z9.28
N8865 X443.628 Y-18.594 Z9.265
N8870 X442.654 Y-17.337 Z9.277
N8875 X441.567 Y-16.372 Z9.306
N8880 X440.313 Y-15.573 Z9.361
N8885 X437.987 Y-14.125 Z9.458
N8890 X435.865 Y-12.647 Z9.533
N8895 X433.428 Y-10.844 Z9.588
N8900 X431.444 Y-9.577 Z9.649
N8905 X429.231 Y-8.188 Z9.715
N8910 X426.396 Y-6.175 Z9.76
N8915 X422.679 Y-3.622 Z9.798
N8920 X418.794 Y-1.213 Z9.868
N8925 X415.177 Y0.794 Z9.946
N8930 X412.063 Y2.354 Z10.039
N8935 X408.756 Y3.849 Z10.169
N8940 X405.388 Y5.213 Z10.326
N8945 X394.604 Y9.404 Z10.845
N8950 X384.971 Y13.073 Z11.286
N8955 X370.882 Y18.247 Z11.916
N8960 X361.56 Y21.53 Z12.331
N8965 X353.83 Y24.236 Z12.638
N8970 X343.961 Y27.526 Z13.009
N8975 X336.463 Y29.903 Z13.267
N8980 X327.713 Y32.542 Z13.544
N8985 X321.613 Y34.241 Z13.746
N8990 X315.481 Y35.926 Z13.913
N8995 X306.541 Y38.185 Z14.156
N9000 X297.112 Y40.394 Z14.386
N9005 X287.526 Y42.467 Z14.597
N9010 X277.631 Y44.398 Z14.797
N9015 X267.387 Y46.21 Z14.976
N9020 X257.131 Y47.816 Z15.143
N9025 X246.055 Y49.364 Z15.297
N9030 X226.891 Y51.653 Z15.536
N9035 X211.64 Y53.217 Z15.702
N9040 X193.757 Y54.788 Z15.866
N9045 X178.336 Y55.917 Z15.983
N9050 X163.763 Y56.81 Z16.071
N9055 X149.515 Y57.516 Z16.14
N9060 X134.278 Y58.108 Z16.196
N9065 X116.248 Y58.618 Z16.24
N9070 X96.062 Y58.972 Z16.261
N9075 X75.351 Y59.13 Z16.26
N9080 X53.688 Y59.135 Z16.24
N9085 X28.863 Y58.953 Z16.19
N9090 X2.523 Y58.624 Z16.128
N9095 X-8.619 Y58.751 Z16.136
N9100 X-39.608 Y59.279 Z16.157
N9105 X-65.589 Y59.525 Z16.159
N9110 X-87.849 Y59.55 Z16.141
N9115 X-106.479 Y59.413 Z16.101
N9120 X-125.095 Y59.088 Z16.047
N9125 X-143.171 Y58.578 Z15.97
N9130 X-158.222 Y57.984 Z15.882
N9135 X-174.365 Y57.131 Z15.771
N9140 X-188.981 Y56.184 Z15.647
N9145 X-200.53 Y55.306 Z15.539
N9150 X-214.507 Y54.092 Z15.389
N9155 X-230.599 Y52.473 Z15.189
N9160 X-246.251 Y50.642 Z14.968
N9165 X-256.924 Y49.189 Z14.809
N9170 X-266.326 Y47.755 Z14.651
N9175 X-275.252 Y46.262 Z14.481
N9180 X-285.199 Y44.393 Z14.283
N9185 X-295.892 Y42.171 Z14.036
N9190 X-304.749 Y40.143 Z13.819
N9195 X-313.387 Y38.017 Z13.591
N9200 X-323.411 Y35.329 Z13.302
N9205 X-328.86 Y33.793 Z13.128
N9210 X-336.009 Y31.622 Z12.91
N9215 X-340.595 Y30.228 Z12.741
N9220 X-350.712 Y26.916 Z12.381
N9225 X-360.972 Y23.37 Z11.985
N9230 X-372.222 Y19.392 Z11.488
N9235 X-384.816 Y14.723 Z10.935
N9240 X-391.176 Y12.319 Z10.65
N9245 X-402.163 Y8.092 Z10.118
N9250 X-408.078 Y5.714 Z9.85
N9255 X-411.532 Y4.201 Z9.71
N9260 X-414.679 Y2.707 Z9.611
N9265 X-418.2 Y0.894 Z9.517
N9270 X-421.31 Y-0.903 Z9.463
N9275 X-426.021 Y-3.916 Z9.43
N9280 X-429.884 Y-6.558 Z9.395
N9285 X-432.443 Y-8.119 Z9.333
N9290 X-434.47 Y-9.393 Z9.281
N9295 X-437.191 Y-11.378 Z9.236
N9300 X-439.156 Y-13.098 Z9.228
N9305 X-440.938 Y-15.008 Z9.248
N9310 X-442.518 Y-17.087 Z9.272
N9315 X-443.881 Y-19.314 Z9.286
N9320 X-445.013 Y-21.667 Z9.291
N9325 X-445.633 Y-23.295 Z9.289
N9330 X-446.356 Y-25.804 Z9.266
N9335 X-446.695 Y-27.512 Z9.225
N9340 X-446.92 Y-29.239 Z9.18
N9345 X-447.036 Y-31.412 Z9.132
N9350 X-446.988 Y-33.307 Z9.053
N9355 X-446.751 Y-37.383 Z8.838
N9360 X-446.715 Y-39.714 Z8.651
N9365 X-446.776 Y-41.966 Z8.456
N9370 X-446.782 Y-44.119 Z8.224
N9375 X-446.714 Y-47.79 Z7.788
N9380 X-446.653 Y-51.118 Z7.328
N9385 X-446.565 Y-52.479 Z7.12
N9390 X-446.348 Y-53.836 Z6.915
N9395 X-446.034 Y-55.071 Z6.709
N9400 X-445.599 Y-56.31 Z6.502
N9405 X-445.071 Y-57.474 Z6.296
N9410 X-444.43 Y-58.61 Z6.088
N9415 X-443.672 Y-59.708 Z5.884
N9420 X-442.815 Y-60.735 Z5.68
N9425 X-441.918 Y-61.634 Z5.503
N9430 X-440.925 Y-62.469 Z5.329
N9435 X-439.733 Y-63.293 Z5.153
N9440 X-438.486 Y-63.985 Z5.008
N9445 X-437.384 Y-64.473 Z4.9
N9450 X-436.309 Y-64.85 Z4.815
N9455 X-435.385 Y-65.101 Z4.76
N9460 X-434.08 Y-65.348 Z4.709
N9465 X-431.743 Y-65.519 Z4.684
N9470 X-424.365 Y-65.837 Z4.653
N9475 X-420.272 Y-66.233 Z4.568
N9480 X-416.873 Y-66.681 Z4.466
N9485 X-411.62 Y-67.493 Z4.274
N9490 X-407.475 Y-67.998 Z4.142
N9495 X-403.136 Y-68.369 Z4.05
N9500 X-397.917 Y-68.605 Z3.999
N9505 X-392.692 Y-68.612 Z4.014
N9510 X-386.281 Y-68.339 Z4.115
N9515 X-345.837 Y-66.259 Z4.843
N9520 X-313.816 Y-64.81 Z5.342
N9525 X-287.965 Y-63.866 Z5.666
N9530 X-261.286 Y-63.132 Z5.919
N9535 X-233.352 Y-62.603 Z6.104
N9540 X-195.314 Y-62.136 Z6.27
N9545 X-153.697 Y-61.852 Z6.374
N9550 X-107.871 Y-61.776 Z6.408
N9555 X-38.865 Y-61.945 Z6.359
N9560 X35.879 Y-62.178 Z6.292
N9565 X90.329 Y-62.296 Z6.259
N9570 X140.181 Y-62.575 Z6.169
N9575 X182.301 Y-63.004 Z6.026
N9580 X224.264 Y-63.644 Z5.81
N9585 X255.977 Y-64.311 Z5.583
N9590 X283.604 Y-65.111 Z5.312
N9595 X308.306 Y-66.01 Z5.003
N9600 X340.823 Y-67.46 Z4.497
N9605 X390.305 Y-69.917 Z3.625
N9610 X395.528 Y-70.038 Z3.576
N9615 X400.752 Y-69.945 Z3.594
N9620 X405.968 Y-69.638 Z3.672
N9625 X410.302 Y-69.22 Z3.778
N9630 X414.094 Y-68.731 Z3.906
N9635 X417.849 Y-68.219 Z4.041
N9640 X421.314 Y-67.862 Z4.127
N9645 X424.816 Y-67.605 Z4.177
N9650 X435.511 Y-67.223 Z4.222
N9655 X437.197 Y-67.007 Z4.271
N9660 X438.828 Y-66.592 Z4.367
N9665 X440.405 Y-65.981 Z4.506
N9670 X441.971 Y-65.138 Z4.702
N9675 X443.1 Y-64.353 Z4.879
N9680 X444.444 Y-63.172 Z5.134
N9685 X445.321 Y-62.21 Z5.341
N9690 X446.112 Y-61.159 Z5.551
N9695 X446.83 Y-59.983 Z5.788
N9700 X447.379 Y-58.859 Z5.997
N9705 X447.865 Y-57.569 Z6.236
N9710 X448.189 Y-56.382 Z6.443
N9715 X448.409 Y-55.157 Z6.652
N9720 X448.51 Y-54.095 Z6.829
N9725 X448.595 Y-50.269 Z7.411
N9730 X448.693 Y-45.337 Z8.031
N9735 X448.744 Y-41.934 Z8.389
N9740 X448.622 Y-38.186 Z8.698
N9745 X448.644 Y-36.429 Z8.809
N9750 X448.805 Y-34.024 Z8.926
N9755 X449.054 Y-31.561 Z9.009
N9760 X449.126 Y-29.44 Z9.042
N9765 X449.019 Y-25.849 Z9.076
N9770 X448.867 Y-21.407 Z8.959
N9775 X448.776 Y-19.634 Z8.856
N9780 X448.572 Y-18.565 Z8.781
N9785 X448.242 Y-17.576 Z8.724
N9790 X447.742 Y-16.557 Z8.657
N9795 X446.92 Y-15.394 Z8.611
N9800 X445.998 Y-14.471 Z8.598
N9805 X445.226 Y-13.891 Z8.607
N9810 X443.619 Y-12.877 Z8.659
N9815 X440.065 Y-10.75 Z8.789
N9820 X437.881 Y-9.316 Z8.835
N9825 X434.55 Y-7.049 Z8.863
N9830 X431.665 Y-5.332 Z8.929
N9835 X427.945 Y-2.894 Z8.946
N9840 X422.698 Y0.419 Z8.947
N9845 X418.054 Y3.043 Z9.007
N9850 X414.273 Y4.972 Z9.085
N9855 X410.72 Y6.625 Z9.196
N9860 X407.415 Y8.029 Z9.338
N9865 X396.534 Y12.432 Z9.813
N9870 X386.757 Y16.314 Z10.224
N9875 X374.132 Y21.136 Z10.752
N9880 X369.384 Y22.911 Z10.936
N9885 X356.81 Y27.499 Z11.423
N9890 X352.667 Y28.954 Z11.579
N9895 X344.61 Y31.731 Z11.849
N9900 X337.878 Y33.944 Z12.048
N9905 X330.71 Y36.189 Z12.265
N9910 X324.524 Y38.024 Z12.434
N9915 X316.782 Y40.226 Z12.635
N9920 X307.762 Y42.588 Z12.858
N9925 X298.853 Y44.755 Z13.057
N9930 X288.577 Y47.064 Z13.261
N9935 X278.626 Y49.076 Z13.45
N9940 X268.279 Y50.971 Z13.612
N9945 X257.078 Y52.774 Z13.781
N9950 X247.623 Y54.13 Z13.908
N9955 X234.008 Y55.854 Z14.069
N9960 X224.88 Y56.927 Z14.154
N9965 X212.157 Y58.276 Z14.278
N9970 X194.195 Y59.909 Z14.425
N9975 X178.708 Y61.082 Z14.531
N9980 X164.071 Y62.009 Z14.61
N9985 X149.761 Y62.743 Z14.671
N9990 X134.467 Y63.357 Z14.718
N9995 X117.256 Y63.865 Z14.75
N10000 X97.894 Y64.224 Z14.768
N10005 X78.885 Y64.393 Z14.762
N10010 X58.889 Y64.434 Z14.736
N10015 X35.986 Y64.298 Z14.697
N10020 X2.489 Y63.875 Z14.607
N10025 X-7.714 Y63.991 Z14.612
N10030 X-39.363 Y64.548 Z14.625
N10035 X-63.567 Y64.792 Z14.617
N10040 X-85.715 Y64.829 Z14.6
N10045 X-104.136 Y64.699 Z14.559
N10050 X-120.772 Y64.448 Z14.504
N10055 X-136.53 Y64.027 Z14.448
N10060 X-151.359 Y63.492 Z14.373
N10065 X-164.618 Y62.86 Z14.295
N10070 X-176.475 Y62.18 Z14.211
N10075 X-189.419 Y61.305 Z14.106
N10080 X-201.015 Y60.39 Z14.002
N10085 X-215.073 Y59.123 Z13.865
N10090 X-231.24 Y57.435 Z13.676
N10095 X-247.862 Y55.402 Z13.462
N10100 X-258.591 Y53.874 Z13.306
N10105 X-266.335 Y52.659 Z13.185
N10110 X-276.235 Y50.944 Z13.014
N10115 X-286.251 Y48.993 Z12.831
N10120 X-295.551 Y47.004 Z12.634
N10125 X-305.97 Y44.549 Z12.404
N10130 X-314.655 Y42.332 Z12.194
N10135 X-322.568 Y40.141 Z11.993
N10140 X-329.913 Y38.015 Z11.777
N10145 X-335.394 Y36.312 Z11.627
N10150 X-341.566 Y34.359 Z11.423
N10155 X-350.556 Y31.31 Z11.139
N10160 X-355.616 Y29.535 Z10.962
N10165 X-361.462 Y27.422 Z10.756
N10170 X-373.726 Y22.922 Z10.256
N10175 X-388.61 Y17.182 Z9.65
N10180 X-393.557 Y15.214 Z9.45
N10185 X-403.991 Y11.03 Z8.981
N10190 X-409.348 Y8.795 Z8.759
N10195 X-413.199 Y7.076 Z8.624
N10200 X-418.032 Y4.736 Z8.501
N10205 X-421.872 Y2.684 Z8.444
N10210 X-427.696 Y-0.791 Z8.443
N10215 X-431.594 Y-3.279 Z8.459
N10220 X-435.454 Y-5.537 Z8.388
N10225 X-439.232 Y-8.014 Z8.378
N10230 X-441.449 Y-9.396 Z8.329
N10235 X-443.889 Y-10.819 Z8.246
N10240 X-445.315 Y-11.818 Z8.232
N10245 X-446.614 Y-12.977 Z8.27
N10250 X-447.736 Y-14.241 Z8.328
N10255 X-448.604 Y-15.462 Z8.409
N10260 X-449.175 Y-16.439 Z8.475
N10265 X-449.904 Y-18.018 Z8.584
N10270 X-450.421 Y-19.592 Z8.683
N10275 X-450.679 Y-20.742 Z8.753
N10280 X-450.898 Y-22.57 Z8.844
N10285 X-451.058 Y-27.026 Z8.944
N10290 X-451.13 Y-29.476 Z8.919
N10295 X-451.076 Y-31.217 Z8.892
N10300 X-450.819 Y-33.91 Z8.832
N10305 X-450.745 Y-35.664 Z8.745
N10310 X-450.804 Y-38.348 Z8.595
N10315 X-450.922 Y-42.812 Z8.226
N10320 X-450.821 Y-47.226 Z7.75
N10325 X-450.695 Y-52.194 Z7.073
N10330 X-450.607 Y-55.498 Z6.552
N10335 X-450.472 Y-56.883 Z6.313
N10340 X-450.252 Y-58.058 Z6.106
N10345 X-449.901 Y-59.318 Z5.87
N10350 X-449.494 Y-60.413 Z5.665
N10355 X-448.946 Y-61.575 Z5.429
N10360 X-448.271 Y-62.727 Z5.197
N10365 X-447.509 Y-63.792 Z4.963
N10370 X-446.567 Y-64.877 Z4.726
N10375 X-445.646 Y-65.757 Z4.521
N10380 X-444.567 Y-66.615 Z4.318
N10385 X-443.419 Y-67.363 Z4.14
N10390 X-442.135 Y-68.032 Z3.968
N10395 X-441.031 Y-68.486 Z3.853
N10400 X-439.974 Y-68.826 Z3.768
N10405 X-439.058 Y-69.051 Z3.714
N10410 X-437.81 Y-69.259 Z3.665
N10415 X-434.906 Y-69.426 Z3.627
N10420 X-423.999 Y-69.894 Z3.533
N10425 X-418.936 Y-70.297 Z3.434
N10430 X-415.547 Y-70.663 Z3.334
N10435 X-410.655 Y-71.215 Z3.172
N10440 X-405.448 Y-71.642 Z3.049
N10445 X-399.359 Y-71.923 Z2.973
N10450 X-393.263 Y-71.97 Z2.972
N10455 X-384.609 Y-71.696 Z3.076
N10460 X-341.391 Y-70.076 Z3.671
N10465 X-308.937 Y-69.027 Z4.051
N10470 X-281.27 Y-68.332 Z4.303
N10475 X-249.038 Y-67.766 Z4.51
N10480 X-211.073 Y-67.371 Z4.657
N10485 X-164.44 Y-67.106 Z4.759
N10490 X-110.215 Y-67.046 Z4.788
N10495 X-4.925 Y-67.331 Z4.697
N10500 X99.882 Y-67.595 Z4.616
N10505 X160.601 Y-67.954 Z4.493
N10510 X211.378 Y-68.472 Z4.306
N10515 X252.322 Y-69.079 Z4.085
N10520 X284.475 Y-69.765 Z3.834
N10525 X315.03 Y-70.617 Z3.522
N10530 X361.379 Y-72.199 Z2.937
N10535 X392.086 Y-73.311 Z2.522
N10540 X399.052 Y-73.327 Z2.508
N10545 X405.145 Y-73.115 Z2.571
N10550 X410.358 Y-72.767 Z2.683
N10555 X417.45 Y-72.097 Z2.878
N10560 X422.115 Y-71.755 Z2.975
N10565 X427.978 Y-71.498 Z3.042
N10570 X441.429 Y-71.004 Z3.144
N10575 X442.724 Y-70.838 Z3.187
N10580 X444.145 Y-70.483 Z3.284
N10585 X445.667 Y-69.883 Z3.452
N10590 X447.111 Y-69.067 Z3.663
N10595 X448.398 Y-68.083 Z3.919
N10600 X449.258 Y-67.246 Z4.125
N10605 X449.997 Y-66.368 Z4.336
N10610 X450.689 Y-65.357 Z4.575
N10615 X451.277 Y-64.271 Z4.816
N10620 X451.727 Y-63.19 Z5.056
N10625 X452.082 Y-62.017 Z5.297
N10630 X452.308 Y-60.851 Z5.537
N10635 X452.412 Y-59.772 Z5.744
N10640 X452.51 Y-56.387 Z6.362
N10645 X452.657 Y-51.101 Z7.189
N10650 X452.789 Y-46.384 Z7.779
N10655 X452.89 Y-42.692 Z8.156
N10660 X452.863 Y-40.308 Z8.351
N10665 X452.812 Y-37.818 Z8.527
N10670 X452.918 Y-34.451 Z8.695
N10675 X453.125 Y-31.701 Z8.753
N10680 X453.171 Y-29.09 Z8.795
N10685 X453.033 Y-24.483 Z8.733
N10690 X452.931 Y-21.147 Z8.552
N10695 X452.851 Y-18.531 Z8.288
N10700 X452.789 Y-17.444 Z8.152
N10705 X452.597 Y-16.391 Z8.009
N10710 X452.311 Y-15.483 Z7.893
N10715 X451.931 Y-14.634 Z7.78
N10720 X451.476 Y-13.862 Z7.696
N10725 X451.008 Y-13.229 Z7.634
N10730 X450.265 Y-12.433 Z7.57
N10735 X449.407 Y-11.733 Z7.545
N10740 X446.141 Y-9.699 Z7.606
N10745 X441.877 Y-7.204 Z7.712
N10750 X438.625 Y-5.14 Z7.721
N10755 X435.664 Y-3.306 Z7.727
N10760 X432.575 Y-1.532 Z7.772
N10765 X427.091 Y1.831 Z7.709
N10770 X421.064 Y5.235 Z7.712
N10775 X415.983 Y7.832 Z7.778
N10780 X412.042 Y9.683 Z7.876
N10785 X407.57 Y11.62 Z8.053
N10790 X400.078 Y14.776 Z8.333
N10795 X388.978 Y19.359 Z8.756
N10800 X379.041 Y23.314 Z9.136
N10805 X373.114 Y25.665 Z9.326
N10810 X358.553 Y31.183 Z9.834
N10815 X353.938 Y32.866 Z9.986
N10820 X346.089 Y35.673 Z10.214
N10825 X340.824 Y37.486 Z10.343
N10830 X331.605 Y40.477 Z10.597
N10835 X324.871 Y42.527 Z10.754
N10840 X317.643 Y44.634 Z10.92
N10845 X311.185 Y46.391 Z11.06
N10850 X304.096 Y48.251 Z11.19
N10855 X296.105 Y50.186 Z11.34
N10860 X286.99 Y52.227 Z11.5
N10865 X277.608 Y54.153 Z11.644
N10870 X268.358 Y55.876 Z11.766
N10875 X257.888 Y57.609 Z11.901
N10880 X248.374 Y59.023 Z12.013
N10885 X235.789 Y60.672 Z12.138
N10890 X227.199 Y61.741 Z12.204
N10895 X212.668 Y63.336 Z12.325
N10900 X194.633 Y65.029 Z12.448
N10905 X179.95 Y66.188 Z12.53
N10910 X165.248 Y67.159 Z12.595
N10915 X150.878 Y67.93 Z12.645
N10920 X135.526 Y68.576 Z12.683
N10925 X119.135 Y69.088 Z12.703
N10930 X99.727 Y69.484 Z12.715
N10935 X78.928 Y69.69 Z12.694
N10940 X53.229 Y69.721 Z12.649
N10945 X22.841 Y69.431 Z12.584
N10950 X2.456 Y69.127 Z12.516
N10955 X-6.809 Y69.228 Z12.517
N10960 X-35.799 Y69.77 Z12.525
N10965 X-60.06 Y70.049 Z12.506
N10970 X-81.372 Y70.114 Z12.483
N10975 X-98.961 Y70.029 Z12.452
N10980 X-118.297 Y69.76 Z12.386
N10985 X-134.102 Y69.357 Z12.328
N10990 X-147.377 Y68.885 Z12.269
N10995 X-160.577 Y68.286 Z12.197
N11000 X-174.241 Y67.513 Z12.111
N11005 X-188.121 Y66.562 Z12.009
N11010 X-200.633 Y65.553 Z11.906
N11015 X-215.645 Y64.153 Z11.772
N11020 X-231.882 Y62.397 Z11.601
N11025 X-248.609 Y60.277 Z11.403
N11030 X-258.537 Y58.825 Z11.273
N11035 X-267.203 Y57.422 Z11.151
N11040 X-276.374 Y55.792 Z11.006
N11045 X-286.11 Y53.844 Z10.853
N11050 X-294.373 Y52.033 Z10.704
N11055 X-302.919 Y50.026 Z10.53
N11060 X-313.354 Y47.347 Z10.314
N11065 X-321.688 Y45.011 Z10.136
N11070 X-330.309 Y42.433 Z9.918
N11075 X-335.243 Y40.878 Z9.794
N11080 X-343.148 Y38.291 Z9.566
N11085 X-353.262 Y34.734 Z9.279
N11090 X-361.386 Y31.727 Z9.027
N11095 X-375.23 Y26.452 Z8.532
N11100 X-390.851 Y20.194 Z7.97
N11105 X-406.314 Y13.739 Z7.381
N11110 X-411.958 Y11.283 Z7.171
N11115 X-417.482 Y8.704 Z7.029
N11120 X-422.476 Y6.187 Z6.969
N11125 X-429.322 Y2.367 Z6.996
N11130 X-434.125 Y-0.468 Z7.037
N11135 X-438.597 Y-3.016 Z7.011
N11140 X-442.67 Y-5.518 Z7.001
N11145 X-446.081 Y-7.481 Z6.932
N11150 X-447.513 Y-8.472 Z6.962
N11155 X-448.771 Y-9.519 Z7.039
N11160 X-450.182 Y-10.945 Z7.188
N11165 X-451.147 Y-12.123 Z7.33
N11170 X-452.334 Y-13.894 Z7.557
N11175 X-453.101 Y-15.329 Z7.734
N11180 X-453.659 Y-16.609 Z7.894
N11185 X-454.195 Y-18.17 Z8.071
N11190 X-454.661 Y-20.128 Z8.261
N11195 X-454.9 Y-21.906 Z8.407
N11200 X-454.976 Y-23.397 Z8.504
N11205 X-455.107 Y-27.287 Z8.641
N11210 X-455.169 Y-30.402 Z8.645
N11215 X-454.967 Y-34.111 Z8.59
N11220 X-454.93 Y-36.184 Z8.502
N11225 X-455.014 Y-40.413 Z8.251
N11230 X-455.045 Y-43.193 Z8.024
N11235 X-454.89 Y-48.384 Z7.484
N11240 X-454.74 Y-53.272 Z6.814
N11245 X-454.602 Y-57.808 Z6.075
N11250 X-454.49 Y-61.341 Z5.406
N11255 X-454.352 Y-62.643 Z5.137
N11260 X-454.12 Y-63.761 Z4.903
N11265 X-453.747 Y-64.967 Z4.632
N11270 X-453.306 Y-66.018 Z4.395
N11275 X-452.708 Y-67.132 Z4.126
N11280 X-452.043 Y-68.122 Z3.886
N11285 X-451.204 Y-69.134 Z3.621
N11290 X-450.288 Y-70.031 Z3.386
N11295 X-449.37 Y-70.767 Z3.18
N11300 X-448.252 Y-71.493 Z2.974
N11305 X-447.049 Y-72.101 Z2.802
N11310 X-445.816 Y-72.567 Z2.66
N11315 X-444.81 Y-72.842 Z2.576
N11320 X-443.875 Y-73.019 Z2.523
N11325 X-442.546 Y-73.146 Z2.486
N11330 X-421.89 Y-74.029 Z2.238
N11335 X-415.807 Y-74.42 Z2.113
N11340 X-408.792 Y-74.921 Z1.946
N11345 X-401.832 Y-75.223 Z1.841
N11350 X-393.995 Y-75.319 Z1.811
N11355 X-379.447 Y-75.016 Z1.931
N11360 X-332.119 Y-73.901 Z2.365
N11365 X-296.994 Y-73.237 Z2.622
N11370 X-260.917 Y-72.769 Z2.804
N11375 X-216.541 Y-72.461 Z2.925
N11380 X-156.052 Y-72.296 Z2.992
N11385 X-76.524 Y-72.383 Z2.964
N11390 X124.294 Y-72.957 Z2.754
N11395 X196.606 Y-73.398 Z2.587
N11400 X252.322 Y-73.934 Z2.382
N11405 X295.894 Y-74.578 Z2.134
N11410 X346.92 Y-75.618 Z1.73
N11415 X392.963 Y-76.65 Z1.316
N11420 X401.671 Y-76.616 Z1.328
N11425 X409.505 Y-76.362 Z1.421
N11430 X420.167 Y-75.795 Z1.62
N11435 X446.639 Y-74.816 Z1.934
N11440 X447.867 Y-74.695 Z1.973
N11445 X449.18 Y-74.391 Z2.074
N11450 X450.239 Y-74.003 Z2.196
N11455 X451.55 Y-73.317 Z2.408
N11460 X452.562 Y-72.599 Z2.632
N11465 X453.364 Y-71.876 Z2.841
N11470 X454.105 Y-71.045 Z3.08
N11475 X454.722 Y-70.178 Z3.321
N11480 X455.294 Y-69.148 Z3.594
N11485 X455.732 Y-68.083 Z3.866
N11490 X456.044 Y-66.98 Z4.138
N11495 X456.216 Y-65.955 Z4.379
N11500 X456.294 Y-64.621 Z4.685
N11505 X456.447 Y-60.116 Z5.613
N11510 X456.608 Y-55.378 Z6.447
N11515 X456.76 Y-50.911 Z7.098
N11520 X456.885 Y-47.238 Z7.539
N11525 X457.041 Y-42.533 Z7.995
N11530 X457.032 Y-40.165 Z8.174
N11535 X457.005 Y-37.26 Z8.339
N11540 X457.068 Y-34.531 Z8.448
N11545 X457.229 Y-30.334 Z8.506
N11550 X457.136 Y-26.541 Z8.452
N11555 X457.036 Y-23.116 Z8.276
N11560 X456.951 Y-20.2 Z7.984
N11565 X456.869 Y-17.429 Z7.545
N11570 X456.814 Y-15.656 Z7.165
N11575 X456.715 Y-14.775 Z6.956
N11580 X456.498 Y-13.823 Z6.719
N11585 X456.178 Y-12.925 Z6.513
N11590 X455.742 Y-12.042 Z6.306
N11595 X455.178 Y-11.184 Z6.131
N11600 X454.561 Y-10.454 Z5.993
N11605 X453.923 Y-9.85 Z5.912
N11610 X452.953 Y-9.117 Z5.867
N11615 X449.004 Y-6.709 Z5.897
N11620 X442.885 Y-3.192 Z5.963
N11625 X437.578 Y-0.045 Z5.936
N11630 X432.895 Y2.567 Z5.93
N11635 X427.67 Y5.525 Z5.846
N11640 X420.738 Y9.18 Z5.836
N11645 X414.825 Y12.061 Z5.917
N11650 X410.309 Y14.111 Z6.043
N11655 X403.751 Y17.001 Z6.245
N11660 X390.164 Y22.824 Z6.678
N11665 X376.78 Y28.342 Z7.099
N11670 X371.358 Y30.513 Z7.233
N11675 X358.722 Y35.478 Z7.58
N11680 X349.743 Y38.815 Z7.814
N11685 X345.105 Y40.482 Z7.936
N11690 X338.233 Y42.859 Z8.061
N11695 X332.737 Y44.677 Z8.207
N11700 X322.803 Y47.786 Z8.373
N11705 X315.042 Y50.059 Z8.501
N11710 X305.281 Y52.706 Z8.649
N11715 X297.216 Y54.722 Z8.768
N11720 X288.045 Y56.842 Z8.893
N11725 X278.599 Y58.845 Z9.01
N11730 X269.239 Y60.643 Z9.101
N11735 X259.557 Y62.308 Z9.195
N11740 X250.847 Y63.665 Z9.272
N11745 X242.508 Y64.84 Z9.33
N11750 X229.985 Y66.486 Z9.416
N11755 X213. Y68.416 Z9.518
N11760 X195.241 Y70.135 Z9.603
N11765 X180.323 Y71.35 Z9.66
N11770 X166.425 Y72.306 Z9.698
N11775 X151.994 Y73.115 Z9.728
N11780 X136.586 Y73.799 Z9.743
N11785 X121.521 Y74.289 Z9.755
N11790 X105.042 Y74.674 Z9.747
N11795 X85.074 Y74.927 Z9.737
N11800 X64.981 Y75.002 Z9.696
N11805 X42.877 Y74.9 Z9.65
N11810 X19.341 Y74.638 Z9.585
N11815 X1.551 Y74.381 Z9.52
N11820 X-8.517 Y74.517 Z9.518
N11825 X-37.46 Y75.062 Z9.5
N11830 X-60.036 Y75.324 Z9.461
N11835 X-80.513 Y75.396 Z9.425
N11840 X-100.877 Y75.286 Z9.382
N11845 X-118.429 Y75.019 Z9.316
N11850 X-133.426 Y74.627 Z9.262
N11855 X-146.63 Y74.154 Z9.204
N11860 X-159.146 Y73.581 Z9.14
N11865 X-172.876 Y72.798 Z9.054
N11870 X-186.824 Y71.828 Z8.958
N11875 X-201.118 Y70.637 Z8.851
N11880 X-215.861 Y69.227 Z8.723
N11885 X-232.081 Y67.406 Z8.578
N11890 X-248.496 Y65.283 Z8.394
N11895 X-258.485 Y63.785 Z8.278
N11900 X-267.215 Y62.34 Z8.168
N11905 X-277.329 Y60.484 Z8.03
N11910 X-287.163 Y58.452 Z7.892
N11915 X-294.637 Y56.774 Z7.774
N11920 X-302.4 Y54.896 Z7.647
N11925 X-308.413 Y53.36 Z7.538
N11930 X-315.457 Y51.452 Z7.407
N11935 X-322.149 Y49.514 Z7.289
N11940 X-331.497 Y46.63 Z7.104
N11945 X-334.725 Y45.588 Z7.03
N11950 X-343.605 Y42.616 Z6.8
N11955 X-352.896 Y39.247 Z6.597
N11960 X-358.807 Y37.029 Z6.428
N11965 X-364.433 Y34.843 Z6.27
N11970 X-376.734 Y29.982 Z5.912
N11975 X-392.335 Y23.499 Z5.444
N11980 X-408.338 Y16.557 Z4.935
N11985 X-415.393 Y13.358 Z4.735
N11990 X-422.353 Y10.004 Z4.625
N11995 X-429.997 Y6.039 Z4.647
N12000 X-436.1 Y2.696 Z4.726
N12005 X-441.517 Y-0.295 Z4.727
N12010 X-445.97 Y-2.829 Z4.711
N12015 X-451.643 Y-6.057 Z4.656
N12020 X-454.132 Y-7.599 Z4.681
N12025 X-455.64 Y-8.631 Z4.739
N12030 X-456.508 Y-9.353 Z4.836
N12035 X-457.193 Y-10.115 Z5.023
N12040 X-457.782 Y-10.99 Z5.267
N12045 X-458.196 Y-11.828 Z5.546
N12050 X-458.49 Y-12.67 Z5.821
N12055 X-458.693 Y-13.613 Z6.131
N12060 X-458.769 Y-14.441 Z6.407
N12065 X-458.837 Y-16.705 Z7.041
N12070 X-458.914 Y-19.279 Z7.562
N12075 X-458.998 Y-22.05 Z7.948
N12080 X-459.102 Y-25.514 Z8.226
N12085 X-459.207 Y-29.209 Z8.346
N12090 X-459.165 Y-32.998 Z8.344
N12095 X-459.113 Y-35.61 Z8.283
N12100 X-459.156 Y-39.833 Z8.086
N12105 X-459.176 Y-42.924 Z7.874
N12110 X-458.948 Y-49.739 Z7.19
N12115 X-458.779 Y-54.618 Z6.512
N12120 X-458.552 Y-61.198 Z5.371
N12125 X-458.349 Y-67.066 Z4.097
N12130 X-458.219 Y-70.809 Z3.122
N12135 X-458.115 Y-73.815 Z2.234
N12140 X-458.039 Y-74.386 Z2.054
N12145 X-457.852 Y-74.934 Z1.87
N12150 X-457.53 Y-75.475 Z1.688
N12155 X-457.12 Y-75.92 Z1.54
N12160 X-456.653 Y-76.255 Z1.424
N12165 X-456.173 Y-76.479 Z1.343
N12170 X-455.636 Y-76.616 Z1.294
N12175 X-451.821 Y-76.795 Z1.231
N12180 X-424.104 Y-77.949 Z0.802
N12185 X-417.229 Y-78.144 Z0.728
N12190 X-405.333 Y-78.543 Z0.565
N12195 X-394.013 Y-78.661 Z0.516
N12200 X-317.645 Y-77.904 Z0.833
N12205 X-259.176 Y-77.584 Z0.967
N12210 X-187.58 Y-77.497 Z1.004
N12215 X-84.594 Y-77.645 Z0.942
N12220 X155.133 Y-78.32 Z0.659
N12225 X260.332 Y-78.843 Z0.439
N12230 X351.762 Y-79.592 Z0.125
N12235 X396.325 Y-79.982 Z0.
N12240 X412.081 Y-79.846 Z0.018
N12245 X456.286 Y-79.021 Z0.362
N12250 X457.444 Y-78.942 Z0.393
N12255 X458.282 Y-78.674 Z0.501
N12260 X459.072 Y-78.191 Z0.651
N12265 X459.79 Y-77.437 Z0.825
N12270 X460.275 Y-76.515 Z1.039
N12275 X460.481 Y-75.61 Z1.304
N12280 X460.556 Y-72.649 Z2.27
N12285 X460.662 Y-67.704 Z3.641
N12290 X460.791 Y-61.719 Z4.995
N12295 X460.926 Y-55.42 Z6.144
N12300 X461.064 Y-48.984 Z7.063
N12305 X461.184 Y-42.941 Z7.676
N12310 X461.203 Y-39.695 Z7.948
N12315 X461.208 Y-35.924 Z8.137
N12320 X461.268 Y-31.283 Z8.195
N12325 X461.267 Y-28.281 Z8.134
N12330 X461.236 Y-25.264 Z7.952
N12335 X461.207 Y-22.509 Z7.645
N12340 X461.18 Y-19.973 Z7.214
N12345 X461.155 Y-17.686 Z6.67
N12350 X461.133 Y-15.617 Z6.014
N12355 X461.115 Y-13.891 Z5.307
N12360 X461.099 Y-12.43 Z4.539
N12365 X461.087 Y-11.321 Z3.791
N12370 X460.977 Y-10.334 Z3.093
N12375 X460.657 Y-9.561 Z2.741
N12380 X460.146 Y-8.921 Z2.573
N12385 X459.437 Y-8.39 Z2.428
N12390 X454.928 Y-5.494 Z2.047
N12395 X451.453 Y-3.445 Z1.818
N12400 X449.811 Y-2.511 Z1.833
N12405 X448.281 Y-1.655 Z1.609
N12410 X448.272 Y-1.65 Z0.
N12415 X437.511 Y4.274
N12420 X426.104 Y10.238
N12425 X415.553 Y15.388
N12430 X401.989 Y21.569
N12435 X387.914 Y27.767
N12440 X373.666 Y33.797
N12445 X358.601 Y39.892
N12450 X344.713 Y45.151
N12455 X332.127 Y49.478
N12460 X319.733 Y53.392
N12465 X306.465 Y57.159
N12470 X293.248 Y60.488
N12475 X282.637 Y62.88
N12480 X271.897 Y65.046
N12485 X261.44 Y66.944
N12490 X251.583 Y68.541
N12495 X237.333 Y70.571
N12500 X223.17 Y72.349
N12505 X210.043 Y73.824
N12510 X194.053 Y75.39
N12515 X177.221 Y76.761
N12520 X160.648 Y77.867
N12525 X144.411 Y78.71
N12530 X126.01 Y79.438
N12535 X101.65 Y80.007
N12540 X78.056 Y80.269
N12545 X49.4 Y80.231
N12550 X25.975 Y79.997
N12555 X1.517 Y79.632
N12560 X-9.353 Y79.79
N12565 X-39.122 Y80.355
N12570 X-61.753 Y80.608
N12575 X-89.233 Y80.655
N12580 X-111.554 Y80.399
N12585 X-130.988 Y79.956
N12590 X-148.734 Y79.286
N12595 X-164.67 Y78.472
N12600 X-179.329 Y77.529
N12605 X-196.809 Y76.164
N12610 X-216.443 Y74.259
N12615 X-234.829 Y72.1
N12620 X-250.966 Y69.902
N12625 X-262.953 Y67.983
N12630 X-274.592 Y65.886
N12635 X-286.413 Y63.459
N12640 X-297.935 Y60.77
N12645 X-309.634 Y57.766
N12650 X-321.432 Y54.393
N12655 X-334.208 Y50.352
N12660 X-346.589 Y46.041
N12665 X-359.958 Y40.949
N12670 X-375.681 Y34.553
N12675 X-393.818 Y26.804
N12680 X-411.069 Y19.027
N12685 X-424.684 Y12.593
N12690 X-436.6 Y6.633
N12695 X-448.69 Y0.221
N12700 X-456.514 Y-4.19
N12705 X-460.966 Y-6.859
N12710 X-461.922 Y-7.668
N12715 X-462.66 Y-8.721
N12720 X-463.112 Y-9.943
N12725 X-463.245 Y-11.22
N12730 X-463.3 Y-34.701
N12735 Y-34.8 Z0.008
N12740 Y-34.897 Z0.031
N12745 X-463.301 Y-34.989 Z0.069
N12750 Y-35.074 Z0.121
N12755 Y-35.15 Z0.186
N12760 Y-35.215 Z0.262
N12765 Y-35.267 Z0.347
N12770 Y-35.305 Z0.439
N12775 Y-35.328 Z0.536
N12780 Y-35.336 Z0.635
N12785 Z40.4
N12790 G53 G0 Z0.
N12795 M30
%
