%
(FOIL2_3175_BALL)
(T2  D=3.175 CR=1.587 - ZMIN=-25.4 - BALL END MILL)
N10 G90 G94 G17 G91.1
N15 G21
(WHEN USING FUSION 360 FOR PERSONAL USE, THE FEEDRATE OF)
(RAPID MOVES IS REDUCED TO MATCH THE FEEDRATE OF CUTTING)
(MOVES, WHICH CAN INCREASE MACHINING TIME. UNRESTRICTED RAPID)
(MOVES ARE AVAILABLE WITH A FUSION 360 SUBSCRIPTION.)
N20 G53 G0 Z0.
(MORPHED SPIRAL1)
N25 T2 M6
N30 S10000 M3
N35 G54
N40 G0 X-397.159 Y-30.731
N45 G43 Z15. H2
N50 G1 Z-12.6 F2500.
N55 Z-14.279 F333.33
N60 X-397.153 Y-30.73 Z-14.343 F2500.
N65 X-397.134 Y-30.726 Z-14.404
N70 X-397.104 Y-30.719 Z-14.46
N75 X-397.063 Y-30.71 Z-14.509
N80 X-397.013 Y-30.699 Z-14.548
N85 X-396.957 Y-30.687 Z-14.577
N90 X-396.897 Y-30.674 Z-14.593
N95 X-396.834 Y-30.66 Z-14.596
N100 X-379.898 Y-26.939 Z-13.747
N105 X-367.819 Y-24.366 Z-13.165
N110 X-351.723 Y-21.071 Z-12.42
N115 X-336.081 Y-18.008 Z-11.748
N120 X-325.577 Y-16.065 Z-11.329
N125 X-318.344 Y-14.808 Z-11.058
N130 X-308.166 Y-13.144 Z-10.704
N135 X-295.811 Y-11.3 Z-10.312
N140 X-282.859 Y-9.591 Z-9.947
N145 X-271.823 Y-8.298 Z-9.672
N150 X-257.85 Y-6.871 Z-9.368
N155 X-245.877 Y-5.839 Z-9.146
N160 X-231.284 Y-4.773 Z-8.912
N165 X-219.068 Y-3.984 Z-8.74
N170 X-201.32 Y-3.012 Z-8.524
N175 X-183.681 Y-2.198 Z-8.342
N180 X-162.551 Y-1.431 Z-8.174
N185 X-141.604 Y-0.904 Z-8.053
N190 X-127.784 Y-0.648 Z-7.995
N195 X-105.396 Y-0.39 Z-7.937
N200 X-85.762 Y-0.297 Z-7.913
N205 X-57.518 Y-0.327 Z-7.917
N210 X-21.426 Y-0.565 Z-7.969
N215 X-0.323 Y-0.769 Z-8.
N220 X31.577 Y-0.531 Z-7.956
N225 X58.841 Y-0.415 Z-7.926
N230 X93.011 Y-0.469 Z-7.936
N235 X113.605 Y-0.65 Z-7.973
N240 X141.121 Y-1.117 Z-8.075
N245 X156.755 Y-1.529 Z-8.163
N250 X174.126 Y-2.116 Z-8.292
N255 X194.369 Y-2.982 Z-8.482
N260 X214.205 Y-4.05 Z-8.713
N265 X230.961 Y-5.117 Z-8.946
N270 X245.739 Y-6.21 Z-9.185
N275 X258.22 Y-7.316 Z-9.42
N280 X268.999 Y-8.41 Z-9.652
N285 X280.491 Y-9.728 Z-9.931
N290 X293.04 Y-11.36 Z-10.277
N295 X304.418 Y-13.006 Z-10.628
N300 X315.069 Y-14.703 Z-10.989
N305 X324.97 Y-16.408 Z-11.355
N310 X336.055 Y-18.464 Z-11.797
N315 X356.323 Y-22.449 Z-12.677
N320 X373.954 Y-26.115 Z-13.506
N325 X391.283 Y-29.861 Z-14.359
N330 X396.454 Y-30.993 Z-14.622
N335 X397.338 Y-30.975 Z-14.644
N340 X397.411 Y-30.86 Z-14.633
N345 X397.335 Y-30.536 Z-14.596
N350 X396.894 Y-30.25 Z-14.554
N355 X390.456 Y-28.795 Z-14.222
N360 X370.913 Y-24.515 Z-13.258
N365 X352.932 Y-20.741 Z-12.413
N370 X335.817 Y-17.335 Z-11.67
N375 X321.788 Y-14.728 Z-11.113
N380 X309.603 Y-12.666 Z-10.676
N385 X297.184 Y-10.768 Z-10.275
N390 X283.31 Y-8.872 Z-9.875
N395 X273.651 Y-7.703 Z-9.63
N400 X259.28 Y-6.176 Z-9.308
N405 X246.543 Y-5.026 Z-9.064
N410 X235.382 Y-4.153 Z-8.879
N415 X216.67 Y-2.911 Z-8.608
N420 X200.145 Y-1.983 Z-8.406
N425 X183.417 Y-1.178 Z-8.231
N430 X164.714 Y-0.448 Z-8.076
N435 X147.929 Y0.043 Z-7.969
N440 X123.046 Y0.559 Z-7.858
N445 X94.349 Y0.857 Z-7.794
N450 X65.502 Y0.936 Z-7.779
N455 X32.838 Y0.806 Z-7.811
N460 X0.627 Y0.564 Z-7.85
N465 X-30.644 Y0.854 Z-7.807
N470 X-58.53 Y1.024 Z-7.772
N475 X-90.186 Y1.038
N480 X-111.244 Y0.893 Z-7.805
N485 X-133.058 Y0.59 Z-7.874
N490 X-154.277 Y0.132 Z-7.977
N495 X-176.64 Y-0.607 Z-8.141
N500 X-195.677 Y-1.429 Z-8.321
N505 X-210.661 Y-2.212 Z-8.494
N510 X-228.216 Y-3.294 Z-8.731
N515 X-242.823 Y-4.345 Z-8.96
N520 X-251.072 Y-5.026 Z-9.105
N525 X-264.714 Y-6.31 Z-9.379
N530 X-278.77 Y-7.895 Z-9.712
N535 X-291.487 Y-9.526 Z-10.057
N540 X-303.75 Y-11.303 Z-10.434
N545 X-315.018 Y-13.115 Z-10.817
N550 X-324.939 Y-14.844 Z-11.186
N555 X-336.033 Y-16.93 Z-11.631
N560 X-349.51 Y-19.611 Z-12.213
N565 X-365.631 Y-22.942 Z-12.958
N570 X-377.542 Y-25.501 Z-13.531
N575 X-388.353 Y-27.868 Z-14.068
N580 X-396.909 Y-29.809 Z-14.507
N585 X-397.463 Y-30.066 Z-14.549
N590 X-397.97 Y-30.553 Z-14.616
N595 X-397.967 Y-31.065 Z-14.67
N600 X-397.752 Y-31.287 Z-14.689
N605 X-397.014 Y-31.418 Z-14.683
N610 X-396.192 Y-31.381 Z-14.656
N615 X-379.272 Y-27.754 Z-13.819
N620 X-360.254 Y-23.834 Z-12.92
N625 X-345.988 Y-21.022 Z-12.285
N630 X-331.44 Y-18.278 Z-11.68
N635 X-321.175 Y-16.458 Z-11.287
N640 X-308.707 Y-14.437 Z-10.852
N645 X-296.542 Y-12.658 Z-10.468
N650 X-284.075 Y-11.034 Z-10.118
N655 X-270.075 Y-9.427 Z-9.773
N660 X-257.062 Y-8.159 Z-9.499
N665 X-244.038 Y-7.072 Z-9.264
N670 X-228.026 Y-5.967 Z-9.017
N675 X-210.702 Y-4.946 Z-8.789
N680 X-190.81 Y-3.981 Z-8.571
N685 X-174.139 Y-3.327 Z-8.422
N690 X-151.452 Y-2.657 Z-8.269
N695 X-134.206 Y-2.306 Z-8.187
N700 X-112.568 Y-2.038 Z-8.121
N705 X-90.946 Y-1.906 Z-8.089
N710 X-66.428 Y-1.912 Z-8.085
N715 X-27.777 Y-2.165 Z-8.135
N720 X-0.633 Y-2.436 Z-8.187
N725 X30.161 Y-2.238 Z-8.14
N730 X65.684 Y-2.142 Z-8.11
N735 X95.496 Y-2.243 Z-8.128
N740 X114.202 Y-2.426 Z-8.165
N745 X141.079 Y-2.896 Z-8.266
N750 X157.316 Y-3.331 Z-8.359
N755 X174.983 Y-3.935 Z-8.491
N760 X194.893 Y-4.794 Z-8.679
N765 X214.716 Y-5.858 Z-8.911
N770 X232.074 Y-6.962 Z-9.154
N775 X245.613 Y-7.959 Z-9.372
N780 X258.981 Y-9.133 Z-9.623
N785 X270.959 Y-10.349 Z-9.882
N790 X283.64 Y-11.831 Z-10.198
N795 X296.838 Y-13.562 Z-10.57
N800 X311.778 Y-15.789 Z-11.049
N805 X324.69 Y-17.964 Z-11.517
N810 X336.071 Y-20.034 Z-11.966
N815 X356.328 Y-23.939 Z-12.839
N820 X374.265 Y-27.591 Z-13.68
N825 X391.603 Y-31.258 Z-14.53
N830 X396.463 Y-32.296 Z-14.774
N835 X397.382 Y-32.278 Z-14.792
N840 X398.577 Y-31.959 Z-14.783
N845 X398.989 Y-31.867 Z-14.785
N850 X399.149 Y-31.629 Z-14.763
N855 X399.082 Y-30.725 Z-14.664
N860 X398.844 Y-30.169 Z-14.598
N865 X398.043 Y-29.435 Z-14.497
N870 X397.223 Y-29.021 Z-14.43
N875 X390.603 Y-27.48 Z-14.085
N880 X377.511 Y-24.517 Z-13.424
N885 X361.467 Y-21.001 Z-12.645
N890 X348.416 Y-18.248 Z-12.042
N895 X335.818 Y-15.677 Z-11.492
N900 X322.382 Y-13.106 Z-10.95
N905 X310.176 Y-10.976 Z-10.504
N910 X297.442 Y-8.972 Z-10.085
N915 X286.91 Y-7.473 Z-9.773
N920 X275.178 Y-5.963 Z-9.461
N925 X260.491 Y-4.331 Z-9.122
N930 X250.477 Y-3.367 Z-8.921
N935 X234.907 Y-2.089 Z-8.653
N940 X218.012 Y-0.919 Z-8.403
N945 X204.858 Y-0.119 Z-8.234
N950 X184.826 Y0.901 Z-8.015
N955 X164.792 Y1.725 Z-7.842
N960 X148.288 Y2.237 Z-7.734
N965 X123.545 Y2.785 Z-7.619
N970 X97.44 Y3.1 Z-7.554
N975 X75.506 Y3.217 Z-7.534
N980 X42.942 Y3.173 Z-7.549
N985 X6.953 Y2.936 Z-7.624
N990 X-4.008 Y2.917 Z-7.633
N995 X-39.841 Y3.293 Z-7.541
N1000 X-60.061 Y3.424 Z-7.518
N1005 X-90.189 Y3.458
N1010 X-111.474 Y3.326 Z-7.551
N1015 X-132.937 Y3.042 Z-7.617
N1020 X-155.27 Y2.549 Z-7.728
N1025 X-177.035 Y1.823 Z-7.888
N1030 X-195.492 Y1.017 Z-8.064
N1035 X-210.189 Y0.243 Z-8.234
N1040 X-227.765 Y-0.854 Z-8.47
N1045 X-242.382 Y-1.92 Z-8.699
N1050 X-255.503 Y-3.047 Z-8.934
N1055 X-267.867 Y-4.307 Z-9.198
N1060 X-279.301 Y-5.634 Z-9.476
N1065 X-290.042 Y-7.036 Z-9.77
N1070 X-303.483 Y-9.014 Z-10.184
N1075 X-315.068 Y-10.92 Z-10.582
N1080 X-325.013 Y-12.694 Z-10.956
N1085 X-339.759 Y-15.556 Z-11.562
N1090 X-356.528 Y-19.03 Z-12.315
N1095 X-376.427 Y-23.381 Z-13.274
N1100 X-395.313 Y-27.691 Z-14.235
N1105 X-397.274 Y-28.159 Z-14.339
N1110 X-398.125 Y-28.509 Z-14.4
N1115 X-399.019 Y-29.112 Z-14.489
N1120 X-400.101 Y-30.1 Z-14.625
N1125 X-400.269 Y-30.477 Z-14.67
N1130 X-400.261 Y-31.707 Z-14.802
N1135 X-400.118 Y-32.141 Z-14.845
N1140 X-399.789 Y-32.456 Z-14.87
N1145 X-398.893 Y-32.723 Z-14.884
N1150 X-397.374 Y-32.938 Z-14.879
N1155 X-395.84 Y-32.941 Z-14.845
N1160 X-394.258 Y-32.718 Z-14.781
N1165 X-375.192 Y-28.794 Z-13.857
N1170 X-362.873 Y-26.337 Z-13.284
N1175 X-347.402 Y-23.372 Z-12.596
N1180 X-331.643 Y-20.489 Z-11.941
N1185 X-320.797 Y-18.627 Z-11.527
N1190 X-308.663 Y-16.725 Z-11.104
N1195 X-296.401 Y-14.987 Z-10.718
N1200 X-282.242 Y-13.2 Z-10.327
N1205 X-270.722 Y-11.942 Z-10.05
N1210 X-256.607 Y-10.59 Z-9.756
N1215 X-240.943 Y-9.36 Z-9.484
N1220 X-221.882 Y-8.132 Z-9.206
N1225 X-203.584 Y-7.166 Z-8.984
N1230 X-181.05 Y-6.206 Z-8.762
N1235 X-160.061 Y-5.532 Z-8.606
N1240 X-140.583 Y-5.092 Z-8.501
N1245 X-126.172 Y-4.863 Z-8.446
N1250 X-104.954 Y-4.65 Z-8.394
N1255 X-76.919 Y-4.588 Z-8.373
N1260 X-54.27 Y-4.652 Z-8.383
N1265 X-34.019 Y-4.791 Z-8.411
N1270 X-0.718 Y-5.104 Z-8.486
N1275 X35.729 Y-4.888 Z-8.42
N1280 X70.791 Y-4.828 Z-8.398
N1285 X93.165 Y-4.908 Z-8.413
N1290 X114.745 Y-5.106 Z-8.454
N1295 X132.478 Y-5.388 Z-8.515
N1300 X153.254 Y-5.856 Z-8.618
N1305 X169.977 Y-6.379 Z-8.732
N1310 X191.975 Y-7.261 Z-8.929
N1315 X211.502 Y-8.244 Z-9.148
N1320 X229.153 Y-9.304 Z-9.384
N1325 X244.514 Y-10.379 Z-9.624
N1330 X257.536 Y-11.47 Z-9.865
N1335 X269.792 Y-12.661 Z-10.127
N1340 X281.376 Y-13.938 Z-10.41
N1345 X295.906 Y-15.782 Z-10.816
N1350 X306.651 Y-17.31 Z-11.153
N1355 X313.537 Y-18.346 Z-11.384
N1360 X325.213 Y-20.261 Z-11.811
N1365 X336.888 Y-22.323 Z-12.272
N1370 X356.531 Y-25.991 Z-13.113
N1375 X374.478 Y-29.525 Z-13.938
N1380 X392.431 Y-33.196 Z-14.803
N1385 X396.131 Y-33.939 Z-14.983
N1390 X397.358 Y-33.962 Z-15.013
N1395 X398.567 Y-33.758
N1400 X399.84 Y-33.353 Z-14.988
N1405 X400.916 Y-33.169
N1410 X401.314 Y-32.955 Z-14.968
N1415 X401.479 Y-32.598 Z-14.931
N1420 X401.376 Y-31.747 Z-14.837
N1425 X401.33 Y-30.684 Z-14.721
N1430 X401.065 Y-29.966 Z-14.637
N1435 X400.524 Y-29.303 Z-14.551
N1440 X399.183 Y-28.293 Z-14.406
N1445 X397.829 Y-27.571 Z-14.291
N1450 X396.39 Y-27.059 Z-14.197
N1455 X381.056 Y-23.44 Z-13.401
N1460 X361.564 Y-19.023 Z-12.435
N1465 X349.112 Y-16.312 Z-11.849
N1470 X336.814 Y-13.716 Z-11.302
N1475 X323.061 Y-10.997 Z-10.742
N1480 X310.826 Y-8.792 Z-10.295
N1485 X298.076 Y-6.719 Z-9.875
N1490 X288.141 Y-5.257 Z-9.58
N1495 X276.059 Y-3.638 Z-9.256
N1500 X263.716 Y-2.196 Z-8.966
N1505 X249.821 Y-0.817 Z-8.688
N1510 X237.178 Y0.273 Z-8.468
N1515 X221.771 Y1.398 Z-8.235
N1520 X206.223 Y2.397 Z-8.029
N1525 X185.862 Y3.474 Z-7.804
N1530 X164.888 Y4.366 Z-7.622
N1535 X148.658 Y4.886 Z-7.515
N1540 X124.637 Y5.436 Z-7.403
N1545 X106.801 Y5.693 Z-7.353
N1550 X77.512 Y5.894 Z-7.316
N1555 X46.073 Y5.87 Z-7.328
N1560 X14.382 Y5.67 Z-7.369
N1565 X-1.84 Y5.576 Z-7.399
N1570 X-32.142 Y5.91 Z-7.337
N1575 X-57.597 Y6.097 Z-7.302
N1580 X-90.192 Y6.138 Z-7.301
N1585 X-110.575 Y6.009 Z-7.332
N1590 X-132.063 Y5.724 Z-7.397
N1595 X-154.735 Y5.215 Z-7.51
N1600 X-176.208 Y4.481 Z-7.668
N1605 X-194.702 Y3.661 Z-7.844
N1610 X-210.032 Y2.831 Z-8.022
N1615 X-227.324 Y1.722 Z-8.257
N1620 X-241.95 Y0.63 Z-8.488
N1625 X-254.227 Y-0.441 Z-8.707
N1630 X-264.757 Y-1.506 Z-8.924
N1635 X-276.52 Y-2.879 Z-9.201
N1640 X-289.172 Y-4.542 Z-9.54
N1645 X-299.165 Y-6.016 Z-9.838
N1650 X-313.011 Y-8.278 Z-10.298
N1655 X-326.905 Y-10.848 Z-10.821
N1660 X-340.46 Y-13.571 Z-11.382
N1665 X-356.924 Y-17.09 Z-12.126
N1670 X-376.515 Y-21.508 Z-13.08
N1675 X-395.384 Y-25.949 Z-14.051
N1680 X-397.884 Y-26.594 Z-14.187
N1685 X-399.11 Y-27.142 Z-14.28
N1690 X-400.139 Y-27.811 Z-14.38
N1695 X-401.323 Y-28.862 Z-14.525
N1700 X-402.18 Y-29.619 Z-14.63
N1705 X-402.51 Y-30.122 Z-14.693
N1710 X-402.558 Y-30.588 Z-14.744
N1715 X-402.52 Y-31.815 Z-14.875
N1720 X-402.518 Y-32.608 Z-14.96
N1725 X-402.28 Y-33.17 Z-15.018
N1730 X-401.847 Y-33.6 Z-15.065
N1735 X-401.121 Y-33.888 Z-15.087
N1740 X-399.058 Y-34.504 Z-15.122
N1745 X-397.544 Y-34.754
N1750 X-396.01 Y-34.756 Z-15.088
N1755 X-393.991 Y-34.417 Z-14.999
N1760 X-372.392 Y-30.136 Z-13.977
N1765 X-359.763 Y-27.725 Z-13.404
N1770 X-345.494 Y-25.107 Z-12.789
N1775 X-329.858 Y-22.357 Z-12.159
N1780 X-319.225 Y-20.611 Z-11.764
N1785 X-307.707 Y-18.879 Z-11.374
N1790 X-295.765 Y-17.25 Z-11.008
N1795 X-282.29 Y-15.613 Z-10.64
N1800 X-269.671 Y-14.276 Z-10.339
N1805 X-257.693 Y-13.173 Z-10.09
N1810 X-242.978 Y-12.015 Z-9.829
N1815 X-221.131 Y-10.648 Z-9.512
N1820 X-201.306 Y-9.659 Z-9.279
N1825 X-180.938 Y-8.833 Z-9.084
N1830 X-162.375 Y-8.239 Z-8.945
N1835 X-145.127 Y-7.84 Z-8.849
N1840 X-129.503 Y-7.579 Z-8.785
N1845 X-103.702 Y-7.324 Z-8.722
N1850 X-77.52 Y-7.266 Z-8.704
N1855 X-41.398 Y-7.401 Z-8.73
N1860 X-0.793 Y-7.774 Z-8.803
N1865 X40.452 Y-7.551 Z-8.75
N1870 X65.576 Y-7.504 Z-8.735
N1875 X91.251 Y-7.579 Z-8.748
N1880 X116.599 Y-7.803 Z-8.797
N1885 X137.344 Y-8.148 Z-8.874
N1890 X154.396 Y-8.537 Z-8.962
N1895 X175.101 Y-9.194 Z-9.111
N1900 X195.553 Y-10.028 Z-9.301
N1905 X215.648 Y-11.045 Z-9.533
N1910 X232.361 Y-12.056 Z-9.763
N1915 X247.917 Y-13.141 Z-10.011
N1920 X262.654 Y-14.402 Z-10.293
N1925 X275.117 Y-15.638 Z-10.57
N1930 X286.056 Y-16.89 Z-10.848
N1935 X298.885 Y-18.515 Z-11.212
N1940 X310.461 Y-20.134 Z-11.577
N1945 X322.406 Y-21.989 Z-11.994
N1950 X335.893 Y-24.278 Z-12.513
N1955 X356.433 Y-27.978 Z-13.373
N1960 X374.691 Y-31.45 Z-14.196
N1965 X393.564 Y-35.177 Z-15.089
N1970 X395.53 Y-35.552 Z-15.182
N1975 X397.062 Y-35.641 Z-15.228
N1980 X398.589 Y-35.494 Z-15.242
N1985 X400.15 Y-35.087 Z-15.223
N1990 X401.642 Y-34.631 Z-15.196
N1995 X403.176 Y-34.378 Z-15.197
N2000 X403.563 Y-34.136 Z-15.174
N2005 X403.789 Y-33.74 Z-15.127
N2010 X403.799 Y-33.269 Z-15.066
N2015 X403.594 Y-32.143 Z-14.94
N2020 X403.562 Y-31.241 Z-14.842
N2025 X403.609 Y-30.387 Z-14.751
N2030 X403.383 Y-29.657 Z-14.667
N2035 X402.911 Y-29.056 Z-14.589
N2040 X401.734 Y-28.042 Z-14.448
N2045 X400.722 Y-27.17 Z-14.328
N2050 X399.427 Y-26.348 Z-14.219
N2055 X398.019 Y-25.738 Z-14.122
N2060 X394.828 Y-24.912 Z-13.948
N2065 X378.677 Y-21.009 Z-13.108
N2070 X361.44 Y-16.991 Z-12.252
N2075 X351.309 Y-14.708 Z-11.77
N2080 X337.508 Y-11.7 Z-11.153
N2085 X323.437 Y-8.835 Z-10.576
N2090 X311.475 Y-6.611 Z-10.131
N2095 X299.014 Y-4.516 Z-9.713
N2100 X289.372 Y-3.048 Z-9.422
N2105 X276.861 Y-1.314 Z-9.079
N2110 X264.263 Y0.212 Z-8.778
N2115 X250.657 Y1.607 Z-8.5
N2120 X239.215 Y2.634 Z-8.297
N2125 X227.594 Y3.539 Z-8.112
N2130 X208.172 Y4.866 Z-7.843
N2135 X188.738 Y5.956 Z-7.62
N2140 X168.359 Y6.869 Z-7.434
N2145 X150.859 Y7.482 Z-7.312
N2150 X134.512 Y7.907 Z-7.227
N2155 X109.631 Y8.338 Z-7.142
N2160 X82.272 Y8.557 Z-7.101
N2165 X52.42 Y8.571 Z-7.104
N2170 X12.123 Y8.327 Z-7.153
N2175 X-1.232 Y8.242 Z-7.16
N2180 X-27.307 Y8.539 Z-7.129
N2185 X-53.256 Y8.748 Z-7.089
N2190 X-78.608 Y8.827 Z-7.078
N2195 X-100.008 Y8.766 Z-7.094
N2200 X-121.144 Y8.563 Z-7.143
N2205 X-143.183 Y8.162 Z-7.23
N2210 X-163.409 Y7.581 Z-7.355
N2215 X-182.125 Y6.864 Z-7.507
N2220 X-199.433 Y6.004 Z-7.686
N2225 X-216.313 Y5.007 Z-7.895
N2230 X-229.64 Y4.098 Z-8.084
N2235 X-243.661 Y3. Z-8.313
N2240 X-254.432 Y2.026 Z-8.509
N2245 X-264.743 Y0.955 Z-8.725
N2250 X-274.486 Y-0.198 Z-8.954
N2255 X-287.02 Y-1.867 Z-9.286
N2260 X-292.794 Y-2.703 Z-9.453
N2265 X-303.882 Y-4.44 Z-9.801
N2270 X-315.488 Y-6.463 Z-10.204
N2275 X-327.891 Y-8.837 Z-10.681
N2280 X-340.861 Y-11.523 Z-11.226
N2285 X-357.02 Y-15.082 Z-11.966
N2290 X-377.202 Y-19.771 Z-12.961
N2295 X-390.298 Y-22.928 Z-13.637
N2300 X-397.572 Y-24.733 Z-14.025
N2305 X-399.019 Y-25.245 Z-14.115
N2310 X-400.386 Y-25.944 Z-14.218
N2315 X-401.647 Y-26.818 Z-14.331
N2320 X-403.118 Y-28.143 Z-14.496
N2325 X-403.987 Y-28.867 Z-14.598
N2330 X-404.567 Y-29.515 Z-14.683
N2335 X-404.798 Y-30.081 Z-14.751
N2340 X-404.828 Y-30.623 Z-14.81
N2345 X-404.687 Y-31.615 Z-14.912
N2350 X-404.723 Y-32.533 Z-15.012
N2355 X-404.931 Y-33.586 Z-15.132
N2360 X-404.825 Y-34.175 Z-15.207
N2365 X-404.491 Y-34.645 Z-15.261
N2370 X-403.931 Y-34.949 Z-15.289
N2375 X-403.141 Y-35.089 Z-15.29
N2380 X-401.182 Y-35.668 Z-15.323
N2385 X-399.408 Y-36.165 Z-15.349
N2390 X-397.584 Y-36.413 Z-15.341
N2395 X-395.742 Y-36.407 Z-15.299
N2400 X-393.88 Y-36.142 Z-15.223
N2405 X-375.321 Y-32.586 Z-14.359
N2410 X-360.879 Y-29.913 Z-13.714
N2415 X-345.703 Y-27.222 Z-13.071
N2420 X-330.182 Y-24.586 Z-12.458
N2425 X-318.551 Y-22.743 Z-12.035
N2430 X-307.055 Y-21.079 Z-11.655
N2435 X-294.824 Y-19.478 Z-11.29
N2440 X-280.447 Y-17.803 Z-10.909
N2445 X-265.423 Y-16.318 Z-10.569
N2450 X-254.079 Y-15.351 Z-10.348
N2455 X-242.779 Y-14.516 Z-10.157
N2460 X-220.979 Y-13.201 Z-9.848
N2465 X-200.563 Y-12.223 Z-9.613
N2470 X-179.905 Y-11.422 Z-9.421
N2475 X-161.44 Y-10.859 Z-9.287
N2480 X-139.844 Y-10.405 Z-9.175
N2485 X-121.162 Y-10.143 Z-9.111
N2490 X-96.939 Y-9.979 Z-9.067
N2495 X-69.03 Y-9.963 Z-9.058
N2500 X-33.629 Y-10.142 Z-9.096
N2505 X0.614 Y-10.44 Z-9.157
N2510 X47.145 Y-10.209 Z-9.097
N2515 X84.532 Y-10.213 Z-9.092
N2520 X116.286 Y-10.478 Z-9.149
N2525 X140.86 Y-10.872 Z-9.239
N2530 X158.003 Y-11.289 Z-9.334
N2535 X178.997 Y-11.955 Z-9.488
N2540 X201.253 Y-12.889 Z-9.704
N2545 X222.082 Y-13.952 Z-9.953
N2550 X241.906 Y-15.208 Z-10.242
N2555 X254.573 Y-16.17 Z-10.46
N2560 X268.491 Y-17.393 Z-10.738
N2565 X283.464 Y-18.971 Z-11.094
N2570 X295.27 Y-20.368 Z-11.412
N2575 X305.246 Y-21.688 Z-11.711
N2580 X312.206 Y-22.661 Z-11.934
N2585 X325.052 Y-24.626 Z-12.383
N2590 X338.531 Y-26.855 Z-12.897
N2595 X357.392 Y-30.153 Z-13.678
N2600 X371.888 Y-32.799 Z-14.317
N2605 X392.59 Y-36.729 Z-15.277
N2610 X395.271 Y-37.213 Z-15.4
N2615 X397.11 Y-37.305 Z-15.448
N2620 X398.944 Y-37.144 Z-15.467
N2625 X400.739 Y-36.731 Z-15.453
N2630 X402.549 Y-36.124 Z-15.413
N2635 X404.108 Y-35.81 Z-15.406
N2640 X405.521 Y-35.593 Z-15.409
N2645 X405.906 Y-35.349 Z-15.385
N2650 X406.149 Y-34.961 Z-15.34
N2655 X406.179 Y-34.383 Z-15.264
N2660 X405.873 Y-32.88 Z-15.081
N2665 X405.802 Y-31.761 Z-14.959
N2670 X405.884 Y-30.5 Z-14.825
N2675 X405.79 Y-29.894 Z-14.757
N2680 X405.566 Y-29.323 Z-14.69
N2685 X405.099 Y-28.677 Z-14.608
N2690 X403.767 Y-27.552 Z-14.461
N2695 X402.181 Y-26.131 Z-14.293
N2700 X400.651 Y-25.107 Z-14.159
N2705 X398.992 Y-24.307 Z-14.038
N2710 X397.402 Y-23.787 Z-13.943
N2715 X381.159 Y-19.724 Z-13.084
N2720 X364.229 Y-15.637 Z-12.227
N2725 X352.901 Y-12.992 Z-11.676
N2730 X336.398 Y-9.304 Z-10.93
N2735 X323.687 Y-6.66 Z-10.405
N2740 X312.124 Y-4.432 Z-9.968
N2745 X299.647 Y-2.27 Z-9.543
N2750 X290.297 Y-0.801 Z-9.255
N2755 X277.057 Y1.093 Z-8.887
N2760 X264.505 Y2.651 Z-8.584
N2765 X251.187 Y4.057 Z-8.308
N2770 X240.334 Y5.065 Z-8.111
N2775 X221.85 Y6.528 Z-7.819
N2780 X203.433 Y7.738 Z-7.575
N2785 X185.477 Y8.733 Z-7.374
N2790 X165.385 Y9.634 Z-7.197
N2795 X145.405 Y10.291 Z-7.065
N2800 X122.873 Y10.817 Z-6.963
N2805 X95.789 Y11.159 Z-6.897
N2810 X67.074 Y11.274 Z-6.879
N2815 X36.002 Y11.175 Z-6.905
N2820 X12.988 Y11.001 Z-6.947
N2825 X0.155 Y10.91 Z-6.986
N2830 X-18.07 Y11.099 Z-6.928
N2835 X-44.139 Y11.367 Z-6.883
N2840 X-71.433 Y11.512 Z-6.859
N2845 X-101.79 Y11.435 Z-6.88
N2850 X-118.623 Y11.271 Z-6.918
N2855 X-142.017 Y10.852 Z-7.008
N2860 X-162.259 Y10.261 Z-7.132
N2865 X-181.317 Y9.524 Z-7.287
N2870 X-198.643 Y8.645 Z-7.466
N2875 X-215.543 Y7.626 Z-7.675
N2880 X-228.279 Y6.744 Z-7.858
N2885 X-242.616 Y5.604 Z-8.091
N2890 X-255.56 Y4.401 Z-8.33
N2895 X-268.048 Y3.019 Z-8.602
N2900 X-281.221 Y1.351 Z-8.931
N2905 X-294.016 Y-0.527 Z-9.299
N2910 X-304.233 Y-2.178 Z-9.625
N2915 X-315.849 Y-4.26 Z-10.034
N2920 X-327.684 Y-6.583 Z-10.493
N2925 X-340.662 Y-9.34 Z-11.044
N2930 X-357.118 Y-13.069 Z-11.805
N2935 X-377.29 Y-17.895 Z-12.811
N2940 X-390.379 Y-21.142 Z-13.494
N2945 X-398.063 Y-23.115 Z-13.911
N2950 X-399.789 Y-23.758 Z-14.02
N2955 X-401.423 Y-24.609 Z-14.144
N2960 X-402.939 Y-25.654 Z-14.28
N2965 X-404.174 Y-26.739 Z-14.409
N2970 X-405.902 Y-28.236 Z-14.588
N2975 X-406.728 Y-29.115 Z-14.7
N2980 X-407.047 Y-29.809 Z-14.784
N2985 X-407.115 Y-30.57 Z-14.867
N2990 X-406.952 Y-31.537 Z-14.967
N2995 X-406.926 Y-32.588 Z-15.079
N3000 X-407.144 Y-33.777 Z-15.213
N3005 X-407.284 Y-34.761 Z-15.34
N3010 X-407.102 Y-35.432 Z-15.424
N3015 X-406.714 Y-35.887 Z-15.475
N3020 X-406.166 Y-36.153 Z-15.497
N3025 X-405.167 Y-36.297 Z-15.494
N3030 X-403.024 Y-36.893 Z-15.525
N3035 X-400.658 Y-37.624 Z-15.569
N3040 X-398.541 Y-37.994 Z-15.579
N3045 X-396.395 Y-38.099 Z-15.557
N3050 X-394.253 Y-37.936 Z-15.493
N3055 X-385.655 Y-36.351 Z-15.098
N3060 X-365.631 Y-32.714 Z-14.2
N3065 X-347.125 Y-29.53 Z-13.418
N3070 X-330.088 Y-26.739 Z-12.748
N3075 X-318.18 Y-24.921 Z-12.319
N3080 X-306.403 Y-23.283 Z-11.936
N3085 X-293.578 Y-21.675 Z-11.564
N3090 X-279.549 Y-20.114 Z-11.204
N3095 X-264.977 Y-18.738 Z-10.884
N3100 X-250.229 Y-17.542 Z-10.608
N3105 X-237.705 Y-16.716 Z-10.413
N3110 X-219.292 Y-15.681 Z-10.164
N3115 X-199.819 Y-14.79 Z-9.947
N3120 X-178.437 Y-13.998 Z-9.755
N3125 X-160.133 Y-13.476 Z-9.628
N3130 X-137.324 Y-13.025 Z-9.516
N3135 X-117.61 Y-12.785 Z-9.454
N3140 X-90.772 Y-12.64 Z-9.414
N3145 X-59.324 Y-12.67 Z-9.416
N3150 X-21.233 Y-12.933 Z-9.472
N3155 X2.191 Y-13.107 Z-9.512
N3160 X47.618 Y-12.886 Z-9.449
N3165 X72.411 Y-12.876 Z-9.441
N3170 X101.974 Y-13.009 Z-9.469
N3175 X128.667 Y-13.316 Z-9.539
N3180 X151.225 Y-13.765 Z-9.643
N3185 X173.07 Y-14.381 Z-9.787
N3190 X194.68 Y-15.188 Z-9.976
N3195 X216.273 Y-16.206 Z-10.216
N3200 X235.41 Y-17.298 Z-10.474
N3205 X249.162 Y-18.226 Z-10.69
N3210 X264.014 Y-19.434 Z-10.967
N3215 X271.612 Y-20.135 Z-11.128
N3220 X282.198 Y-21.217 Z-11.38
N3225 X295.519 Y-22.731 Z-11.736
N3230 X310.323 Y-24.647 Z-12.186
N3235 X324.972 Y-26.804 Z-12.693
N3240 X339.49 Y-29.121 Z-13.245
N3245 X358.512 Y-32.337 Z-14.026
N3250 X372.403 Y-34.783 Z-14.63
N3255 X393.425 Y-38.627 Z-15.585
N3260 X395.659 Y-38.933 Z-15.672
N3265 X397.808 Y-38.946 Z-15.713
N3270 X399.941 Y-38.684 Z-15.711
N3275 X401.729 Y-38.244 Z-15.675
N3280 X403.756 Y-37.554 Z-15.628
N3285 X405.25 Y-37.202 Z-15.615
N3290 X407.317 Y-36.9 Z-15.622
N3295 X407.853 Y-36.833 Z-15.625
N3300 X408.246 Y-36.6 Z-15.604
N3305 X408.51 Y-36.227 Z-15.561
N3310 X408.599 Y-35.778 Z-15.504
N3315 X408.262 Y-34.231 Z-15.293
N3320 X408.073 Y-32.701 Z-15.123
N3325 X408.067 Y-31.423 Z-14.986
N3330 X408.15 Y-30.613 Z-14.901
N3335 X408.029 Y-29.702 Z-14.8
N3340 X407.675 Y-28.854 Z-14.7
N3345 X407.166 Y-28.181 Z-14.627
N3350 X405.787 Y-27.03 Z-14.486
N3355 X404.114 Y-25.483 Z-14.305
N3360 X402.392 Y-24.198 Z-14.143
N3365 X400.518 Y-23.147 Z-13.995
N3370 X398.524 Y-22.348 Z-13.864
N3375 X392.867 Y-20.84 Z-13.552
N3380 X373.211 Y-15.836 Z-12.517
N3385 X354.789 Y-11.36 Z-11.599
N3390 X337.393 Y-7.35 Z-10.797
N3395 X325.283 Y-4.75 Z-10.288
N3400 X316.612 Y-3.008 Z-9.949
N3405 X310.656 Y-1.875 Z-9.73
N3410 X299.674 Y0.073 Z-9.36
N3415 X290.919 Y1.487 Z-9.092
N3420 X277.334 Y3.485 Z-8.716
N3425 X265.487 Y4.999 Z-8.432
N3430 X252.634 Y6.415 Z-8.163
N3435 X242.063 Y7.438 Z-7.971
N3440 X225.184 Y8.83 Z-7.7
N3445 X207.251 Y10.105 Z-7.453
N3450 X187.433 Y11.254 Z-7.227
N3455 X167.935 Y12.169 Z-7.049
N3460 X148.846 Y12.855 Z-6.919
N3465 X126.316 Y13.418 Z-6.81
N3470 X104.106 Y13.757 Z-6.747
N3475 X77.214 Y13.944 Z-6.717
N3480 X44.281 Y13.908 Z-6.733
N3485 X7.615 Y13.619 Z-6.794
N3490 X-0.46 Y13.58 Z-6.813
N3495 X-17.434 Y13.764 Z-6.77
N3500 X-42.89 Y14.034 Z-6.727
N3505 X-70.821 Y14.194 Z-6.703
N3510 X-92.888 Y14.163 Z-6.714
N3515 X-117.446 Y13.958 Z-6.761
N3520 X-141.465 Y13.526 Z-6.853
N3525 X-162.337 Y12.904 Z-6.981
N3530 X-181.122 Y12.156 Z-7.134
N3535 X-198.16 Y11.272 Z-7.31
N3540 X-215.08 Y10.227 Z-7.519
N3545 X-227.838 Y9.325 Z-7.703
N3550 X-242.185 Y8.158 Z-7.935
N3555 X-256.221 Y6.82 Z-8.193
N3560 X-268.608 Y5.402 Z-8.463
N3565 X-281.507 Y3.722 Z-8.784
N3570 X-294.327 Y1.788 Z-9.151
N3575 X-304.584 Y0.085 Z-9.476
N3580 X-316.211 Y-2.057 Z-9.883
N3585 X-327.644 Y-4.361 Z-10.325
N3590 X-340.765 Y-7.219 Z-10.88
N3595 X-357.515 Y-11.125 Z-11.659
N3600 X-376.631 Y-15.825 Z-12.622
N3605 X-392.541 Y-19.897 Z-13.465
N3610 X-398.585 Y-21.509 Z-13.798
N3615 X-400.589 Y-22.286 Z-13.928
N3620 X-402.488 Y-23.291 Z-14.073
N3625 X-404.257 Y-24.512 Z-14.231
N3630 X-405.859 Y-25.921 Z-14.399
N3635 X-407.183 Y-27.096 Z-14.54
N3640 X-408.264 Y-28.025 Z-14.653
N3645 X-408.887 Y-28.716 Z-14.73
N3650 X-409.245 Y-29.392 Z-14.801
N3655 X-409.401 Y-30.108 Z-14.882
N3660 X-409.327 Y-30.992 Z-14.975
N3665 X-409.174 Y-32.16 Z-15.096
N3670 X-409.186 Y-33.255 Z-15.214
N3675 X-409.492 Y-34.768 Z-15.391
N3680 X-409.65 Y-36.172 Z-15.58
N3685 X-409.579 Y-36.624 Z-15.637
N3690 X-409.231 Y-37.101 Z-15.692
N3695 X-408.676 Y-37.334 Z-15.71
N3700 X-407.019 Y-37.55 Z-15.701
N3705 X-404.889 Y-38.13 Z-15.729
N3710 X-402.202 Y-38.993 Z-15.799
N3715 X-399.801 Y-39.509 Z-15.836
N3720 X-397.356 Y-39.745 Z-15.828
N3725 X-394.901 Y-39.697 Z-15.776
N3730 X-392.347 Y-39.346 Z-15.676
N3735 X-368.798 Y-35.2 Z-14.635
N3740 X-352.517 Y-32.469 Z-13.952
N3745 X-334.146 Y-29.523 Z-13.232
N3750 X-320.691 Y-27.511 Z-12.748
N3755 X-308.494 Y-25.831 Z-12.349
N3760 X-293.857 Y-24.053 Z-11.924
N3765 X-279.263 Y-22.488 Z-11.551
N3770 X-264.397 Y-21.14 Z-11.229
N3775 X-249.71 Y-20.002 Z-10.958
N3780 X-236.593 Y-19.175 Z-10.758
N3785 X-218.526 Y-18.208 Z-10.52
N3790 X-197.581 Y-17.3 Z-10.294
N3795 X-175.255 Y-16.523 Z-10.103
N3800 X-155.756 Y-16.027 Z-9.977
N3805 X-133.391 Y-15.631 Z-9.878
N3810 X-103.65 Y-15.361 Z-9.807
N3815 X-73.324 Y-15.322 Z-9.792
N3820 X-46.724 Y-15.422 Z-9.812
N3825 X-0.793 Y-15.778 Z-9.895
N3830 X39.814 Y-15.582 Z-9.84
N3835 X78.067 Y-15.566 Z-9.83
N3840 X106.087 Y-15.715 Z-9.863
N3845 X132.534 Y-16.053 Z-9.942
N3850 X147.218 Y-16.329 Z-10.008
N3855 X169.598 Y-16.9 Z-10.145
N3860 X193.322 Y-17.73 Z-10.346
N3865 X215.819 Y-18.746 Z-10.591
N3870 X235.247 Y-19.812 Z-10.849
N3875 X249.263 Y-20.724 Z-11.067
N3880 X264.389 Y-21.913 Z-11.348
N3885 X272.883 Y-22.679 Z-11.53
N3890 X284.969 Y-23.889 Z-11.816
N3895 X298.849 Y-25.464 Z-12.19
N3900 X310.872 Y-26.989 Z-12.554
N3905 X325.5 Y-29.068 Z-13.049
N3910 X340.3 Y-31.35 Z-13.6
N3915 X359.029 Y-34.4 Z-14.352
N3920 X373.223 Y-36.807 Z-14.956
N3925 X392.752 Y-40.238 Z-15.821
N3930 X394.555 Y-40.516 Z-15.897
N3935 X396.7 Y-40.642 Z-15.955
N3940 X398.847 Y-40.539 Z-15.977
N3945 X400.971 Y-40.208 Z-15.964
N3950 X403.316 Y-39.565 Z-15.907
N3955 X405.554 Y-38.815 Z-15.834
N3960 X407.289 Y-38.454 Z-15.826
N3965 X409.413 Y-38.148 Z-15.834
N3970 X410.353 Y-38.093 Z-15.849
N3975 X410.759 Y-37.886 Z-15.831
N3980 X411.01 Y-37.506 Z-15.786
N3985 X411.033 Y-37.011 Z-15.722
N3990 X410.336 Y-34.104 Z-15.338
N3995 X410.18 Y-32.888 Z-15.203
N4000 X410.263 Y-31.822 Z-15.091
N4005 X410.505 Y-30.356 Z-14.94
N4010 X410.479 Y-29.743 Z-14.873
N4015 X410.32 Y-29.151 Z-14.815
N4020 X410.037 Y-28.607 Z-14.761
N4025 X409.245 Y-27.717 Z-14.662
N4030 X407.347 Y-26.101 Z-14.465
N4035 X405.335 Y-24.25 Z-14.246
N4040 X403.607 Y-22.973 Z-14.084
N4045 X401.752 Y-21.888 Z-13.938
N4050 X399.79 Y-21.009 Z-13.812
N4055 X397.582 Y-20.302 Z-13.684
N4060 X384.616 Y-16.853 Z-12.983
N4065 X369.57 Y-12.973 Z-12.201
N4070 X354.714 Y-9.282 Z-11.461
N4075 X338.386 Y-5.403 Z-10.71
N4080 X326.576 Y-2.789 Z-10.213
N4085 X318.794 Y-1.17 Z-9.907
N4090 X312.212 Y0.14 Z-9.664
N4095 X300.61 Y2.265 Z-9.269
N4100 X291.843 Y3.725 Z-8.995
N4105 X278.734 Y5.716 Z-8.627
N4110 X265.71 Y7.438 Z-8.309
N4115 X255.302 Y8.64 Z-8.085
N4120 X243.487 Y9.831 Z-7.864
N4125 X227.5 Y11.199 Z-7.602
N4130 X212.045 Y12.354 Z-7.381
N4135 X196.045 Y13.381 Z-7.184
N4140 X178.038 Y14.361 Z-7.
N4145 X159.692 Y15.134 Z-6.851
N4150 X139.39 Y15.784 Z-6.729
N4155 X119.257 Y16.221 Z-6.648
N4160 X93.368 Y16.547 Z-6.59
N4165 X62.231 Y16.641 Z-6.579
N4170 X25.078 Y16.462 Z-6.624
N4175 X1.992 Y16.241 Z-6.649
N4180 X-10.962 Y16.352 Z-6.637
N4185 X-37.648 Y16.666 Z-6.596
N4190 X-68.066 Y16.857 Z-6.565
N4195 X-95.587 Y16.831 Z-6.578
N4200 X-121.332 Y16.576 Z-6.634
N4205 X-143.37 Y16.133 Z-6.725
N4210 X-163.029 Y15.522 Z-6.849
N4215 X-181.233 Y14.774 Z-6.999
N4220 X-197.983 Y13.882 Z-7.173
N4225 X-214.923 Y12.81 Z-7.384
N4230 X-227.398 Y11.908 Z-7.564
N4235 X-242.059 Y10.688 Z-7.802
N4240 X-255.657 Y9.362 Z-8.053
N4245 X-267.581 Y7.984 Z-8.312
N4250 X-280.165 Y6.318 Z-8.624
N4255 X-292.213 Y4.502 Z-8.963
N4260 X-304.425 Y2.441 Z-9.35
N4265 X-316.572 Y0.147 Z-9.779
N4270 X-328.976 Y-2.425 Z-10.264
N4275 X-341.373 Y-5.216 Z-10.795
N4280 X-358.759 Y-9.397 Z-11.612
N4285 X-376.8 Y-13.957 Z-12.525
N4290 X-394.978 Y-18.743 Z-13.497
N4295 X-399.14 Y-19.916 Z-13.728
N4300 X-401.42 Y-20.828 Z-13.869
N4305 X-403.583 Y-21.992 Z-14.019
N4310 X-405.358 Y-23.204 Z-14.162
N4315 X-407.211 Y-24.777 Z-14.353
N4320 X-408.977 Y-26.378 Z-14.544
N4325 X-410.401 Y-27.605 Z-14.692
N4330 X-411.045 Y-28.317 Z-14.773
N4335 X-411.487 Y-29.122 Z-14.853
N4340 X-411.686 Y-30.019 Z-14.937
N4345 X-411.631 Y-30.91 Z-15.031
N4350 X-411.331 Y-32.314 Z-15.174
N4355 X-411.307 Y-33.234 Z-15.272
N4360 X-411.491 Y-34.3 Z-15.392
N4365 X-411.7 Y-35.093 Z-15.485
N4370 X-411.902 Y-36.246 Z-15.641
N4375 X-411.979 Y-37.328 Z-15.785
N4380 X-411.8 Y-37.91 Z-15.858
N4385 X-411.378 Y-38.349 Z-15.906
N4390 X-410.829 Y-38.548 Z-15.919
N4395 X-408.897 Y-38.797 Z-15.908
N4400 X-405.872 Y-39.632 Z-15.964
N4405 X-403.122 Y-40.525 Z-16.052
N4410 X-400.725 Y-41.061 Z-16.092
N4415 X-398.287 Y-41.36 Z-16.094
N4420 X-395.831 Y-41.419 Z-16.059
N4425 X-393.382 Y-41.237 Z-15.987
N4430 X-384.462 Y-39.734 Z-15.599
N4435 X-364.25 Y-36.359 Z-14.739
N4440 X-344.975 Y-33.311 Z-13.969
N4445 X-327.47 Y-30.685 Z-13.324
N4450 X-315.612 Y-29.037 Z-12.923
N4455 X-304.487 Y-27.627 Z-12.582
N4460 X-291.388 Y-26.128 Z-12.22
N4465 X-277.753 Y-24.751 Z-11.888
N4470 X-262.593 Y-23.444 Z-11.572
N4475 X-248.27 Y-22.406 Z-11.32
N4480 X-232.575 Y-21.489 Z-11.093
N4485 X-212.552 Y-20.506 Z-10.848
N4490 X-197.144 Y-19.884 Z-10.691
N4495 X-174.836 Y-19.145 Z-10.506
N4500 X-158.441 Y-18.737 Z-10.401
N4505 X-135.272 Y-18.326 Z-10.296
N4510 X-114.96 Y-18.115 Z-10.24
N4515 X-95.011 Y-18.009 Z-10.211
N4520 X-66.575 Y-18.019 Z-10.208
N4525 X-29.93 Y-18.208 Z-10.25
N4530 X-0.179 Y-18.444 Z-10.302
N4535 X39.527 Y-18.26 Z-10.253
N4540 X78.995 Y-18.248 Z-10.243
N4545 X108.313 Y-18.412 Z-10.28
N4550 X134.409 Y-18.745 Z-10.36
N4555 X155.4 Y-19.157 Z-10.459
N4560 X171.652 Y-19.595 Z-10.566
N4565 X194.419 Y-20.377 Z-10.758
N4570 X217.206 Y-21.374 Z-11.002
N4575 X238.269 Y-22.502 Z-11.28
N4580 X253.653 Y-23.529 Z-11.526
N4585 X267.214 Y-24.585 Z-11.781
N4590 X280.101 Y-25.776 Z-12.065
N4595 X294.444 Y-27.277 Z-12.427
N4600 X303.511 Y-28.342 Z-12.682
N4605 X314.772 Y-29.768 Z-13.026
N4610 X329.374 Y-31.801 Z-13.52
N4615 X352.27 Y-35.28 Z-14.382
N4620 X371.318 Y-38.361 Z-15.164
N4625 X393.185 Y-42.039 Z-16.109
N4630 X395.629 Y-42.284 Z-16.188
N4635 X398.085 Y-42.275 Z-16.231
N4640 X400.527 Y-42.011 Z-16.234
N4645 X402.928 Y-41.496 Z-16.198
N4650 X405.591 Y-40.619 Z-16.111
N4655 X407.653 Y-40.013 Z-16.056
N4660 X410.247 Y-39.571 Z-16.041
N4665 X411.509 Y-39.396 Z-16.047
N4670 X412.714 Y-39.33 Z-16.066
N4675 X413.124 Y-39.13 Z-16.049
N4680 X413.391 Y-38.76 Z-16.006
N4685 X413.446 Y-38.274 Z-15.943
N4690 X412.577 Y-34.638 Z-15.459
N4695 X412.405 Y-33.423 Z-15.323
N4700 X412.471 Y-32.198 Z-15.193
N4705 X412.789 Y-30.452 Z-15.014
N4710 X412.752 Y-29.534 Z-14.93
N4715 X412.466 Y-28.661 Z-14.85
N4720 X411.937 Y-27.881 Z-14.768
N4725 X410.71 Y-26.674 Z-14.628
N4730 X408.91 Y-25.169 Z-14.443
N4735 X406.909 Y-23.313 Z-14.225
N4740 X405.076 Y-21.919 Z-14.076
N4745 X402.98 Y-20.639 Z-13.924
N4750 X400.761 Y-19.585 Z-13.778
N4755 X398.444 Y-18.77 Z-13.64
N4760 X384.705 Y-15.011 Z-12.891
N4765 X370.261 Y-11.179 Z-12.134
N4770 X356.052 Y-7.549 Z-11.419
N4775 X337.988 Y-3.138 Z-10.579
N4780 X326.366 Y-0.509 Z-10.089
N4785 X319.469 Y0.961 Z-9.814
N4790 X312.861 Y2.316 Z-9.567
N4795 X300.952 Y4.551 Z-9.158
N4800 X288.23 Y6.7 Z-8.765
N4805 X275.042 Y8.664 Z-8.407
N4810 X264.314 Y10.077 Z-8.149
N4815 X251.86 Y11.495 Z-7.889
N4820 X243.074 Y12.391 Z-7.727
N4825 X227.061 Y13.79 Z-7.463
N4830 X211.586 Y14.97 Z-7.241
N4835 X195.877 Y15.998 Z-7.047
N4840 X178.154 Y16.986 Z-6.864
N4845 X160.079 Y17.769 Z-6.717
N4850 X140.374 Y18.42 Z-6.595
N4855 X120.52 Y18.875 Z-6.513
N4860 X95.305 Y19.213 Z-6.454
N4865 X66.076 Y19.325 Z-6.438
N4870 X34.032 Y19.203 Z-6.469
N4875 X0.78 Y18.904 Z-6.554
N4880 X-19.539 Y19.138 Z-6.491
N4885 X-44.692 Y19.413 Z-6.447
N4890 X-75.53 Y19.556 Z-6.426
N4895 X-94.53 Y19.513 Z-6.438
N4900 X-118.13 Y19.293 Z-6.486
N4905 X-141.59 Y18.843 Z-6.577
N4910 X-161.266 Y18.228 Z-6.699
N4915 X-179.631 Y17.467 Z-6.849
N4920 X-195.66 Y16.625 Z-7.012
N4925 X-213.541 Y15.482 Z-7.232
N4930 X-226.345 Y14.543 Z-7.416
N4935 X-241.611 Y13.257 Z-7.663
N4940 X-252.196 Y12.213 Z-7.856
N4945 X-265.392 Y10.725 Z-8.133
N4950 X-279.115 Y8.894 Z-8.47
N4955 X-292.201 Y6.877 Z-8.839
N4960 X-303.477 Y4.945 Z-9.198
N4965 X-316.561 Y2.427 Z-9.66
N4970 X-326.288 Y0.385 Z-10.04
N4975 X-338.471 Y-2.386 Z-10.556
N4980 X-352.009 Y-5.675 Z-11.178
N4985 X-359.74 Y-7.608 Z-11.554
N4990 X-377.392 Y-12.198 Z-12.457
N4995 X-394.578 Y-16.842 Z-13.382
N5000 X-399.439 Y-18.236 Z-13.654
N5005 X-401.727 Y-19.129 Z-13.794
N5010 X-403.918 Y-20.24 Z-13.941
N5015 X-405.99 Y-21.559 Z-14.095
N5020 X-407.986 Y-23.124 Z-14.261
N5025 X-409.36 Y-24.413 Z-14.397
N5030 X-410.771 Y-25.66 Z-14.547
N5035 X-412.097 Y-26.758 Z-14.682
N5040 X-413.005 Y-27.684 Z-14.789
N5045 X-413.536 Y-28.434 Z-14.868
N5050 X-413.869 Y-29.291 Z-14.949
N5055 X-413.982 Y-30.203 Z-15.027
N5060 X-413.877 Y-31.084 Z-15.113
N5065 X-413.573 Y-32.475 Z-15.254
N5070 X-413.538 Y-33.701 Z-15.385
N5075 X-413.745 Y-34.859 Z-15.515
N5080 X-413.966 Y-35.683 Z-15.614
N5085 X-414.184 Y-36.833 Z-15.771
N5090 X-414.31 Y-38.177 Z-15.95
N5095 X-414.219 Y-38.78 Z-16.028
N5100 X-413.897 Y-39.299 Z-16.088
N5105 X-413.397 Y-39.648 Z-16.123
N5110 X-412.677 Y-39.798 Z-16.126
N5115 X-410.799 Y-40.04 Z-16.118
N5120 X-407.443 Y-40.956 Z-16.197
N5125 X-404.151 Y-42.052 Z-16.306
N5130 X-401.462 Y-42.687 Z-16.355
N5135 X-398.722 Y-43.048 Z-16.366
N5140 X-395.96 Y-43.133 Z-16.34
N5145 X-393.204 Y-42.941 Z-16.266
N5150 X-383.043 Y-41.296 Z-15.834
N5155 X-362.951 Y-38.095 Z-15.
N5160 X-343.668 Y-35.182 Z-14.247
N5165 X-326.463 Y-32.716 Z-13.626
N5170 X-313.107 Y-30.955 Z-13.19
N5175 X-300.782 Y-29.494 Z-12.832
N5180 X-286.225 Y-27.946 Z-12.453
N5185 X-269.266 Y-26.424 Z-12.079
N5190 X-257.25 Y-25.504 Z-11.854
N5195 X-242.148 Y-24.541 Z-11.616
N5200 X-225.56 Y-23.666 Z-11.395
N5205 X-204.103 Y-22.736 Z-11.158
N5210 X-181.479 Y-21.969 Z-10.96
N5215 X-163.733 Y-21.498 Z-10.84
N5220 X-139.56 Y-21.057 Z-10.724
N5225 X-113. Y-20.776 Z-10.648
N5230 X-85.512 Y-20.682 Z-10.619
N5235 X-53.242 Y-20.747 Z-10.631
N5240 X0. Y-21.115 Z-10.71
N5245 X53.761 Y-20.915 Z-10.657
N5250 X84.52 Y-20.949 Z-10.66
N5255 X111.994 Y-21.124 Z-10.701
N5260 X137.326 Y-21.456 Z-10.782
N5265 X162.34 Y-21.971 Z-10.909
N5270 X184.862 Y-22.641 Z-11.074
N5275 X208.16 Y-23.526 Z-11.296
N5280 X227.561 Y-24.451 Z-11.525
N5285 X241.837 Y-25.236 Z-11.721
N5290 X256.523 Y-26.205 Z-11.957
N5295 X271.284 Y-27.366 Z-12.24
N5300 X285.863 Y-28.723 Z-12.57
N5305 X299.885 Y-30.203 Z-12.938
N5310 X311.365 Y-31.564 Z-13.276
N5315 X326.256 Y-33.523 Z-13.764
N5320 X342.839 Y-35.9 Z-14.362
N5325 X363.24 Y-38.976 Z-15.157
N5330 X387.143 Y-42.773 Z-16.149
N5335 X393.371 Y-43.774 Z-16.413
N5340 X396.127 Y-43.975 Z-16.489
N5345 X398.889 Y-43.895 Z-16.516
N5350 X401.629 Y-43.535 Z-16.494
N5355 X404.318 Y-42.898 Z-16.44
N5360 X407.674 Y-41.762 Z-16.326
N5365 X409.756 Y-41.229 Z-16.282
N5370 X413.309 Y-40.672 Z-16.263
N5375 X414.809 Y-40.591 Z-16.28
N5380 X415.251 Y-40.473 Z-16.275
N5385 X415.604 Y-40.182 Z-16.245
N5390 X415.802 Y-39.771 Z-16.195
N5395 X415.777 Y-39.177 Z-16.117
N5400 X414.863 Y-35.335 Z-15.599
N5405 X414.676 Y-33.845 Z-15.433
N5410 X414.731 Y-32.312 Z-15.27
N5415 X415.041 Y-30.224 Z-15.066
N5420 X414.992 Y-29.306 Z-14.99
N5425 X414.718 Y-28.429 Z-14.909
N5430 X414.234 Y-27.647 Z-14.829
N5435 X412.858 Y-26.248 Z-14.667
N5440 X411.159 Y-24.852 Z-14.495
N5445 X408.778 Y-22.632 Z-14.269
N5450 X406.792 Y-21.049 Z-14.103
N5455 X404.472 Y-19.548 Z-13.928
N5460 X402.01 Y-18.293 Z-13.762
N5465 X399.433 Y-17.297 Z-13.605
N5470 X389.631 Y-14.499 Z-13.059
N5475 X372.139 Y-9.704 Z-12.128
N5480 X354.879 Y-5.192 Z-11.255
N5485 X342.169 Y-1.989 Z-10.653
N5490 X330.055 Y0.903 Z-10.122
N5495 X317.438 Y3.664 Z-9.62
N5500 X308.082 Y5.55 Z-9.28
N5505 X298.268 Y7.384 Z-8.956
N5510 X287.276 Y9.251 Z-8.628
N5515 X274.725 Y11.154 Z-8.294
N5520 X264.251 Y12.555 Z-8.047
N5525 X252.084 Y13.975 Z-7.796
N5530 X243.885 Y14.836 Z-7.646
N5535 X228.153 Y16.251 Z-7.386
N5540 X213.272 Y17.427 Z-7.171
N5545 X199.388 Y18.38 Z-6.997
N5550 X183.176 Y19.343 Z-6.823
N5555 X164.762 Y20.241 Z-6.665
N5560 X144.735 Y20.953 Z-6.534
N5565 X123.319 Y21.503 Z-6.438
N5570 X97.683 Y21.871 Z-6.375
N5575 X71.301 Y22.004 Z-6.356
N5580 X42.618 Y21.935 Z-6.377
N5585 X6.37 Y21.622 Z-6.441
N5590 X-4.16 Y21.6 Z-6.45
N5595 X-33.307 Y21.979 Z-6.389
N5600 X-64.159 Y22.208 Z-6.354
N5605 X-90.272 Y22.217 Z-6.36
N5610 X-106.806 Y22.101 Z-6.386
N5615 X-129.905 Y21.767 Z-6.455
N5620 X-150.25 Y21.247 Z-6.558
N5625 X-168.679 Y20.591 Z-6.684
N5630 X-184.524 Y19.842 Z-6.825
N5635 X-198.243 Y19.066 Z-6.972
N5640 X-214.916 Y17.956 Z-7.181
N5645 X-226.516 Y17.082 Z-7.35
N5650 X-241.497 Y15.79 Z-7.592
N5655 X-251.791 Y14.754 Z-7.777
N5660 X-264.819 Y13.257 Z-8.046
N5665 X-276.44 Y11.697 Z-8.322
N5670 X-287.908 Y9.961 Z-8.631
N5675 X-300.456 Y7.825 Z-9.011
N5680 X-311.042 Y5.823 Z-9.367
N5685 X-318.677 Y4.263 Z-9.644
N5690 X-327.301 Y2.38 Z-9.982
N5695 X-336.43 Y0.27 Z-10.363
N5700 X-345.843 Y-2.034 Z-10.781
N5705 X-360.579 Y-5.79 Z-11.491
N5710 X-379.187 Y-10.755 Z-12.453
N5715 X-393.955 Y-14.873 Z-13.254
N5720 X-399.484 Y-16.47 Z-13.564
N5725 X-402.068 Y-17.449 Z-13.721
N5730 X-404.546 Y-18.671 Z-13.886
N5735 X-406.896 Y-20.125 Z-14.059
N5740 X-409.118 Y-21.818 Z-14.241
N5745 X-411.675 Y-24.179 Z-14.472
N5750 X-413.548 Y-25.723 Z-14.649
N5755 X-415.008 Y-27.12 Z-14.813
N5760 X-415.704 Y-28.03 Z-14.912
N5765 X-416.073 Y-28.872 Z-14.993
N5770 X-416.252 Y-29.774 Z-15.073
N5775 X-416.232 Y-30.694 Z-15.147
N5780 X-416.149 Y-31.14 Z-15.185
N5785 X-415.868 Y-32.33 Z-15.304
N5790 X-415.746 Y-33.546 Z-15.432
N5795 X-415.85 Y-34.769 Z-15.566
N5800 X-416.231 Y-36.274 Z-15.745
N5805 X-416.507 Y-37.724 Z-15.943
N5810 X-416.64 Y-39.332 Z-16.157
N5815 X-416.492 Y-39.924 Z-16.232
N5820 X-416.125 Y-40.412 Z-16.287
N5825 X-415.597 Y-40.719 Z-16.315
N5830 X-415.115 Y-40.801 Z-16.317
N5835 X-414.418 Y-40.826 Z-16.307
N5840 X-412.357 Y-41.353 Z-16.35
N5845 X-408.72 Y-42.371 Z-16.439
N5850 X-405.345 Y-43.478 Z-16.547
N5855 X-402.356 Y-44.183 Z-16.617
N5860 X-399.315 Y-44.609 Z-16.646
N5865 X-396.248 Y-44.754 Z-16.626
N5870 X-393.181 Y-44.615 Z-16.556
N5875 X-389.174 Y-44.057 Z-16.401
N5880 X-363.17 Y-40.065 Z-15.345
N5885 X-342.967 Y-37.149 Z-14.581
N5890 X-326.064 Y-34.838 Z-13.991
N5895 X-312.059 Y-33.076 Z-13.545
N5900 X-299.211 Y-31.629 Z-13.18
N5905 X-284.696 Y-30.178 Z-12.814
N5910 X-267.445 Y-28.709 Z-12.445
N5915 X-252.554 Y-27.667 Z-12.181
N5920 X-235.807 Y-26.701 Z-11.935
N5925 X-219.295 Y-25.926 Z-11.734
N5930 X-195.042 Y-25.012 Z-11.494
N5935 X-173.691 Y-24.375 Z-11.327
N5940 X-153.293 Y-23.937 Z-11.211
N5945 X-128.071 Y-23.581 Z-11.115
N5950 X-110.269 Y-23.437 Z-11.075
N5955 X-84.885 Y-23.365 Z-11.053
N5960 X-52.016 Y-23.435 Z-11.066
N5965 X-5.177 Y-23.746 Z-11.15
N5970 X7.26 Y-23.756 Z-11.149
N5975 X52.556 Y-23.597 Z-11.095
N5980 X84.828 Y-23.63 Z-11.099
N5985 X115.111 Y-23.821 Z-11.145
N5990 X145.878 Y-24.26 Z-11.255
N5995 X169.941 Y-24.809 Z-11.394
N6000 X193.723 Y-25.549 Z-11.583
N6005 X217.985 Y-26.537 Z-11.835
N6010 X237.362 Y-27.484 Z-12.078
N6015 X250.256 Y-28.246 Z-12.27
N6020 X265.327 Y-29.316 Z-12.538
N6025 X278.905 Y-30.446 Z-12.82
N6030 X289.504 Y-31.44 Z-13.07
N6035 X301.955 Y-32.736 Z-13.396
N6040 X311.917 Y-33.879 Z-13.683
N6045 X326.483 Y-35.72 Z-14.148
N6050 X344.053 Y-38.134 Z-14.765
N6055 X360.288 Y-40.469 Z-15.377
N6060 X376.912 Y-42.966 Z-16.037
N6065 X392.68 Y-45.392 Z-16.684
N6070 X395.433 Y-45.628 Z-16.766
N6075 X398.197 Y-45.615 Z-16.805
N6080 X400.948 Y-45.353 Z-16.8
N6085 X403.664 Y-44.845 Z-16.752
N6090 X406.032 Y-44.19 Z-16.673
N6095 X408.882 Y-43.196 Z-16.569
N6100 X410.958 Y-42.637 Z-16.522
N6105 X414.34 Y-42.078 Z-16.499
N6110 X415.702 Y-41.892 Z-16.496
N6115 X417.209 Y-41.816 Z-16.513
N6120 X417.762 Y-41.564 Z-16.485
N6125 X418.121 Y-41.074 Z-16.422
N6130 X418.195 Y-40.464 Z-16.343
N6135 X417.124 Y-35.957 Z-15.731
N6140 X416.916 Y-34.437 Z-15.561
N6145 X416.928 Y-32.932 Z-15.4
N6150 X417.169 Y-31.198 Z-15.221
N6155 X417.327 Y-29.9 Z-15.121
N6160 X417.232 Y-28.986 Z-15.044
N6165 X416.937 Y-28.115 Z-14.963
N6170 X416.457 Y-27.331 Z-14.882
N6175 X415.229 Y-26.033 Z-14.733
N6180 X413.323 Y-24.444 Z-14.556
N6185 X412.039 Y-23.3 Z-14.442
N6190 X410.415 Y-21.755 Z-14.293
N6195 X408.254 Y-20.006 Z-14.111
N6200 X405.957 Y-18.47 Z-13.933
N6205 X403.53 Y-17.149 Z-13.775
N6210 X400.992 Y-16.054 Z-13.627
N6215 X398.274 Y-15.167 Z-13.473
N6220 X384. Y-11.065 Z-12.689
N6225 X369.725 Y-7.093 Z-11.937
N6230 X354.095 Y-2.905 Z-11.15
N6235 X339.565 Y0.83 Z-10.476
N6240 X328.347 Y3.518 Z-9.999
N6245 X316.015 Y6.264 Z-9.52
N6250 X302.825 Y8.911 Z-9.061
N6255 X292.19 Y10.822 Z-8.727
N6260 X280.483 Y12.738 Z-8.398
N6265 X270.85 Y14.14 Z-8.154
N6270 X258.546 Y15.745 Z-7.881
N6275 X246.226 Y17.111 Z-7.641
N6280 X238.348 Y17.89 Z-7.507
N6285 X223.857 Y19.177 Z-7.277
N6290 X207.19 Y20.468 Z-7.048
N6295 X188.812 Y21.652 Z-6.834
N6300 X171.077 Y22.587 Z-6.666
N6305 X152.564 Y23.358 Z-6.532
N6310 X133.879 Y23.927 Z-6.433
N6315 X111.069 Y24.388 Z-6.354
N6320 X87.037 Y24.63 Z-6.314
N6325 X61.819 Y24.686 Z-6.311
N6330 X29.174 Y24.523 Z-6.351
N6335 X0.578 Y24.243 Z-6.387
N6340 X-17.037 Y24.449 Z-6.368
N6345 X-40.351 Y24.727 Z-6.33
N6350 X-69.681 Y24.905 Z-6.304
N6355 X-91.103 Y24.894 Z-6.314
N6360 X-116.049 Y24.673 Z-6.361
N6365 X-137.093 Y24.267 Z-6.44
N6370 X-155.897 Y23.722 Z-6.544
N6375 X-174.297 Y22.966 Z-6.686
N6380 X-186.169 Y22.37 Z-6.796
N6385 X-198.373 Y21.659 Z-6.927
N6390 X-214.76 Y20.542 Z-7.133
N6395 X-226.076 Y19.674 Z-7.298
N6400 X-243.216 Y18.142 Z-7.577
N6405 X-252.302 Y17.197 Z-7.742
N6410 X-265.038 Y15.694 Z-8.007
N6415 X-276.399 Y14.136 Z-8.278
N6420 X-287.32 Y12.455 Z-8.572
N6425 X-299.201 Y10.41 Z-8.928
N6430 X-310.892 Y8.16 Z-9.321
N6435 X-322.351 Y5.736 Z-9.745
N6440 X-333.229 Y3.243 Z-10.183
N6445 X-344.454 Y0.457 Z-10.678
N6450 X-360.812 Y-3.818 Z-11.465
N6455 X-377.682 Y-8.424 Z-12.334
N6460 X-396.786 Y-13.895 Z-13.374
N6465 X-400.73 Y-15.112 Z-13.596
N6470 X-403.566 Y-16.289 Z-13.761
N6475 X-406.277 Y-17.731 Z-13.925
N6480 X-408.59 Y-19.244 Z-14.085
N6485 X-410.898 Y-21.062 Z-14.278
N6490 X-413.543 Y-23.525 Z-14.518
N6495 X-416.152 Y-25.703 Z-14.744
N6500 X-417.317 Y-26.891 Z-14.877
N6505 X-417.868 Y-27.627 Z-14.956
N6510 X-418.267 Y-28.457 Z-15.038
N6515 X-418.497 Y-29.347 Z-15.118
N6520 X-418.551 Y-30.266 Z-15.194
N6525 X-418.349 Y-31.495 Z-15.287
N6530 X-418.018 Y-33.102 Z-15.45
N6535 X-417.98 Y-34.315 Z-15.579
N6540 X-418.139 Y-35.518 Z-15.713
N6545 X-418.496 Y-36.864 Z-15.876
N6550 X-418.785 Y-38.312 Z-16.074
N6555 X-418.971 Y-40.335 Z-16.344
N6560 X-418.841 Y-40.932 Z-16.42
N6565 X-418.51 Y-41.446 Z-16.481
N6570 X-418.021 Y-41.812 Z-16.528
N6575 X-417.427 Y-41.985 Z-16.543
N6580 X-416.523 Y-42.017 Z-16.531
N6585 X-414.662 Y-42.477 Z-16.566
N6590 X-411.475 Y-43.366 Z-16.644
N6595 X-409.064 Y-44.1 Z-16.712
N6600 X-406.294 Y-45.002 Z-16.818
N6605 X-403.308 Y-45.718 Z-16.898
N6610 X-400.273 Y-46.187 Z-16.935
N6615 X-397.21 Y-46.405 Z-16.927
N6620 X-394.139 Y-46.372 Z-16.881
N6625 X-391.082 Y-46.086 Z-16.789
N6630 X-371.999 Y-43.271 Z-16.026
N6635 X-347.875 Y-39.869 Z-15.114
N6640 X-327.494 Y-37.186 Z-14.414
N6645 X-313.201 Y-35.453 Z-13.969
N6650 X-306.192 Y-34.665 Z-13.768
N6655 X-291.004 Y-33.136 Z-13.376
N6660 X-276.737 Y-31.878 Z-13.054
N6665 X-262.56 Y-30.804 Z-12.78
N6670 X-251.229 Y-30.069 Z-12.592
N6675 X-233.679 Y-29.135 Z-12.349
N6680 X-215.178 Y-28.328 Z-12.136
N6685 X-190.921 Y-27.483 Z-11.912
N6690 X-171.527 Y-26.957 Z-11.771
N6695 X-149.529 Y-26.525 Z-11.655
N6700 X-123.595 Y-26.213 Z-11.569
N6705 X-96.919 Y-26.066 Z-11.526
N6710 X-70.06 Y-26.059 Z-11.52
N6715 X-47.375 Y-26.141 Z-11.539
N6720 X-20.347 Y-26.303 Z-11.579
N6725 X0.743 Y-26.445 Z-11.618
N6730 X48.884 Y-26.28 Z-11.562
N6735 X83.599 Y-26.306 Z-11.564
N6740 X112.583 Y-26.481 Z-11.606
N6745 X134.688 Y-26.73 Z-11.67
N6750 X161.218 Y-27.234 Z-11.798
N6755 X184.731 Y-27.86 Z-11.96
N6760 X201.573 Y-28.438 Z-12.109
N6765 X213.846 Y-28.919 Z-12.233
N6770 X237.192 Y-29.991 Z-12.513
N6775 X250.036 Y-30.715 Z-12.698
N6780 X265.389 Y-31.759 Z-12.963
N6785 X277.158 Y-32.685 Z-13.197
N6790 X292.717 Y-34.086 Z-13.554
N6795 X308.505 Y-35.721 Z-13.972
N6800 X324.578 Y-37.639 Z-14.465
N6805 X341.54 Y-39.847 Z-15.044
N6810 X358.683 Y-42.187 Z-15.669
N6815 X376.527 Y-44.737 Z-16.358
N6820 X392.328 Y-47.055 Z-16.99
N6825 X395.388 Y-47.303 Z-17.075
N6830 X398.459 Y-47.275 Z-17.108
N6835 X401.514 Y-46.972 Z-17.09
N6840 X404.531 Y-46.397 Z-17.035
N6845 X407.483 Y-45.553 Z-16.933
N6850 X410.384 Y-44.537 Z-16.804
N6855 X412.76 Y-43.917 Z-16.753
N6860 X416.993 Y-43.24 Z-16.729
N6865 X418.413 Y-43.113 Z-16.736
N6870 X419.605 Y-43.025 Z-16.745
N6875 X420.139 Y-42.731 Z-16.71
N6880 X420.487 Y-42.231 Z-16.64
N6885 X420.578 Y-41.655 Z-16.556
N6890 X419.87 Y-38.618 Z-16.139
N6895 X419.273 Y-35.976 Z-15.795
N6900 X419.124 Y-34.141 Z-15.593
N6905 X419.217 Y-32.631 Z-15.434
N6910 X419.548 Y-30.496 Z-15.249
N6915 X419.6 Y-29.577 Z-15.176
N6920 X419.468 Y-28.667 Z-15.097
N6925 X419.156 Y-27.801 Z-15.016
N6930 X418.548 Y-26.849 Z-14.917
N6935 X417.148 Y-25.403 Z-14.772
N6940 X414.509 Y-23.198 Z-14.542
N6945 X411.822 Y-20.675 Z-14.297
N6950 X409.96 Y-19.149 Z-14.144
N6955 X407.436 Y-17.4 Z-13.98
N6960 X404.764 Y-15.887 Z-13.815
N6965 X401.966 Y-14.623 Z-13.651
N6970 X399.271 Y-13.68 Z-13.497
N6975 X382.163 Y-8.647 Z-12.556
N6980 X365.75 Y-3.985 Z-11.697
N6985 X351.117 Y-0.021 Z-10.968
N6990 X341.614 Y2.483 Z-10.528
N6995 X329.784 Y5.416 Z-10.017
N7000 X318.057 Y8.111 Z-9.555
N7005 X310.849 Y9.642 Z-9.293
N7010 X302.271 Y11.362 Z-9.001
N7015 X291.61 Y13.315 Z-8.667
N7020 X280.163 Y15.214 Z-8.347
N7025 X271.428 Y16.515 Z-8.125
N7030 X259.077 Y18.171 Z-7.848
N7035 X246.739 Y19.575 Z-7.605
N7040 X239.152 Y20.349 Z-7.475
N7045 X223.448 Y21.778 Z-7.226
N7050 X206.102 Y23.132 Z-6.988
N7055 X188.62 Y24.281 Z-6.786
N7060 X171.172 Y25.221 Z-6.62
N7065 X153.258 Y25.998 Z-6.489
N7070 X137.404 Y26.507 Z-6.401
N7075 X119.089 Y26.924 Z-6.33
N7080 X95.343 Y27.257 Z-6.276
N7085 X66.421 Y27.38 Z-6.261
N7090 X32.147 Y27.224 Z-6.298
N7095 X1.187 Y26.908 Z-6.386
N7100 X-17.937 Y27.135 Z-6.32
N7105 X-40.638 Y27.408 Z-6.282
N7110 X-69.675 Y27.586 Z-6.256
N7115 X-89.266 Y27.582 Z-6.264
N7120 X-115.777 Y27.351 Z-6.312
N7125 X-136.527 Y26.943 Z-6.39
N7130 X-155.668 Y26.381 Z-6.495
N7135 X-174.085 Y25.608 Z-6.637
N7140 X-185.361 Y25.033 Z-6.741
N7145 X-197.583 Y24.312 Z-6.872
N7150 X-213.991 Y23.175 Z-7.077
N7155 X-229.589 Y21.916 Z-7.304
N7160 X-244.262 Y20.554 Z-7.55
N7165 X-257.195 Y19.131 Z-7.795
N7170 X-266.656 Y17.949 Z-8.
N7175 X-275.771 Y16.669 Z-8.219
N7180 X-287.773 Y14.776 Z-8.542
N7185 X-298.701 Y12.866 Z-8.87
N7190 X-310.332 Y10.584 Z-9.26
N7195 X-321.221 Y8.248 Z-9.66
N7200 X-331.318 Y5.903 Z-10.063
N7205 X-342.251 Y3.18 Z-10.541
N7210 X-356.323 Y-0.552 Z-11.206
N7215 X-369.486 Y-4.178 Z-11.874
N7220 X-384.265 Y-8.413 Z-12.655
N7225 X-399.69 Y-12.977 Z-13.506
N7230 X-402.577 Y-14.022 Z-13.671
N7235 X-405.365 Y-15.311 Z-13.835
N7240 X-408.031 Y-16.834 Z-14.002
N7245 X-410.557 Y-18.579 Z-14.165
N7250 X-412.816 Y-20.435 Z-14.327
N7255 X-415.686 Y-23.109 Z-14.589
N7260 X-418.067 Y-25.072 Z-14.795
N7265 X-419.473 Y-26.494 Z-14.93
N7270 X-420.031 Y-27.226 Z-15.
N7275 X-420.561 Y-28.331 Z-15.109
N7280 X-420.818 Y-29.53 Z-15.215
N7285 X-420.789 Y-30.755 Z-15.314
N7290 X-420.426 Y-32.357 Z-15.439
N7295 X-420.228 Y-33.56 Z-15.563
N7300 X-420.235 Y-35.094 Z-15.728
N7305 X-420.376 Y-36.004 Z-15.83
N7310 X-420.76 Y-37.454 Z-16.007
N7315 X-421.109 Y-39.204 Z-16.246
N7320 X-421.251 Y-40.424 Z-16.41
N7325 X-421.303 Y-41.365 Z-16.535
N7330 X-421.127 Y-42.106 Z-16.633
N7335 X-420.692 Y-42.697 Z-16.716
N7340 X-420.046 Y-43.082 Z-16.763
N7345 X-419.442 Y-43.187 Z-16.767
N7350 X-418.628 Y-43.209 Z-16.755
N7355 X-416.979 Y-43.605 Z-16.785
N7360 X-414.248 Y-44.387 Z-16.853
N7365 X-411.275 Y-45.203 Z-16.93
N7370 X-407.833 Y-46.353 Z-17.077
N7375 X-404.56 Y-47.188 Z-17.173
N7380 X-401.23 Y-47.754 Z-17.233
N7385 X-397.864 Y-48.048 Z-17.248
N7390 X-394.487 Y-48.067 Z-17.21
N7395 X-391.118 Y-47.812 Z-17.119
N7400 X-373.239 Y-45.307 Z-16.43
N7405 X-355.391 Y-42.892 Z-15.769
N7410 X-336.385 Y-40.44 Z-15.107
N7415 X-318.317 Y-38.251 Z-14.529
N7420 X-306.151 Y-36.933 Z-14.182
N7425 X-290.366 Y-35.422 Z-13.784
N7430 X-275.203 Y-34.159 Z-13.453
N7435 X-260.316 Y-33.101 Z-13.175
N7440 X-244.043 Y-32.166 Z-12.928
N7445 X-225.283 Y-31.3 Z-12.695
N7450 X-203.335 Y-30.473 Z-12.472
N7455 X-178.687 Y-29.764 Z-12.278
N7460 X-157.598 Y-29.311 Z-12.154
N7465 X-127.785 Y-28.914 Z-12.044
N7470 X-100.156 Y-28.753 Z-11.996
N7475 X-64.811 Y-28.755 Z-11.993
N7480 X-32.135 Y-28.905 Z-12.029
N7485 X-0.179 Y-29.116 Z-12.087
N7490 X49.512 Y-28.96 Z-12.034
N7495 X84.612 Y-28.992 Z-12.038
N7500 X105.112 Y-29.097 Z-12.065
N7505 X128.023 Y-29.317 Z-12.121
N7510 X152.453 Y-29.693 Z-12.22
N7515 X173.953 Y-30.175 Z-12.347
N7520 X198.4 Y-30.912 Z-12.542
N7525 X223.521 Y-31.876 Z-12.8
N7530 X239.426 Y-32.623 Z-12.998
N7535 X251.953 Y-33.316 Z-13.179
N7540 X266.677 Y-34.287 Z-13.433
N7545 X278.719 Y-35.206 Z-13.672
N7550 X292.549 Y-36.406 Z-13.986
N7555 X303.117 Y-37.428 Z-14.254
N7560 X314.552 Y-38.647 Z-14.574
N7565 X331.405 Y-40.621 Z-15.095
N7570 X354.759 Y-43.612 Z-15.899
N7575 X378.575 Y-46.846 Z-16.786
N7580 X392.01 Y-48.723 Z-17.304
N7585 X395.071 Y-48.968 Z-17.389
N7590 X398.142 Y-48.964 Z-17.427
N7595 X401.202 Y-48.711 Z-17.416
N7600 X404.232 Y-48.209 Z-17.358
N7605 X407.21 Y-47.463 Z-17.26
N7610 X410.43 Y-46.37 Z-17.12
N7615 X412.77 Y-45.624 Z-17.026
N7620 X415.167 Y-45.085 Z-16.978
N7625 X419.691 Y-44.402 Z-16.959
N7630 X421.703 Y-44.3 Z-16.982
N7635 X422.274 Y-44.087 Z-16.96
N7640 X422.71 Y-43.66 Z-16.903
N7645 X422.935 Y-43.094 Z-16.82
N7650 X422.901 Y-42.45 Z-16.72
N7655 X421.647 Y-37.201 Z-15.996
N7660 X421.386 Y-35.379 Z-15.792
N7665 X421.385 Y-33.537 Z-15.594
N7670 X421.655 Y-31.519 Z-15.407
N7675 X421.878 Y-29.868 Z-15.28
N7680 X421.827 Y-28.949 Z-15.204
N7685 X421.609 Y-28.055 Z-15.124
N7690 X421.233 Y-27.215 Z-15.044
N7695 X420.567 Y-26.293 Z-14.968
N7700 X419.067 Y-24.773 Z-14.823
N7705 X416.53 Y-22.674 Z-14.604
N7710 X414.026 Y-20.316 Z-14.378
N7715 X411.662 Y-18.299 Z-14.218
N7720 X409.169 Y-16.506 Z-14.055
N7725 X406.537 Y-14.923 Z-13.889
N7730 X403.784 Y-13.563 Z-13.724
N7735 X400.929 Y-12.433 Z-13.559
N7740 X391.689 Y-9.578 Z-13.039
N7745 X373.247 Y-4.126 Z-12.048
N7750 X357.585 Y0.316 Z-11.247
N7755 X343.269 Y4.212 Z-10.562
N7760 X331.815 Y7.16 Z-10.059
N7765 X319.178 Y10.146 Z-9.556
N7770 X306.989 Y12.769 Z-9.123
N7775 X298.388 Y14.465 Z-8.844
N7780 X288.183 Y16.315 Z-8.542
N7785 X275.596 Y18.361 Z-8.207
N7790 X266.198 Y19.716 Z-7.986
N7795 X254.422 Y21.218 Z-7.738
N7800 X242.366 Y22.569 Z-7.52
N7805 X225.458 Y24.178 Z-7.248
N7810 X206.547 Y25.695 Z-6.989
N7815 X189.041 Y26.874 Z-6.787
N7820 X172.188 Y27.809 Z-6.627
N7825 X153.337 Y28.651 Z-6.49
N7830 X137.759 Y29.164 Z-6.404
N7835 X119.738 Y29.587 Z-6.334
N7840 X95.663 Y29.937 Z-6.28
N7845 X67.624 Y30.06 Z-6.265
N7850 X36.741 Y29.933 Z-6.295
N7855 X3.217 Y29.586 Z-6.38
N7860 X-5.322 Y29.623 Z-6.371
N7865 X-31.71 Y29.993 Z-6.307
N7870 X-58.941 Y30.23 Z-6.273
N7875 X-78.21 Y30.278 Z-6.27
N7880 X-103.19 Y30.172 Z-6.296
N7885 X-127.67 Y29.821 Z-6.364
N7890 X-147.981 Y29.281 Z-6.464
N7895 X-163.42 Y28.72 Z-6.566
N7900 X-181.236 Y27.888 Z-6.716
N7905 X-195.875 Y27.031 Z-6.867
N7910 X-212.916 Y25.838 Z-7.076
N7915 X-229.149 Y24.505 Z-7.31
N7920 X-244.147 Y23.085 Z-7.559
N7925 X-257.4 Y21.599 Z-7.808
N7930 X-268.711 Y20.129 Z-8.052
N7935 X-280.29 Y18.405 Z-8.337
N7940 X-292.029 Y16.45 Z-8.661
N7945 X-303.849 Y14.226 Z-9.03
N7950 X-314.627 Y11.988 Z-9.399
N7955 X-324.702 Y9.709 Z-9.78
N7960 X-335.156 Y7.174 Z-10.205
N7965 X-344.362 Y4.781 Z-10.607
N7970 X-359.633 Y0.604 Z-11.338
N7975 X-369.056 Y-2.065 Z-11.821
N7980 X-385.172 Y-6.781 Z-12.674
N7985 X-400.149 Y-11.342 Z-13.503
N7990 X-403.035 Y-12.394 Z-13.665
N7995 X-406.103 Y-13.807 Z-13.846
N8000 X-409.038 Y-15.478 Z-14.03
N8005 X-411.819 Y-17.395 Z-14.211
N8010 X-414.272 Y-19.403 Z-14.375
N8015 X-416.819 Y-21.808 Z-14.571
N8020 X-418.798 Y-23.462 Z-14.743
N8025 X-420.431 Y-24.859 Z-14.887
N8030 X-421.83 Y-26.33 Z-15.025
N8035 X-422.501 Y-27.356 Z-15.108
N8040 X-422.852 Y-28.207 Z-15.181
N8045 X-423.101 Y-29.408 Z-15.288
N8050 X-423.088 Y-30.634 Z-15.387
N8055 X-422.606 Y-32.819 Z-15.552
N8060 X-422.426 Y-34.327 Z-15.709
N8065 X-422.504 Y-35.859 Z-15.876
N8070 X-422.865 Y-37.451 Z-16.058
N8075 X-423.279 Y-39.186 Z-16.295
N8080 X-423.573 Y-41.315 Z-16.583
N8085 X-423.661 Y-42.919 Z-16.808
N8090 X-423.517 Y-43.504 Z-16.895
N8095 X-423.152 Y-43.993 Z-16.963
N8100 X-422.626 Y-44.302 Z-17.
N8105 X-422.128 Y-44.386 Z-17.004
N8110 X-420.736 Y-44.402 Z-16.979
N8115 X-419.304 Y-44.731 Z-17.003
N8120 X-415.369 Y-45.838 Z-17.104
N8125 X-412.846 Y-46.526 Z-17.184
N8130 X-409.37 Y-47.698 Z-17.335
N8135 X-406.11 Y-48.583 Z-17.452
N8140 X-402.793 Y-49.224 Z-17.534
N8145 X-399.438 Y-49.618 Z-17.567
N8150 X-396.063 Y-49.763 Z-17.553
N8155 X-392.687 Y-49.659 Z-17.492
N8160 X-388.995 Y-49.263 Z-17.371
N8165 X-360.273 Y-45.476 Z-16.315
N8170 X-335.853 Y-42.472 Z-15.491
N8175 X-317.635 Y-40.384 Z-14.931
N8180 X-305.193 Y-39.111 Z-14.591
N8185 X-290.034 Y-37.739 Z-14.225
N8190 X-280.894 Y-36.995 Z-14.027
N8195 X-270.222 Y-36.209 Z-13.818
N8200 X-254.857 Y-35.245 Z-13.56
N8205 X-238.92 Y-34.424 Z-13.34
N8210 X-217.028 Y-33.524 Z-13.094
N8215 X-198.336 Y-32.913 Z-12.924
N8220 X-172.434 Y-32.245 Z-12.74
N8225 X-149.047 Y-31.835 Z-12.625
N8230 X-124.686 Y-31.566 Z-12.548
N8235 X-99.943 Y-31.436 Z-12.509
N8240 X-64.712 Y-31.428 Z-12.503
N8245 X-15.232 Y-31.685 Z-12.569
N8250 X2.457 Y-31.779 Z-12.597
N8255 X55.428 Y-31.637 Z-12.544
N8260 X90.826 Y-31.693 Z-12.556
N8265 X119.484 Y-31.883 Z-12.605
N8270 X143.726 Y-32.192 Z-12.686
N8275 X173.211 Y-32.778 Z-12.843
N8280 X199.294 Y-33.535 Z-13.046
N8285 X223.656 Y-34.427 Z-13.288
N8290 X239.849 Y-35.153 Z-13.483
N8295 X252.345 Y-35.816 Z-13.659
N8300 X268.009 Y-36.805 Z-13.921
N8305 X284.902 Y-38.069 Z-14.256
N8310 X300.032 Y-39.408 Z-14.611
N8315 X312.971 Y-40.697 Z-14.953
N8320 X329.916 Y-42.572 Z-15.454
N8325 X353.136 Y-45.376 Z-16.223
N8330 X372.616 Y-47.868 Z-16.922
N8335 X391.726 Y-50.395 Z-17.635
N8340 X395.095 Y-50.647 Z-17.722
N8345 X398.472 Y-50.623 Z-17.751
N8350 X401.837 Y-50.324 Z-17.732
N8355 X405.166 Y-49.75 Z-17.664
N8360 X408.437 Y-48.907 Z-17.544
N8365 X411.253 Y-47.953 Z-17.408
N8370 X413.682 Y-47.135 Z-17.303
N8375 X416.367 Y-46.484 Z-17.232
N8380 X420.175 Y-45.884 Z-17.197
N8385 X421.992 Y-45.636 Z-17.194
N8390 X424.355 Y-45.522 Z-17.223
N8395 X424.915 Y-45.284 Z-17.197
N8400 X425.301 Y-44.814 Z-17.132
N8405 X425.428 Y-44.256 Z-17.049
N8410 X425.249 Y-43.436 Z-16.919
N8415 X423.909 Y-37.823 Z-16.131
N8420 X423.635 Y-36.018 Z-15.927
N8425 X423.595 Y-34.192 Z-15.73
N8430 X423.755 Y-32.591 Z-15.57
N8435 X424.153 Y-29.852 Z-15.362
N8440 X424.072 Y-28.629 Z-15.26
N8445 X423.834 Y-27.739 Z-15.187
N8450 X423.293 Y-26.639 Z-15.106
N8455 X422.509 Y-25.659 Z-15.02
N8460 X420.754 Y-23.941 Z-14.854
N8465 X418.405 Y-22.02 Z-14.652
N8470 X416.96 Y-20.706 Z-14.544
N8475 X415.094 Y-18.923 Z-14.411
N8480 X412.634 Y-16.884 Z-14.244
N8485 X409.869 Y-14.944 Z-14.064
N8490 X407.224 Y-13.384 Z-13.906
N8495 X404.188 Y-11.903 Z-13.739
N8500 X401.041 Y-10.678 Z-13.565
N8505 X388.547 Y-6.776 Z-12.869
N8510 X373.059 Y-2.099 Z-12.041
N8515 X358.476 Y2.138 Z-11.296
N8520 X343.123 Y6.424 Z-10.569
N8525 X331.521 Y9.445 Z-10.066
N8530 X320.328 Y12.172 Z-9.626
N8535 X308.889 Y14.712 Z-9.218
N8540 X300.964 Y16.333 Z-8.956
N8545 X288.61 Y18.648 Z-8.584
N8550 X276.796 Y20.617 Z-8.268
N8555 X267.671 Y21.988 Z-8.051
N8560 X255.564 Y23.58 Z-7.792
N8565 X245.017 Y24.804 Z-7.597
N8570 X231.281 Y26.178 Z-7.365
N8575 X221.651 Y27.055 Z-7.227
N8580 X206.072 Y28.321 Z-7.02
N8585 X189.155 Y29.486 Z-6.826
N8590 X175.748 Y30.266 Z-6.699
N8595 X162.01 Y30.938 Z-6.59
N8600 X150.967 Y31.391 Z-6.517
N8605 X136.886 Y31.852 Z-6.443
N8610 X119.773 Y32.261 Z-6.377
N8615 X95.983 Y32.616 Z-6.325
N8620 X68.548 Y32.742 Z-6.31
N8625 X38.57 Y32.628 Z-6.339
N8630 X7.046 Y32.302 Z-6.409
N8635 X-2.919 Y32.266 Z-6.421
N8640 X-27.106 Y32.618 Z-6.364
N8645 X-51.248 Y32.858 Z-6.327
N8650 X-73.913 Y32.964 Z-6.319
N8655 X-100.349 Y32.871 Z-6.341
N8660 X-121.989 Y32.589 Z-6.397
N8665 X-142.21 Y32.126 Z-6.482
N8670 X-159.508 Y31.524 Z-6.589
N8675 X-175.194 Y30.816 Z-6.713
N8680 X-185.277 Y30.277 Z-6.805
N8685 X-196.924 Y29.564 Z-6.929
N8690 X-213.372 Y28.38 Z-7.132
N8695 X-229.32 Y27.04 Z-7.361
N8700 X-244.032 Y25.618 Z-7.605
N8705 X-256.994 Y24.136 Z-7.844
N8710 X-267.601 Y22.749 Z-8.07
N8715 X-280.225 Y20.852 Z-8.375
N8720 X-291.532 Y18.921 Z-8.682
N8725 X-301.158 Y17.108 Z-8.975
N8730 X-312.222 Y14.822 Z-9.343
N8735 X-322.108 Y12.602 Z-9.707
N8740 X-335.246 Y9.355 Z-10.237
N8745 X-345.058 Y6.746 Z-10.667
N8750 X-362.295 Y1.91 Z-11.5
N8755 X-380.729 Y-3.54 Z-12.458
N8760 X-396.454 Y-8.385 Z-13.318
N8765 X-401.815 Y-10.122 Z-13.619
N8770 X-404.946 Y-11.391 Z-13.791
N8775 X-407.967 Y-12.901 Z-13.958
N8780 X-410.86 Y-14.646 Z-14.116
N8785 X-413.607 Y-16.612 Z-14.291
N8790 X-416.185 Y-18.782 Z-14.468
N8795 X-418.686 Y-21.154 Z-14.645
N8800 X-420.708 Y-22.836 Z-14.794
N8805 X-422.57 Y-24.438 Z-14.959
N8810 X-423.987 Y-25.932 Z-15.101
N8815 X-424.671 Y-26.95 Z-15.184
N8820 X-425.143 Y-28.083 Z-15.264
N8825 X-425.383 Y-29.286 Z-15.361
N8830 Y-30.512 Z-15.461
N8835 X-425.022 Y-32.262 Z-15.59
N8840 X-424.746 Y-33.578 Z-15.698
N8845 X-424.646 Y-35.102 Z-15.859
N8850 X-424.781 Y-36.603 Z-16.024
N8855 X-425.275 Y-38.58 Z-16.264
N8860 X-425.65 Y-40.324 Z-16.503
N8865 X-425.885 Y-42.092 Z-16.741
N8870 X-426.023 Y-44.388 Z-17.081
N8875 X-425.9 Y-44.972 Z-17.168
N8880 X-425.493 Y-45.422 Z-17.23
N8885 X-424.913 Y-45.604 Z-17.246
N8890 X-422.85 Y-45.597 Z-17.204
N8895 X-421.921 Y-45.781 Z-17.215
N8900 X-418.267 Y-46.8 Z-17.317
N8905 X-414.417 Y-47.85 Z-17.439
N8910 X-411.998 Y-48.674 Z-17.545
N8915 X-408.549 Y-49.734 Z-17.704
N8920 X-404.957 Y-50.557 Z-17.815
N8925 X-401.314 Y-51.112 Z-17.882
N8930 X-397.639 Y-51.397 Z-17.904
N8935 X-393.954 Y-51.409 Z-17.869
N8940 X-390.278 Y-51.15 Z-17.778
N8945 X-363.626 Y-47.824 Z-16.829
N8950 X-340.03 Y-45.042 Z-16.044
N8955 X-320.5 Y-42.891 Z-15.449
N8960 X-306.377 Y-41.485 Z-15.064
N8965 X-290.009 Y-40.079 Z-14.678
N8970 X-279.673 Y-39.287 Z-14.461
N8975 X-268.724 Y-38.536 Z-14.255
N8980 X-253.077 Y-37.621 Z-14.007
N8985 X-235.024 Y-36.764 Z-13.773
N8990 X-212.58 Y-35.945 Z-13.543
N8995 X-195.136 Y-35.422 Z-13.396
N9000 X-169.934 Y-34.828 Z-13.229
N9005 X-144.012 Y-34.432 Z-13.115
N9010 X-115.24 Y-34.169 Z-13.039
N9015 X-85.38 Y-34.087 Z-13.012
N9020 X-43.521 Y-34.2 Z-13.037
N9025 X0.921 Y-34.452 Z-13.109
N9030 X56.056 Y-34.317 Z-13.057
N9035 X91.13 Y-34.378 Z-13.069
N9040 X125.621 Y-34.612 Z-13.131
N9045 X152.784 Y-35.002 Z-13.235
N9050 X176.307 Y-35.489 Z-13.369
N9055 X199.261 Y-36.121 Z-13.543
N9060 X222.87 Y-36.939 Z-13.77
N9065 X240.272 Y-37.681 Z-13.975
N9070 X253.35 Y-38.346 Z-14.157
N9075 X268.982 Y-39.294 Z-14.415
N9080 X284.334 Y-40.386 Z-14.713
N9085 X297.556 Y-41.472 Z-15.01
N9090 X311.692 Y-42.796 Z-15.371
N9095 X328.197 Y-44.512 Z-15.843
N9100 X338.849 Y-45.702 Z-16.172
N9105 X363.105 Y-48.55 Z-16.975
N9110 X385.7 Y-51.339 Z-17.772
N9115 X391.782 Y-52.102 Z-17.992
N9120 X395.152 Y-52.326 Z-18.073
N9125 X398.53 Y-52.295 Z-18.1
N9130 X401.896 Y-52.01 Z-18.075
N9135 X405.231 Y-51.473 Z-17.997
N9140 X408.516 Y-50.686 Z-17.885
N9145 X411.782 Y-49.642 Z-17.727
N9150 X414.595 Y-48.655 Z-17.581
N9155 X417.268 Y-47.953 Z-17.501
N9160 X420.095 Y-47.456 Z-17.46
N9165 X423.847 Y-46.901 Z-17.425
N9170 X427.015 Y-46.762 Z-17.466
N9175 X427.437 Y-46.586 Z-17.448
N9180 X427.748 Y-46.251 Z-17.402
N9185 X427.893 Y-45.817 Z-17.338
N9190 X427.863 Y-45.422 Z-17.276
N9195 X427.339 Y-43.339 Z-16.945
N9200 X426.171 Y-38.445 Z-16.268
N9205 X425.883 Y-36.626 Z-16.06
N9210 X425.815 Y-34.814 Z-15.863
N9215 X425.924 Y-33.283 Z-15.706
N9220 X426.46 Y-29.773 Z-15.441
N9225 X426.468 Y-28.853 Z-15.366
N9230 X426.313 Y-27.946 Z-15.31
N9235 X425.863 Y-26.806 Z-15.231
N9240 X425.357 Y-26.037 Z-15.168
N9245 X423.578 Y-24.141 Z-14.989
N9250 X421.96 Y-22.727 Z-14.85
N9255 X419.65 Y-20.816 Z-14.691
N9260 X416.272 Y-17.639 Z-14.452
N9265 X414.123 Y-15.869 Z-14.305
N9270 X411.342 Y-13.885 Z-14.156
N9275 X408.451 Y-12.139 Z-13.998
N9280 X405.434 Y-10.618 Z-13.832
N9285 X402.311 Y-9.332 Z-13.667
N9290 X394.61 Y-6.817 Z-13.237
N9295 X377.577 Y-1.484 Z-12.313
N9300 X361.046 Y3.468 Z-11.464
N9305 X343.463 Y8.505 Z-10.629
N9310 X331.884 Y11.589 Z-10.132
N9315 X320.403 Y14.439 Z-9.687
N9320 X309.242 Y16.971 Z-9.295
N9325 X301.897 Y18.512 Z-9.054
N9330 X289.695 Y20.865 Z-8.689
N9335 X277.39 Y22.967 Z-8.361
N9340 X268.603 Y24.319 Z-8.154
N9345 X256.914 Y25.914 Z-7.906
N9350 X246.715 Y27.149 Z-7.714
N9355 X233.165 Y28.545 Z-7.488
N9360 X220.586 Y29.719 Z-7.303
N9365 X205.598 Y30.95 Z-7.107
N9370 X191.318 Y31.968 Z-6.943
N9375 X175.538 Y32.911 Z-6.791
N9380 X162.396 Y33.569 Z-6.687
N9385 X146.126 Y34.216 Z-6.584
N9390 X136.013 Y34.542 Z-6.534
N9395 X115.689 Y35.013 Z-6.459
N9400 X94.46 Y35.308 Z-6.419
N9405 X68.244 Y35.425 Z-6.406
N9410 X38.376 Y35.306 Z-6.435
N9415 X5.79 Y34.956 Z-6.502
N9420 X-3.226 Y34.936 Z-6.511
N9425 X-30.774 Y35.337 Z-6.453
N9430 X-59.027 Y35.595 Z-6.418
N9435 X-84.667 Y35.633
N9440 X-106.614 Y35.485 Z-6.45
N9445 X-128.073 Y35.149 Z-6.513
N9450 X-147.799 Y34.599 Z-6.61
N9455 X-161.734 Y34.077 Z-6.7
N9460 X-176.823 Y33.364 Z-6.821
N9465 X-185.388 Y32.89 Z-6.9
N9470 X-201.037 Y31.875 Z-7.071
N9475 X-215.052 Y30.818 Z-7.245
N9480 X-230.446 Y29.484 Z-7.468
N9485 X-244.833 Y28.05 Z-7.708
N9490 X-257.809 Y26.527 Z-7.95
N9495 X-268.157 Y25.133 Z-8.171
N9500 X-280.487 Y23.239 Z-8.468
N9505 X-291.523 Y21.315 Z-8.768
N9510 X-300.879 Y19.525 Z-9.051
N9515 X-311.964 Y17.192 Z-9.416
N9520 X-321.739 Y14.96 Z-9.769
N9525 X-331.465 Y12.547 Z-10.146
N9530 X-343.466 Y9.349 Z-10.659
N9535 X-355.733 Y5.859 Z-11.234
N9540 X-368.652 Y2.057 Z-11.883
N9545 X-382.761 Y-2.257 Z-12.621
N9550 X-395.832 Y-6.384 Z-13.335
N9555 X-401.785 Y-8.32 Z-13.668
N9560 X-405.212 Y-9.673 Z-13.851
N9565 X-408.521 Y-11.295 Z-14.023
N9570 X-411.433 Y-13.007 Z-14.173
N9575 X-414.458 Y-15.112 Z-14.335
N9580 X-416.487 Y-16.737 Z-14.448
N9585 X-418.985 Y-19.029 Z-14.623
N9590 X-421.305 Y-21.151 Z-14.786
N9595 X-424.035 Y-23.388 Z-14.977
N9600 X-425.357 Y-24.671 Z-15.097
N9605 X-426.334 Y-25.776 Z-15.198
N9610 X-426.983 Y-26.817 Z-15.282
N9615 X-427.432 Y-27.959 Z-15.361
N9620 X-427.666 Y-29.163 Z-15.435
N9625 X-427.677 Y-30.39 Z-15.535
N9630 X-427.439 Y-31.721 Z-15.634
N9635 X-426.986 Y-33.76 Z-15.784
N9640 X-426.869 Y-35.27 Z-15.943
N9645 X-426.97 Y-36.786 Z-16.109
N9650 X-427.134 Y-37.676 Z-16.21
N9655 X-427.614 Y-39.466 Z-16.438
N9660 X-428.08 Y-41.878 Z-16.767
N9665 X-428.247 Y-43.405 Z-16.973
N9670 X-428.376 Y-45.711 Z-17.331
N9675 X-428.206 Y-46.287 Z-17.417
N9680 X-427.782 Y-46.723 Z-17.475
N9685 X-427.2 Y-46.909 Z-17.493
N9690 X-425.023 Y-46.805 Z-17.434
N9695 X-424.183 Y-46.924 Z-17.435
N9700 X-421.258 Y-47.712 Z-17.522
N9705 X-417.764 Y-48.684 Z-17.636
N9710 X-415.109 Y-49.453 Z-17.734
N9715 X-410.681 Y-50.925 Z-17.958
N9720 X-407.111 Y-51.841 Z-18.094
N9725 X-403.488 Y-52.512 Z-18.196
N9730 X-399.52 Y-52.959 Z-18.249
N9735 X-395.531 Y-53.112 Z-18.24
N9740 X-391.541 Y-52.97 Z-18.17
N9745 X-387.404 Y-52.534 Z-18.039
N9750 X-357.979 Y-49.084 Z-17.04
N9755 X-332.608 Y-46.317 Z-16.251
N9760 X-322.564 Y-45.287 Z-15.964
N9765 X-307.505 Y-43.86 Z-15.567
N9770 X-293.047 Y-42.647 Z-15.23
N9775 X-276.465 Y-41.457 Z-14.899
N9780 X-263.167 Y-40.637 Z-14.671
N9785 X-246.32 Y-39.768 Z-14.429
N9790 X-227.938 Y-39.032 Z-14.221
N9795 X-202.605 Y-38.215 Z-13.988
N9800 X-179.177 Y-37.65 Z-13.824
N9805 X-160.536 Y-37.312 Z-13.726
N9810 X-138.603 Y-37.027 Z-13.643
N9815 X-110.809 Y-36.827 Z-13.583
N9820 X-76.679 Y-36.78 Z-13.565
N9825 X-39.141 Y-36.899 Z-13.595
N9830 X0.614 Y-37.122 Z-13.657
N9835 X57.485 Y-36.996 Z-13.611
N9840 X85.074 Y-37.033 Z-13.619
N9845 X117.882 Y-37.224 Z-13.669
N9850 X146.812 Y-37.547 Z-13.759
N9855 X176.209 Y-38.108 Z-13.915
N9860 X200.973 Y-38.761 Z-14.098
N9865 X224.233 Y-39.537 Z-14.316
N9870 X241.308 Y-40.233 Z-14.511
N9875 X255.276 Y-40.917 Z-14.7
N9880 X273.021 Y-41.957 Z-14.988
N9885 X286.452 Y-42.904 Z-15.249
N9890 X304.062 Y-44.326 Z-15.643
N9895 X321.397 Y-45.947 Z-16.093
N9900 X336.313 Y-47.49 Z-16.525
N9905 X361.799 Y-50.303 Z-17.33
N9910 X389.757 Y-53.571 Z-18.286
N9915 X393.709 Y-53.944 Z-18.403
N9920 X397.394 Y-54.007 Z-18.448
N9925 X401.072 Y-53.789 Z-18.438
N9930 X404.724 Y-53.291 Z-18.371
N9935 X408.327 Y-52.518 Z-18.248
N9940 X411.86 Y-51.472 Z-18.078
N9945 X415.652 Y-50.12 Z-17.869
N9950 X418.02 Y-49.467 Z-17.776
N9955 X420.434 Y-49.015 Z-17.736
N9960 X422.561 Y-48.782 Z-17.729
N9965 X424.596 Y-48.69 Z-17.746
N9970 X425.814 Y-48.839 Z-17.792
N9975 X427.573 Y-49.261 Z-17.894
N9980 X428.336 Y-49.22 Z-17.899
N9985 X429.043 Y-48.931 Z-17.861
N9990 X429.616 Y-48.425 Z-17.782
N9995 X429.99 Y-47.758 Z-17.679
N10000 X430.124 Y-46.979 Z-17.561
N10005 X430.109 Y-45.316 Z-17.305
N10010 X429.893 Y-44.169 Z-17.123
N10015 X429.164 Y-41.832 Z-16.787
N10020 X428.355 Y-38.728 Z-16.359
N10025 X428.078 Y-36.907 Z-16.155
N10030 X428.04 Y-35.066 Z-15.956
N10035 X428.186 Y-33.562 Z-15.811
N10040 X428.669 Y-31.366 Z-15.651
N10045 X429.019 Y-29.452 Z-15.51
N10050 X429.043 Y-28.571 Z-15.466
N10055 X428.87 Y-27.668 Z-15.411
N10060 X428.503 Y-26.825 Z-15.351
N10065 X427.903 Y-26.023 Z-15.282
N10070 X425.94 Y-23.937 Z-15.093
N10075 X424.114 Y-22.294 Z-14.962
N10080 X421.441 Y-20.09 Z-14.775
N10085 X418.138 Y-16.967 Z-14.547
N10090 X415.299 Y-14.607 Z-14.395
N10095 X412.554 Y-12.638 Z-14.256
N10100 X409.405 Y-10.725 Z-14.105
N10105 X406.229 Y-9.117 Z-13.94
N10110 X402.821 Y-7.713 Z-13.76
N10115 X395.793 Y-5.366 Z-13.368
N10120 X378.348 Y0.229 Z-12.424
N10125 X362.53 Y5.091 Z-11.614
N10130 X345.645 Y10.051 Z-10.806
N10135 X334.056 Y13.261 Z-10.309
N10140 X321.674 Y16.425 Z-9.828
N10145 X310.194 Y19.093 Z-9.425
N10150 X303.131 Y20.624 Z-9.196
N10155 X290.461 Y23.128 Z-8.819
N10160 X279.194 Y25.111 Z-8.521
N10165 X267.875 Y26.899 Z-8.257
N10170 X255.011 Y28.661 Z-7.992
N10175 X245.693 Y29.782 Z-7.824
N10180 X231.82 Y31.232 Z-7.595
N10185 X219.855 Y32.348 Z-7.425
N10190 X207.665 Y33.39 Z-7.267
N10195 X190.829 Y34.617 Z-7.075
N10200 X177.428 Y35.444 Z-6.948
N10205 X161.241 Y36.267 Z-6.82
N10210 X145.275 Y36.906 Z-6.722
N10215 X127.156 Y37.444 Z-6.64
N10220 X107.957 Y37.825 Z-6.587
N10225 X83.415 Y38.067 Z-6.555
N10230 X57.796 Y38.091 Z-6.56
N10235 X32.638 Y37.942 Z-6.594
N10240 X2.347 Y37.586 Z-6.658
N10245 X-7.712 Y37.668 Z-6.645
N10250 X-42.732 Y38.151 Z-6.586
N10255 X-72.229 Y38.323 Z-6.567
N10260 X-94.846 Y38.265 Z-6.583
N10265 X-117.145 Y38.021 Z-6.631
N10270 X-136.411 Y37.6 Z-6.704
N10275 X-154.922 Y37.011 Z-6.805
N10280 X-171.396 Y36.279 Z-6.925
N10285 X-183.661 Y35.618 Z-7.034
N10290 X-200.248 Y34.531 Z-7.212
N10295 X-214.896 Y33.408 Z-7.392
N10300 X-230.311 Y32.047 Z-7.613
N10305 X-244.718 Y30.583 Z-7.851
N10310 X-257.098 Y29.106 Z-8.077
N10315 X-267.498 Y27.699 Z-8.294
N10320 X-279.536 Y25.823 Z-8.577
N10325 X-289.097 Y24.158 Z-8.829
N10330 X-298.935 Y22.28 Z-9.113
N10335 X-308.409 Y20.301 Z-9.415
N10340 X-318.14 Y18.083 Z-9.748
N10345 X-324.041 Y16.669 Z-9.969
N10350 X-334.752 Y13.912 Z-10.39
N10355 X-346.351 Y10.691 Z-10.888
N10360 X-360.021 Y6.68 Z-11.532
N10365 X-374.616 Y2.224 Z-12.273
N10370 X-391.041 Y-2.994 Z-13.147
N10375 X-402.092 Y-6.637 Z-13.764
N10380 X-405.524 Y-7.98 Z-13.943
N10385 X-408.848 Y-9.571 Z-14.107
N10390 X-412.046 Y-11.403 Z-14.265
N10395 X-415.099 Y-13.466 Z-14.407
N10400 X-417.943 Y-15.706 Z-14.551
N10405 X-420.219 Y-17.767 Z-14.67
N10410 X-422.422 Y-19.845 Z-14.824
N10415 X-424.793 Y-21.789 Z-14.99
N10420 X-426.647 Y-23.401 Z-15.123
N10425 X-428.505 Y-25.364 Z-15.275
N10430 X-429.199 Y-26.376 Z-15.359
N10435 X-429.696 Y-27.497 Z-15.439
N10440 X-429.978 Y-28.692 Z-15.514
N10445 X-430.035 Y-29.917 Z-15.583
N10450 X-429.855 Y-31.183 Z-15.679
N10455 X-429.235 Y-33.908 Z-15.878
N10460 X-429.108 Y-35.414 Z-16.026
N10465 X-429.194 Y-36.946 Z-16.193
N10470 X-429.494 Y-38.451 Z-16.364
N10475 X-430.005 Y-40.078 Z-16.576
N10480 X-430.422 Y-41.807 Z-16.814
N10485 X-430.66 Y-43.265 Z-17.012
N10490 X-430.85 Y-45.426 Z-17.337
N10495 X-430.767 Y-46.265 Z-17.464
N10500 X-430.438 Y-47.117 Z-17.589
N10505 X-429.881 Y-47.834 Z-17.688
N10510 X-429.142 Y-48.362 Z-17.763
N10515 X-428.273 Y-48.657 Z-17.801
N10520 X-427.44 Y-48.696 Z-17.794
N10525 X-425.954 Y-48.605 Z-17.754
N10530 X-425.025 Y-48.725 Z-17.759
N10535 X-422.497 Y-49.316 Z-17.821
N10540 X-419.055 Y-50.214 Z-17.932
N10545 X-416.38 Y-50.91 Z-18.03
N10550 X-411.527 Y-52.53 Z-18.284
N10555 X-407.666 Y-53.548 Z-18.456
N10560 X-403.742 Y-54.279 Z-18.568
N10565 X-399.774 Y-54.72 Z-18.629
N10570 X-395.784 Y-54.869 Z-18.63
N10575 X-391.795 Y-54.724 Z-18.565
N10580 X-383.811 Y-53.867 Z-18.307
N10585 X-359.788 Y-51.216 Z-17.522
N10590 X-334.041 Y-48.565 Z-16.746
N10595 X-323.082 Y-47.5 Z-16.44
N10600 X-306.212 Y-46.001 Z-16.01
N10605 X-289.878 Y-44.742 Z-15.65
N10610 X-272.992 Y-43.638 Z-15.338
N10615 X-255.88 Y-42.698 Z-15.074
N10620 X-235.877 Y-41.853 Z-14.832
N10625 X-215.044 Y-41.155 Z-14.63
N10630 X-185.112 Y-40.391 Z-14.406
N10635 X-161.887 Y-39.972 Z-14.283
N10640 X-132.671 Y-39.64 Z-14.183
N10645 X-99.056 Y-39.462 Z-14.128
N10650 X-57.563 Y-39.505 Z-14.135
N10655 X-14.987 Y-39.702 Z-14.19
N10660 X7.271 Y-39.776 Z-14.213
N10665 X49.94 Y-39.676 Z-14.172
N10670 X91.215 Y-39.74 Z-14.185
N10675 X123.179 Y-39.941 Z-14.239
N10680 X153.14 Y-40.296 Z-14.34
N10685 X182.931 Y-40.884 Z-14.505
N10690 X197.014 Y-41.239 Z-14.606
N10695 X223.447 Y-42.05 Z-14.839
N10700 X244.334 Y-42.868 Z-15.072
N10705 X260.808 Y-43.666 Z-15.3
N10710 X270.277 Y-44.201 Z-15.452
N10715 X285.947 Y-45.221 Z-15.742
N10720 X302.076 Y-46.428 Z-16.087
N10725 X315.448 Y-47.575 Z-16.415
N10730 X335.156 Y-49.444 Z-16.953
N10735 X363.54 Y-52.396 Z-17.818
N10740 X391.21 Y-55.442 Z-18.723
N10745 X394.888 Y-55.681 Z-18.807
N10750 X398.573 Y-55.655 Z-18.832
N10755 X402.247 Y-55.364 Z-18.796
N10760 X405.89 Y-54.811 Z-18.7
N10765 X409.484 Y-53.997 Z-18.568
N10770 X412.774 Y-53.013 Z-18.398
N10775 X415.838 Y-51.977 Z-18.226
N10780 X418.228 Y-51.409 Z-18.149
N10785 X420.662 Y-51.079 Z-18.118
N10790 X422.628 Y-50.988 Z-18.127
N10795 X424.607 Y-50.982 Z-18.153
N10800 X425.819 Y-51.171 Z-18.205
N10805 X427.299 Y-51.536 Z-18.295
N10810 X428.218 Y-51.574 Z-18.315
N10815 X429.29 Y-51.386 Z-18.293
N10820 X430.137 Y-51.028 Z-18.243
N10825 X430.886 Y-50.495 Z-18.163
N10830 X431.503 Y-49.812 Z-18.055
N10835 X431.956 Y-49.012 Z-17.923
N10840 X432.223 Y-48.144 Z-17.784
N10845 X432.335 Y-47.091 Z-17.624
N10850 X432.425 Y-45.689 Z-17.409
N10855 X432.318 Y-44.489 Z-17.222
N10860 X431.982 Y-43.231 Z-17.041
N10865 X430.708 Y-39.151 Z-16.476
N10870 X430.34 Y-37.347 Z-16.27
N10875 X430.24 Y-35.509 Z-16.07
N10880 X430.362 Y-33.979 Z-15.925
N10885 X430.943 Y-31.177 Z-15.72
N10890 X431.232 Y-29.047 Z-15.59
N10895 X431.315 Y-27.686 Z-15.524
N10900 X431.141 Y-26.785 Z-15.469
N10905 X430.699 Y-25.981 Z-15.406
N10910 X429.49 Y-24.789 Z-15.306
N10915 X427.156 Y-22.498 Z-15.135
N10920 X425.407 Y-21.131 Z-15.013
N10925 X423.425 Y-19.538 Z-14.874
N10930 X421.734 Y-17.969 Z-14.765
N10935 X419.774 Y-16.092 Z-14.663
N10940 X417.252 Y-13.958 Z-14.544
N10945 X414.404 Y-11.843 Z-14.415
N10950 X411.294 Y-9.865 Z-14.28
N10955 X407.928 Y-8.066 Z-14.125
N10960 X404.558 Y-6.575 Z-13.955
N10965 X400.151 Y-5.009 Z-13.716
N10970 X386.924 Y-0.615 Z-12.992
N10975 X374.056 Y3.541 Z-12.315
N10980 X360.09 Y7.891 Z-11.611
N10985 X346.656 Y11.919 Z-10.983
N10990 X335.515 Y15.087 Z-10.507
N10995 X325.338 Y17.779 Z-10.107
N11000 X318.762 Y19.41 Z-9.86
N11005 X307.954 Y21.934 Z-9.494
N11010 X301.957 Y23.228 Z-9.304
N11015 X290.299 Y25.568 Z-8.963
N11020 X278.272 Y27.711 Z-8.652
N11025 X267.959 Y29.354 Z-8.419
N11030 X257.506 Y30.833 Z-8.206
N11035 X246.936 Y32.159 Z-8.012
N11040 X232.881 Y33.672 Z-7.784
N11045 X221.558 Y34.772 Z-7.625
N11050 X208.203 Y35.94 Z-7.452
N11055 X191.26 Y37.206 Z-7.261
N11060 X178.147 Y38.038 Z-7.137
N11065 X161.935 Y38.885 Z-7.011
N11070 X146.267 Y39.532 Z-6.914
N11075 X127.205 Y40.126 Z-6.829
N11080 X107.322 Y40.511 Z-6.776
N11085 X83.735 Y40.748 Z-6.746
N11090 X59.018 Y40.776 Z-6.752
N11095 X35.463 Y40.642 Z-6.781
N11100 X3.585 Y40.266 Z-6.855
N11105 X-5.407 Y40.305 Z-6.85
N11110 X-41.483 Y40.815 Z-6.783
N11115 X-67.615 Y40.988 Z-6.763
N11120 X-89.944 Y40.979 Z-6.775
N11125 X-114.033 Y40.742 Z-6.819
N11130 X-132.471 Y40.369 Z-6.886
N11135 X-149.771 Y39.843 Z-6.974
N11140 X-162.511 Y39.333 Z-7.057
N11145 X-176.1 Y38.662 Z-7.165
N11150 X-190.221 Y37.821 Z-7.299
N11155 X-203.761 Y36.87 Z-7.45
N11160 X-215.978 Y35.892 Z-7.6
N11165 X-230.502 Y34.578 Z-7.807
N11170 X-244.931 Y33.08 Z-8.043
N11175 X-258.04 Y31.49 Z-8.281
N11180 X-267.667 Y30.135 Z-8.478
N11185 X-278.707 Y28.407 Z-8.732
N11190 X-288.827 Y26.61 Z-8.993
N11195 X-297.182 Y25.002 Z-9.228
N11200 X-306.985 Y22.958 Z-9.529
N11205 X-316.407 Y20.795 Z-9.842
N11210 X-323.293 Y19.14 Z-10.092
N11215 X-334.905 Y16.093 Z-10.539
N11220 X-346.223 Y12.888 Z-11.017
N11225 X-361.066 Y8.434 Z-11.712
N11230 X-374.892 Y4.112 Z-12.408
N11235 X-389.199 Y-0.536 Z-13.163
N11240 X-402.688 Y-5.058 Z-13.908
N11245 X-406.399 Y-6.529 Z-14.099
N11250 X-409.996 Y-8.261 Z-14.276
N11255 X-413.304 Y-10.157 Z-14.42
N11260 X-416.489 Y-12.362 Z-14.546
N11265 X-419.589 Y-14.831 Z-14.681
N11270 X-421.812 Y-16.856 Z-14.784
N11275 X-423.143 Y-18.122 Z-14.855
N11280 X-424.607 Y-19.351 Z-14.937
N11285 X-427.323 Y-21.348 Z-15.124
N11290 X-428.783 Y-22.666 Z-15.229
N11295 X-431.323 Y-25.061 Z-15.415
N11300 X-431.949 Y-25.932 Z-15.467
N11305 X-432.243 Y-26.64 Z-15.513
N11310 X-432.413 Y-27.544 Z-15.568
N11315 X-432.313 Y-29.451 Z-15.662
N11320 X-432.052 Y-31.275 Z-15.77
N11325 X-431.532 Y-33.587 Z-15.938
N11330 X-431.36 Y-35.112 Z-16.062
N11335 X-431.409 Y-36.62 Z-16.225
N11340 X-431.68 Y-38.13 Z-16.396
N11345 X-432.199 Y-39.753 Z-16.589
N11350 X-432.663 Y-41.476 Z-16.827
N11355 X-432.967 Y-43.107 Z-17.05
N11360 X-433.159 Y-45.018 Z-17.321
N11365 X-433.149 Y-45.892 Z-17.455
N11370 X-432.971 Y-46.942 Z-17.614
N11375 X-432.517 Y-48.077 Z-17.779
N11380 X-431.853 Y-49.038 Z-17.926
N11385 X-430.948 Y-49.866 Z-18.055
N11390 X-429.879 Y-50.465 Z-18.141
N11395 X-428.701 Y-50.804 Z-18.181
N11400 X-427.467 Y-50.873 Z-18.173
N11405 X-425.653 Y-50.908 Z-18.153
N11410 X-422.917 Y-51.396 Z-18.209
N11415 X-419.676 Y-52.141 Z-18.308
N11420 X-417.305 Y-52.627 Z-18.37
N11425 X-414.869 Y-53.323 Z-18.485
N11430 X-410.487 Y-54.66 Z-18.717
N11435 X-406.595 Y-55.552 Z-18.874
N11440 X-402.651 Y-56.169 Z-18.982
N11445 X-398.673 Y-56.507 Z-19.026
N11450 X-394.681 Y-56.565 Z-19.006
N11455 X-390.695 Y-56.343 Z-18.923
N11460 X-358.535 Y-53.013 Z-17.921
N11465 X-330.398 Y-50.315 Z-17.121
N11470 X-316.383 Y-49.078 Z-16.761
N11475 X-299.585 Y-47.759 Z-16.378
N11480 X-282.914 Y-46.628 Z-16.05
N11485 X-265.748 Y-45.648 Z-15.765
N11490 X-248.173 Y-44.838 Z-15.529
N11495 X-229.717 Y-44.166 Z-15.331
N11500 X-209.196 Y-43.567 Z-15.153
N11505 X-184.436 Y-42.991 Z-14.981
N11510 X-159.206 Y-42.579 Z-14.856
N11515 X-132.105 Y-42.307 Z-14.773
N11520 X-100.655 Y-42.16 Z-14.726
N11525 X-61.15 Y-42.168 Z-14.725
N11530 X-5.332 Y-42.427 Z-14.79
N11535 X19.558 Y-42.418
N11540 X65.492 Y-42.364 Z-14.769
N11545 X103.591 Y-42.47 Z-14.797
N11550 X136.617 Y-42.738 Z-14.873
N11555 X166.717 Y-43.175 Z-15.
N11560 X195.04 Y-43.778 Z-15.176
N11565 X223.382 Y-44.591 Z-15.414
N11570 X245.185 Y-45.396 Z-15.648
N11575 X262.569 Y-46.196 Z-15.879
N11580 X272.637 Y-46.749 Z-16.039
N11585 X290.619 Y-47.871 Z-16.363
N11590 X306.566 Y-49.032 Z-16.7
N11595 X326.157 Y-50.705 Z-17.185
N11600 X351.846 Y-53.121 Z-17.898
N11605 X375.443 Y-55.497 Z-18.613
N11610 X392.136 Y-57.218 Z-19.14
N11615 X396.125 Y-57.383 Z-19.206
N11620 X400.115 Y-57.255 Z-19.208
N11625 X404.086 Y-56.836 Z-19.145
N11630 X408.015 Y-56.128 Z-19.017
N11635 X411.881 Y-55.134 Z-18.831
N11640 X415.386 Y-54.037 Z-18.639
N11645 X417.781 Y-53.491 Z-18.551
N11650 X420.218 Y-53.187 Z-18.515
N11655 X422.286 Y-53.119 Z-18.529
N11660 X424.616 Y-53.163 Z-18.57
N11665 X425.828 Y-53.362 Z-18.624
N11670 X427.168 Y-53.659 Z-18.699
N11675 X428.394 Y-53.712 Z-18.726
N11680 X429.309 Y-53.61 Z-18.719
N11685 X430.329 Y-53.342 Z-18.681
N11690 X431.439 Y-52.82 Z-18.597
N11695 X432.423 Y-52.088 Z-18.471
N11700 X433.245 Y-51.177 Z-18.321
N11705 X433.869 Y-50.123 Z-18.149
N11710 X434.269 Y-48.986 Z-17.958
N11715 X434.413 Y-48.152 Z-17.83
N11720 X434.596 Y-46.237 Z-17.538
N11725 X434.539 Y-44.731 Z-17.305
N11730 X434.231 Y-43.233 Z-17.098
N11735 X432.93 Y-39.047 Z-16.533
N11740 X432.562 Y-37.243 Z-16.328
N11745 X432.467 Y-35.404 Z-16.127
N11750 X432.599 Y-33.875 Z-16.002
N11755 X433.029 Y-31.918 Z-15.859
N11760 X433.361 Y-30.106 Z-15.745
N11765 X433.527 Y-28.091 Z-15.648
N11770 X433.408 Y-26.87 Z-15.579
N11775 X433.143 Y-25.989 Z-15.537
N11780 X432.568 Y-24.906 Z-15.484
N11785 X431.768 Y-23.977 Z-15.421
N11790 X428.623 Y-21.088 Z-15.192
N11795 X426.931 Y-19.763 Z-15.084
N11800 X424.828 Y-18.27 Z-14.964
N11805 X422.902 Y-16.618 Z-14.858
N11810 X420.256 Y-14.188 Z-14.751
N11815 X417.886 Y-12.27 Z-14.659
N11820 X414.63 Y-9.961 Z-14.537
N11825 X411.481 Y-8.045 Z-14.411
N11830 X407.933 Y-6.216 Z-14.26
N11835 X404.26 Y-4.652 Z-14.079
N11840 X395.756 Y-1.68 Z-13.617
N11845 X379.118 Y3.895 Z-12.731
N11850 X364.004 Y8.762 Z-11.971
N11855 X348.378 Y13.58 Z-11.233
N11860 X337.68 Y16.704 Z-10.778
N11865 X329.862 Y18.85 Z-10.463
N11870 X320.784 Y21.217 Z-10.127
N11875 X309.149 Y24.013 Z-9.737
N11880 X298.025 Y26.428 Z-9.395
N11885 X287.805 Y28.442 Z-9.112
N11890 X277.524 Y30.29 Z-8.853
N11895 X265.97 Y32.13 Z-8.598
N11900 X255.662 Y33.587 Z-8.393
N11905 X242.411 Y35.214 Z-8.169
N11910 X226.129 Y36.928 Z-7.919
N11915 X209.368 Y38.441 Z-7.698
N11920 X191.779 Y39.788 Z-7.5
N11925 X178.941 Y40.626 Z-7.38
N11930 X162.391 Y41.513 Z-7.251
N11935 X147.001 Y42.166 Z-7.157
N11940 X128.832 Y42.752 Z-7.074
N11945 X109.517 Y43.16 Z-7.021
N11950 X85.91 Y43.416 Z-6.987
N11955 X61.463 Y43.465 Z-6.993
N11960 X40.658 Y43.359 Z-7.016
N11965 X11.047 Y43.039 Z-7.084
N11970 X-0.755 Y42.927 Z-7.114
N11975 X-19.825 Y43.205 Z-7.062
N11980 X-45.318 Y43.532 Z-7.027
N11985 X-72.778 Y43.688 Z-7.014
N11990 X-92.734 Y43.639 Z-7.029
N11995 X-116.023 Y43.39 Z-7.077
N12000 X-135.02 Y42.966 Z-7.147
N12005 X-152.351 Y42.405 Z-7.238
N12010 X-166.043 Y41.818 Z-7.332
N12015 X-182.474 Y40.942 Z-7.47
N12020 X-199.733 Y39.772 Z-7.646
N12025 X-214.417 Y38.608 Z-7.822
N12030 X-230.217 Y37.159 Z-8.044
N12035 X-244.986 Y35.598 Z-8.282
N12040 X-255.896 Y34.262 Z-8.471
N12045 X-265.477 Y32.937 Z-8.662
N12050 X-275.509 Y31.377 Z-8.881
N12055 X-286.225 Y29.514 Z-9.142
N12060 X-295.366 Y27.755 Z-9.39
N12065 X-303.698 Y26.016 Z-9.636
N12070 X-313.203 Y23.882 Z-9.939
N12075 X-323.921 Y21.262 Z-10.32
N12080 X-335.337 Y18.203 Z-10.757
N12085 X-347.28 Y14.743 Z-11.259
N12090 X-361.527 Y10.363 Z-11.92
N12095 X-373.293 Y6.615 Z-12.506
N12100 X-385.258 Y2.675 Z-13.127
N12105 X-399.695 Y-2.221 Z-13.906
N12110 X-404.762 Y-4.035 Z-14.178
N12115 X-408.43 Y-5.612 Z-14.358
N12120 X-411.985 Y-7.427 Z-14.511
N12125 X-414.597 Y-8.977 Z-14.604
N12130 X-416.994 Y-10.614 Z-14.689
N12135 X-419.846 Y-12.786 Z-14.786
N12140 X-422.319 Y-14.899 Z-14.874
N12145 X-424.464 Y-16.826 Z-14.965
N12150 X-426.475 Y-18.319 Z-15.072
N12155 X-428.526 Y-19.742 Z-15.19
N12160 X-430.232 Y-21.257 Z-15.284
N12165 X-432.871 Y-23.586 Z-15.478
N12170 X-433.632 Y-24.548 Z-15.539
N12175 X-434.188 Y-25.641 Z-15.591
N12180 X-434.517 Y-26.823 Z-15.631
N12185 X-434.609 Y-27.998 Z-15.694
N12190 X-434.413 Y-30.372 Z-15.808
N12195 X-434.2 Y-31.581 Z-15.877
N12200 X-433.735 Y-33.573 Z-16.021
N12205 X-433.565 Y-35.098 Z-16.138
N12210 X-433.615 Y-36.603 Z-16.292
N12215 X-433.887 Y-38.113 Z-16.463
N12220 X-434.57 Y-40.29 Z-16.719
N12225 X-435.015 Y-42.183 Z-16.98
N12230 X-435.226 Y-43.663 Z-17.18
N12235 X-435.343 Y-45.102 Z-17.379
N12240 X-435.301 Y-46.246 Z-17.554
N12245 X-435.074 Y-47.499 Z-17.743
N12250 X-434.555 Y-48.871 Z-17.944
N12255 X-433.776 Y-50.117 Z-18.146
N12260 X-432.949 Y-51.024 Z-18.29
N12265 X-431.985 Y-51.784 Z-18.407
N12270 X-430.909 Y-52.375 Z-18.505
N12275 X-429.752 Y-52.782 Z-18.567
N12280 X-428.543 Y-52.995 Z-18.591
N12285 X-425.605 Y-53.116 Z-18.574
N12290 X-422.514 Y-53.608 Z-18.627
N12295 X-419.641 Y-54.184 Z-18.716
N12300 X-417.326 Y-54.596 Z-18.777
N12305 X-415.127 Y-55.154 Z-18.87
N12310 X-410.911 Y-56.377 Z-19.098
N12315 X-407.015 Y-57.248 Z-19.263
N12320 X-402.878 Y-57.88 Z-19.372
N12325 X-398.785 Y-58.216 Z-19.429
N12330 X-394.793 Y-58.272 Z-19.417
N12335 X-390.806 Y-58.06 Z-19.339
N12340 X-366.239 Y-55.675 Z-18.603
N12345 X-339.587 Y-53.227 Z-17.853
N12350 X-318.282 Y-51.426 Z-17.31
N12355 X-300.81 Y-50.129 Z-16.922
N12360 X-283.995 Y-49.057 Z-16.605
N12365 X-265.272 Y-48.047 Z-16.309
N12370 X-249.355 Y-47.367 Z-16.107
N12375 X-229.303 Y-46.692 Z-15.904
N12380 X-203.589 Y-46.011 Z-15.698
N12385 X-178.466 Y-45.508 Z-15.544
N12390 X-153.391 Y-45.16 Z-15.437
N12395 X-124.821 Y-44.928 Z-15.364
N12400 X-92.924 Y-44.831 Z-15.331
N12405 X-48.471 Y-44.889 Z-15.344
N12410 X3.939 Y-45.128 Z-15.42
N12415 X57.933 Y-45.04 Z-15.377
N12420 X98.892 Y-45.128 Z-15.399
N12425 X134.467 Y-45.374 Z-15.471
N12430 X166.103 Y-45.802 Z-15.596
N12435 X182.626 Y-46.105 Z-15.685
N12440 X212.66 Y-46.825 Z-15.899
N12445 X241.383 Y-47.729 Z-16.168
N12450 X261.249 Y-48.575 Z-16.418
N12455 X273.146 Y-49.172 Z-16.597
N12460 X290.631 Y-50.202 Z-16.904
N12465 X301.903 Y-50.957 Z-17.13
N12470 X313.187 Y-51.792 Z-17.379
N12475 X327.467 Y-52.945 Z-17.725
N12480 X355.382 Y-55.413 Z-18.476
N12485 X383.654 Y-58.101 Z-19.305
N12490 X392.172 Y-58.911 Z-19.558
N12495 X396.161 Y-59.064 Z-19.621
N12500 X400.152 Y-58.943 Z-19.617
N12505 X404.125 Y-58.549 Z-19.545
N12510 X408.061 Y-57.884 Z-19.416
N12515 X412.078 Y-56.913 Z-19.23
N12520 X415.176 Y-56.014 Z-19.052
N12525 X417.58 Y-55.507 Z-18.97
N12530 X420.02 Y-55.228 Z-18.938
N12535 X422.523 Y-55.178 Z-18.955
N12540 X424.621 Y-55.234 Z-18.99
N12545 X426.059 Y-55.463 Z-19.054
N12550 X427.576 Y-55.691 Z-19.118
N12555 X429.11 Y-55.666 Z-19.13
N12560 X430.552 Y-55.403 Z-19.092
N12565 X431.986 Y-54.861 Z-18.995
N12570 X433.292 Y-54.057 Z-18.86
N12575 X434.397 Y-53.051 Z-18.683
N12580 X435.316 Y-51.83 Z-18.47
N12585 X435.987 Y-50.464 Z-18.244
N12590 X436.387 Y-49.018 Z-18.004
N12595 X436.534 Y-47.785 Z-17.817
N12600 X436.65 Y-46.44 Z-17.612
N12605 X436.644 Y-45.294 Z-17.435
N12610 X436.458 Y-43.782 Z-17.227
N12615 X435.871 Y-41.603 Z-16.925
N12620 X435.009 Y-38.627 Z-16.553
N12625 X434.706 Y-36.811 Z-16.348
N12630 X434.659 Y-35.277 Z-16.194
N12635 X434.852 Y-33.445 Z-16.053
N12640 X435.358 Y-31.206 Z-15.896
N12645 X435.58 Y-29.687 Z-15.827
N12650 X435.691 Y-27.845 Z-15.737
N12655 X435.585 Y-26.666 Z-15.69
N12660 X435.276 Y-25.479 Z-15.651
N12665 X434.771 Y-24.36 Z-15.602
N12670 X434.085 Y-23.342 Z-15.544
N12675 X433.238 Y-22.455 Z-15.479
N12680 X430.286 Y-19.902 Z-15.304
N12685 X428.63 Y-18.533 Z-15.213
N12690 X425.966 Y-16.741 Z-15.079
N12695 X423.993 Y-15.165 Z-14.989
N12700 X421.051 Y-12.566 Z-14.897
N12705 X418.396 Y-10.497 Z-14.815
N12710 X415.101 Y-8.242 Z-14.716
N12715 X411.66 Y-6.218 Z-14.59
N12720 X408.089 Y-4.434 Z-14.446
N12725 X404.403 Y-2.898 Z-14.269
N12730 X393.713 Y0.872 Z-13.69
N12735 X378.029 Y6.223 Z-12.871
N12740 X364.463 Y10.683 Z-12.201
N12745 X349.438 Y15.424 Z-11.499
N12750 X339.612 Y18.369 Z-11.087
N12755 X332.028 Y20.522 Z-10.777
N12760 X322.368 Y23.12 Z-10.432
N12765 X310.394 Y26.075 Z-10.034
N12770 X299.555 Y28.49 Z-9.704
N12775 X289.885 Y30.467 Z-9.44
N12780 X278.65 Y32.551 Z-9.162
N12785 X267.052 Y34.446 Z-8.908
N12790 X257.452 Y35.845 Z-8.721
N12795 X247.367 Y37.154 Z-8.542
N12800 X233.853 Y38.671 Z-8.331
N12805 X223.375 Y39.746 Z-8.187
N12810 X209.627 Y41.012 Z-8.012
N12815 X192.308 Y42.369 Z-7.821
N12820 X179.437 Y43.229 Z-7.702
N12825 X163.161 Y44.125 Z-7.578
N12830 X148.047 Y44.788 Z-7.486
N12835 X130.77 Y45.366 Z-7.408
N12840 X111.099 Y45.817 Z-7.352
N12845 X87.471 Y46.087 Z-7.317
N12850 X63.294 Y46.153 Z-7.32
N12855 X43.394 Y46.06 Z-7.341
N12860 X13.45 Y45.744 Z-7.394
N12865 X0.457 Y45.593 Z-7.426
N12870 X-11.822 Y45.751 Z-7.4
N12875 X-43.447 Y46.196 Z-7.357
N12880 X-72.765 Y46.37 Z-7.342
N12885 X-92.452 Y46.322 Z-7.356
N12890 X-115.24 Y46.078 Z-7.402
N12895 X-134.499 Y45.645 Z-7.471
N12900 X-151.248 Y45.099 Z-7.557
N12905 X-161.596 Y44.664 Z-7.624
N12910 X-173.719 Y44.058 Z-7.715
N12915 X-187.908 Y43.204 Z-7.842
N12920 X-201.524 Y42.235 Z-7.986
N12925 X-214.997 Y41.136 Z-8.145
N12930 X-230.543 Y39.679 Z-8.36
N12935 X-245.346 Y38.08 Z-8.596
N12940 X-255.393 Y36.828 Z-8.768
N12945 X-265.916 Y35.349 Z-8.974
N12950 X-274.6 Y33.981 Z-9.161
N12955 X-281.022 Y32.879 Z-9.311
N12960 X-290.258 Y31.159 Z-9.543
N12965 X-301.024 Y28.97 Z-9.845
N12970 X-311.423 Y26.626 Z-10.163
N12975 X-322.53 Y23.899 Z-10.539
N12980 X-327.276 Y22.633 Z-10.709
N12985 X-336.392 Y20.128 Z-11.058
N12990 X-345.399 Y17.491 Z-11.425
N12995 X-358.477 Y13.414 Z-12.009
N13000 X-370.537 Y9.536 Z-12.601
N13005 X-384.334 Y4.931 Z-13.301
N13010 X-399.391 Y-0.289 Z-14.1
N13015 X-405.681 Y-2.589 Z-14.431
N13020 X-409.616 Y-4.321 Z-14.614
N13025 X-413.43 Y-6.305 Z-14.755
N13030 X-415.814 Y-7.746 Z-14.825
N13035 X-419.488 Y-10.31 Z-14.931
N13040 X-421.959 Y-12.241 Z-14.99
N13045 X-424.371 Y-14.348 Z-15.062
N13050 X-426.345 Y-15.894 Z-15.138
N13055 X-429.206 Y-17.783 Z-15.282
N13060 X-430.757 Y-19.045 Z-15.353
N13065 X-433.341 Y-21.239 Z-15.496
N13070 X-434.475 Y-22.248 Z-15.562
N13075 X-435.248 Y-23.202 Z-15.609
N13080 X-436.003 Y-24.537 Z-15.677
N13085 X-436.498 Y-25.988 Z-15.731
N13090 X-436.718 Y-27.506 Z-15.771
N13095 X-436.647 Y-29.498 Z-15.867
N13100 X-436.337 Y-31.625 Z-15.963
N13105 X-435.847 Y-33.88 Z-16.126
N13110 X-435.726 Y-35.41 Z-16.245
N13115 X-435.82 Y-36.926 Z-16.395
N13120 X-436.124 Y-38.414 Z-16.565
N13125 X-436.751 Y-40.525 Z-16.811
N13130 X-437.088 Y-42.121 Z-17.024
N13135 X-437.37 Y-44.69 Z-17.369
N13140 X-437.386 Y-45.554 Z-17.49
N13145 X-437.306 Y-46.706 Z-17.666
N13150 X-437.129 Y-48.012 Z-17.864
N13155 X-436.838 Y-49.13 Z-18.031
N13160 X-436.402 Y-50.2 Z-18.205
N13165 X-435.617 Y-51.506 Z-18.419
N13170 X-434.652 Y-52.623 Z-18.605
N13175 X-433.471 Y-53.589 Z-18.773
N13180 X-432.14 Y-54.335 Z-18.897
N13185 X-430.692 Y-54.84 Z-18.976
N13190 X-429.177 Y-55.083 Z-19.009
N13195 X-425.889 Y-55.214 Z-19.
N13200 X-422.623 Y-55.66 Z-19.057
N13205 X-419.627 Y-56.195 Z-19.136
N13210 X-417.33 Y-56.557 Z-19.194
N13215 X-415.11 Y-57.072 Z-19.292
N13220 X-410.513 Y-58.3 Z-19.531
N13225 X-406.297 Y-59.141 Z-19.705
N13230 X-402.033 Y-59.695 Z-19.814
N13235 X-397.742 Y-59.958 Z-19.851
N13240 X-393.442 Y-59.929 Z-19.817
N13245 X-388.62 Y-59.569 Z-19.698
N13250 X-354.595 Y-56.536 Z-18.748
N13255 X-327.383 Y-54.303 Z-18.06
N13260 X-311.652 Y-53.137 Z-17.705
N13265 X-291.612 Y-51.836 Z-17.31
N13270 X-272.51 Y-50.828 Z-17.003
N13275 X-255.591 Y-50.091 Z-16.779
N13280 X-244.279 Y-49.675 Z-16.652
N13285 X-220.073 Y-48.976 Z-16.436
N13290 X-196.72 Y-48.453 Z-16.273
N13295 X-172.323 Y-48.048 Z-16.145
N13300 X-150.933 Y-47.79 Z-16.064
N13305 X-119.807 Y-47.574 Z-15.995
N13310 X-80.446 Y-47.503 Z-15.97
N13315 X-37.499 Y-47.618 Z-16.001
N13320 X4.4 Y-47.793 Z-16.042
N13325 X64.665 Y-47.724 Z-16.024
N13330 X103.196 Y-47.827 Z-16.052
N13335 X140.184 Y-48.091 Z-16.132
N13340 X171.838 Y-48.528 Z-16.263
N13345 X200.801 Y-49.109 Z-16.44
N13350 X224.518 Y-49.71 Z-16.625
N13355 X243.224 Y-50.299 Z-16.804
N13360 X262.784 Y-51.084 Z-17.041
N13365 X274.374 Y-51.633 Z-17.207
N13370 X292.473 Y-52.634 Z-17.51
N13375 X305.583 Y-53.469 Z-17.763
N13380 X321.461 Y-54.601 Z-18.106
N13385 X348.363 Y-56.769 Z-18.772
N13390 X378.945 Y-59.425 Z-19.605
N13395 X392.214 Y-60.604 Z-19.982
N13400 X396.204 Y-60.745 Z-20.039
N13405 X400.194 Y-60.631 Z-20.033
N13410 X404.17 Y-60.262 Z-19.968
N13415 X408.114 Y-59.641 Z-19.84
N13420 X412.222 Y-58.714 Z-19.64
N13425 X415.322 Y-57.893 Z-19.48
N13430 X417.737 Y-57.443 Z-19.399
N13435 X420.181 Y-57.202 Z-19.366
N13440 X422.752 Y-57.168 Z-19.38
N13445 X424.579 Y-57.209 Z-19.406
N13450 X426.078 Y-57.421 Z-19.468
N13455 X427.598 Y-57.634 Z-19.53
N13460 X429.132 Y-57.626 Z-19.542
N13465 X430.712 Y-57.393 Z-19.509
N13470 X432.181 Y-56.95 Z-19.433
N13475 X433.563 Y-56.285 Z-19.311
N13480 X434.827 Y-55.415 Z-19.144
N13485 X435.941 Y-54.36 Z-18.955
N13490 X436.877 Y-53.15 Z-18.737
N13495 X437.451 Y-52.154 Z-18.562
N13500 X438.023 Y-50.755 Z-18.329
N13505 X438.375 Y-49.294 Z-18.087
N13510 X438.518 Y-47.956 Z-17.884
N13515 X438.631 Y-46.29 Z-17.63
N13520 X438.575 Y-44.772 Z-17.411
N13525 X438.281 Y-42.954 Z-17.164
N13530 X437.193 Y-38.847 Z-16.644
N13535 X436.872 Y-37.033 Z-16.439
N13540 X436.802 Y-35.5 Z-16.294
N13545 X436.957 Y-33.665 Z-16.151
N13550 X437.431 Y-31.442 Z-16.005
N13555 X437.69 Y-29.618 Z-15.922
N13560 X437.775 Y-28.068 Z-15.846
N13565 X437.635 Y-26.139 Z-15.8
N13570 X437.413 Y-24.932 Z-15.765
N13575 X436.992 Y-23.779 Z-15.72
N13580 X436.386 Y-22.712 Z-15.687
N13585 X435.611 Y-21.761 Z-15.646
N13590 X434.76 Y-21.006 Z-15.597
N13595 X432.46 Y-19.183 Z-15.479
N13600 X430.073 Y-17.167 Z-15.369
N13605 X428.813 Y-16.29 Z-15.313
N13610 X426.84 Y-15.025 Z-15.226
N13615 X424.891 Y-13.53 Z-15.155
N13620 X422.918 Y-11.818 Z-15.11
N13625 X420.139 Y-9.632 Z-15.051
N13630 X416.863 Y-7.349 Z-14.98
N13635 X413.181 Y-5.13 Z-14.874
N13640 X409.633 Y-3.299 Z-14.741
N13645 X405.976 Y-1.697 Z-14.569
N13650 X398.092 Y1.193 Z-14.155
N13655 X381.767 Y6.941 Z-13.307
N13660 X366.384 Y12.135 Z-12.55
N13665 X350.498 Y17.264 Z-11.81
N13670 X341.245 Y20.108 Z-11.423
N13675 X331.897 Y22.818 Z-11.049
N13680 X322.764 Y25.318 Z-10.734
N13685 X311.039 Y28.272 Z-10.353
N13690 X300.184 Y30.743 Z-10.031
N13695 X291.057 Y32.656 Z-9.786
N13700 X279.776 Y34.807 Z-9.515
N13705 X268.436 Y36.71 Z-9.269
N13710 X260.328 Y37.935 Z-9.113
N13715 X250.088 Y39.342 Z-8.935
N13720 X238.777 Y40.684 Z-8.759
N13725 X225.82 Y42.084 Z-8.575
N13730 X209.579 Y43.607 Z-8.371
N13735 X192.837 Y44.948 Z-8.19
N13740 X177.479 Y45.975 Z-8.053
N13745 X162.704 Y46.795 Z-7.945
N13750 X148.479 Y47.431 Z-7.862
N13755 X131.787 Y48.007 Z-7.788
N13760 X111.759 Y48.486 Z-7.731
N13765 X88.418 Y48.763 Z-7.698
N13770 X64.203 Y48.838 Z-7.701
N13775 X44.903 Y48.752 Z-7.721
N13780 X15.238 Y48.443 Z-7.776
N13785 X0.747 Y48.261 Z-7.803
N13790 X-11.498 Y48.417 Z-7.787
N13795 X-43.113 Y48.872 Z-7.745
N13800 X-72.826 Y49.054 Z-7.732
N13805 X-90.635 Y49.015 Z-7.744
N13810 X-114.636 Y48.763 Z-7.79
N13815 X-133.364 Y48.343 Z-7.856
N13820 X-149.838 Y47.806 Z-7.938
N13825 X-159.298 Y47.418 Z-7.996
N13830 X-172.068 Y46.788 Z-8.088
N13835 X-187.212 Y45.87 Z-8.22
N13840 X-201.171 Y44.864 Z-8.365
N13845 X-214.965 Y43.72 Z-8.524
N13850 X-230.564 Y42.231 Z-8.737
N13855 X-246.012 Y40.527 Z-8.978
N13860 X-258.701 Y38.888 Z-9.2
N13865 X-269.693 Y37.235 Z-9.411
N13870 X-279.34 Y35.627 Z-9.624
N13875 X-287.918 Y34.04 Z-9.831
N13880 X-299.287 Y31.717 Z-10.13
N13885 X-309.378 Y29.458 Z-10.43
N13890 X-315.618 Y27.946 Z-10.624
N13895 X-325.623 Y25.386 Z-10.97
N13900 X-336.499 Y22.347 Z-11.37
N13905 X-345.886 Y19.524 Z-11.74
N13910 X-355.734 Y16.418 Z-12.169
N13915 X-369.252 Y12.011 Z-12.814
N13920 X-384.496 Y6.82 Z-13.573
N13925 X-400.113 Y1.284 Z-14.391
N13930 X-406.294 Y-1.016 Z-14.71
N13935 X-410.227 Y-2.754 Z-14.883
N13940 X-414.038 Y-4.744 Z-15.007
N13945 X-417.712 Y-6.977 Z-15.113
N13950 X-420.987 Y-9.26 Z-15.173
N13955 X-423.305 Y-11.054 Z-15.215
N13960 X-425.679 Y-13.053 Z-15.259
N13965 X-427.669 Y-14.494 Z-15.328
N13970 X-430.34 Y-16.215 Z-15.445
N13975 X-431.718 Y-17.317 Z-15.497
N13980 X-434.11 Y-19.274 Z-15.603
N13985 X-436.119 Y-20.796 Z-15.704
N13990 X-436.963 Y-21.687 Z-15.739
N13995 X-437.655 Y-22.701 Z-15.774
N14000 X-438.18 Y-23.81 Z-15.796
N14005 X-438.524 Y-24.988 Z-15.831
N14010 X-438.712 Y-26.57 Z-15.87
N14015 X-438.784 Y-28.247 Z-15.904
N14020 X-438.626 Y-30.392 Z-16.007
N14025 X-438.329 Y-32.119 Z-16.082
N14030 X-437.934 Y-34.205 Z-16.232
N14035 X-437.863 Y-35.738 Z-16.354
N14040 X-437.989 Y-37.237 Z-16.496
N14045 X-438.234 Y-38.44 Z-16.633
N14050 X-438.79 Y-40.485 Z-16.87
N14055 X-439.149 Y-42.405 Z-17.114
N14060 X-439.339 Y-44.304 Z-17.369
N14065 X-439.359 Y-46.146 Z-17.623
N14070 X-439.024 Y-49.6 Z-18.148
N14075 X-438.849 Y-50.574 Z-18.312
N14080 X-438.488 Y-51.717 Z-18.504
N14085 X-437.995 Y-52.752 Z-18.677
N14090 X-437.37 Y-53.709 Z-18.851
N14095 X-436.342 Y-54.842 Z-19.053
N14100 X-435.187 Y-55.734 Z-19.215
N14105 X-433.827 Y-56.444 Z-19.347
N14110 X-432.362 Y-56.898 Z-19.425
N14115 X-430.902 Y-57.078 Z-19.445
N14120 X-425.612 Y-57.296 Z-19.435
N14125 X-422.945 Y-57.636 Z-19.488
N14130 X-419.146 Y-58.239 Z-19.592
N14135 X-416.419 Y-58.685 Z-19.669
N14140 X-413.465 Y-59.405 Z-19.817
N14145 X-409.276 Y-60.374 Z-20.029
N14150 X-405.034 Y-61.077 Z-20.174
N14155 X-400.756 Y-61.51 Z-20.265
N14160 X-396.46 Y-61.672 Z-20.288
N14165 X-392.162 Y-61.562 Z-20.238
N14170 X-373.701 Y-60.039 Z-19.746
N14175 X-345.367 Y-57.773 Z-19.019
N14180 X-319.743 Y-55.898 Z-18.426
N14185 X-301.817 Y-54.746 Z-18.065
N14190 X-286.025 Y-53.878 Z-17.795
N14195 X-267.047 Y-53. Z-17.524
N14200 X-248.123 Y-52.295 Z-17.306
N14205 X-225.563 Y-51.665 Z-17.108
N14210 X-196.297 Y-51.04 Z-16.91
N14215 X-166.305 Y-50.603 Z-16.77
N14220 X-136.521 Y-50.334 Z-16.683
N14225 X-98.738 Y-50.187 Z-16.633
N14230 X-54.66 Y-50.243 Z-16.646
N14235 X-4.313 Y-50.441 Z-16.714
N14240 X25.901 Y-50.43 Z-16.697
N14245 X69.565 Y-50.412 Z-16.687
N14250 X104.687 Y-50.513 Z-16.715
N14255 X128.258 Y-50.658 Z-16.759
N14260 X157.206 Y-50.955 Z-16.849
N14265 X187.971 Y-51.432 Z-16.997
N14270 X211.124 Y-51.915 Z-17.147
N14275 X243.112 Y-52.787 Z-17.418
N14280 X264.391 Y-53.585 Z-17.667
N14285 X280.483 Y-54.324 Z-17.898
N14290 X297.399 Y-55.234 Z-18.183
N14295 X310.728 Y-56.048 Z-18.439
N14300 X326.247 Y-57.109 Z-18.772
N14305 X357.112 Y-59.439 Z-19.513
N14310 X391.647 Y-62.257 Z-20.421
N14315 X395.944 Y-62.424 Z-20.487
N14320 X400.242 Y-62.319 Z-20.479
N14325 X404.525 Y-61.94 Z-20.398
N14330 X408.775 Y-61.289 Z-20.251
N14335 X412.085 Y-60.588 Z-20.1
N14340 X415.304 Y-59.804 Z-19.928
N14345 X417.725 Y-59.389 Z-19.842
N14350 X420.171 Y-59.165 Z-19.811
N14355 X422.753 Y-59.133 Z-19.827
N14360 X424.555 Y-59.17 Z-19.851
N14365 X426.105 Y-59.372 Z-19.911
N14370 X427.934 Y-59.587 Z-19.976
N14375 X429.774 Y-59.516 Z-19.977
N14380 X432.764 Y-59.11 Z-19.912
N14385 X434.24 Y-58.691 Z-19.831
N14390 X435.628 Y-58.038 Z-19.701
N14395 X436.891 Y-57.167 Z-19.534
N14400 X437.995 Y-56.102 Z-19.324
N14405 X438.903 Y-54.883 Z-19.097
N14410 X439.594 Y-53.55 Z-18.853
N14415 X440.062 Y-52.134 Z-18.604
N14420 X440.301 Y-50.632 Z-18.348
N14425 X440.574 Y-47.046 Z-17.788
N14430 X440.575 Y-45.23 Z-17.524
N14435 X440.307 Y-43.098 Z-17.236
N14440 X439.73 Y-40.673 Z-16.921
N14445 X439.16 Y-38.25 Z-16.642
N14450 X438.963 Y-36.728 Z-16.477
N14455 X438.947 Y-34.886 Z-16.327
N14460 X439.17 Y-33.058 Z-16.187
N14465 X439.538 Y-31.237 Z-16.095
N14470 X439.732 Y-29.714 Z-16.026
N14475 X439.819 Y-28.129 Z-15.965
N14480 X439.741 Y-26.379 Z-15.929
N14485 X439.57 Y-24.143 Z-15.891
N14490 X439.29 Y-22.949 Z-15.886
N14495 X438.767 Y-21.839 Z-15.871
N14500 X438.023 Y-20.864 Z-15.848
N14505 X437.341 Y-20.246 Z-15.818
N14510 X434.489 Y-18.261 Z-15.679
N14515 X431.743 Y-16.033 Z-15.578
N14520 X430.006 Y-14.768 Z-15.513
N14525 X427.709 Y-13.319 Z-15.427
N14530 X425.501 Y-11.659 Z-15.367
N14535 X422.64 Y-9.324 Z-15.337
N14540 X419.64 Y-7.142 Z-15.293
N14545 X416.023 Y-4.817 Z-15.224
N14550 X412.266 Y-2.727 Z-15.123
N14555 X408.384 Y-0.878 Z-14.973
N14560 X404.874 Y0.539 Z-14.802
N14565 X393.434 Y4.732 Z-14.203
N14570 X379.894 Y9.557 Z-13.523
N14575 X366.843 Y14.054 Z-12.899
N14580 X351.264 Y19.193 Z-12.186
N14585 X340.635 Y22.517 Z-11.756
N14590 X331.732 Y25.132 Z-11.409
N14595 X324.699 Y27.118 Z-11.177
N14600 X311.983 Y30.397 Z-10.761
N14605 X301.412 Y32.859 Z-10.452
N14610 X292.531 Y34.781 Z-10.215
N14615 X280.687 Y37.09 Z-9.931
N14620 X270.426 Y38.871 Z-9.708
N14625 X262.595 Y40.101 Z-9.557
N14630 X253.24 Y41.437 Z-9.393
N14635 X242.172 Y42.846 Z-9.223
N14640 X226.43 Y44.591 Z-8.997
N14645 X209.837 Y46.178 Z-8.792
N14650 X192.753 Y47.57 Z-8.612
N14655 X177.975 Y48.58 Z-8.483
N14660 X163.167 Y49.421 Z-8.377
N14665 X149.525 Y50.05 Z-8.299
N14670 X133.111 Y50.636 Z-8.228
N14675 X114.467 Y51.105 Z-8.171
N14680 X94.487 Y51.4 Z-8.144
N14685 X77.096 Y51.503 Z-8.136
N14690 X51.597 Y51.483 Z-8.153
N14695 X27.233 Y51.268 Z-8.194
N14700 X1.958 Y50.928 Z-8.254
N14705 X-8.102 Y51.03 Z-8.242
N14710 X-41.414 Y51.532 Z-8.193
N14715 X-70.284 Y51.726 Z-8.177
N14720 X-93.118 Y51.677 Z-8.197
N14725 X-115.379 Y51.425 Z-8.243
N14730 X-134.071 Y50.988 Z-8.309
N14735 X-150.27 Y50.445 Z-8.39
N14740 X-158.534 Y50.104 Z-8.439
N14745 X-171.645 Y49.45 Z-8.531
N14750 X-187.128 Y48.496 Z-8.664
N14755 X-201.125 Y47.47 Z-8.806
N14760 X-214.934 Y46.306 Z-8.962
N14765 X-230.584 Y44.785 Z-9.172
N14770 X-246.067 Y43.047 Z-9.409
N14775 X-258.485 Y41.414 Z-9.619
N14780 X-268.953 Y39.831 Z-9.815
N14785 X-280.452 Y37.88 Z-10.063
N14790 X-291.31 Y35.782 Z-10.317
N14795 X-301.113 Y33.709 Z-10.58
N14800 X-310.622 Y31.513 Z-10.854
N14805 X-321.05 Y28.877 Z-11.176
N14810 X-326.998 Y27.296 Z-11.388
N14815 X-337.523 Y24.289 Z-11.772
N14820 X-347.508 Y21.209 Z-12.163
N14825 X-356.212 Y18.403 Z-12.536
N14830 X-370.007 Y13.809 Z-13.182
N14835 X-385.238 Y8.509 Z-13.926
N14840 X-400.795 Y2.873 Z-14.729
N14845 X-406.992 Y0.52 Z-15.043
N14850 X-410.921 Y-1.226 Z-15.21
N14855 X-414.739 Y-3.203 Z-15.333
N14860 X-418.432 Y-5.405 Z-15.415
N14865 X-421.738 Y-7.644 Z-15.448
N14870 X-424.354 Y-9.608 Z-15.485
N14875 X-426.768 Y-11.556 Z-15.504
N14880 X-428.79 Y-12.953 Z-15.561
