%
(FOILSTEP1_1_4_SPETOOL)
(T1  D=6.35 CR=0. - ZMIN=-24.9 - FLAT END MILL)
N10 G90 G94 G17 G91.1
N15 G21
(WHEN USING FUSION 360 FOR PERSONAL USE, THE FEEDRATE OF)
(RAPID MOVES IS REDUCED TO MATCH THE FEEDRATE OF CUTTING)
(MOVES, WHICH CAN INCREASE MACHINING TIME. UNRESTRICTED RAPID)
(MOVES ARE AVAILABLE WITH A FUSION 360 SUBSCRIPTION.)
N20 G53 G0 Z0.
(POCKET1)
N25 T1 M6
N30 S10000 M3
N35 G54
N40 M8
N45 G0 X427.36 Y43.161
N50 G43 Z15. H1
N55 G1 Z4.759 F1500.
N60 Z-15.606 F500.
N65 X427.4 Y43.189 Z-15.849
N70 X427.453 Y43.233 Z-15.952
N75 X427.5 Y43.283 Z-16.055
N80 X427.542 Y43.338 Z-16.101
N85 X427.577 Y43.396 Z-16.147
N90 X427.606 Y43.458 Z-16.193
N95 X427.632 Y43.535 Z-16.209
N100 X427.647 Y43.615 Z-16.225
N105 X427.652 Y43.696 Z-16.241
N110 Y46.13 F1500.
N115 X415.529
N120 G2 X415.773 Y46.001 I-17.428 J-33.06
N125 G1 X423.994 Y41.589
N130 G2 X424.651 Y41.228 I-17.672 J-32.93
N135 G1 X427.652 Y39.539
N140 Y43.696
N145 G2 X429.559 Y46.556 I3.099 J0.
N150 G3 X431.466 Y49.416 I-1.192 J2.86
N155 G1 Y49.944
N160 X399.164
N165 X406.83 Y46.241
N170 G2 X407.312 Y46.003 I-14.6 J-30.216
N175 G1 X413.184 Y43.048
N180 G2 X413.97 Y42.64 I-15.082 J-29.978
N185 G1 X422.19 Y38.229
N190 G2 X422.78 Y37.904 I-15.868 J-29.57
N195 G1 X431.466 Y33.016
N200 Y49.416
N205 G2 X432.624 Y51.464 I2.39 J0.
N210 G3 X431.994 Y53.731 I-0.63 J1.046
N215 G1 X382.271
N220 X389.407 Y50.448
N225 G2 X389.916 Y50.208 I-12.444 J-27.047
N230 G1 X405.182 Y42.831
N235 G2 X405.61 Y42.62 I-12.952 J-26.807
N240 G1 X411.482 Y39.666
N245 G2 X412.179 Y39.304 I-13.381 J-26.596
N250 G1 X420.4 Y34.892
N255 G2 X420.923 Y34.604 I-14.078 J-26.233
N260 G1 X435.253 Y26.54
N265 Y53.731
N270 X431.994
N275 G2 X429.176 Y55.61 I0. J3.053
N280 G3 X426.357 Y57.489 I-2.818 J-1.174
N285 G1 X364.636
N290 X365.789 Y57.011
N295 G2 X366.089 Y56.884 I-9.964 J-24.03
N300 G1 X370.834 Y54.847
N305 G2 X371.443 Y54.576 I-10.264 J-23.904
N310 G1 X387.836 Y47.034
N315 G2 X388.281 Y46.824 I-10.873 J-23.633
N320 G1 X403.547 Y39.448
N325 G2 X403.922 Y39.263 I-11.318 J-23.423
N330 G1 X409.793 Y36.309
N335 G2 X410.402 Y35.992 I-11.692 J-23.239
N340 G1 X418.623 Y31.581
N345 G2 X419.08 Y31.329 I-12.301 J-22.922
N350 G1 X435.539 Y22.067
N355 G2 X436.203 Y21.68 I-12.758 J-22.67
N360 G1 X437.36 Y20.983
N365 G2 X438.433 Y20.301 I-13.423 J-22.284
N370 G1 X439.011 Y19.913
N375 Y57.489
N380 X426.357
N385 G2 X423.582 Y59.339 I0. J3.006
N390 G3 X420.807 Y61.189 I-2.775 J-1.156
N395 G1 X345.442
N400 X351.967 Y58.724
N405 G2 X352.629 Y58.462 I-7.885 J-20.874
N410 G1 X364.372 Y53.593
N415 G2 X364.629 Y53.484 I-8.547 J-20.612
N420 G1 X369.374 Y51.447
N425 G2 X369.897 Y51.214 I-8.804 J-20.504
N430 G1 X386.29 Y43.672
N435 G2 X386.671 Y43.493 I-9.326 J-20.271
N440 G1 X401.938 Y36.116
N445 G2 X402.259 Y35.958 I-9.708 J-20.092
N450 G1 X408.13 Y33.004
N455 G2 X408.653 Y32.732 I-10.029 J-19.933
N460 G1 X416.873 Y28.321
N465 G2 X417.266 Y28.105 I-10.551 J-19.662
N470 G1 X433.724 Y18.842
N475 G2 X434.294 Y18.511 I-10.944 J-19.446
N480 G1 X435.451 Y17.814
N485 G2 X436.371 Y17.228 I-11.513 J-19.114
N490 G1 X442.711 Y12.974
N495 Y61.189
N500 X420.807
N505 G2 X418.068 Y63.015 I0. J2.967
N510 G3 X415.33 Y64.84 I-2.739 J-1.141
N515 G1 X323.836
N520 X324.855 Y64.53
N525 X325.077 Y64.461
N530 X326.79 Y63.917
N535 G2 X327.192 Y63.783 I-5.657 J-17.784
N540 G1 X338.398 Y59.937
N545 G2 X338.933 Y59.744 I-6.059 J-17.651
N550 G1 X350.676 Y55.308
N555 G2 X351.23 Y55.089 I-6.594 J-17.458
N560 G1 X362.973 Y50.22
N565 X363.188 Y50.129
N570 X367.934 Y48.091
N575 G2 X368.371 Y47.897 I-7.363 J-17.148
N580 G1 X384.764 Y40.355
N585 G2 X385.083 Y40.205 I-7.8 J-16.954
N590 G1 X400.349 Y32.828
N595 G2 X400.617 Y32.696 I-8.119 J-16.804
N600 G1 X406.489 Y29.742
N605 G2 X406.926 Y29.514 I-8.388 J-16.671
N610 G1 X415.147 Y25.103
N615 G2 X415.475 Y24.923 I-8.825 J-16.444
N620 G1 X431.933 Y15.66
N625 G2 X432.41 Y15.383 I-9.153 J-16.264
N630 G1 X433.566 Y14.686
N635 G2 X434.336 Y14.196 I-9.629 J-15.986
N640 G1 X446.362 Y6.126
N645 Y64.84
N650 X415.33
N655 G2 X412.666 Y66.616 I0. J2.885
N660 G3 X410.003 Y68.392 I-2.663 J-1.11
N665 G1 X298.549
N670 X310.423 Y65.203
N675 G2 X310.903 Y65.065 I-3.92 J-14.594
N680 G1 X323.821 Y61.133
N685 X324.001 Y61.077
N690 X325.713 Y60.532
N695 G2 X326.039 Y60.424 I-4.58 J-14.4
N700 G1 X337.245 Y56.578
N705 G2 X337.678 Y56.422 I-4.906 J-14.292
N710 G1 X349.421 Y51.986
N715 G2 X349.87 Y51.808 I-5.34 J-14.136
N720 G1 X361.613 Y46.939
N725 X361.787 Y46.866
N730 X366.532 Y44.828
N735 G2 X366.886 Y44.671 I-5.962 J-13.885
N740 G1 X383.279 Y37.129
N745 G2 X383.538 Y37.007 I-6.316 J-13.728
N750 G1 X398.804 Y29.631
N755 X399.021 Y29.523
N760 X404.893 Y26.569
N765 G2 X405.247 Y26.385 I-6.792 J-13.499
N770 G1 X413.467 Y21.974
N775 G2 X413.733 Y21.828 I-7.145 J-13.315
N780 G1 X430.192 Y12.565
N785 G2 X430.577 Y12.341 I-7.411 J-13.169
N790 G1 X431.734 Y11.644
N795 G2 X432.357 Y11.247 I-7.797 J-12.944
N800 G1 X447.624 Y1.002
N805 G2 X449.193 Y-0.207 I-8.42 J-12.547
N810 G1 X449.914 Y-0.842
N815 Y68.392
N820 X410.003
N825 G2 X407.384 Y70.138 I0. J2.837
N830 G3 X404.765 Y71.884 I-2.619 J-1.091
N835 G1 X266.788
N840 X280.62 Y69.089
N845 G2 X280.973 Y69.012 I-2.301 J-11.389
N850 G1 X295.065 Y65.706
N855 G2 X295.425 Y65.615 I-2.654 J-11.312
N860 G1 X309.517 Y61.83
N865 G2 X309.886 Y61.724 I-3.014 J-11.221
N870 G1 X322.804 Y57.792
N875 X322.942 Y57.749
N880 X324.655 Y57.204
N885 G2 X324.905 Y57.122 I-3.522 J-11.072
N890 G1 X336.111 Y53.275
N895 G2 X336.444 Y53.155 I-3.772 J-10.99
N900 G1 X348.187 Y48.719
N905 G2 X348.532 Y48.583 I-4.106 J-10.869
N910 G1 X360.276 Y43.713
N915 X360.409 Y43.657
N920 X365.155 Y41.619
N925 G2 X365.427 Y41.498 I-4.584 J-10.676
N930 G1 X381.82 Y33.956
N935 X382.018 Y33.863
N940 X397.285 Y26.486
N945 X397.452 Y26.404
N950 X403.324 Y23.45
N955 G2 X403.596 Y23.308 I-5.222 J-10.379
N960 G1 X411.816 Y18.897
N965 X412.02 Y18.785
N970 X428.479 Y9.522
N975 G2 X428.776 Y9.349 I-5.698 J-10.126
N980 G1 X429.932 Y8.653
N985 G2 X430.412 Y8.348 I-5.995 J-9.953
N990 G1 X445.678 Y-1.898
N995 G2 X446.884 Y-2.827 I-6.475 J-9.648
N1000 G1 X453.406 Y-8.573
N1005 Y71.884
N1010 X404.765
N1015 G2 X402.242 Y73.566 I0. J2.733
N1020 G3 X399.718 Y75.248 I-2.523 J-1.051
N1025 G1 X220.76
N1030 X232.28 Y73.934
N1035 X232.524 Y73.903
N1040 X248.965 Y71.531
N1045 X249.178 Y71.497
N1050 X265.619 Y68.684
N1055 X265.862 Y68.639
N1060 X279.954 Y65.791
N1065 G2 X280.204 Y65.736 I-1.635 J-8.091
N1070 G1 X294.296 Y62.43
N1075 G2 X294.552 Y62.366 I-1.885 J-8.037
N1080 G1 X308.644 Y58.581
N1085 G2 X308.907 Y58.506 I-2.141 J-7.972
N1090 G1 X321.824 Y54.574
N1095 X321.923 Y54.543
N1100 X323.635 Y53.999
N1105 X323.813 Y53.94
N1110 X335.019 Y50.093
N1115 G2 X335.255 Y50.008 I-2.68 J-7.808
N1120 G1 X346.999 Y45.572
N1125 G2 X347.244 Y45.475 I-2.917 J-7.722
N1130 G1 X358.987 Y40.606
N1135 X359.082 Y40.566
N1140 X363.827 Y38.528
N1145 X364.021 Y38.442
N1150 X380.414 Y30.9
N1155 X380.555 Y30.834
N1160 X395.821 Y23.457
N1165 X395.94 Y23.399
N1170 X401.812 Y20.444
N1175 X402.005 Y20.344
N1180 X410.225 Y15.933
N1185 X410.37 Y15.853
N1190 X426.829 Y6.59
N1195 X427.04 Y6.468
N1200 X428.196 Y5.771
N1205 G2 X428.537 Y5.554 I-4.259 J-7.071
N1210 G1 X443.803 Y-4.691
N1215 G2 X444.66 Y-5.352 I-4.6 J-6.854
N1220 G1 X453.46 Y-13.104
N1225 G2 X454.465 Y-14.162 I-5.457 J-6.194
N1230 G1 X455.394 Y-15.33
N1235 G2 X455.554 Y-15.538 I-6.462 J-5.136
N1240 G1 X456.77 Y-17.172
N1245 Y75.248
N1250 X399.718
N1255 X399.638 Y75.243 Z-16.225
N1260 X399.558 Y75.227 Z-16.209
N1265 X399.481 Y75.202 Z-16.193
N1270 X399.419 Y75.173 Z-16.147
N1275 X399.36 Y75.137 Z-16.101
N1280 X399.306 Y75.096 Z-16.055
N1285 X399.256 Y75.048 Z-15.952
N1290 X399.212 Y74.996 Z-15.849
N1295 X399.184 Y74.956 Z-15.606
N1300 Z4.759
N1305 X444.3 Y-62.36
N1310 Z-15.606 F500.
N1315 X444.34 Y-62.332 Z-15.849
N1320 X444.392 Y-62.288 Z-15.952
N1325 X444.44 Y-62.238 Z-16.055
N1330 X444.482 Y-62.184 Z-16.101
N1335 X444.517 Y-62.125 Z-16.147
N1340 X444.546 Y-62.063 Z-16.193
N1345 X444.572 Y-61.986 Z-16.209
N1350 X444.587 Y-61.906 Z-16.225
N1355 X444.592 Y-61.826 Z-16.241
N1360 Y-60.006 F1500.
N1365 X442.516 Y-60.746
N1370 G2 X439.68 Y-61.531 I-6.855 J19.248
N1375 G1 X437.35 Y-61.998
N1380 X437.114 Y-62.044
N1385 X431.461 Y-63.109
N1390 X444.592
N1395 Y-61.826
N1400 G2 X446.283 Y-59.29 I2.747 J0.
N1405 G3 X447.973 Y-56.754 I-1.057 J2.536
N1410 G1 Y-55.132
N1415 X445.028 Y-56.257
N1420 G2 X444.663 Y-56.392 I-6.086 J15.928
N1425 G1 X441.382 Y-57.561
N1430 G2 X439.015 Y-58.216 I-5.721 J16.063
N1435 G1 X436.685 Y-58.683
N1440 X436.488 Y-58.721
N1445 X428.268 Y-60.27
N1450 G2 X428. Y-60.318 I-3.156 J16.757
N1455 G1 X426.825 Y-60.52
N1460 G2 X426.02 Y-60.639 I-2.888 J16.805
N1465 G1 X410.754 Y-62.518
N1470 G2 X409.924 Y-62.599 I-2.083 J16.924
N1475 G1 X387.612 Y-64.244
N1480 X387.549 Y-64.249
N1485 X373.457 Y-65.236
N1490 G2 X373.11 Y-65.257 I-1.191 J17.01
N1495 G1 X370.761 Y-65.373
N1500 X370.54 Y-65.383
N1505 X345.878 Y-66.283
N1510 X345.794 Y-66.286
N1515 X339.342 Y-66.49
N1520 X447.973
N1525 Y-56.754
N1530 X447.968 Y-56.673 Z-16.225
N1535 X447.953 Y-56.594 Z-16.209
N1540 X447.927 Y-56.517 Z-16.193
N1545 X447.898 Y-56.455 Z-16.147
N1550 X447.863 Y-56.396 Z-16.101
N1555 X447.821 Y-56.342 Z-16.055
N1560 X447.773 Y-56.292 Z-15.952
N1565 X447.721 Y-56.247 Z-15.849
N1570 X447.681 Y-56.22 Z-15.606
N1575 Z4.81
N1580 X-424.683 Y45.838
N1585 Z4.759
N1590 Z-15.606 F500.
N1595 X-424.711 Y45.877 Z-15.849
N1600 X-424.755 Y45.93 Z-15.952
N1605 X-424.805 Y45.978 Z-16.055
N1610 X-424.859 Y46.019 Z-16.101
N1615 X-424.918 Y46.055 Z-16.147
N1620 X-424.98 Y46.084 Z-16.193
N1625 X-425.057 Y46.109 Z-16.209
N1630 X-425.136 Y46.125 Z-16.225
N1635 X-425.217 Y46.13 Z-16.241
N1640 X-427.652 F1500.
N1645 Y39.537
N1650 X-424.488 Y41.316
N1655 G2 X-423.836 Y41.674 I18.323 J-32.573
N1660 G1 X-415.773 Y46.001
N1665 G2 X-415.532 Y46.13 I17.672 J-32.931
N1670 G1 X-425.217
N1675 G2 X-428.077 Y48.036 I0. J3.098
N1680 G3 X-430.936 Y49.942 I-2.86 J-1.191
N1685 G1 X-431.464
N1690 Y33.017
N1695 X-422.618 Y37.993
N1700 G2 X-422.033 Y38.315 I16.454 J-29.25
N1705 G1 X-413.971 Y42.642
N1710 G2 X-413.151 Y43.067 I15.869 J-29.571
N1715 G1 X-406.105 Y46.602
N1720 G2 X-405.61 Y46.845 I15.05 J-29.996
N1725 G1 X-399.175 Y49.942
N1730 X-430.936
N1735 G2 X-432.983 Y51.1 I0. J2.389
N1740 G3 X-435.249 Y50.471 I-1.045 J-0.629
N1745 G1 Y26.547
N1750 X-420.763 Y34.695
N1755 G2 X-420.244 Y34.981 I14.599 J-25.952
N1760 G1 X-412.181 Y39.307
N1765 G2 X-411.455 Y39.685 I14.08 J-26.237
N1770 G1 X-404.408 Y43.22
N1775 G2 X-403.969 Y43.436 I13.353 J-26.614
N1780 G1 X-388.702 Y50.784
N1785 G2 X-388.217 Y51.012 I12.913 J-26.83
N1790 G1 X-382.306 Y53.727
N1795 X-435.249
N1800 Y50.471
N1805 G2 X-437.127 Y47.653 I-3.052 J0.
N1810 G3 X-439.006 Y44.835 I1.174 J-2.818
N1815 G1 Y19.923
N1820 X-438.436 Y20.305
N1825 G2 X-437.353 Y20.994 I14.499 J-21.605
N1830 G1 X-436.178 Y21.7
N1835 G2 X-435.519 Y22.084 I13.416 J-22.294
N1840 G1 X-418.921 Y31.421
N1845 G2 X-418.468 Y31.67 I12.757 J-22.677
N1850 G1 X-410.405 Y35.997
N1855 G2 X-409.77 Y36.327 I12.303 J-22.927
N1860 G1 X-402.724 Y39.862
N1865 G2 X-402.34 Y40.051 I11.668 J-23.256
N1870 G1 X-387.073 Y47.398
N1875 G2 X-386.649 Y47.598 I11.284 J-23.445
N1880 G1 X-371.382 Y54.61
N1885 G2 X-370.719 Y54.903 I10.86 J-23.645
N1890 G1 X-364.661 Y57.484
N1895 X-439.006
N1900 Y44.835
N1905 G2 X-440.858 Y42.057 I-3.01 J0.
N1910 G3 X-442.71 Y39.278 I1.158 J-2.779
N1915 G1 Y12.974
N1920 X-436.371 Y17.228
N1925 G2 X-435.442 Y17.819 I12.434 J-18.529
N1930 G1 X-434.268 Y18.526
N1935 G2 X-433.703 Y18.855 I11.505 J-19.119
N1940 G1 X-417.105 Y28.192
N1945 G2 X-416.716 Y28.406 I10.94 J-19.448
N1950 G1 X-408.653 Y32.732
N1955 G2 X-408.108 Y33.015 I10.551 J-19.662
N1960 G1 X-401.062 Y36.55
N1965 G2 X-400.733 Y36.712 I10.007 J-19.945
N1970 G1 X-385.466 Y44.06
N1975 G2 X-385.102 Y44.231 I9.677 J-20.107
N1980 G1 X-369.836 Y51.243
N1985 G2 X-369.267 Y51.494 I9.313 J-20.278
N1990 G1 X-362.221 Y54.496
N1995 X-362.001 Y54.588
N2000 X-352.607 Y58.472
N2005 G2 X-351.967 Y58.725 I8.525 J-20.622
N2010 G1 X-345.444 Y61.188
N2015 X-442.71
N2020 Y39.278
N2025 G2 X-444.536 Y36.539 I-2.967 J0.
N2030 G3 X-446.362 Y33.8 I1.141 J-2.739
N2035 G1 Y6.126
N2040 X-434.337 Y14.196
N2045 G2 X-433.56 Y14.69 I10.4 J-15.497
N2050 G1 X-432.385 Y15.397
N2055 G2 X-431.913 Y15.672 I9.623 J-15.991
N2060 G1 X-415.314 Y25.009
N2065 G2 X-414.989 Y25.188 I9.15 J-16.266
N2070 G1 X-406.926 Y29.515
N2075 G2 X-406.471 Y29.751 I8.825 J-16.444
N2080 G1 X-399.425 Y33.286
N2085 G2 X-399.149 Y33.422 I8.369 J-16.681
N2090 G1 X-383.883 Y40.77
N2095 G2 X-383.578 Y40.913 I8.094 J-16.816
N2100 G1 X-368.312 Y47.924
N2105 G2 X-367.836 Y48.135 I7.789 J-16.959
N2110 G1 X-360.79 Y51.136
N2115 X-360.606 Y51.213
N2120 X-351.212 Y55.097
N2125 G2 X-350.676 Y55.309 I7.13 J-17.247
N2130 G1 X-338.933 Y59.744
N2135 G2 X-338.395 Y59.938 I6.595 J-17.459
N2140 G1 X-326.652 Y63.967
N2145 G2 X-326.037 Y64.166 I6.057 J-17.653
N2150 G1 X-323.827 Y64.84
N2155 X-446.362
N2160 Y33.8
N2165 G2 X-448.138 Y31.136 I-2.886 J0.
N2170 G3 X-449.914 Y28.472 I1.11 J-2.664
N2175 G1 Y-0.843
N2180 X-449.192 Y-0.207
N2185 G2 X-447.624 Y1.002 I9.989 J-11.338
N2190 G1 X-432.357 Y11.247
N2195 G2 X-431.728 Y11.647 I8.42 J-12.547
N2200 G1 X-430.554 Y12.354
N2205 G2 X-430.171 Y12.576 I7.791 J-12.947
N2210 G1 X-413.573 Y21.913
N2215 G2 X-413.309 Y22.058 I7.408 J-13.17
N2220 G1 X-405.247 Y26.385
N2225 G2 X-404.878 Y26.576 I7.145 J-13.315
N2230 G1 X-397.832 Y30.112
N2235 X-397.609 Y30.221
N2240 X-382.342 Y37.569
N2245 G2 X-382.096 Y37.685 I6.553 J-13.616
N2250 G1 X-366.829 Y44.697
N2255 G2 X-366.444 Y44.867 I6.307 J-13.732
N2260 G1 X-359.398 Y47.868
N2265 X-359.249 Y47.931
N2270 X-349.855 Y51.814
N2275 G2 X-349.421 Y51.986 I5.773 J-13.964
N2280 G1 X-337.678 Y56.421
N2285 G2 X-337.242 Y56.578 I5.339 J-14.136
N2290 G1 X-325.499 Y60.608
N2295 G2 X-325.002 Y60.769 I4.904 J-14.293
N2300 G1 X-312.084 Y64.707
N2305 X-311.9 Y64.762
N2310 X-310.002 Y65.314
N2315 G2 X-309.696 Y65.4 I4.223 J-14.509
N2320 G1 X-298.548 Y68.392
N2325 X-449.914
N2330 Y28.472
N2335 G2 X-451.66 Y25.854 I-2.837 J0.
N2340 G3 X-453.406 Y23.235 I1.091 J-2.619
N2345 G1 Y-8.573
N2350 X-446.884 Y-2.827
N2355 G2 X-445.678 Y-1.898 I7.681 J-8.718
N2360 G1 X-430.412 Y8.348
N2365 G2 X-429.928 Y8.655 I6.475 J-9.648
N2370 G1 X-428.753 Y9.362
N2375 G2 X-428.459 Y9.533 I5.991 J-9.955
N2380 G1 X-411.861 Y18.87
N2385 X-411.658 Y18.981
N2390 X-403.596 Y23.308
N2395 G2 X-403.312 Y23.455 I5.494 J-10.238
N2400 G1 X-396.266 Y26.991
N2405 X-396.094 Y27.075
N2410 X-380.828 Y34.423
N2415 X-380.638 Y34.512
N2420 X-365.372 Y41.523
N2425 G2 X-365.076 Y41.655 I4.849 J-10.559
N2430 G1 X-358.03 Y44.656
N2435 X-357.915 Y44.704
N2440 X-348.521 Y48.587
N2445 G2 X-348.187 Y48.719 I4.439 J-10.738
N2450 G1 X-336.444 Y53.155
N2455 G2 X-336.109 Y53.276 I4.106 J-10.869
N2460 G1 X-324.366 Y57.305
N2465 G2 X-323.983 Y57.429 I3.771 J-10.99
N2470 G1 X-311.066 Y61.367
N2475 X-310.924 Y61.409
N2480 X-309.026 Y61.962
N2485 X-308.791 Y62.027
N2490 X-295.423 Y65.615
N2495 G2 X-295.06 Y65.707 I3.012 J-11.222
N2500 G1 X-280.446 Y69.129
N2505 G2 X-280.089 Y69.206 I2.649 J-11.313
N2510 G1 X-266.788 Y71.884
N2515 X-453.406
N2520 Y23.235
N2525 G2 X-455.088 Y20.712 I-2.733 J0.
N2530 G3 X-456.77 Y18.189 I1.051 J-2.523
N2535 G1 Y-17.172
N2540 X-455.554 Y-15.538
N2545 G2 X-455.394 Y-15.33 I6.622 J-4.928
N2550 G1 X-454.465 Y-14.162
N2555 G2 X-453.46 Y-13.104 I6.462 J-5.136
N2560 G1 X-444.66 Y-5.352
N2565 G2 X-443.803 Y-4.691 I5.457 J-6.194
N2570 G1 X-428.537 Y5.554
N2575 G2 X-428.193 Y5.773 I4.6 J-6.854
N2580 G1 X-427.019 Y6.479
N2585 X-426.81 Y6.601
N2590 X-410.211 Y15.938
N2595 X-410.068 Y16.017
N2600 X-402.005 Y20.344
N2605 X-401.803 Y20.449
N2610 X-394.757 Y23.984
N2615 X-394.635 Y24.044
N2620 X-379.369 Y31.391
N2625 X-379.234 Y31.455
N2630 X-363.968 Y38.466
N2635 X-363.757 Y38.56
N2640 X-356.711 Y41.561
N2645 X-356.63 Y41.595
N2650 X-347.235 Y45.479
N2655 G2 X-346.999 Y45.572 I3.154 J-7.629
N2660 G1 X-335.255 Y50.008
N2665 G2 X-335.017 Y50.094 I2.917 J-7.722
N2670 G1 X-323.274 Y54.123
N2675 G2 X-323.002 Y54.211 I2.679 J-7.808
N2680 G1 X-310.085 Y58.149
N2685 X-309.984 Y58.179
N2690 X-308.086 Y58.732
N2695 X-307.919 Y58.778
N2700 X-294.551 Y62.366
N2705 G2 X-294.293 Y62.431 I2.14 J-7.973
N2710 G1 X-279.679 Y65.853
N2715 G2 X-279.425 Y65.908 I1.882 J-8.037
N2720 G1 X-265.856 Y68.64
N2725 X-265.619 Y68.684
N2730 X-249.178 Y71.497
N2735 X-248.965 Y71.531
N2740 X-232.524 Y73.903
N2745 X-232.28 Y73.934
N2750 X-220.76 Y75.248
N2755 X-456.77
N2760 Y18.189
N2765 X-456.765 Y18.108 Z-16.225
N2770 X-456.749 Y18.028 Z-16.209
N2775 X-456.724 Y17.952 Z-16.193
N2780 X-456.695 Y17.889 Z-16.147
N2785 X-456.659 Y17.831 Z-16.101
N2790 X-456.618 Y17.776 Z-16.055
N2795 X-456.57 Y17.726 Z-15.952
N2800 X-456.518 Y17.682 Z-15.849
N2805 X-456.478 Y17.654 Z-15.606
N2810 Z4.759
N2815 X-443.843 Y-62.817
N2820 Z-15.606 F500.
N2825 X-443.815 Y-62.857 Z-15.849
N2830 X-443.771 Y-62.909 Z-15.952
N2835 X-443.721 Y-62.957 Z-16.055
N2840 X-443.667 Y-62.998 Z-16.101
N2845 X-443.608 Y-63.034 Z-16.147
N2850 X-443.546 Y-63.063 Z-16.193
N2855 X-443.469 Y-63.088 Z-16.209
N2860 X-443.389 Y-63.104 Z-16.225
N2865 X-443.309 Y-63.109 Z-16.241
N2870 X-431.439 F1500.
N2875 X-432.337 Y-62.944
N2880 X-432.417 Y-62.929
N2885 X-438.288 Y-61.823
N2890 G2 X-438.808 Y-61.718 I3.782 J20.079
N2895 G1 X-439.982 Y-61.465
N2900 G2 X-442.567 Y-60.727 I4.302 J19.974
N2905 G1 X-444.592 Y-60.002
N2910 Y-63.109
N2915 X-443.309
N2920 G2 X-440.776 Y-64.798 I0. J-2.744
N2925 G3 X-438.243 Y-66.486 I2.533 J1.055
N2930 G1 X-339.598
N2935 X-354.054 Y-65.997
N2940 X-354.109 Y-65.995
N2945 X-371.724 Y-65.341
N2950 G2 X-372.267 Y-65.312 I0.633 J17.043
N2955 G1 X-385.185 Y-64.42
N2960 X-385.252 Y-64.415
N2965 X-407.564 Y-62.786
N2970 X-407.641 Y-62.78
N2975 X-409.989 Y-62.598
N2980 G2 X-410.754 Y-62.521 I1.319 J17.004
N2985 G1 X-426.021 Y-60.642
N2990 G2 X-427.027 Y-60.488 I2.084 J16.927
N2995 G1 X-431.725 Y-59.622
N3000 X-431.791 Y-59.61
N3005 X-437.663 Y-58.504
N3010 G2 X-438.097 Y-58.416 I3.157 J16.76
N3015 G1 X-439.271 Y-58.163
N3020 G2 X-441.429 Y-57.548 I3.591 J16.673
N3025 G1 X-444.952 Y-56.286
N3030 G2 X-445.291 Y-56.161 I5.748 J16.057
N3035 G1 X-447.97 Y-55.137
N3040 Y-66.486
N3045 X-438.243
N3050 G2 X-435.882 Y-68.06 I0. J-2.558
N3055 G3 X-433.521 Y-69.634 I2.361 J0.984
N3060 G1 X451.118
N3065 Y-50.564
N3070 X443.906 Y-53.32
N3075 G2 X443.608 Y-53.43 I-4.964 J12.991
N3080 G1 X440.327 Y-54.598
N3085 G2 X438.397 Y-55.133 I-4.666 J13.101
N3090 G1 X436.067 Y-55.6
N3095 X435.906 Y-55.631
N3100 X427.686 Y-57.18
N3105 X427.467 Y-57.219
N3110 X426.293 Y-57.421
N3115 G2 X425.636 Y-57.518 I-2.356 J13.706
N3120 G1 X410.37 Y-59.397
N3125 G2 X409.693 Y-59.463 I-1.699 J13.803
N3130 G1 X387.381 Y-61.108
N3135 X387.33 Y-61.112
N3140 X373.238 Y-62.099
N3145 G2 X372.954 Y-62.116 I-0.972 J13.873
N3150 G1 X370.605 Y-62.232
N3155 X370.425 Y-62.24
N3160 X345.764 Y-63.141
N3165 X345.695 Y-63.143
N3170 X325.731 Y-63.774
N3175 X325.661 Y-63.776
N3180 X302.174 Y-64.398
N3185 X302.112 Y-64.399
N3190 X290.368 Y-64.658
N3195 X290.191 Y-64.661
N3200 X257.309 Y-64.965
N3205 X257.268
N3210 X218.515 Y-65.209
N3215 X218.489
N3220 X176.212 Y-65.395
N3225 X176.183
N3230 X124.512 Y-65.514
N3235 X124.487
N3240 X57.549 Y-65.546
N3245 X20.003 Y-65.534
N3250 X1.257 Y-65.646
N3255 X1.111
N3260 X-14.155 Y-65.577
N3265 X-23.522 Y-65.528
N3270 X-104.515 Y-65.536
N3275 X-104.539
N3280 X-159.733 Y-65.444
N3285 X-159.763
N3290 X-209.085 Y-65.257
N3295 X-209.113
N3300 X-250.215 Y-65.018
N3305 X-250.256
N3310 X-284.311 Y-64.722
N3315 X-284.36 Y-64.721
N3320 X-292.581 Y-64.621
N3325 X-292.751 Y-64.618
N3330 X-313.889 Y-64.101
N3335 X-313.947 Y-64.1
N3340 X-333.91 Y-63.529
N3345 X-333.983 Y-63.527
N3350 X-353.947 Y-62.851
N3355 X-353.992 Y-62.849
N3360 X-371.607 Y-62.195
N3365 G2 X-372.05 Y-62.172 I0.516 J13.898
N3370 G1 X-384.968 Y-61.28
N3375 X-385.022 Y-61.276
N3380 X-407.335 Y-59.646
N3385 X-407.397 Y-59.642
N3390 X-409.746 Y-59.459
N3395 G2 X-410.37 Y-59.397 I1.075 J13.865
N3400 G1 X-425.636 Y-57.518
N3405 G2 X-426.457 Y-57.392 I1.699 J13.803
N3410 G1 X-431.154 Y-56.526
N3415 X-431.209 Y-56.516
N3420 X-437.08 Y-55.41
N3425 G2 X-437.434 Y-55.339 I2.574 J13.667
N3430 G1 X-438.608 Y-55.086
N3435 G2 X-440.368 Y-54.584 I2.928 J13.595
N3440 G1 X-443.891 Y-53.323
N3445 G2 X-444.168 Y-53.22 I4.687 J13.093
N3450 G1 X-451.118 Y-50.564
N3455 Y-69.634
N3460 X-433.521
N3465 G2 X-429.883 Y-72.06 I0. J-3.941
N3470 G3 X-426.244 Y-74.485 I3.638 J1.516
N3475 G1 X455.969
N3480 Y-42.298
N3485 G2 X455.456 Y-42.744 I-6.196 J6.605
N3490 G1 X454.281 Y-43.69
N3495 G2 X451.831 Y-45.099 I-5.683 J7.051
N3500 G1 X442.175 Y-48.788
N3505 X441.98 Y-48.86
N3510 X438.7 Y-50.029
N3515 G2 X437.443 Y-50.376 I-3.038 J8.531
N3520 G1 X435.113 Y-50.844
N3525 X435.008 Y-50.864
N3530 X426.788 Y-52.413
N3535 X426.645 Y-52.438
N3540 X425.471 Y-52.64
N3545 G2 X425.043 Y-52.703 I-1.534 J8.925
N3550 G1 X409.777 Y-54.582
N3555 G2 X409.336 Y-54.626 I-1.106 J8.988
N3560 G1 X387.024 Y-56.271
N3565 X386.991 Y-56.273
N3570 X372.899 Y-57.26
N3575 X372.714 Y-57.271
N3580 X370.365 Y-57.387
N3585 X370.248 Y-57.392
N3590 X345.587 Y-58.293
N3595 X345.542 Y-58.294
N3600 X325.578 Y-58.925
N3605 X325.532 Y-58.926
N3610 X302.045 Y-59.548
N3615 X302.005 Y-59.549
N3620 X290.262 Y-59.808
N3625 X290.146 Y-59.81
N3630 X257.264 Y-60.114
N3635 X257.238
N3640 X218.484 Y-60.358
N3645 X218.467
N3650 X176.191 Y-60.544
N3655 X176.172
N3660 X124.501 Y-60.663
N3665 X124.484
N3670 X57.547 Y-60.695
N3675 X19.989 Y-60.683
N3680 X1.228 Y-60.795
N3685 X1.133
N3690 X-14.133 Y-60.726
N3695 X-23.51 Y-60.677
N3700 X-104.515 Y-60.685
N3705 X-104.531
N3710 X-159.725 Y-60.593
N3715 X-159.745
N3720 X-209.067 Y-60.406
N3725 X-209.085
N3730 X-250.187 Y-60.167
N3735 X-250.213
N3740 X-284.269 Y-59.871
N3745 X-284.301
N3750 X-292.521 Y-59.77
N3755 X-292.632 Y-59.768
N3760 X-313.77 Y-59.252
N3765 X-313.808 Y-59.251
N3770 X-333.772 Y-58.68
N3775 X-333.819 Y-58.678
N3780 X-353.783 Y-58.002
N3785 X-353.812 Y-58.001
N3790 X-371.428 Y-57.348
N3795 G2 X-371.716 Y-57.332 I0.336 J9.05
N3800 G1 X-384.633 Y-56.44
N3805 X-384.669 Y-56.438
N3810 X-406.981 Y-54.808
N3815 X-407.022 Y-54.805
N3820 X-409.371 Y-54.623
N3825 G2 X-409.777 Y-54.582 I0.7 J9.029
N3830 G1 X-425.043 Y-52.703
N3835 G2 X-425.578 Y-52.621 I1.106 J8.988
N3840 G1 X-430.275 Y-51.756
N3845 X-430.311 Y-51.749
N3850 X-436.182 Y-50.643
N3855 X-436.413 Y-50.597
N3860 X-437.587 Y-50.344
N3865 G2 X-438.733 Y-50.017 I1.907 J8.853
N3870 G1 X-442.256 Y-48.755
N3875 X-442.436 Y-48.689
N3880 X-451.831 Y-45.099
N3885 G2 X-454.315 Y-43.663 I3.233 J8.46
N3890 G1 X-455.524 Y-42.679
N3895 G2 X-455.969 Y-42.292 I5.716 J7.024
N3900 G1 Y-74.485
N3905 X-426.244
N3910 G2 X-423.19 Y-76.522 I0. J-3.309
N3915 G3 X-420.135 Y-78.558 I3.055 J1.273
N3920 G1 X458.279
N3925 X458.536 Y-78.527
N3930 X458.77 Y-78.467
N3935 X459.021 Y-78.364
N3940 X459.236 Y-78.239
N3945 X459.471 Y-78.06
N3950 X459.5 Y-78.033
N3955 X459.544 Y-77.986
N3960 X459.722 Y-77.754
N3965 X459.846 Y-77.543
N3970 X459.971 Y-77.242
N3975 X459.999 Y-77.141
N3980 X460.03 Y-76.984
N3985 X460.041 Y-76.873
N3990 Y76.834
N3995 X460.035 Y76.891
N4000 X459.974 Y77.176
N4005 X459.869 Y77.466
N4010 X459.807 Y77.591
N4015 X459.759 Y77.668
N4020 X459.549 Y77.941
N4025 X459.279 Y78.176
N4030 X459.021 Y78.325
N4035 X458.77 Y78.428
N4040 X458.536 Y78.488
N4045 X458.279 Y78.519
N4050 X137.599
N4055 X142.257 Y78.368
N4060 X142.373 Y78.362
N4065 X170.557 Y76.79
N4070 X170.69 Y76.781
N4075 X198.875 Y74.449
N4080 X199.028 Y74.434
N4085 X231.91 Y70.684
N4090 X232.057 Y70.665
N4095 X248.497 Y68.293
N4100 X248.626 Y68.273
N4105 X265.067 Y65.46
N4110 X265.214 Y65.432
N4115 X279.306 Y62.585
N4120 X279.457 Y62.552
N4125 X293.549 Y59.246
N4130 X293.704 Y59.207
N4135 X307.796 Y55.422
N4140 X307.954 Y55.376
N4145 X320.872 Y51.444
N4150 X320.931 Y51.426
N4155 X322.643 Y50.881
N4160 X322.751 Y50.846
N4165 X333.956 Y46.999
N4170 X334.099 Y46.948
N4175 X345.843 Y42.512
N4180 X345.991 Y42.453
N4185 X357.734 Y37.584
N4190 X357.791 Y37.56
N4195 X362.537 Y35.522
N4200 X362.653 Y35.47
N4205 X379.046 Y27.928
N4210 X379.131 Y27.888
N4215 X394.398 Y20.512
N4220 X394.47 Y20.476
N4225 X400.341 Y17.522
N4230 X400.458 Y17.462
N4235 X408.678 Y13.05
N4240 X408.766 Y13.002
N4245 X425.225 Y3.739
N4250 X425.352 Y3.665
N4255 X426.508 Y2.969
N4260 X426.714 Y2.838
N4265 X441.98 Y-7.407
N4270 G2 X442.498 Y-7.806 I-2.777 J-4.138
N4275 G1 X451.297 Y-15.559
N4280 G2 X451.904 Y-16.197 I-3.294 J-3.739
N4285 G1 X452.833 Y-17.366
N4290 X452.929 Y-17.491
N4295 X455.538 Y-20.996
N4300 G2 X456.155 Y-22.09 I-3.998 J-2.975
N4305 G1 X456.631 Y-23.258
N4310 G2 X456.818 Y-23.806 I-4.615 J-1.881
N4315 G1 X457.467 Y-26.143
N4320 X457.512 Y-26.317
N4325 X457.791 Y-27.486
N4330 X457.825 Y-27.636
N4335 X458.066 Y-28.805
N4340 G2 X458.041 Y-30.94 I-4.88 J-1.009
N4345 G1 X457.769 Y-32.109
N4350 X457.716 Y-32.319
N4355 X457.39 Y-33.487
N4360 G2 X457.065 Y-34.342 I-4.801 J1.337
N4365 G1 X456.597 Y-35.298
N4370 G2 X455.841 Y-36.423 I-4.476 J2.192
N4375 G1 X454.61 Y-37.803
N4380 X454.545 Y-37.875
N4385 X453.427 Y-39.081
N4390 G2 X452.9 Y-39.573 I-3.654 J3.388
N4395 G1 X451.726 Y-40.519
N4400 G2 X450.377 Y-41.295 I-3.127 J3.88
N4405 G1 X440.721 Y-44.984
N4410 X440.614 Y-45.023
N4415 X437.333 Y-46.192
N4420 G2 X436.642 Y-46.383 I-1.672 J4.695
N4425 G1 X434.312 Y-46.851
N4430 X434.254 Y-46.862
N4435 X426.034 Y-48.41
N4440 X425.956 Y-48.424
N4445 X424.781 Y-48.626
N4450 X424.546 Y-48.661
N4455 X409.279 Y-50.54
N4460 X409.037 Y-50.564
N4465 X386.725 Y-52.209
N4470 X386.706 Y-52.21
N4475 X372.614 Y-53.197
N4480 X372.513 Y-53.203
N4485 X370.164 Y-53.32
N4490 X370.099 Y-53.322
N4495 X345.438 Y-54.223
N4500 X345.413 Y-54.224
N4505 X325.45 Y-54.854
N4510 X325.424 Y-54.855
N4515 X301.938 Y-55.477
N4520 X301.915 Y-55.478
N4525 X290.172 Y-55.736
N4530 X290.108 Y-55.737
N4535 X257.227 Y-56.041
N4540 X218.459 Y-56.285
N4545 X176.173 Y-56.472
N4550 X124.492 Y-56.591
N4555 X57.545 Y-56.622
N4560 X19.978 Y-56.61
N4565 X1.204 Y-56.722
N4570 X1.152
N4575 X-14.115 Y-56.653
N4580 X-23.5 Y-56.604
N4585 X-104.516 Y-56.612
N4590 X-159.719 Y-56.52
N4595 X-209.052 Y-56.334
N4600 X-250.164 Y-56.095
N4605 X-284.234 Y-55.799
N4610 X-284.251 Y-55.798
N4615 X-292.472 Y-55.698
N4620 X-292.533 Y-55.697
N4625 X-313.671 Y-55.18
N4630 X-313.691
N4635 X-333.655 Y-54.609
N4640 X-333.681 Y-54.608
N4645 X-353.645 Y-53.932
N4650 X-353.661 Y-53.931
N4655 X-371.276 Y-53.278
N4660 X-371.435 Y-53.269
N4665 X-384.353 Y-52.377
N4670 X-384.372 Y-52.376
N4675 X-406.685 Y-50.746
N4680 X-406.707 Y-50.745
N4685 X-409.056 Y-50.562
N4690 X-409.279 Y-50.54
N4695 X-424.546 Y-48.661
N4700 G2 X-424.84 Y-48.616 I0.609 J4.946
N4705 G1 X-429.537 Y-47.75
N4710 X-429.557 Y-47.747
N4715 X-435.429 Y-46.641
N4720 X-435.555 Y-46.615
N4725 X-436.73 Y-46.362
N4730 G2 X-437.36 Y-46.182 I1.049 J4.872
N4735 G1 X-440.883 Y-44.921
N4740 X-440.982 Y-44.884
N4745 X-450.377 Y-41.294
N4750 G2 X-451.744 Y-40.504 I1.779 J4.655
N4755 G1 X-452.953 Y-39.52
N4760 G2 X-453.462 Y-39.044 I3.146 J3.865
N4765 G1 X-454.601 Y-37.815
N4770 X-454.67 Y-37.739
N4775 X-455.844 Y-36.419
N4780 G2 X-456.597 Y-35.298 I3.723 J3.313
N4785 G1 X-457.065 Y-34.342
N4790 G2 X-457.39 Y-33.487 I4.476 J2.192
N4795 G1 X-457.716 Y-32.319
N4800 X-457.769 Y-32.109
N4805 X-458.041 Y-30.94
N4810 G2 X-458.066 Y-28.805 I4.854 J1.127
N4815 G1 X-457.825 Y-27.636
N4820 X-457.791 Y-27.486
N4825 X-457.512 Y-26.317
N4830 X-457.467 Y-26.143
N4835 X-456.818 Y-23.806
N4840 G2 X-456.631 Y-23.258 I4.802 J-1.334
N4845 G1 X-456.155 Y-22.09
N4850 G2 X-455.538 Y-20.996 I4.615 J-1.881
N4855 G1 X-452.929 Y-17.491
N4860 X-452.833 Y-17.366
N4865 X-451.904 Y-16.197
N4870 G2 X-451.297 Y-15.559 I3.901 J-3.101
N4875 G1 X-442.498 Y-7.806
N4880 G2 X-441.98 Y-7.407 I3.294 J-3.739
N4885 G1 X-426.714 Y2.838
N4890 X-426.507 Y2.97
N4895 X-425.332 Y3.676
N4900 X-425.206 Y3.75
N4905 X-408.608 Y13.087
N4910 X-408.521 Y13.135
N4915 X-400.458 Y17.462
N4920 X-400.336 Y17.525
N4925 X-393.29 Y21.06
N4930 X-393.217 Y21.096
N4935 X-377.95 Y28.444
N4940 X-377.869 Y28.482
N4945 X-362.603 Y35.494
N4950 X-362.476 Y35.55
N4955 X-355.429 Y38.551
N4960 X-355.38 Y38.572
N4965 X-345.986 Y42.455
N4970 X-345.843 Y42.512
N4975 X-334.099 Y46.948
N4980 X-333.956 Y46.999
N4985 X-322.212 Y51.029
N4990 X-322.048 Y51.082
N4995 X-309.131 Y55.02
N5000 X-309.07 Y55.038
N5005 X-307.171 Y55.591
N5010 X-307.07 Y55.619
N5015 X-293.703 Y59.207
N5020 X-293.547 Y59.246
N5025 X-278.933 Y62.668
N5030 X-278.78 Y62.702
N5035 X-265.21 Y65.433
N5040 X-265.067 Y65.46
N5045 X-248.626 Y68.273
N5050 X-248.497 Y68.293
N5055 X-232.057 Y70.665
N5060 X-231.91 Y70.684
N5065 X-198.875 Y74.451
N5070 X-198.719 Y74.467
N5075 X-170.365 Y76.803
N5080 X-170.233 Y76.812
N5085 X-142.372 Y78.362
N5090 X-142.257 Y78.368
N5095 X-137.599 Y78.519
N5100 X-458.279
N5105 X-458.536 Y78.488
N5110 X-458.77 Y78.428
N5115 X-459.021 Y78.325
N5120 X-459.236 Y78.2
N5125 X-459.471 Y78.021
N5130 X-459.5 Y77.994
N5135 X-459.544 Y77.947
N5140 X-459.722 Y77.716
N5145 X-459.846 Y77.504
N5150 X-459.971 Y77.203
N5155 X-459.999 Y77.103
N5160 X-460.03 Y76.946
N5165 X-460.041 Y76.834
N5170 Y-76.873
N5175 X-460.035 Y-76.929
N5180 X-459.974 Y-77.215
N5185 X-459.869 Y-77.505
N5190 X-459.807 Y-77.63
N5195 X-459.759 Y-77.706
N5200 X-459.549 Y-77.979
N5205 X-459.279 Y-78.214
N5210 X-459.021 Y-78.364
N5215 X-458.77 Y-78.467
N5220 X-458.536 Y-78.527
N5225 X-458.279 Y-78.558
N5230 X-420.135
N5235 G2 X-417.776 Y-80.131 I0. J-2.556
N5240 G3 X-415.416 Y-81.704 I2.359 J0.983
N5245 G1 X458.469
N5250 X459.12 Y-81.625
N5255 X459.762 Y-81.46
N5260 X460.411 Y-81.194
N5265 X460.988 Y-80.86
N5270 X461.503 Y-80.466
N5275 X461.719 Y-80.265
N5280 X461.941 Y-80.029
N5285 X462.337 Y-79.515
N5290 X462.671 Y-78.944
N5295 X462.946 Y-78.28
N5300 X463.062 Y-77.874
N5305 X463.144 Y-77.447
N5310 X463.187 Y-77.037
N5315 Y76.999
N5320 X463.146 Y77.388
N5325 X463.004 Y78.047
N5330 X462.766 Y78.707
N5335 X462.559 Y79.122
N5340 X462.351 Y79.459
N5345 X461.941 Y79.99
N5350 X461.739 Y80.205
N5355 X461.21 Y80.666
N5360 X461.014 Y80.807
N5365 X460.411 Y81.156
N5370 X459.762 Y81.421
N5375 X459.12 Y81.586
N5380 X458.469 Y81.665
N5385 X-458.469
N5390 X-459.12 Y81.586
N5395 X-459.762 Y81.421
N5400 X-460.411 Y81.156
N5405 X-460.988 Y80.821
N5410 X-461.503 Y80.427
N5415 X-461.719 Y80.226
N5420 X-461.941 Y79.99
N5425 X-462.337 Y79.477
N5430 X-462.671 Y78.905
N5435 X-462.946 Y78.241
N5440 X-463.062 Y77.835
N5445 X-463.144 Y77.408
N5450 X-463.187 Y76.999
N5455 Y-77.037
N5460 X-463.146 Y-77.427
N5465 X-463.004 Y-78.085
N5470 X-462.766 Y-78.745
N5475 X-462.559 Y-79.16
N5480 X-462.351 Y-79.498
N5485 X-461.941 Y-80.029
N5490 X-461.739 Y-80.243
N5495 X-461.21 Y-80.705
N5500 X-461.014 Y-80.845
N5505 X-460.411 Y-81.194
N5510 X-459.762 Y-81.46
N5515 X-459.12 Y-81.625
N5520 X-458.469 Y-81.704
N5525 X-415.416
N5530 X-415.336 Y-81.699 Z-16.225
N5535 X-415.256 Y-81.683 Z-16.209
N5540 X-415.179 Y-81.658 Z-16.193
N5545 X-415.117 Y-81.629 Z-16.147
N5550 X-415.058 Y-81.593 Z-16.101
N5555 X-415.004 Y-81.552 Z-16.055
N5560 X-414.954 Y-81.504 Z-15.952
N5565 X-414.91 Y-81.452 Z-15.849
N5570 X-414.882 Y-81.412 Z-15.606
N5575 Z4.759
N5580 X-410.769 Y-53.194
N5585 Z-15.606
N5590 X-410.768 Y-53.187 Z-15.706
N5595 X-410.765 Y-53.164 Z-15.803
N5600 X-410.761 Y-53.126 Z-15.895
N5605 X-410.754 Y-53.074 Z-15.98
N5610 X-410.746 Y-53.01 Z-16.055
N5615 X-410.737 Y-52.935 Z-16.12
N5620 X-410.727 Y-52.85 Z-16.172
N5625 X-410.715 Y-52.759 Z-16.21
N5630 X-410.704 Y-52.663 Z-16.234
N5635 X-410.691 Y-52.564 Z-16.241
N5640 X-410.118 Y-47.907
N5645 G3 X-410.671 Y-47.199 I-0.63 J0.078
N5650 G1 X-424.161 Y-45.539
N5655 X-424.27 Y-45.522
N5660 X-428.967 Y-44.656
N5665 X-434.846 Y-43.549
N5670 X-434.893 Y-43.54
N5675 X-436.067 Y-43.287
N5680 X-436.185 Y-43.257
N5685 X-436.3 Y-43.22
N5690 X-439.823 Y-41.959
N5695 X-439.859 Y-41.946
N5700 X-439.897 Y-41.931
N5705 X-449.254 Y-38.356
N5710 G2 X-449.758 Y-38.064 I0.656 J1.716
N5715 G1 X-450.967 Y-37.08
N5720 G2 X-451.155 Y-36.905 I1.16 J1.425
N5725 G1 X-452.294 Y-35.676
N5730 X-452.32 Y-35.648
N5735 X-453.494 Y-34.328
N5740 G2 X-453.771 Y-33.915 I1.373 J1.222
N5745 G1 X-454.24 Y-32.958
N5750 G2 X-454.36 Y-32.643 I1.65 J0.808
N5755 G1 X-454.685 Y-31.475
N5760 X-454.705 Y-31.397
N5765 X-454.976 Y-30.229
N5770 G2 X-454.986 Y-29.441 I1.79 J0.416
N5775 G1 X-454.744 Y-28.273
N5780 X-454.732 Y-28.217
N5785 X-454.452 Y-27.049
N5790 X-454.436 Y-26.985
N5795 X-453.787 Y-24.648
N5800 X-453.755 Y-24.546
N5805 X-453.718 Y-24.446
N5810 X-453.241 Y-23.278
N5815 G2 X-453.014 Y-22.874 I1.702 J-0.694
N5820 G1 X-450.405 Y-19.369
N5825 X-450.37 Y-19.323
N5830 X-449.441 Y-18.155
N5835 G2 X-449.217 Y-17.919 I1.439 J-1.143
N5840 G1 X-440.418 Y-10.167
N5845 X-440.325 Y-10.09
N5850 X-440.227 Y-10.02
N5855 X-424.961 Y0.226
N5860 X-424.884 Y0.274
N5865 X-423.71 Y0.981
N5870 X-423.664 Y1.008
N5875 X-407.065 Y10.345
N5880 X-407.033 Y10.363
N5885 X-398.97 Y14.689
N5890 X-398.926 Y14.713
N5895 X-391.879 Y18.248
N5900 X-391.852 Y18.261
N5905 X-376.586 Y25.609
N5910 X-376.556 Y25.623
N5915 X-361.29 Y32.635
N5920 X-361.243 Y32.656
N5925 X-354.197 Y35.657
N5930 X-354.179 Y35.664
N5935 X-344.784 Y39.548
N5940 X-344.731 Y39.569
N5945 X-332.988 Y44.005
N5950 X-332.935 Y44.024
N5955 X-321.191 Y48.053
N5960 X-321.131 Y48.072
N5965 X-308.213 Y52.011
N5970 X-308.191 Y52.017
N5975 X-306.292 Y52.57
N5980 X-306.255 Y52.58
N5985 X-292.887 Y56.168
N5990 X-292.83 Y56.183
N5995 X-278.215 Y59.605
N6000 X-278.159 Y59.617
N6005 X-264.589 Y62.349
N6010 X-264.537 Y62.359
N6015 X-248.096 Y65.172
N6020 X-248.048 Y65.179
N6025 X-231.607 Y67.551
N6030 X-231.553 Y67.558
N6035 X-198.518 Y71.326
N6040 X-198.461 Y71.331
N6045 X-170.107 Y73.668
N6050 X-170.058 Y73.671
N6055 X-142.197 Y75.221
N6060 X-142.155 Y75.223
N6065 X-113.971 Y76.141
N6070 X-113.937 Y76.142
N6075 X-85.753 Y76.537
N6080 X-85.724
N6085 X-51.668 Y76.48
N6090 X-51.649
N6095 X-34.034 Y76.274
N6100 X-18.516 Y76.011
N6105 X-2.327 Y75.637
N6110 X2.328
N6115 X22.271 Y76.086
N6120 X39.9 Y76.354
N6125 X55.176 Y76.501
N6130 X55.192
N6135 X85.725 Y76.537
N6140 X85.753
N6145 X113.937 Y76.142
N6150 X113.971 Y76.141
N6155 X142.155 Y75.223
N6160 X142.198 Y75.221
N6165 X170.382 Y73.649
N6170 X170.431 Y73.646
N6175 X198.615 Y71.314
N6180 X198.672 Y71.308
N6185 X231.553 Y67.558
N6190 X231.607 Y67.551
N6195 X248.048 Y65.179
N6200 X248.096 Y65.172
N6205 X264.537 Y62.359
N6210 X264.591 Y62.349
N6215 X278.683 Y59.501
N6220 X278.738 Y59.489
N6225 X292.831 Y56.183
N6230 X292.887 Y56.168
N6235 X306.98 Y52.383
N6240 X307.038 Y52.367
N6245 X319.956 Y48.435
N6250 X319.978 Y48.428
N6255 X321.69 Y47.883
N6260 X321.73 Y47.87
N6265 X332.935 Y44.024
N6270 X332.988 Y44.005
N6275 X344.731 Y39.569
N6280 X344.786 Y39.547
N6285 X356.529 Y34.678
N6290 X356.55 Y34.669
N6295 X361.295 Y32.631
N6300 X361.338 Y32.612
N6305 X377.731 Y25.07
N6310 X377.763 Y25.055
N6315 X393.029 Y17.679
N6320 X393.056 Y17.666
N6325 X398.927 Y14.712
N6330 X398.97 Y14.689
N6335 X407.191 Y10.278
N6340 X407.223 Y10.26
N6345 X423.682 Y0.998
N6350 X423.729 Y0.97
N6355 X424.885 Y0.274
N6360 X424.961 Y0.226
N6365 X440.227 Y-10.02
N6370 X440.325 Y-10.09
N6375 X440.418 Y-10.167
N6380 X449.217 Y-17.919
N6385 G2 X449.441 Y-18.155 I-1.215 J-1.379
N6390 G1 X450.37 Y-19.323
N6395 X450.405 Y-19.369
N6400 X453.014 Y-22.874
N6405 G2 X453.241 Y-23.278 I-1.474 J-1.097
N6410 G1 X453.718 Y-24.446
N6415 X453.755 Y-24.546
N6420 X453.787 Y-24.648
N6425 X454.436 Y-26.985
N6430 X454.452 Y-27.049
N6435 X454.732 Y-28.217
N6440 X454.744 Y-28.273
N6445 X454.986 Y-29.441
N6450 G2 X454.976 Y-30.229 I-1.799 J-0.372
N6455 G1 X454.705 Y-31.397
N6460 X454.685 Y-31.475
N6465 X454.36 Y-32.643
N6470 G2 X454.24 Y-32.958 I-1.77 J0.493
N6475 G1 X453.771 Y-33.915
N6480 G2 X453.493 Y-34.329 I-1.65 J0.808
N6485 G1 X452.262 Y-35.71
N6490 X452.238 Y-35.736
N6495 X451.12 Y-36.942
N6500 G2 X450.926 Y-37.123 I-1.347 J1.249
N6505 G1 X449.751 Y-38.07
N6510 G2 X449.254 Y-38.356 I-1.153 J1.431
N6515 G1 X439.598 Y-42.045
N6520 X439.559 Y-42.06
N6525 X436.278 Y-43.228
N6530 G2 X436.023 Y-43.299 I-0.616 J1.731
N6535 G1 X433.693 Y-43.766
N6540 X433.672 Y-43.77
N6545 X425.451 Y-45.319
N6550 X425.423 Y-45.324
N6555 X424.248 Y-45.526
N6560 X424.161 Y-45.539
N6565 X408.895 Y-47.418
N6570 X408.806 Y-47.426
N6575 X386.493 Y-49.071
N6580 X372.394 Y-50.059
N6585 X372.357 Y-50.061
N6590 X370.008 Y-50.178
N6595 X369.984 Y-50.179
N6600 X345.323 Y-51.079
N6605 X325.35 Y-51.71
N6610 X301.854 Y-52.332
N6615 X290.103 Y-52.591
N6620 X290.079 Y-52.592
N6625 X257.198 Y-52.895
N6630 X218.439 Y-53.139
N6635 X176.159 Y-53.326
N6640 X124.484 Y-53.445
N6645 X57.544 Y-53.476
N6650 X19.969 Y-53.464
N6655 X1.185 Y-53.576
N6660 X1.166
N6665 X-14.1 Y-53.507
N6670 X-23.492 Y-53.458
N6675 X-104.516 Y-53.466
N6680 X-159.713 Y-53.374
N6685 X-209.04 Y-53.188
N6690 X-250.145 Y-52.949
N6695 X-284.206 Y-52.653
N6700 X-292.433 Y-52.552
N6705 X-292.456
N6710 X-313.594 Y-52.035
N6715 X-333.565 Y-51.464
N6720 X-353.539 Y-50.788
N6725 X-371.16 Y-50.134
N6730 X-371.218 Y-50.131
N6735 X-384.136 Y-49.239
N6740 X-406.456 Y-47.609
N6745 X-408.813 Y-47.426
N6750 X-408.895 Y-47.418
N6755 X-410.671 Y-47.199
N6760 X-410.752 Y-47.194 Z-16.225
N6765 X-410.832 Y-47.2 Z-16.209
N6770 X-410.912 Y-47.216 Z-16.193
N6775 X-410.977 Y-47.237 Z-16.147
N6780 X-411.04 Y-47.265 Z-16.101
N6785 X-411.099 Y-47.3 Z-16.055
N6790 X-411.154 Y-47.341 Z-15.952
N6795 X-411.205 Y-47.388 Z-15.849
N6800 X-411.237 Y-47.424 Z-15.606
N6805 Z4.759
N6810 X-428.351 Y45.097
N6815 Z-5.241
N6820 Z-24.265 F500.
N6825 X-428.309 Y45.073 Z-24.508
N6830 X-428.247 Y45.044 Z-24.611
N6835 X-428.181 Y45.023 Z-24.714
N6840 X-428.114 Y45.008 Z-24.76
N6845 X-428.046 Y45.001 Z-24.806
N6850 X-427.977 Y45.002 Z-24.852
N6855 X-427.897 Y45.011 Z-24.868
N6860 X-427.818 Y45.031 Z-24.884
N6865 X-427.743 Y45.061 Z-24.9
N6870 X-420.763 Y48.358 F1500.
N6875 G2 X-420.202 Y48.617 I14.441 J-30.572
N6880 G1 X-417.817 Y49.691
N6885 X-431.213
N6890 Y43.422
N6895 X-427.743 Y45.061
N6900 G2 X-424.403 Y44.568 I1.3 J-2.752
N6905 G3 X-421.064 Y44.074 I2.04 J2.258
N6910 G1 X-419.164 Y44.972
N6915 G2 X-418.664 Y45.202 I12.842 J-27.186
N6920 G1 X-403.398 Y52.075
N6925 G2 X-402.967 Y52.265 I12.342 J-27.416
N6930 G1 X-400.251 Y53.436
N6935 X-434.958
N6940 Y37.511
N6945 X-421.064 Y44.074
N6950 G2 X-417.73 Y43.572 I1.292 J-2.736
N6955 G3 X-414.401 Y43.04 I2.069 J2.265
N6960 G1 X-401.87 Y48.681
N6965 G2 X-401.492 Y48.848 I10.814 J-24.022
N6970 G1 X-386.226 Y55.434
N6975 G2 X-385.82 Y55.605 I10.437 J-24.189
N6980 G1 X-382.049 Y57.158
N6985 X-438.68
N6990 Y31.499
N6995 X-434.62 Y33.545
N7000 G2 X-434.015 Y33.84 I11.857 J-23.525
N7005 G1 X-417.574 Y41.607
N7010 G2 X-417.136 Y41.808 I11.252 J-23.821
N7015 G1 X-414.401 Y43.04
N7020 G2 X-411.115 Y42.492 I1.233 J-2.739
N7025 G3 X-407.828 Y41.945 I2.054 J2.191
N7030 G1 X-400.352 Y45.31
N7035 G2 X-400.028 Y45.454 I9.297 J-20.652
N7040 G1 X-384.761 Y52.04
N7045 G2 X-384.413 Y52.187 I8.972 J-20.795
N7050 G1 X-369.146 Y58.474
N7055 G2 X-368.63 Y58.679 I8.624 J-20.942
N7060 G1 X-362.956 Y60.855
N7065 X-442.377
N7070 Y25.496
N7075 X-432.956 Y30.244
N7080 G2 X-432.436 Y30.498 I10.193 J-20.224
N7085 G1 X-415.995 Y38.264
N7090 G2 X-415.619 Y38.438 I9.673 J-20.478
N7095 G1 X-407.828 Y41.945
N7100 G2 X-404.574 Y41.403 I1.22 J-2.711
N7105 G3 X-401.321 Y40.862 I2.033 J2.169
N7110 G1 X-398.85 Y41.974
N7115 G2 X-398.578 Y42.094 I7.795 J-17.315
N7120 G1 X-383.312 Y48.681
N7125 G2 X-383.019 Y48.804 I7.523 J-17.435
N7130 G1 X-367.753 Y55.091
N7135 G2 X-367.32 Y55.263 I7.23 J-17.558
N7140 G1 X-350.879 Y61.566
N7145 G2 X-350.351 Y61.759 I6.797 J-17.731
N7150 G1 X-342.475 Y64.514
N7155 X-446.036
N7160 Y19.554
N7165 X-431.309 Y26.977
N7170 G2 X-430.873 Y27.19 I8.547 J-16.957
N7175 G1 X-414.432 Y34.956
N7180 G2 X-414.117 Y35.101 I8.11 J-17.17
N7185 G1 X-401.321 Y40.862
N7190 G2 X-398.097 Y40.321 I1.207 J-2.682
N7195 G3 X-394.878 Y39.754 I2.04 J2.166
N7200 G1 X-381.88 Y45.362
N7205 G2 X-381.643 Y45.462 I6.091 J-14.117
N7210 G1 X-366.377 Y51.749
N7215 G2 X-366.026 Y51.888 I5.854 J-14.217
N7220 G1 X-349.586 Y58.191
N7225 G2 X-349.158 Y58.348 I5.504 J-14.356
N7230 G1 X-337.414 Y62.455
N7235 G2 X-336.994 Y62.596 I5.076 J-14.513
N7240 G1 X-325.25 Y66.326
N7245 G2 X-324.816 Y66.457 I4.655 J-14.653
N7250 G1 X-318.965 Y68.128
N7255 X-449.65
N7260 Y13.564
N7265 X-446.515 Y15.259
N7270 G2 X-446.123 Y15.463 I7.311 J-13.525
N7275 G1 X-429.683 Y23.749
N7280 G2 X-429.33 Y23.922 I6.92 J-13.73
N7285 G1 X-412.889 Y31.688
N7290 G2 X-412.633 Y31.806 I6.567 J-13.902
N7295 G1 X-397.367 Y38.678
N7300 X-397.146 Y38.776
N7305 X-394.878 Y39.754
N7310 G2 X-391.753 Y39.183 I1.135 J-2.629
N7315 G3 X-388.627 Y38.613 I1.991 J2.059
N7320 G1 X-380.484 Y42.126
N7325 X-380.301 Y42.203
N7330 X-365.035 Y48.49
N7335 G2 X-364.765 Y48.597 I4.512 J-10.958
N7340 G1 X-348.324 Y54.9
N7345 G2 X-347.994 Y55.021 I4.242 J-11.065
N7350 G1 X-336.251 Y59.128
N7355 G2 X-335.926 Y59.236 I3.912 J-11.186
N7360 G1 X-324.183 Y62.967
N7365 G2 X-323.848 Y63.068 I3.588 J-11.294
N7370 G1 X-309.756 Y67.091
N7375 G2 X-309.41 Y67.184 I3.253 J-11.395
N7380 G1 X-295.318 Y70.75
N7385 G2 X-294.963 Y70.834 I2.907 J-11.488
N7390 G1 X-291.252 Y71.652
N7395 X-453.174
N7400 Y7.639
N7405 X-450.755 Y8.96
N7410 X-450.71 Y8.984
N7415 X-444.839 Y12.158
N7420 G2 X-444.537 Y12.316 I5.635 J-10.425
N7425 G1 X-428.096 Y20.602
N7430 G2 X-427.824 Y20.735 I5.334 J-10.582
N7435 G1 X-411.383 Y28.501
N7440 X-411.186 Y28.592
N7445 X-395.92 Y35.464
N7450 X-395.75 Y35.539
N7455 X-388.627 Y38.613
N7460 G2 X-385.585 Y38.057 I1.104 J-2.56
N7465 G3 X-382.543 Y37.501 I1.938 J2.004
N7470 G1 X-379.124 Y38.976
N7475 X-378.995 Y39.031
N7480 X-363.728 Y45.317
N7485 X-363.536 Y45.394
N7490 X-347.096 Y51.697
N7495 X-346.861 Y51.782
N7500 X-335.118 Y55.89
N7505 X-334.888 Y55.967
N7510 X-323.144 Y59.697
N7515 X-322.906 Y59.769
N7520 X-308.814 Y63.792
N7525 G2 X-308.568 Y63.858 I2.311 J-8.096
N7530 G1 X-294.476 Y67.424
N7535 G2 X-294.224 Y67.484 I2.065 J-8.162
N7540 G1 X-279.586 Y70.711
N7545 X-279.342 Y70.761
N7550 X-265.796 Y73.331
N7555 X-265.567 Y73.371
N7560 X-254.947 Y75.083
N7565 X-456.605
N7570 Y1.756
N7575 X-454.014 Y3.268
N7580 X-453.808 Y3.384
N7585 X-449.11 Y5.949
N7590 X-449.079 Y5.966
N7595 X-443.207 Y9.14
N7600 X-442.993 Y9.252
N7605 X-426.552 Y17.538
N7610 X-426.359 Y17.633
N7615 X-409.918 Y25.399
N7620 X-409.778 Y25.463
N7625 X-394.512 Y32.336
N7630 X-394.391 Y32.389
N7635 X-382.543 Y37.501
N7640 G2 X-379.572 Y36.963 I1.08 J-2.503
N7645 G3 X-376.607 Y36.399 I1.914 J1.99
N7650 G1 X-362.456 Y42.226
N7655 X-362.34 Y42.272
N7660 X-345.899 Y48.575
N7665 X-345.758 Y48.627
N7670 X-334.014 Y52.734
N7675 X-333.876 Y52.781
N7680 X-322.132 Y56.511
N7685 X-321.989 Y56.555
N7690 X-307.897 Y60.578
N7695 X-307.748 Y60.618
N7700 X-293.656 Y64.183
N7705 X-293.504 Y64.219
N7710 X-278.866 Y67.447
N7715 X-278.719 Y67.477
N7720 X-265.173 Y70.047
N7725 X-265.035 Y70.071
N7730 X-248.594 Y72.721
N7735 X-248.47 Y72.74
N7740 X-232.029 Y74.975
N7745 X-231.895 Y74.991
N7750 X-200.378 Y78.426
N7755 X-458.274
N7760 X-458.519 Y78.396
N7765 X-458.74 Y78.339
N7770 X-458.98 Y78.241
N7775 X-459.185 Y78.123
N7780 X-459.411 Y77.95
N7785 X-459.434 Y77.928
N7790 X-459.473 Y77.887
N7795 X-459.645 Y77.663
N7800 X-459.762 Y77.463
N7805 X-459.882 Y77.172
N7810 X-459.909 Y77.081
N7815 X-459.937 Y76.932
N7820 X-459.948 Y76.83
N7825 Y-4.062
N7830 X-452.33 Y0.38
N7835 X-452.206 Y0.45
N7840 X-447.508 Y3.015
N7845 X-447.489 Y3.025
N7850 X-441.617 Y6.199
N7855 X-441.488 Y6.267
N7860 X-425.048 Y14.553
N7865 X-424.931 Y14.61
N7870 X-408.49 Y22.376
N7875 X-408.406 Y22.415
N7880 X-393.139 Y29.288
N7885 X-393.067 Y29.32
N7890 X-377.8 Y35.907
N7895 X-377.722 Y35.94
N7900 X-376.607 Y36.399
N7905 X-376.534 Y36.435 Z-24.884
N7910 X-376.466 Y36.479 Z-24.868
N7915 X-376.405 Y36.532 Z-24.852
N7920 X-376.358 Y36.582 Z-24.806
N7925 X-376.318 Y36.638 Z-24.76
N7930 X-376.283 Y36.697 Z-24.714
N7935 X-376.255 Y36.76 Z-24.611
N7940 X-376.234 Y36.825 Z-24.508
N7945 X-376.224 Y36.872 Z-24.265
N7950 Z5.037
N7955 X427.387 Y45.558
N7960 Z-5.241
N7965 Z-24.265 F500.
N7970 X427.395 Y45.51 Z-24.508
N7975 X427.413 Y45.444 Z-24.611
N7980 X427.437 Y45.379 Z-24.714
N7985 X427.469 Y45.318 Z-24.76
N7990 X427.507 Y45.261 Z-24.806
N7995 X427.55 Y45.208 Z-24.852
N8000 X427.609 Y45.153 Z-24.868
N8005 X427.674 Y45.105 Z-24.884
N8010 X427.745 Y45.066 Z-24.9
N8015 X431.208 Y43.43 F1500.
N8020 Y49.686
N8025 X417.843
N8030 X420.219 Y48.615
N8035 G2 X420.766 Y48.363 I-13.897 J-30.829
N8040 G1 X427.745 Y45.066
N8045 G2 X429.486 Y42.172 I-1.3 J-2.752
N8050 G3 X431.226 Y39.278 I3.041 J-0.142
N8055 G1 X434.954 Y37.517
N8060 Y53.432
N8065 X400.255
N8070 X404.182 Y51.732
N8075 G2 X404.588 Y51.552 I-11.952 J-27.593
N8080 G1 X418.68 Y45.2
N8085 G2 X419.166 Y44.975 I-12.358 J-27.414
N8090 G1 X431.226 Y39.278
N8095 G2 X432.969 Y36.408 I-1.301 J-2.754
N8100 G3 X434.684 Y33.521 I3.087 J-0.118
N8105 G1 X434.857 Y33.435
N8110 X438.678 Y31.507
N8115 Y57.156
N8120 X382.041
N8125 X387.009 Y55.107
N8130 G2 X387.435 Y54.927 I-10.045 J-24.356
N8135 G1 X402.702 Y48.314
N8140 G2 X403.057 Y48.157 I-10.472 J-24.176
N8145 G1 X417.149 Y41.805
N8150 G2 X417.575 Y41.608 I-10.827 J-24.019
N8155 G1 X434.244 Y33.734
N8160 G2 X434.684 Y33.521 I-11.253 J-23.822
N8165 X436.34 Y30.616 I-1.328 J-2.681
N8170 G3 X437.995 Y27.711 I3.018 J-0.205
N8175 G1 X442.376 Y25.501
N8180 Y60.854
N8185 X362.965
N8190 X368.635 Y58.679
N8195 G2 X369.158 Y58.47 I-8.112 J-21.147
N8200 G1 X385.599 Y51.689
N8205 G2 X385.966 Y51.534 I-8.636 J-20.938
N8210 G1 X401.232 Y44.922
N8215 G2 X401.538 Y44.787 I-9.002 J-20.783
N8220 G1 X415.63 Y38.434
N8225 G2 X415.996 Y38.265 I-9.308 J-20.648
N8230 G1 X432.665 Y30.391
N8235 G2 X433.192 Y30.134 I-9.674 J-20.479
N8240 G1 X437.995 Y27.711
N8245 G2 X439.621 Y24.841 I-1.339 J-2.655
N8250 G3 X441.248 Y21.971 I2.965 J-0.215
N8255 G1 X446.035 Y19.556
N8260 Y64.513
N8265 X342.48
N8270 X350.465 Y61.72
N8275 G2 X350.996 Y61.525 I-6.269 J-17.925
N8280 G1 X367.324 Y55.262
N8285 G2 X367.763 Y55.087 I-6.801 J-17.73
N8290 G1 X384.204 Y48.306
N8295 G2 X384.511 Y48.176 I-7.24 J-17.555
N8300 G1 X399.778 Y41.564
N8305 G2 X400.034 Y41.451 I-7.548 J-17.425
N8310 G1 X414.126 Y35.098
N8315 G2 X414.433 Y34.956 I-7.804 J-17.312
N8320 G1 X431.102 Y27.082
N8325 G2 X431.543 Y26.867 I-8.111 J-17.17
N8330 G1 X441.248 Y21.971
N8335 G2 X442.854 Y19.137 I-1.323 J-2.622
N8340 G3 X444.46 Y16.303 I2.929 J-0.212
N8345 G1 X446.129 Y15.461
N8350 G2 X446.518 Y15.258 I-6.925 J-13.728
N8355 G1 X449.649 Y13.565
N8360 Y68.127
N8365 X318.97
N8370 X324.816 Y66.458
N8375 G2 X325.25 Y66.327 I-4.221 J-14.785
N8380 G1 X336.994 Y62.596
N8385 G2 X337.415 Y62.456 I-4.655 J-14.654
N8390 G1 X349.271 Y58.309
N8395 G2 X349.702 Y58.151 I-5.076 J-14.514
N8400 G1 X366.03 Y51.888
N8405 G2 X366.385 Y51.746 I-5.507 J-14.356
N8410 G1 X382.826 Y44.965
N8415 G2 X383.075 Y44.86 I-5.862 J-14.214
N8420 G1 X398.341 Y38.248
N8425 X398.549 Y38.156
N8430 X412.641 Y31.803
N8435 G2 X412.889 Y31.689 I-6.319 J-14.017
N8440 G1 X429.558 Y23.815
N8445 G2 X429.916 Y23.64 I-6.567 J-13.903
N8450 G1 X444.46 Y16.303
N8455 G2 X446.025 Y13.509 I-1.29 J-2.558
N8460 G3 X447.55 Y10.693 I2.918 J-0.241
N8465 G1 X453.174 Y7.651
N8470 Y71.652
N8475 X291.267
N8480 X294.968 Y70.834
N8485 G2 X295.318 Y70.751 I-2.558 J-11.572
N8490 G1 X309.41 Y67.185
N8495 G2 X309.756 Y67.092 I-2.907 J-11.489
N8500 G1 X323.848 Y63.069
N8505 G2 X324.183 Y62.968 I-3.253 J-11.396
N8510 G1 X335.927 Y59.237
N8515 G2 X336.251 Y59.129 I-3.588 J-11.295
N8520 G1 X348.108 Y54.982
N8525 G2 X348.44 Y54.86 I-3.913 J-11.187
N8530 G1 X364.767 Y48.597
N8535 G2 X365.041 Y48.488 I-4.245 J-11.065
N8540 G1 X381.482 Y41.707
N8545 X381.674 Y41.626
N8550 X396.94 Y35.013
N8555 X397.1 Y34.943
N8560 X411.192 Y28.59
N8565 X411.384 Y28.502
N8570 X428.052 Y20.628
N8575 G2 X428.328 Y20.493 I-5.062 J-10.716
N8580 G1 X444.541 Y12.314
N8585 G2 X444.841 Y12.157 I-5.338 J-10.581
N8590 G1 X447.55 Y10.693
N8595 G2 X448.998 Y7.959 I-1.326 J-2.453
N8600 G3 X450.445 Y5.225 I2.774 J-0.281
N8605 G1 X452.603 Y4.058
N8610 X452.796 Y3.951
N8615 X456.151 Y2.021
N8620 X456.203 Y1.991
N8625 X456.605 Y1.756
N8630 Y75.083
N8635 X254.947
N8640 X265.567 Y73.371
N8645 X265.801 Y73.33
N8650 X279.893 Y70.647
N8655 X280.136 Y70.597
N8660 X294.228 Y67.483
N8665 G2 X294.476 Y67.424 I-1.817 J-8.221
N8670 G1 X308.568 Y63.858
N8675 G2 X308.814 Y63.792 I-2.065 J-8.162
N8680 G1 X322.906 Y59.769
N8685 X323.144 Y59.697
N8690 X334.888 Y55.967
N8695 X335.118 Y55.89
N8700 X346.975 Y51.743
N8705 G2 X347.211 Y51.656 I-2.78 J-7.947
N8710 G1 X363.538 Y45.393
N8715 X363.733 Y45.315
N8720 X380.174 Y38.535
N8725 X380.31 Y38.477
N8730 X395.576 Y31.864
N8735 X395.69 Y31.814
N8740 X409.782 Y25.462
N8745 X409.918 Y25.399
N8750 X426.587 Y17.525
N8755 X426.783 Y17.429
N8760 X442.996 Y9.25
N8765 X443.209 Y9.139
N8770 X450.445 Y5.225
N8775 G2 X451.857 Y2.543 I-1.295 J-2.394
N8780 G3 X453.234 Y-0.157 I2.761 J-0.294
N8785 G1 X454.484 Y-0.876
N8790 X454.516 Y-0.895
N8795 X459.948 Y-4.071
N8800 Y76.83
N8805 X459.943 Y76.876
N8810 X459.884 Y77.15
N8815 X459.783 Y77.43
N8820 X459.725 Y77.546
N8825 X459.683 Y77.615
N8830 X459.481 Y77.877
N8835 X459.225 Y78.1
N8840 X458.98 Y78.241
N8845 X458.74 Y78.339
N8850 X458.519 Y78.396
N8855 X458.274 Y78.426
N8860 X200.378
N8865 X231.895 Y74.991
N8870 X232.029 Y74.975
N8875 X248.47 Y72.74
N8880 X248.594 Y72.721
N8885 X265.035 Y70.071
N8890 X265.176 Y70.046
N8895 X279.268 Y67.363
N8900 X279.414 Y67.333
N8905 X293.506 Y64.219
N8910 X293.656 Y64.183
N8915 X307.748 Y60.618
N8920 X307.897 Y60.578
N8925 X321.989 Y56.555
N8930 X322.132 Y56.511
N8935 X333.876 Y52.781
N8940 X334.014 Y52.734
N8945 X345.871 Y48.587
N8950 X346.013 Y48.535
N8955 X362.341 Y42.272
N8960 X362.458 Y42.225
N8965 X378.899 Y35.444
N8970 X378.981 Y35.41
N8975 X394.248 Y28.797
N8980 X394.316 Y28.767
N8985 X408.408 Y22.414
N8990 X408.49 Y22.376
N8995 X425.159 Y14.502
N9000 X425.277 Y14.445
N9005 X441.49 Y6.266
N9010 X441.619 Y6.199
N9015 X451.013 Y1.118
N9020 X451.129 Y1.053
N9025 X453.234 Y-0.157
N9030 G2 X454.526 Y-2.783 I-1.308 J-2.275
N9035 G3 X455.818 Y-5.409 I2.631 J-0.336
N9040 G1 X460.222 Y-7.984
N9045 G2 X460.528 Y-8.208 I-0.928 J-1.586
N9050 G1 X460.795 Y-8.45
N9055 G2 X461.035 Y-8.715 I-1.234 J-1.362
N9060 G1 X461.247 Y-9.
N9065 G2 X461.456 Y-9.36 I-1.474 J-1.097
N9070 G1 X461.648 Y-9.798
N9075 G2 X461.779 Y-10.24 I-1.683 J-0.737
N9080 G1 X461.85 Y-10.679
N9085 G2 X461.874 Y-10.973 I-1.814 J-0.294
N9090 G1 X461.869 Y-75.673
N9095 X461.865 Y-75.79
N9100 X461.854 Y-75.908
N9105 X461.76 Y-76.638
N9110 G2 X461.691 Y-76.95 I-1.822 J0.235
N9115 G1 X461.509 Y-77.534
N9120 G2 X461.36 Y-77.882 I-1.754 J0.547
N9125 G1 X461.115 Y-78.32
N9130 G2 X460.881 Y-78.65 I-1.605 J0.895
N9135 G1 X460.62 Y-78.942
N9140 G2 X460.279 Y-79.239 I-1.37 J1.224
N9145 G1 X459.903 Y-79.494
N9150 G2 X459.509 Y-79.696 I-1.03 J1.522
N9155 G1 X459.216 Y-79.804
N9160 G2 X458.863 Y-79.895 I-0.636 J1.724
N9165 G1 X458.569 Y-79.941
N9170 G2 X458.286 Y-79.963 I-0.283 J1.816
N9175 G1 X-458.286
N9180 G2 X-458.569 Y-79.941 I0. J1.837
N9185 G1 X-458.863 Y-79.895
N9190 G2 X-459.216 Y-79.804 I0.283 J1.816
N9195 G1 X-459.509 Y-79.696
N9200 G2 X-459.903 Y-79.494 I0.636 J1.724
N9205 G1 X-460.279 Y-79.239
N9210 G2 X-460.62 Y-78.942 I1.03 J1.522
N9215 G1 X-460.881 Y-78.65
N9220 G2 X-461.115 Y-78.32 I1.37 J1.224
N9225 G1 X-461.36 Y-77.882
N9230 G2 X-461.509 Y-77.534 I1.605 J0.895
N9235 G1 X-461.691 Y-76.95
N9240 G2 X-461.76 Y-76.638 I1.754 J0.547
N9245 G1 X-461.854 Y-75.908
N9250 X-461.865 Y-75.79
N9255 X-461.869 Y-75.672
N9260 X-461.862 Y-10.827
N9265 G2 X-461.808 Y-10.385 I1.837 J0.
N9270 G1 X-461.699 Y-9.947
N9275 G2 X-461.567 Y-9.582 I1.784 J-0.442
N9280 G1 X-461.424 Y-9.29
N9285 G2 X-461.247 Y-9. I1.651 J-0.807
N9290 G1 X-461.035 Y-8.715
N9295 G2 X-460.854 Y-8.506 I1.474 J-1.097
N9300 G1 X-460.714 Y-8.368
N9305 G2 X-460.519 Y-8.2 I1.293 J-1.306
N9310 G1 X-460.266 Y-8.011
N9315 X-460.181 Y-7.951
N9320 X-460.093 Y-7.897
N9325 X-450.698 Y-2.418
N9330 X-450.653 Y-2.393
N9335 X-445.956 Y0.172
N9340 X-440.077 Y3.35
N9345 X-440.03 Y3.374
N9350 X-423.59 Y11.661
N9355 X-423.547 Y11.681
N9360 X-407.107 Y19.447
N9365 X-407.076 Y19.462
N9370 X-391.81 Y26.334
N9375 X-391.783 Y26.346
N9380 X-376.517 Y32.933
N9385 X-376.489 Y32.945
N9390 X-361.222 Y39.231
N9395 X-361.18 Y39.248
N9400 X-344.74 Y45.551
N9405 X-344.688 Y45.569
N9410 X-332.945 Y49.677
N9415 X-332.895 Y49.694
N9420 X-321.151 Y53.424
N9425 X-321.099 Y53.44
N9430 X-307.007 Y57.463
N9435 X-306.954 Y57.477
N9440 X-292.862 Y61.043
N9445 X-292.807 Y61.056
N9450 X-278.168 Y64.284
N9455 X-278.115 Y64.295
N9460 X-264.569 Y66.864
N9465 X-264.519 Y66.873
N9470 X-248.078 Y69.524
N9475 X-248.033 Y69.53
N9480 X-231.593 Y71.765
N9485 X-231.544 Y71.771
N9490 X-198.663 Y75.355
N9495 X-198.608 Y75.36
N9500 X-170.424 Y77.588
N9505 X-170.377 Y77.591
N9510 X-142.193 Y79.094
N9515 X-142.152 Y79.095
N9520 X-113.968 Y79.972
N9525 X-113.936 Y79.973
N9530 X-85.751 Y80.351
N9535 X-85.724
N9540 X-51.668 Y80.297
N9545 X-51.65
N9550 X-34.035 Y80.1
N9555 X-18.76 Y79.851
N9560 X-2.328 Y79.488
N9565 X2.329
N9570 X23.448 Y79.938
N9575 X41.076 Y80.188
N9580 X55.177 Y80.316
N9585 X85.725 Y80.351
N9590 X85.751
N9595 X113.936 Y79.973
N9600 X113.968 Y79.972
N9605 X142.152 Y79.095
N9610 X142.193 Y79.094
N9615 X170.377 Y77.591
N9620 X170.424 Y77.588
N9625 X198.608 Y75.36
N9630 X198.663 Y75.355
N9635 X231.544 Y71.771
N9640 X231.593 Y71.765
N9645 X248.033 Y69.53
N9650 X248.078 Y69.524
N9655 X264.519 Y66.873
N9660 X264.57 Y66.864
N9665 X278.662 Y64.181
N9670 X278.715 Y64.171
N9675 X292.807 Y61.056
N9680 X292.862 Y61.043
N9685 X306.954 Y57.477
N9690 X307.007 Y57.463
N9695 X321.099 Y53.44
N9700 X321.151 Y53.424
N9705 X332.895 Y49.694
N9710 X332.945 Y49.677
N9715 X344.802 Y45.53
N9720 X344.853 Y45.511
N9725 X361.181 Y39.248
N9730 X361.223 Y39.231
N9735 X377.664 Y32.45
N9740 X377.694 Y32.437
N9745 X392.96 Y25.825
N9750 X392.985 Y25.814
N9755 X407.077 Y19.461
N9760 X407.107 Y19.447
N9765 X423.775 Y11.573
N9770 X423.818 Y11.553
N9775 X440.031 Y3.374
N9780 X440.078 Y3.35
N9785 X449.472 Y-1.731
N9790 X449.514 Y-1.755
N9795 X452.869 Y-3.684
N9800 X455.818 Y-5.409
N9805 Z-24.265
N9810 Z4.759
N9815 X457.225 Y-6.044
N9820 Z-5.241
N9825 Z-24.265
N9830 G18 G2 X457.86 Z-24.9 I0.635 K0.
N9835 G1 X462.552
N9840 G17 G3 X463.187 Y-5.409 I0. J0.635
N9845 G1 Y76.999
N9850 X463.146 Y77.388
N9855 X463.004 Y78.047
N9860 X462.766 Y78.707
N9865 X462.559 Y79.122
N9870 X462.351 Y79.459
N9875 X461.941 Y79.99
N9880 X461.739 Y80.205
N9885 X461.21 Y80.666
N9890 X461.014 Y80.807
N9895 X460.411 Y81.156
N9900 X459.762 Y81.421
N9905 X459.12 Y81.586
N9910 X458.469 Y81.665
N9915 X-458.469
N9920 X-459.12 Y81.586
N9925 X-459.762 Y81.421
N9930 X-460.411 Y81.156
N9935 X-460.988 Y80.821
N9940 X-461.503 Y80.427
N9945 X-461.719 Y80.226
N9950 X-461.941 Y79.99
N9955 X-462.337 Y79.477
N9960 X-462.671 Y78.905
N9965 X-462.946 Y78.241
N9970 X-463.062 Y77.835
N9975 X-463.144 Y77.408
N9980 X-463.187 Y76.999
N9985 Y-77.037
N9990 X-463.146 Y-77.427
N9995 X-463.004 Y-78.085
N10000 X-462.766 Y-78.745
N10005 X-462.559 Y-79.16
N10010 X-462.351 Y-79.498
N10015 X-461.941 Y-80.029
N10020 X-461.739 Y-80.243
N10025 X-461.21 Y-80.705
N10030 X-461.014 Y-80.845
N10035 X-460.411 Y-81.194
N10040 X-459.762 Y-81.46
N10045 X-459.12 Y-81.625
N10050 X-458.469 Y-81.704
N10055 X458.469
N10060 X459.12 Y-81.625
N10065 X459.762 Y-81.46
N10070 X460.411 Y-81.194
N10075 X460.988 Y-80.86
N10080 X461.503 Y-80.466
N10085 X461.665 Y-80.315
N10090 X461.719 Y-80.265
N10095 X461.941 Y-80.029
N10100 X462.337 Y-79.515
N10105 X462.671 Y-78.944
N10110 X462.946 Y-78.28
N10115 X463.062 Y-77.874
N10120 X463.144 Y-77.447
N10125 X463.187 Y-77.037
N10130 Y-5.409
N10135 X463.182 Y-5.328 Z-24.884
N10140 X463.167 Y-5.249 Z-24.868
N10145 X463.141 Y-5.172 Z-24.852
N10150 X463.112 Y-5.109 Z-24.806
N10155 X463.077 Y-5.051 Z-24.76
N10160 X463.035 Y-4.996 Z-24.714
N10165 X462.987 Y-4.946 Z-24.611
N10170 X462.935 Y-4.902 Z-24.508
N10175 X462.895 Y-4.874 Z-24.265
N10180 Z15.
N10185 M9
N10190 G53 G0 Z0.
N10195 M30
%
