%
(FOILFIXED2)
(T2  D=3.175 CR=1.587 - ZMIN=0. - BALL END MILL)
N10 G90 G94 G17 G91.1
N15 G21
(WHEN USING FUSION 360 FOR PERSONAL USE, THE FEEDRATE OF)
(RAPID MOVES IS REDUCED TO MATCH THE FEEDRATE OF CUTTING)
(MOVES, WHICH CAN INCREASE MACHINING TIME. UNRESTRICTED RAPID)
(MOVES ARE AVAILABLE WITH A FUSION 360 SUBSCRIPTION.)
N20 G53 G0 Z0.
(MORPHED SPIRAL1)
N25 T2 M6
N30 S10000 M3
N35 G54
N40 G0 X-397.159 Y-30.731
N45 G43 Z40.4 H2
N50 G1 Z12.8 F2500.
N55 Z11.121 F333.33
N60 X-397.153 Y-30.73 Z11.057 F2500.
N65 X-397.134 Y-30.726 Z10.996
N70 X-397.104 Y-30.719 Z10.94
N75 X-397.063 Y-30.71 Z10.891
N80 X-397.013 Y-30.699 Z10.852
N85 X-396.957 Y-30.687 Z10.823
N90 X-396.897 Y-30.674 Z10.807
N95 X-396.834 Y-30.66 Z10.804
N100 X-379.898 Y-26.939 Z11.653
N105 X-367.819 Y-24.366 Z12.235
N110 X-351.723 Y-21.071 Z12.98
N115 X-336.081 Y-18.008 Z13.652
N120 X-325.577 Y-16.065 Z14.071
N125 X-318.344 Y-14.808 Z14.342
N130 X-308.166 Y-13.144 Z14.696
N135 X-295.811 Y-11.3 Z15.088
N140 X-282.859 Y-9.591 Z15.453
N145 X-271.823 Y-8.298 Z15.728
N150 X-257.85 Y-6.871 Z16.032
N155 X-245.877 Y-5.839 Z16.254
N160 X-231.284 Y-4.773 Z16.488
N165 X-219.068 Y-3.984 Z16.66
N170 X-201.32 Y-3.012 Z16.876
N175 X-183.681 Y-2.198 Z17.058
N180 X-162.551 Y-1.431 Z17.226
N185 X-141.604 Y-0.904 Z17.347
N190 X-127.784 Y-0.648 Z17.405
N195 X-105.396 Y-0.39 Z17.463
N200 X-85.762 Y-0.297 Z17.487
N205 X-57.518 Y-0.327 Z17.483
N210 X-21.426 Y-0.565 Z17.431
N215 X-0.323 Y-0.769 Z17.4
N220 X31.577 Y-0.531 Z17.444
N225 X58.841 Y-0.415 Z17.474
N230 X93.011 Y-0.469 Z17.464
N235 X113.605 Y-0.65 Z17.427
N240 X141.121 Y-1.117 Z17.325
N245 X156.755 Y-1.529 Z17.237
N250 X174.126 Y-2.116 Z17.108
N255 X194.369 Y-2.982 Z16.918
N260 X214.205 Y-4.05 Z16.687
N265 X230.961 Y-5.117 Z16.454
N270 X245.739 Y-6.21 Z16.215
N275 X258.22 Y-7.316 Z15.98
N280 X268.999 Y-8.41 Z15.748
N285 X280.491 Y-9.728 Z15.469
N290 X293.04 Y-11.36 Z15.123
N295 X304.418 Y-13.006 Z14.772
N300 X315.069 Y-14.703 Z14.411
N305 X324.97 Y-16.408 Z14.045
N310 X336.055 Y-18.464 Z13.603
N315 X356.323 Y-22.449 Z12.723
N320 X373.954 Y-26.115 Z11.894
N325 X391.283 Y-29.861 Z11.041
N330 X396.454 Y-30.993 Z10.778
N335 X397.338 Y-30.975 Z10.756
N340 X397.411 Y-30.86 Z10.767
N345 X397.335 Y-30.536 Z10.804
N350 X396.894 Y-30.25 Z10.846
N355 X390.456 Y-28.795 Z11.178
N360 X370.913 Y-24.515 Z12.142
N365 X352.932 Y-20.741 Z12.987
N370 X335.817 Y-17.335 Z13.73
N375 X321.788 Y-14.728 Z14.287
N380 X309.603 Y-12.666 Z14.724
N385 X297.184 Y-10.768 Z15.125
N390 X283.31 Y-8.872 Z15.525
N395 X273.651 Y-7.703 Z15.77
N400 X259.28 Y-6.176 Z16.092
N405 X246.543 Y-5.026 Z16.336
N410 X235.382 Y-4.153 Z16.521
N415 X216.67 Y-2.911 Z16.792
N420 X200.145 Y-1.983 Z16.994
N425 X183.417 Y-1.178 Z17.169
N430 X164.714 Y-0.448 Z17.324
N435 X147.929 Y0.043 Z17.431
N440 X123.046 Y0.559 Z17.542
N445 X94.349 Y0.857 Z17.606
N450 X65.502 Y0.936 Z17.621
N455 X32.838 Y0.806 Z17.589
N460 X0.627 Y0.564 Z17.55
N465 X-30.644 Y0.854 Z17.593
N470 X-58.53 Y1.024 Z17.628
N475 X-90.186 Y1.038
N480 X-111.244 Y0.893 Z17.595
N485 X-133.058 Y0.59 Z17.526
N490 X-154.277 Y0.132 Z17.423
N495 X-176.64 Y-0.607 Z17.259
N500 X-195.677 Y-1.429 Z17.079
N505 X-210.661 Y-2.212 Z16.906
N510 X-228.216 Y-3.294 Z16.669
N515 X-242.823 Y-4.345 Z16.44
N520 X-251.072 Y-5.026 Z16.295
N525 X-264.714 Y-6.31 Z16.021
N530 X-278.77 Y-7.895 Z15.688
N535 X-291.487 Y-9.526 Z15.343
N540 X-303.75 Y-11.303 Z14.966
N545 X-315.018 Y-13.115 Z14.583
N550 X-324.939 Y-14.844 Z14.214
N555 X-336.033 Y-16.93 Z13.769
N560 X-349.51 Y-19.611 Z13.187
N565 X-365.631 Y-22.942 Z12.442
N570 X-377.542 Y-25.501 Z11.869
N575 X-388.353 Y-27.868 Z11.332
N580 X-396.909 Y-29.809 Z10.893
N585 X-397.463 Y-30.066 Z10.851
N590 X-397.97 Y-30.553 Z10.784
N595 X-397.967 Y-31.065 Z10.73
N600 X-397.752 Y-31.287 Z10.711
N605 X-397.014 Y-31.418 Z10.717
N610 X-396.192 Y-31.381 Z10.744
N615 X-379.272 Y-27.754 Z11.581
N620 X-360.254 Y-23.834 Z12.48
N625 X-345.988 Y-21.022 Z13.115
N630 X-331.44 Y-18.278 Z13.72
N635 X-321.175 Y-16.458 Z14.113
N640 X-308.707 Y-14.437 Z14.548
N645 X-296.542 Y-12.658 Z14.932
N650 X-284.075 Y-11.034 Z15.282
N655 X-270.075 Y-9.427 Z15.627
N660 X-257.062 Y-8.159 Z15.901
N665 X-244.038 Y-7.072 Z16.136
N670 X-228.026 Y-5.967 Z16.383
N675 X-210.702 Y-4.946 Z16.611
N680 X-190.81 Y-3.981 Z16.829
N685 X-174.139 Y-3.327 Z16.978
N690 X-151.452 Y-2.657 Z17.131
N695 X-134.206 Y-2.306 Z17.213
N700 X-112.568 Y-2.038 Z17.279
N705 X-90.946 Y-1.906 Z17.311
N710 X-66.428 Y-1.912 Z17.315
N715 X-27.777 Y-2.165 Z17.265
N720 X-0.633 Y-2.436 Z17.213
N725 X30.161 Y-2.238 Z17.26
N730 X65.684 Y-2.142 Z17.29
N735 X95.496 Y-2.243 Z17.272
N740 X114.202 Y-2.426 Z17.235
N745 X141.079 Y-2.896 Z17.134
N750 X157.316 Y-3.331 Z17.041
N755 X174.983 Y-3.935 Z16.909
N760 X194.893 Y-4.794 Z16.721
N765 X214.716 Y-5.858 Z16.489
N770 X232.074 Y-6.962 Z16.246
N775 X245.613 Y-7.959 Z16.028
N780 X258.981 Y-9.133 Z15.777
N785 X270.959 Y-10.349 Z15.518
N790 X283.64 Y-11.831 Z15.202
N795 X296.838 Y-13.562 Z14.83
N800 X311.778 Y-15.789 Z14.351
N805 X324.69 Y-17.964 Z13.883
N810 X336.071 Y-20.034 Z13.434
N815 X356.328 Y-23.939 Z12.561
N820 X374.265 Y-27.591 Z11.72
N825 X391.603 Y-31.258 Z10.87
N830 X396.463 Y-32.296 Z10.626
N835 X397.382 Y-32.278 Z10.608
N840 X398.577 Y-31.959 Z10.617
N845 X398.989 Y-31.867 Z10.615
N850 X399.149 Y-31.629 Z10.637
N855 X399.082 Y-30.725 Z10.736
N860 X398.844 Y-30.169 Z10.802
N865 X398.043 Y-29.435 Z10.903
N870 X397.223 Y-29.021 Z10.97
N875 X390.603 Y-27.48 Z11.315
N880 X377.511 Y-24.517 Z11.976
N885 X361.467 Y-21.001 Z12.755
N890 X348.416 Y-18.248 Z13.358
N895 X335.818 Y-15.677 Z13.908
N900 X322.382 Y-13.106 Z14.45
N905 X310.176 Y-10.976 Z14.896
N910 X297.442 Y-8.972 Z15.315
N915 X286.91 Y-7.473 Z15.627
N920 X275.178 Y-5.963 Z15.939
N925 X260.491 Y-4.331 Z16.278
N930 X250.477 Y-3.367 Z16.479
N935 X234.907 Y-2.089 Z16.747
N940 X218.012 Y-0.919 Z16.997
N945 X204.858 Y-0.119 Z17.166
N950 X184.826 Y0.901 Z17.385
N955 X164.792 Y1.725 Z17.558
N960 X148.288 Y2.237 Z17.666
N965 X123.545 Y2.785 Z17.781
N970 X97.44 Y3.1 Z17.846
N975 X75.506 Y3.217 Z17.866
N980 X42.942 Y3.173 Z17.851
N985 X6.953 Y2.936 Z17.776
N990 X-4.008 Y2.917 Z17.767
N995 X-39.841 Y3.293 Z17.859
N1000 X-60.061 Y3.424 Z17.882
N1005 X-90.189 Y3.458
N1010 X-111.474 Y3.326 Z17.849
N1015 X-132.937 Y3.042 Z17.783
N1020 X-155.27 Y2.549 Z17.672
N1025 X-177.035 Y1.823 Z17.512
N1030 X-195.492 Y1.017 Z17.336
N1035 X-210.189 Y0.243 Z17.166
N1040 X-227.765 Y-0.854 Z16.93
N1045 X-242.382 Y-1.92 Z16.701
N1050 X-255.503 Y-3.047 Z16.466
N1055 X-267.867 Y-4.307 Z16.202
N1060 X-279.301 Y-5.634 Z15.924
N1065 X-290.042 Y-7.036 Z15.63
N1070 X-303.483 Y-9.014 Z15.216
N1075 X-315.068 Y-10.92 Z14.818
N1080 X-325.013 Y-12.694 Z14.444
N1085 X-339.759 Y-15.556 Z13.838
N1090 X-356.528 Y-19.03 Z13.085
N1095 X-376.427 Y-23.381 Z12.126
N1100 X-395.313 Y-27.691 Z11.165
N1105 X-397.274 Y-28.159 Z11.061
N1110 X-398.125 Y-28.509 Z11.
N1115 X-399.019 Y-29.112 Z10.911
N1120 X-400.101 Y-30.1 Z10.775
N1125 X-400.269 Y-30.477 Z10.73
N1130 X-400.261 Y-31.707 Z10.598
N1135 X-400.118 Y-32.141 Z10.555
N1140 X-399.789 Y-32.456 Z10.53
N1145 X-398.893 Y-32.723 Z10.516
N1150 X-397.374 Y-32.938 Z10.521
N1155 X-395.84 Y-32.941 Z10.555
N1160 X-394.258 Y-32.718 Z10.619
N1165 X-375.192 Y-28.794 Z11.543
N1170 X-362.873 Y-26.337 Z12.116
N1175 X-347.402 Y-23.372 Z12.804
N1180 X-331.643 Y-20.489 Z13.459
N1185 X-320.797 Y-18.627 Z13.873
N1190 X-308.663 Y-16.725 Z14.296
N1195 X-296.401 Y-14.987 Z14.682
N1200 X-282.242 Y-13.2 Z15.073
N1205 X-270.722 Y-11.942 Z15.35
N1210 X-256.607 Y-10.59 Z15.644
N1215 X-240.943 Y-9.36 Z15.916
N1220 X-221.882 Y-8.132 Z16.194
N1225 X-203.584 Y-7.166 Z16.416
N1230 X-181.05 Y-6.206 Z16.638
N1235 X-160.061 Y-5.532 Z16.794
N1240 X-140.583 Y-5.092 Z16.899
N1245 X-126.172 Y-4.863 Z16.954
N1250 X-104.954 Y-4.65 Z17.006
N1255 X-76.919 Y-4.588 Z17.027
N1260 X-54.27 Y-4.652 Z17.017
N1265 X-34.019 Y-4.791 Z16.989
N1270 X-0.718 Y-5.104 Z16.914
N1275 X35.729 Y-4.888 Z16.98
N1280 X70.791 Y-4.828 Z17.002
N1285 X93.165 Y-4.908 Z16.987
N1290 X114.745 Y-5.106 Z16.946
N1295 X132.478 Y-5.388 Z16.885
N1300 X153.254 Y-5.856 Z16.782
N1305 X169.977 Y-6.379 Z16.668
N1310 X191.975 Y-7.261 Z16.471
N1315 X211.502 Y-8.244 Z16.252
N1320 X229.153 Y-9.304 Z16.016
N1325 X244.514 Y-10.379 Z15.776
N1330 X257.536 Y-11.47 Z15.535
N1335 X269.792 Y-12.661 Z15.273
N1340 X281.376 Y-13.938 Z14.99
N1345 X295.906 Y-15.782 Z14.584
N1350 X306.651 Y-17.31 Z14.247
N1355 X313.537 Y-18.346 Z14.016
N1360 X325.213 Y-20.261 Z13.589
N1365 X336.888 Y-22.323 Z13.128
N1370 X356.531 Y-25.991 Z12.287
N1375 X374.478 Y-29.525 Z11.462
N1380 X392.431 Y-33.196 Z10.597
N1385 X396.131 Y-33.939 Z10.417
N1390 X397.358 Y-33.962 Z10.387
N1395 X398.567 Y-33.758
N1400 X399.84 Y-33.353 Z10.412
N1405 X400.916 Y-33.169
N1410 X401.314 Y-32.955 Z10.432
N1415 X401.479 Y-32.598 Z10.469
N1420 X401.376 Y-31.747 Z10.563
N1425 X401.33 Y-30.684 Z10.679
N1430 X401.065 Y-29.966 Z10.763
N1435 X400.524 Y-29.303 Z10.849
N1440 X399.183 Y-28.293 Z10.994
N1445 X397.829 Y-27.571 Z11.109
N1450 X396.39 Y-27.059 Z11.203
N1455 X381.056 Y-23.44 Z11.999
N1460 X361.564 Y-19.023 Z12.965
N1465 X349.112 Y-16.312 Z13.551
N1470 X336.814 Y-13.716 Z14.098
N1475 X323.061 Y-10.997 Z14.658
N1480 X310.826 Y-8.792 Z15.105
N1485 X298.076 Y-6.719 Z15.525
N1490 X288.141 Y-5.257 Z15.82
N1495 X276.059 Y-3.638 Z16.144
N1500 X263.716 Y-2.196 Z16.434
N1505 X249.821 Y-0.817 Z16.712
N1510 X237.178 Y0.273 Z16.932
N1515 X221.771 Y1.398 Z17.165
N1520 X206.223 Y2.397 Z17.371
N1525 X185.862 Y3.474 Z17.596
N1530 X164.888 Y4.366 Z17.778
N1535 X148.658 Y4.886 Z17.885
N1540 X124.637 Y5.436 Z17.997
N1545 X106.801 Y5.693 Z18.047
N1550 X77.512 Y5.894 Z18.084
N1555 X46.073 Y5.87 Z18.072
N1560 X14.382 Y5.67 Z18.031
N1565 X-1.84 Y5.576 Z18.001
N1570 X-32.142 Y5.91 Z18.063
N1575 X-57.597 Y6.097 Z18.098
N1580 X-90.192 Y6.138 Z18.099
N1585 X-110.575 Y6.009 Z18.068
N1590 X-132.063 Y5.724 Z18.003
N1595 X-154.735 Y5.215 Z17.89
N1600 X-176.208 Y4.481 Z17.732
N1605 X-194.702 Y3.661 Z17.556
N1610 X-210.032 Y2.831 Z17.378
N1615 X-227.324 Y1.722 Z17.143
N1620 X-241.95 Y0.63 Z16.912
N1625 X-254.227 Y-0.441 Z16.693
N1630 X-264.757 Y-1.506 Z16.476
N1635 X-276.52 Y-2.879 Z16.199
N1640 X-289.172 Y-4.542 Z15.86
N1645 X-299.165 Y-6.016 Z15.562
N1650 X-313.011 Y-8.278 Z15.102
N1655 X-326.905 Y-10.848 Z14.579
N1660 X-340.46 Y-13.571 Z14.018
N1665 X-356.924 Y-17.09 Z13.274
N1670 X-376.515 Y-21.508 Z12.32
N1675 X-395.384 Y-25.949 Z11.349
N1680 X-397.884 Y-26.594 Z11.213
N1685 X-399.11 Y-27.142 Z11.12
N1690 X-400.139 Y-27.811 Z11.02
N1695 X-401.323 Y-28.862 Z10.875
N1700 X-402.18 Y-29.619 Z10.77
N1705 X-402.51 Y-30.122 Z10.707
N1710 X-402.558 Y-30.588 Z10.656
N1715 X-402.52 Y-31.815 Z10.525
N1720 X-402.518 Y-32.608 Z10.44
N1725 X-402.28 Y-33.17 Z10.382
N1730 X-401.847 Y-33.6 Z10.335
N1735 X-401.121 Y-33.888 Z10.313
N1740 X-399.058 Y-34.504 Z10.278
N1745 X-397.544 Y-34.754
N1750 X-396.01 Y-34.756 Z10.312
N1755 X-393.991 Y-34.417 Z10.401
N1760 X-372.392 Y-30.136 Z11.423
N1765 X-359.763 Y-27.725 Z11.996
N1770 X-345.494 Y-25.107 Z12.611
N1775 X-329.858 Y-22.357 Z13.241
N1780 X-319.225 Y-20.611 Z13.636
N1785 X-307.707 Y-18.879 Z14.026
N1790 X-295.765 Y-17.25 Z14.392
N1795 X-282.29 Y-15.613 Z14.76
N1800 X-269.671 Y-14.276 Z15.061
N1805 X-257.693 Y-13.173 Z15.31
N1810 X-242.978 Y-12.015 Z15.571
N1815 X-221.131 Y-10.648 Z15.888
N1820 X-201.306 Y-9.659 Z16.121
N1825 X-180.938 Y-8.833 Z16.316
N1830 X-162.375 Y-8.239 Z16.455
N1835 X-145.127 Y-7.84 Z16.551
N1840 X-129.503 Y-7.579 Z16.615
N1845 X-103.702 Y-7.324 Z16.678
N1850 X-77.52 Y-7.266 Z16.696
N1855 X-41.398 Y-7.401 Z16.67
N1860 X-0.793 Y-7.774 Z16.597
N1865 X40.452 Y-7.551 Z16.65
N1870 X65.576 Y-7.504 Z16.665
N1875 X91.251 Y-7.579 Z16.652
N1880 X116.599 Y-7.803 Z16.603
N1885 X137.344 Y-8.148 Z16.526
N1890 X154.396 Y-8.537 Z16.438
N1895 X175.101 Y-9.194 Z16.289
N1900 X195.553 Y-10.028 Z16.099
N1905 X215.648 Y-11.045 Z15.867
N1910 X232.361 Y-12.056 Z15.637
N1915 X247.917 Y-13.141 Z15.389
N1920 X262.654 Y-14.402 Z15.107
N1925 X275.117 Y-15.638 Z14.83
N1930 X286.056 Y-16.89 Z14.552
N1935 X298.885 Y-18.515 Z14.188
N1940 X310.461 Y-20.134 Z13.823
N1945 X322.406 Y-21.989 Z13.406
N1950 X335.893 Y-24.278 Z12.887
N1955 X356.433 Y-27.978 Z12.027
N1960 X374.691 Y-31.45 Z11.204
N1965 X393.564 Y-35.177 Z10.311
N1970 X395.53 Y-35.552 Z10.218
N1975 X397.062 Y-35.641 Z10.172
N1980 X398.589 Y-35.494 Z10.158
N1985 X400.15 Y-35.087 Z10.177
N1990 X401.642 Y-34.631 Z10.204
N1995 X403.176 Y-34.378 Z10.203
N2000 X403.563 Y-34.136 Z10.226
N2005 X403.789 Y-33.74 Z10.273
N2010 X403.799 Y-33.269 Z10.334
N2015 X403.594 Y-32.143 Z10.46
N2020 X403.562 Y-31.241 Z10.558
N2025 X403.609 Y-30.387 Z10.649
N2030 X403.383 Y-29.657 Z10.733
N2035 X402.911 Y-29.056 Z10.811
N2040 X401.734 Y-28.042 Z10.952
N2045 X400.722 Y-27.17 Z11.072
N2050 X399.427 Y-26.348 Z11.181
N2055 X398.019 Y-25.738 Z11.278
N2060 X394.828 Y-24.912 Z11.452
N2065 X378.677 Y-21.009 Z12.292
N2070 X361.44 Y-16.991 Z13.148
N2075 X351.309 Y-14.708 Z13.63
N2080 X337.508 Y-11.7 Z14.247
N2085 X323.437 Y-8.835 Z14.824
N2090 X311.475 Y-6.611 Z15.269
N2095 X299.014 Y-4.516 Z15.687
N2100 X289.372 Y-3.048 Z15.978
N2105 X276.861 Y-1.314 Z16.321
N2110 X264.263 Y0.212 Z16.622
N2115 X250.657 Y1.607 Z16.9
N2120 X239.215 Y2.634 Z17.103
N2125 X227.594 Y3.539 Z17.288
N2130 X208.172 Y4.866 Z17.557
N2135 X188.738 Y5.956 Z17.78
N2140 X168.359 Y6.869 Z17.966
N2145 X150.859 Y7.482 Z18.088
N2150 X134.512 Y7.907 Z18.173
N2155 X109.631 Y8.338 Z18.258
N2160 X82.272 Y8.557 Z18.299
N2165 X52.42 Y8.571 Z18.296
N2170 X12.123 Y8.327 Z18.247
N2175 X-1.232 Y8.242 Z18.24
N2180 X-27.307 Y8.539 Z18.271
N2185 X-53.256 Y8.748 Z18.311
N2190 X-78.608 Y8.827 Z18.322
N2195 X-100.008 Y8.766 Z18.306
N2200 X-121.144 Y8.563 Z18.257
N2205 X-143.183 Y8.162 Z18.17
N2210 X-163.409 Y7.581 Z18.045
N2215 X-182.125 Y6.864 Z17.893
N2220 X-199.433 Y6.004 Z17.714
N2225 X-216.313 Y5.007 Z17.505
N2230 X-229.64 Y4.098 Z17.316
N2235 X-243.661 Y3. Z17.087
N2240 X-254.432 Y2.026 Z16.891
N2245 X-264.743 Y0.955 Z16.675
N2250 X-274.486 Y-0.198 Z16.446
N2255 X-287.02 Y-1.867 Z16.114
N2260 X-292.794 Y-2.703 Z15.947
N2265 X-303.882 Y-4.44 Z15.599
N2270 X-315.488 Y-6.463 Z15.196
N2275 X-327.891 Y-8.837 Z14.719
N2280 X-340.861 Y-11.523 Z14.174
N2285 X-357.02 Y-15.082 Z13.434
N2290 X-377.202 Y-19.771 Z12.439
N2295 X-390.298 Y-22.928 Z11.763
N2300 X-397.572 Y-24.733 Z11.375
N2305 X-399.019 Y-25.245 Z11.285
N2310 X-400.386 Y-25.944 Z11.182
N2315 X-401.647 Y-26.818 Z11.069
N2320 X-403.118 Y-28.143 Z10.904
N2325 X-403.987 Y-28.867 Z10.802
N2330 X-404.567 Y-29.515 Z10.717
N2335 X-404.798 Y-30.081 Z10.649
N2340 X-404.828 Y-30.623 Z10.59
N2345 X-404.687 Y-31.615 Z10.488
N2350 X-404.723 Y-32.533 Z10.388
N2355 X-404.931 Y-33.586 Z10.268
N2360 X-404.825 Y-34.175 Z10.193
N2365 X-404.491 Y-34.645 Z10.139
N2370 X-403.931 Y-34.949 Z10.111
N2375 X-403.141 Y-35.089 Z10.11
N2380 X-401.182 Y-35.668 Z10.077
N2385 X-399.408 Y-36.165 Z10.051
N2390 X-397.584 Y-36.413 Z10.059
N2395 X-395.742 Y-36.407 Z10.101
N2400 X-393.88 Y-36.142 Z10.177
N2405 X-375.321 Y-32.586 Z11.041
N2410 X-360.879 Y-29.913 Z11.686
N2415 X-345.703 Y-27.222 Z12.329
N2420 X-330.182 Y-24.586 Z12.942
N2425 X-318.551 Y-22.743 Z13.365
N2430 X-307.055 Y-21.079 Z13.745
N2435 X-294.824 Y-19.478 Z14.11
N2440 X-280.447 Y-17.803 Z14.491
N2445 X-265.423 Y-16.318 Z14.831
N2450 X-254.079 Y-15.351 Z15.052
N2455 X-242.779 Y-14.516 Z15.243
N2460 X-220.979 Y-13.201 Z15.552
N2465 X-200.563 Y-12.223 Z15.787
N2470 X-179.905 Y-11.422 Z15.979
N2475 X-161.44 Y-10.859 Z16.113
N2480 X-139.844 Y-10.405 Z16.225
N2485 X-121.162 Y-10.143 Z16.289
N2490 X-96.939 Y-9.979 Z16.333
N2495 X-69.03 Y-9.963 Z16.342
N2500 X-33.629 Y-10.142 Z16.304
N2505 X0.614 Y-10.44 Z16.243
N2510 X47.145 Y-10.209 Z16.303
N2515 X84.532 Y-10.213 Z16.308
N2520 X116.286 Y-10.478 Z16.251
N2525 X140.86 Y-10.872 Z16.161
N2530 X158.003 Y-11.289 Z16.066
N2535 X178.997 Y-11.955 Z15.912
N2540 X201.253 Y-12.889 Z15.696
N2545 X222.082 Y-13.952 Z15.447
N2550 X241.906 Y-15.208 Z15.158
N2555 X254.573 Y-16.17 Z14.94
N2560 X268.491 Y-17.393 Z14.662
N2565 X283.464 Y-18.971 Z14.306
N2570 X295.27 Y-20.368 Z13.988
N2575 X305.246 Y-21.688 Z13.689
N2580 X312.206 Y-22.661 Z13.466
N2585 X325.052 Y-24.626 Z13.017
N2590 X338.531 Y-26.855 Z12.503
N2595 X357.392 Y-30.153 Z11.722
N2600 X371.888 Y-32.799 Z11.083
N2605 X392.59 Y-36.729 Z10.123
N2610 X395.271 Y-37.213 Z10.
N2615 X397.11 Y-37.305 Z9.952
N2620 X398.944 Y-37.144 Z9.933
N2625 X400.739 Y-36.731 Z9.947
N2630 X402.549 Y-36.124 Z9.987
N2635 X404.108 Y-35.81 Z9.994
N2640 X405.521 Y-35.593 Z9.991
N2645 X405.906 Y-35.349 Z10.015
N2650 X406.149 Y-34.961 Z10.06
N2655 X406.179 Y-34.383 Z10.136
N2660 X405.873 Y-32.88 Z10.319
N2665 X405.802 Y-31.761 Z10.441
N2670 X405.884 Y-30.5 Z10.575
N2675 X405.79 Y-29.894 Z10.643
N2680 X405.566 Y-29.323 Z10.71
N2685 X405.099 Y-28.677 Z10.792
N2690 X403.767 Y-27.552 Z10.939
N2695 X402.181 Y-26.131 Z11.107
N2700 X400.651 Y-25.107 Z11.241
N2705 X398.992 Y-24.307 Z11.362
N2710 X397.402 Y-23.787 Z11.457
N2715 X381.159 Y-19.724 Z12.316
N2720 X364.229 Y-15.637 Z13.173
N2725 X352.901 Y-12.992 Z13.724
N2730 X336.398 Y-9.304 Z14.47
N2735 X323.687 Y-6.66 Z14.995
N2740 X312.124 Y-4.432 Z15.432
N2745 X299.647 Y-2.27 Z15.857
N2750 X290.297 Y-0.801 Z16.145
N2755 X277.057 Y1.093 Z16.513
N2760 X264.505 Y2.651 Z16.816
N2765 X251.187 Y4.057 Z17.092
N2770 X240.334 Y5.065 Z17.289
N2775 X221.85 Y6.528 Z17.581
N2780 X203.433 Y7.738 Z17.825
N2785 X185.477 Y8.733 Z18.026
N2790 X165.385 Y9.634 Z18.203
N2795 X145.405 Y10.291 Z18.335
N2800 X122.873 Y10.817 Z18.437
N2805 X95.789 Y11.159 Z18.503
N2810 X67.074 Y11.274 Z18.521
N2815 X36.002 Y11.175 Z18.495
N2820 X12.988 Y11.001 Z18.453
N2825 X0.155 Y10.91 Z18.414
N2830 X-18.07 Y11.099 Z18.472
N2835 X-44.139 Y11.367 Z18.517
N2840 X-71.433 Y11.512 Z18.541
N2845 X-101.79 Y11.435 Z18.52
N2850 X-118.623 Y11.271 Z18.482
N2855 X-142.017 Y10.852 Z18.392
N2860 X-162.259 Y10.261 Z18.268
N2865 X-181.317 Y9.524 Z18.113
N2870 X-198.643 Y8.645 Z17.934
N2875 X-215.543 Y7.626 Z17.725
N2880 X-228.279 Y6.744 Z17.542
N2885 X-242.616 Y5.604 Z17.309
N2890 X-255.56 Y4.401 Z17.07
N2895 X-268.048 Y3.019 Z16.798
N2900 X-281.221 Y1.351 Z16.469
N2905 X-294.016 Y-0.527 Z16.101
N2910 X-304.233 Y-2.178 Z15.775
N2915 X-315.849 Y-4.26 Z15.366
N2920 X-327.684 Y-6.583 Z14.907
N2925 X-340.662 Y-9.34 Z14.356
N2930 X-357.118 Y-13.069 Z13.595
N2935 X-377.29 Y-17.895 Z12.589
N2940 X-390.379 Y-21.142 Z11.906
N2945 X-398.063 Y-23.115 Z11.489
N2950 X-399.789 Y-23.758 Z11.38
N2955 X-401.423 Y-24.609 Z11.256
N2960 X-402.939 Y-25.654 Z11.12
N2965 X-404.174 Y-26.739 Z10.991
N2970 X-405.902 Y-28.236 Z10.812
N2975 X-406.728 Y-29.115 Z10.7
N2980 X-407.047 Y-29.809 Z10.616
N2985 X-407.115 Y-30.57 Z10.533
N2990 X-406.952 Y-31.537 Z10.433
N2995 X-406.926 Y-32.588 Z10.321
N3000 X-407.144 Y-33.777 Z10.187
N3005 X-407.284 Y-34.761 Z10.06
N3010 X-407.102 Y-35.432 Z9.976
N3015 X-406.714 Y-35.887 Z9.925
N3020 X-406.166 Y-36.153 Z9.903
N3025 X-405.167 Y-36.297 Z9.906
N3030 X-403.024 Y-36.893 Z9.875
N3035 X-400.658 Y-37.624 Z9.831
N3040 X-398.541 Y-37.994 Z9.821
N3045 X-396.395 Y-38.099 Z9.843
N3050 X-394.253 Y-37.936 Z9.907
N3055 X-385.655 Y-36.351 Z10.302
N3060 X-365.631 Y-32.714 Z11.2
N3065 X-347.125 Y-29.53 Z11.982
N3070 X-330.088 Y-26.739 Z12.652
N3075 X-318.18 Y-24.921 Z13.081
N3080 X-306.403 Y-23.283 Z13.464
N3085 X-293.578 Y-21.675 Z13.836
N3090 X-279.549 Y-20.114 Z14.196
N3095 X-264.977 Y-18.738 Z14.516
N3100 X-250.229 Y-17.542 Z14.792
N3105 X-237.705 Y-16.716 Z14.987
N3110 X-219.292 Y-15.681 Z15.236
N3115 X-199.819 Y-14.79 Z15.453
N3120 X-178.437 Y-13.998 Z15.645
N3125 X-160.133 Y-13.476 Z15.772
N3130 X-137.324 Y-13.025 Z15.884
N3135 X-117.61 Y-12.785 Z15.946
N3140 X-90.772 Y-12.64 Z15.986
N3145 X-59.324 Y-12.67 Z15.984
N3150 X-21.233 Y-12.933 Z15.928
N3155 X2.191 Y-13.107 Z15.888
N3160 X47.618 Y-12.886 Z15.951
N3165 X72.411 Y-12.876 Z15.959
N3170 X101.974 Y-13.009 Z15.931
N3175 X128.667 Y-13.316 Z15.861
N3180 X151.225 Y-13.765 Z15.757
N3185 X173.07 Y-14.381 Z15.613
N3190 X194.68 Y-15.188 Z15.424
N3195 X216.273 Y-16.206 Z15.184
N3200 X235.41 Y-17.298 Z14.926
N3205 X249.162 Y-18.226 Z14.71
N3210 X264.014 Y-19.434 Z14.433
N3215 X271.612 Y-20.135 Z14.272
N3220 X282.198 Y-21.217 Z14.02
N3225 X295.519 Y-22.731 Z13.664
N3230 X310.323 Y-24.647 Z13.214
N3235 X324.972 Y-26.804 Z12.707
N3240 X339.49 Y-29.121 Z12.155
N3245 X358.512 Y-32.337 Z11.374
N3250 X372.403 Y-34.783 Z10.77
N3255 X393.425 Y-38.627 Z9.815
N3260 X395.659 Y-38.933 Z9.728
N3265 X397.808 Y-38.946 Z9.687
N3270 X399.941 Y-38.684 Z9.689
N3275 X401.729 Y-38.244 Z9.725
N3280 X403.756 Y-37.554 Z9.772
N3285 X405.25 Y-37.202 Z9.785
N3290 X407.317 Y-36.9 Z9.778
N3295 X407.853 Y-36.833 Z9.775
N3300 X408.246 Y-36.6 Z9.796
N3305 X408.51 Y-36.227 Z9.839
N3310 X408.599 Y-35.778 Z9.896
N3315 X408.262 Y-34.231 Z10.107
N3320 X408.073 Y-32.701 Z10.277
N3325 X408.067 Y-31.423 Z10.414
N3330 X408.15 Y-30.613 Z10.499
N3335 X408.029 Y-29.702 Z10.6
N3340 X407.675 Y-28.854 Z10.7
N3345 X407.166 Y-28.181 Z10.773
N3350 X405.787 Y-27.03 Z10.914
N3355 X404.114 Y-25.483 Z11.095
N3360 X402.392 Y-24.198 Z11.257
N3365 X400.518 Y-23.147 Z11.405
N3370 X398.524 Y-22.348 Z11.536
N3375 X392.867 Y-20.84 Z11.848
N3380 X373.211 Y-15.836 Z12.883
N3385 X354.789 Y-11.36 Z13.801
N3390 X337.393 Y-7.35 Z14.603
N3395 X325.283 Y-4.75 Z15.112
N3400 X316.612 Y-3.008 Z15.451
N3405 X310.656 Y-1.875 Z15.67
N3410 X299.674 Y0.073 Z16.04
N3415 X290.919 Y1.487 Z16.308
N3420 X277.334 Y3.485 Z16.684
N3425 X265.487 Y4.999 Z16.968
N3430 X252.634 Y6.415 Z17.237
N3435 X242.063 Y7.438 Z17.429
N3440 X225.184 Y8.83 Z17.7
N3445 X207.251 Y10.105 Z17.947
N3450 X187.433 Y11.254 Z18.173
N3455 X167.935 Y12.169 Z18.351
N3460 X148.846 Y12.855 Z18.481
N3465 X126.316 Y13.418 Z18.59
N3470 X104.106 Y13.757 Z18.653
N3475 X77.214 Y13.944 Z18.683
N3480 X44.281 Y13.908 Z18.667
N3485 X7.615 Y13.619 Z18.606
N3490 X-0.46 Y13.58 Z18.587
N3495 X-17.434 Y13.764 Z18.63
N3500 X-42.89 Y14.034 Z18.673
N3505 X-70.821 Y14.194 Z18.697
N3510 X-92.888 Y14.163 Z18.686
N3515 X-117.446 Y13.958 Z18.639
N3520 X-141.465 Y13.526 Z18.547
N3525 X-162.337 Y12.904 Z18.419
N3530 X-181.122 Y12.156 Z18.266
N3535 X-198.16 Y11.272 Z18.09
N3540 X-215.08 Y10.227 Z17.881
N3545 X-227.838 Y9.325 Z17.697
N3550 X-242.185 Y8.158 Z17.465
N3555 X-256.221 Y6.82 Z17.207
N3560 X-268.608 Y5.402 Z16.937
N3565 X-281.507 Y3.722 Z16.616
N3570 X-294.327 Y1.788 Z16.249
N3575 X-304.584 Y0.085 Z15.924
N3580 X-316.211 Y-2.057 Z15.517
N3585 X-327.644 Y-4.361 Z15.075
N3590 X-340.765 Y-7.219 Z14.52
N3595 X-357.515 Y-11.125 Z13.741
N3600 X-376.631 Y-15.825 Z12.778
N3605 X-392.541 Y-19.897 Z11.935
N3610 X-398.585 Y-21.509 Z11.602
N3615 X-400.589 Y-22.286 Z11.472
N3620 X-402.488 Y-23.291 Z11.327
N3625 X-404.257 Y-24.512 Z11.169
N3630 X-405.859 Y-25.921 Z11.001
N3635 X-407.183 Y-27.096 Z10.86
N3640 X-408.264 Y-28.025 Z10.747
N3645 X-408.887 Y-28.716 Z10.67
N3650 X-409.245 Y-29.392 Z10.599
N3655 X-409.401 Y-30.108 Z10.518
N3660 X-409.327 Y-30.992 Z10.425
N3665 X-409.174 Y-32.16 Z10.304
N3670 X-409.186 Y-33.255 Z10.186
N3675 X-409.492 Y-34.768 Z10.009
N3680 X-409.65 Y-36.172 Z9.82
N3685 X-409.579 Y-36.624 Z9.763
N3690 X-409.231 Y-37.101 Z9.708
N3695 X-408.676 Y-37.334 Z9.69
N3700 X-407.019 Y-37.55 Z9.699
N3705 X-404.889 Y-38.13 Z9.671
N3710 X-402.202 Y-38.993 Z9.601
N3715 X-399.801 Y-39.509 Z9.564
N3720 X-397.356 Y-39.745 Z9.572
N3725 X-394.901 Y-39.697 Z9.624
N3730 X-392.347 Y-39.346 Z9.724
N3735 X-368.798 Y-35.2 Z10.765
N3740 X-352.517 Y-32.469 Z11.448
N3745 X-334.146 Y-29.523 Z12.168
N3750 X-320.691 Y-27.511 Z12.652
N3755 X-308.494 Y-25.831 Z13.051
N3760 X-293.857 Y-24.053 Z13.476
N3765 X-279.263 Y-22.488 Z13.849
N3770 X-264.397 Y-21.14 Z14.171
N3775 X-249.71 Y-20.002 Z14.442
N3780 X-236.593 Y-19.175 Z14.642
N3785 X-218.526 Y-18.208 Z14.88
N3790 X-197.581 Y-17.3 Z15.106
N3795 X-175.255 Y-16.523 Z15.297
N3800 X-155.756 Y-16.027 Z15.423
N3805 X-133.391 Y-15.631 Z15.522
N3810 X-103.65 Y-15.361 Z15.593
N3815 X-73.324 Y-15.322 Z15.608
N3820 X-46.724 Y-15.422 Z15.588
N3825 X-0.793 Y-15.778 Z15.505
N3830 X39.814 Y-15.582 Z15.56
N3835 X78.067 Y-15.566 Z15.57
N3840 X106.087 Y-15.715 Z15.537
N3845 X132.534 Y-16.053 Z15.458
N3850 X147.218 Y-16.329 Z15.392
N3855 X169.598 Y-16.9 Z15.255
N3860 X193.322 Y-17.73 Z15.054
N3865 X215.819 Y-18.746 Z14.809
N3870 X235.247 Y-19.812 Z14.551
N3875 X249.263 Y-20.724 Z14.333
N3880 X264.389 Y-21.913 Z14.052
N3885 X272.883 Y-22.679 Z13.87
N3890 X284.969 Y-23.889 Z13.584
N3895 X298.849 Y-25.464 Z13.21
N3900 X310.872 Y-26.989 Z12.846
N3905 X325.5 Y-29.068 Z12.351
N3910 X340.3 Y-31.35 Z11.8
N3915 X359.029 Y-34.4 Z11.048
N3920 X373.223 Y-36.807 Z10.444
N3925 X392.752 Y-40.238 Z9.579
N3930 X394.555 Y-40.516 Z9.503
N3935 X396.7 Y-40.642 Z9.445
N3940 X398.847 Y-40.539 Z9.423
N3945 X400.971 Y-40.208 Z9.436
N3950 X403.316 Y-39.565 Z9.493
N3955 X405.554 Y-38.815 Z9.566
N3960 X407.289 Y-38.454 Z9.574
N3965 X409.413 Y-38.148 Z9.566
N3970 X410.353 Y-38.093 Z9.551
N3975 X410.759 Y-37.886 Z9.569
N3980 X411.01 Y-37.506 Z9.614
N3985 X411.033 Y-37.011 Z9.678
N3990 X410.336 Y-34.104 Z10.062
N3995 X410.18 Y-32.888 Z10.197
N4000 X410.263 Y-31.822 Z10.309
N4005 X410.505 Y-30.356 Z10.46
N4010 X410.479 Y-29.743 Z10.527
N4015 X410.32 Y-29.151 Z10.585
N4020 X410.037 Y-28.607 Z10.639
N4025 X409.245 Y-27.717 Z10.738
N4030 X407.347 Y-26.101 Z10.935
N4035 X405.335 Y-24.25 Z11.154
N4040 X403.607 Y-22.973 Z11.316
N4045 X401.752 Y-21.888 Z11.462
N4050 X399.79 Y-21.009 Z11.588
N4055 X397.582 Y-20.302 Z11.716
N4060 X384.616 Y-16.853 Z12.417
N4065 X369.57 Y-12.973 Z13.199
N4070 X354.714 Y-9.282 Z13.939
N4075 X338.386 Y-5.403 Z14.69
N4080 X326.576 Y-2.789 Z15.187
N4085 X318.794 Y-1.17 Z15.493
N4090 X312.212 Y0.14 Z15.736
N4095 X300.61 Y2.265 Z16.131
N4100 X291.843 Y3.725 Z16.405
N4105 X278.734 Y5.716 Z16.773
N4110 X265.71 Y7.438 Z17.091
N4115 X255.302 Y8.64 Z17.315
N4120 X243.487 Y9.831 Z17.536
N4125 X227.5 Y11.199 Z17.798
N4130 X212.045 Y12.354 Z18.019
N4135 X196.045 Y13.381 Z18.216
N4140 X178.038 Y14.361 Z18.4
N4145 X159.692 Y15.134 Z18.549
N4150 X139.39 Y15.784 Z18.671
N4155 X119.257 Y16.221 Z18.752
N4160 X93.368 Y16.547 Z18.81
N4165 X62.231 Y16.641 Z18.821
N4170 X25.078 Y16.462 Z18.776
N4175 X1.992 Y16.241 Z18.751
N4180 X-10.962 Y16.352 Z18.763
N4185 X-37.648 Y16.666 Z18.804
N4190 X-68.066 Y16.857 Z18.835
N4195 X-95.587 Y16.831 Z18.822
N4200 X-121.332 Y16.576 Z18.766
N4205 X-143.37 Y16.133 Z18.675
N4210 X-163.029 Y15.522 Z18.551
N4215 X-181.233 Y14.774 Z18.401
N4220 X-197.983 Y13.882 Z18.227
N4225 X-214.923 Y12.81 Z18.016
N4230 X-227.398 Y11.908 Z17.836
N4235 X-242.059 Y10.688 Z17.598
N4240 X-255.657 Y9.362 Z17.347
N4245 X-267.581 Y7.984 Z17.088
N4250 X-280.165 Y6.318 Z16.776
N4255 X-292.213 Y4.502 Z16.437
N4260 X-304.425 Y2.441 Z16.05
N4265 X-316.572 Y0.147 Z15.621
N4270 X-328.976 Y-2.425 Z15.136
N4275 X-341.373 Y-5.216 Z14.605
N4280 X-358.759 Y-9.397 Z13.788
N4285 X-376.8 Y-13.957 Z12.875
N4290 X-394.978 Y-18.743 Z11.903
N4295 X-399.14 Y-19.916 Z11.672
N4300 X-401.42 Y-20.828 Z11.531
N4305 X-403.583 Y-21.992 Z11.381
N4310 X-405.358 Y-23.204 Z11.238
N4315 X-407.211 Y-24.777 Z11.047
N4320 X-408.977 Y-26.378 Z10.856
N4325 X-410.401 Y-27.605 Z10.708
N4330 X-411.045 Y-28.317 Z10.627
N4335 X-411.487 Y-29.122 Z10.547
N4340 X-411.686 Y-30.019 Z10.463
N4345 X-411.631 Y-30.91 Z10.369
N4350 X-411.331 Y-32.314 Z10.226
N4355 X-411.307 Y-33.234 Z10.128
N4360 X-411.491 Y-34.3 Z10.008
N4365 X-411.7 Y-35.093 Z9.915
N4370 X-411.902 Y-36.246 Z9.759
N4375 X-411.979 Y-37.328 Z9.615
N4380 X-411.8 Y-37.91 Z9.542
N4385 X-411.378 Y-38.349 Z9.494
N4390 X-410.829 Y-38.548 Z9.481
N4395 X-408.897 Y-38.797 Z9.492
N4400 X-405.872 Y-39.632 Z9.436
N4405 X-403.122 Y-40.525 Z9.348
N4410 X-400.725 Y-41.061 Z9.308
N4415 X-398.287 Y-41.36 Z9.306
N4420 X-395.831 Y-41.419 Z9.341
N4425 X-393.382 Y-41.237 Z9.413
N4430 X-384.462 Y-39.734 Z9.801
N4435 X-364.25 Y-36.359 Z10.661
N4440 X-344.975 Y-33.311 Z11.431
N4445 X-327.47 Y-30.685 Z12.076
N4450 X-315.612 Y-29.037 Z12.477
N4455 X-304.487 Y-27.627 Z12.818
N4460 X-291.388 Y-26.128 Z13.18
N4465 X-277.753 Y-24.751 Z13.512
N4470 X-262.593 Y-23.444 Z13.828
N4475 X-248.27 Y-22.406 Z14.08
N4480 X-232.575 Y-21.489 Z14.307
N4485 X-212.552 Y-20.506 Z14.552
N4490 X-197.144 Y-19.884 Z14.709
N4495 X-174.836 Y-19.145 Z14.894
N4500 X-158.441 Y-18.737 Z14.999
N4505 X-135.272 Y-18.326 Z15.104
N4510 X-114.96 Y-18.115 Z15.16
N4515 X-95.011 Y-18.009 Z15.189
N4520 X-66.575 Y-18.019 Z15.192
N4525 X-29.93 Y-18.208 Z15.15
N4530 X-0.179 Y-18.444 Z15.098
N4535 X39.527 Y-18.26 Z15.147
N4540 X78.995 Y-18.248 Z15.157
N4545 X108.313 Y-18.412 Z15.12
N4550 X134.409 Y-18.745 Z15.04
N4555 X155.4 Y-19.157 Z14.941
N4560 X171.652 Y-19.595 Z14.834
N4565 X194.419 Y-20.377 Z14.642
N4570 X217.206 Y-21.374 Z14.398
N4575 X238.269 Y-22.502 Z14.12
N4580 X253.653 Y-23.529 Z13.874
N4585 X267.214 Y-24.585 Z13.619
N4590 X280.101 Y-25.776 Z13.335
N4595 X294.444 Y-27.277 Z12.973
N4600 X303.511 Y-28.342 Z12.718
N4605 X314.772 Y-29.768 Z12.374
N4610 X329.374 Y-31.801 Z11.88
N4615 X352.27 Y-35.28 Z11.018
N4620 X371.318 Y-38.361 Z10.236
N4625 X393.185 Y-42.039 Z9.291
N4630 X395.629 Y-42.284 Z9.212
N4635 X398.085 Y-42.275 Z9.169
N4640 X400.527 Y-42.011 Z9.166
N4645 X402.928 Y-41.496 Z9.202
N4650 X405.591 Y-40.619 Z9.289
N4655 X407.653 Y-40.013 Z9.344
N4660 X410.247 Y-39.571 Z9.359
N4665 X411.509 Y-39.396 Z9.353
N4670 X412.714 Y-39.33 Z9.334
N4675 X413.124 Y-39.13 Z9.351
N4680 X413.391 Y-38.76 Z9.394
N4685 X413.446 Y-38.274 Z9.457
N4690 X412.577 Y-34.638 Z9.941
N4695 X412.405 Y-33.423 Z10.077
N4700 X412.471 Y-32.198 Z10.207
N4705 X412.789 Y-30.452 Z10.386
N4710 X412.752 Y-29.534 Z10.47
N4715 X412.466 Y-28.661 Z10.55
N4720 X411.937 Y-27.881 Z10.632
N4725 X410.71 Y-26.674 Z10.772
N4730 X408.91 Y-25.169 Z10.957
N4735 X406.909 Y-23.313 Z11.175
N4740 X405.076 Y-21.919 Z11.324
N4745 X402.98 Y-20.639 Z11.476
N4750 X400.761 Y-19.585 Z11.622
N4755 X398.444 Y-18.77 Z11.76
N4760 X384.705 Y-15.011 Z12.509
N4765 X370.261 Y-11.179 Z13.266
N4770 X356.052 Y-7.549 Z13.981
N4775 X337.988 Y-3.138 Z14.821
N4780 X326.366 Y-0.509 Z15.311
N4785 X319.469 Y0.961 Z15.586
N4790 X312.861 Y2.316 Z15.833
N4795 X300.952 Y4.551 Z16.242
N4800 X288.23 Y6.7 Z16.635
N4805 X275.042 Y8.664 Z16.993
N4810 X264.314 Y10.077 Z17.251
N4815 X251.86 Y11.495 Z17.511
N4820 X243.074 Y12.391 Z17.673
N4825 X227.061 Y13.79 Z17.937
N4830 X211.586 Y14.97 Z18.159
N4835 X195.877 Y15.998 Z18.353
N4840 X178.154 Y16.986 Z18.536
N4845 X160.079 Y17.769 Z18.683
N4850 X140.374 Y18.42 Z18.805
N4855 X120.52 Y18.875 Z18.887
N4860 X95.305 Y19.213 Z18.946
N4865 X66.076 Y19.325 Z18.962
N4870 X34.032 Y19.203 Z18.931
N4875 X0.78 Y18.904 Z18.846
N4880 X-19.539 Y19.138 Z18.909
N4885 X-44.692 Y19.413 Z18.953
N4890 X-75.53 Y19.556 Z18.974
N4895 X-94.53 Y19.513 Z18.962
N4900 X-118.13 Y19.293 Z18.914
N4905 X-141.59 Y18.843 Z18.823
N4910 X-161.266 Y18.228 Z18.701
N4915 X-179.631 Y17.467 Z18.551
N4920 X-195.66 Y16.625 Z18.388
N4925 X-213.541 Y15.482 Z18.168
N4930 X-226.345 Y14.543 Z17.984
N4935 X-241.611 Y13.257 Z17.737
N4940 X-252.196 Y12.213 Z17.544
N4945 X-265.392 Y10.725 Z17.267
N4950 X-279.115 Y8.894 Z16.93
N4955 X-292.201 Y6.877 Z16.561
N4960 X-303.477 Y4.945 Z16.202
N4965 X-316.561 Y2.427 Z15.74
N4970 X-326.288 Y0.385 Z15.36
N4975 X-338.471 Y-2.386 Z14.844
N4980 X-352.009 Y-5.675 Z14.222
N4985 X-359.74 Y-7.608 Z13.846
N4990 X-377.392 Y-12.198 Z12.943
N4995 X-394.578 Y-16.842 Z12.018
N5000 X-399.439 Y-18.236 Z11.746
N5005 X-401.727 Y-19.129 Z11.606
N5010 X-403.918 Y-20.24 Z11.459
N5015 X-405.99 Y-21.559 Z11.305
N5020 X-407.986 Y-23.124 Z11.139
N5025 X-409.36 Y-24.413 Z11.003
N5030 X-410.771 Y-25.66 Z10.853
N5035 X-412.097 Y-26.758 Z10.718
N5040 X-413.005 Y-27.684 Z10.611
N5045 X-413.536 Y-28.434 Z10.532
N5050 X-413.869 Y-29.291 Z10.451
N5055 X-413.982 Y-30.203 Z10.373
N5060 X-413.877 Y-31.084 Z10.287
N5065 X-413.573 Y-32.475 Z10.146
N5070 X-413.538 Y-33.701 Z10.015
N5075 X-413.745 Y-34.859 Z9.885
N5080 X-413.966 Y-35.683 Z9.786
N5085 X-414.184 Y-36.833 Z9.629
N5090 X-414.31 Y-38.177 Z9.45
N5095 X-414.219 Y-38.78 Z9.372
N5100 X-413.897 Y-39.299 Z9.312
N5105 X-413.397 Y-39.648 Z9.277
N5110 X-412.677 Y-39.798 Z9.274
N5115 X-410.799 Y-40.04 Z9.282
N5120 X-407.443 Y-40.956 Z9.203
N5125 X-404.151 Y-42.052 Z9.094
N5130 X-401.462 Y-42.687 Z9.045
N5135 X-398.722 Y-43.048 Z9.034
N5140 X-395.96 Y-43.133 Z9.06
N5145 X-393.204 Y-42.941 Z9.134
N5150 X-383.043 Y-41.296 Z9.566
N5155 X-362.951 Y-38.095 Z10.4
N5160 X-343.668 Y-35.182 Z11.153
N5165 X-326.463 Y-32.716 Z11.774
N5170 X-313.107 Y-30.955 Z12.21
N5175 X-300.782 Y-29.494 Z12.568
N5180 X-286.225 Y-27.946 Z12.947
N5185 X-269.266 Y-26.424 Z13.321
N5190 X-257.25 Y-25.504 Z13.546
N5195 X-242.148 Y-24.541 Z13.784
N5200 X-225.56 Y-23.666 Z14.005
N5205 X-204.103 Y-22.736 Z14.242
N5210 X-181.479 Y-21.969 Z14.44
N5215 X-163.733 Y-21.498 Z14.56
N5220 X-139.56 Y-21.057 Z14.676
N5225 X-113. Y-20.776 Z14.752
N5230 X-85.512 Y-20.682 Z14.781
N5235 X-53.242 Y-20.747 Z14.769
N5240 X0. Y-21.115 Z14.69
N5245 X53.761 Y-20.915 Z14.743
N5250 X84.52 Y-20.949 Z14.74
N5255 X111.994 Y-21.124 Z14.699
N5260 X137.326 Y-21.456 Z14.618
N5265 X162.34 Y-21.971 Z14.491
N5270 X184.862 Y-22.641 Z14.326
N5275 X208.16 Y-23.526 Z14.104
N5280 X227.561 Y-24.451 Z13.875
N5285 X241.837 Y-25.236 Z13.679
N5290 X256.523 Y-26.205 Z13.443
N5295 X271.284 Y-27.366 Z13.16
N5300 X285.863 Y-28.723 Z12.83
N5305 X299.885 Y-30.203 Z12.462
N5310 X311.365 Y-31.564 Z12.124
N5315 X326.256 Y-33.523 Z11.636
N5320 X342.839 Y-35.9 Z11.038
N5325 X363.24 Y-38.976 Z10.243
N5330 X387.143 Y-42.773 Z9.251
N5335 X393.371 Y-43.774 Z8.987
N5340 X396.127 Y-43.975 Z8.911
N5345 X398.889 Y-43.895 Z8.884
N5350 X401.629 Y-43.535 Z8.906
N5355 X404.318 Y-42.898 Z8.96
N5360 X407.674 Y-41.762 Z9.074
N5365 X409.756 Y-41.229 Z9.118
N5370 X413.309 Y-40.672 Z9.137
N5375 X414.809 Y-40.591 Z9.12
N5380 X415.251 Y-40.473 Z9.125
N5385 X415.604 Y-40.182 Z9.155
N5390 X415.802 Y-39.771 Z9.205
N5395 X415.777 Y-39.177 Z9.283
N5400 X414.863 Y-35.335 Z9.801
N5405 X414.676 Y-33.845 Z9.967
N5410 X414.731 Y-32.312 Z10.13
N5415 X415.041 Y-30.224 Z10.334
N5420 X414.992 Y-29.306 Z10.41
N5425 X414.718 Y-28.429 Z10.491
N5430 X414.234 Y-27.647 Z10.571
N5435 X412.858 Y-26.248 Z10.733
N5440 X411.159 Y-24.852 Z10.905
N5445 X408.778 Y-22.632 Z11.131
N5450 X406.792 Y-21.049 Z11.297
N5455 X404.472 Y-19.548 Z11.472
N5460 X402.01 Y-18.293 Z11.638
N5465 X399.433 Y-17.297 Z11.795
N5470 X389.631 Y-14.499 Z12.341
N5475 X372.139 Y-9.704 Z13.272
N5480 X354.879 Y-5.192 Z14.145
N5485 X342.169 Y-1.989 Z14.747
N5490 X330.055 Y0.903 Z15.278
N5495 X317.438 Y3.664 Z15.78
N5500 X308.082 Y5.55 Z16.12
N5505 X298.268 Y7.384 Z16.444
N5510 X287.276 Y9.251 Z16.772
N5515 X274.725 Y11.154 Z17.106
N5520 X264.251 Y12.555 Z17.353
N5525 X252.084 Y13.975 Z17.604
N5530 X243.885 Y14.836 Z17.754
N5535 X228.153 Y16.251 Z18.014
N5540 X213.272 Y17.427 Z18.229
N5545 X199.388 Y18.38 Z18.403
N5550 X183.176 Y19.343 Z18.577
N5555 X164.762 Y20.241 Z18.735
N5560 X144.735 Y20.953 Z18.866
N5565 X123.319 Y21.503 Z18.962
N5570 X97.683 Y21.871 Z19.025
N5575 X71.301 Y22.004 Z19.044
N5580 X42.618 Y21.935 Z19.023
N5585 X6.37 Y21.622 Z18.959
N5590 X-4.16 Y21.6 Z18.95
N5595 X-33.307 Y21.979 Z19.011
N5600 X-64.159 Y22.208 Z19.046
N5605 X-90.272 Y22.217 Z19.04
N5610 X-106.806 Y22.101 Z19.014
N5615 X-129.905 Y21.767 Z18.945
N5620 X-150.25 Y21.247 Z18.842
N5625 X-168.679 Y20.591 Z18.716
N5630 X-184.524 Y19.842 Z18.575
N5635 X-198.243 Y19.066 Z18.428
N5640 X-214.916 Y17.956 Z18.219
N5645 X-226.516 Y17.082 Z18.05
N5650 X-241.497 Y15.79 Z17.808
N5655 X-251.791 Y14.754 Z17.623
N5660 X-264.819 Y13.257 Z17.354
N5665 X-276.44 Y11.697 Z17.078
N5670 X-287.908 Y9.961 Z16.769
N5675 X-300.456 Y7.825 Z16.389
N5680 X-311.042 Y5.823 Z16.033
N5685 X-318.677 Y4.263 Z15.756
N5690 X-327.301 Y2.38 Z15.418
N5695 X-336.43 Y0.27 Z15.037
N5700 X-345.843 Y-2.034 Z14.619
N5705 X-360.579 Y-5.79 Z13.909
N5710 X-379.187 Y-10.755 Z12.947
N5715 X-393.955 Y-14.873 Z12.146
N5720 X-399.484 Y-16.47 Z11.836
N5725 X-402.068 Y-17.449 Z11.679
N5730 X-404.546 Y-18.671 Z11.514
N5735 X-406.896 Y-20.125 Z11.341
N5740 X-409.118 Y-21.818 Z11.159
N5745 X-411.675 Y-24.179 Z10.928
N5750 X-413.548 Y-25.723 Z10.751
N5755 X-415.008 Y-27.12 Z10.587
N5760 X-415.704 Y-28.03 Z10.488
N5765 X-416.073 Y-28.872 Z10.407
N5770 X-416.252 Y-29.774 Z10.327
N5775 X-416.232 Y-30.694 Z10.253
N5780 X-416.149 Y-31.14 Z10.215
N5785 X-415.868 Y-32.33 Z10.096
N5790 X-415.746 Y-33.546 Z9.968
N5795 X-415.85 Y-34.769 Z9.834
N5800 X-416.231 Y-36.274 Z9.655
N5805 X-416.507 Y-37.724 Z9.457
N5810 X-416.64 Y-39.332 Z9.243
N5815 X-416.492 Y-39.924 Z9.168
N5820 X-416.125 Y-40.412 Z9.113
N5825 X-415.597 Y-40.719 Z9.085
N5830 X-415.115 Y-40.801 Z9.083
N5835 X-414.418 Y-40.826 Z9.093
N5840 X-412.357 Y-41.353 Z9.05
N5845 X-408.72 Y-42.371 Z8.961
N5850 X-405.345 Y-43.478 Z8.853
N5855 X-402.356 Y-44.183 Z8.783
N5860 X-399.315 Y-44.609 Z8.754
N5865 X-396.248 Y-44.754 Z8.774
N5870 X-393.181 Y-44.615 Z8.844
N5875 X-389.174 Y-44.057 Z8.999
N5880 X-363.17 Y-40.065 Z10.055
N5885 X-342.967 Y-37.149 Z10.819
N5890 X-326.064 Y-34.838 Z11.409
N5895 X-312.059 Y-33.076 Z11.855
N5900 X-299.211 Y-31.629 Z12.22
N5905 X-284.696 Y-30.178 Z12.586
N5910 X-267.445 Y-28.709 Z12.955
N5915 X-252.554 Y-27.667 Z13.219
N5920 X-235.807 Y-26.701 Z13.465
N5925 X-219.295 Y-25.926 Z13.666
N5930 X-195.042 Y-25.012 Z13.906
N5935 X-173.691 Y-24.375 Z14.073
N5940 X-153.293 Y-23.937 Z14.189
N5945 X-128.071 Y-23.581 Z14.285
N5950 X-110.269 Y-23.437 Z14.325
N5955 X-84.885 Y-23.365 Z14.347
N5960 X-52.016 Y-23.435 Z14.334
N5965 X-5.177 Y-23.746 Z14.25
N5970 X7.26 Y-23.756 Z14.251
N5975 X52.556 Y-23.597 Z14.305
N5980 X84.828 Y-23.63 Z14.301
N5985 X115.111 Y-23.821 Z14.255
N5990 X145.878 Y-24.26 Z14.145
N5995 X169.941 Y-24.809 Z14.006
N6000 X193.723 Y-25.549 Z13.817
N6005 X217.985 Y-26.537 Z13.565
N6010 X237.362 Y-27.484 Z13.322
N6015 X250.256 Y-28.246 Z13.13
N6020 X265.327 Y-29.316 Z12.862
N6025 X278.905 Y-30.446 Z12.58
N6030 X289.504 Y-31.44 Z12.33
N6035 X301.955 Y-32.736 Z12.004
N6040 X311.917 Y-33.879 Z11.717
N6045 X326.483 Y-35.72 Z11.252
N6050 X344.053 Y-38.134 Z10.635
N6055 X360.288 Y-40.469 Z10.023
N6060 X376.912 Y-42.966 Z9.363
N6065 X392.68 Y-45.392 Z8.716
N6070 X395.433 Y-45.628 Z8.634
N6075 X398.197 Y-45.615 Z8.595
N6080 X400.948 Y-45.353 Z8.6
N6085 X403.664 Y-44.845 Z8.648
N6090 X406.032 Y-44.19 Z8.727
N6095 X408.882 Y-43.196 Z8.831
N6100 X410.958 Y-42.637 Z8.878
N6105 X414.34 Y-42.078 Z8.901
N6110 X415.702 Y-41.892 Z8.904
N6115 X417.209 Y-41.816 Z8.887
N6120 X417.762 Y-41.564 Z8.915
N6125 X418.121 Y-41.074 Z8.978
N6130 X418.195 Y-40.464 Z9.057
N6135 X417.124 Y-35.957 Z9.669
N6140 X416.916 Y-34.437 Z9.839
N6145 X416.928 Y-32.932 Z10.
N6150 X417.169 Y-31.198 Z10.179
N6155 X417.327 Y-29.9 Z10.279
N6160 X417.232 Y-28.986 Z10.356
N6165 X416.937 Y-28.115 Z10.437
N6170 X416.457 Y-27.331 Z10.518
N6175 X415.229 Y-26.033 Z10.667
N6180 X413.323 Y-24.444 Z10.844
N6185 X412.039 Y-23.3 Z10.958
N6190 X410.415 Y-21.755 Z11.107
N6195 X408.254 Y-20.006 Z11.289
N6200 X405.957 Y-18.47 Z11.467
N6205 X403.53 Y-17.149 Z11.625
N6210 X400.992 Y-16.054 Z11.773
N6215 X398.274 Y-15.167 Z11.927
N6220 X384. Y-11.065 Z12.711
N6225 X369.725 Y-7.093 Z13.463
N6230 X354.095 Y-2.905 Z14.25
N6235 X339.565 Y0.83 Z14.924
N6240 X328.347 Y3.518 Z15.401
N6245 X316.015 Y6.264 Z15.88
N6250 X302.825 Y8.911 Z16.339
N6255 X292.19 Y10.822 Z16.673
N6260 X280.483 Y12.738 Z17.002
N6265 X270.85 Y14.14 Z17.246
N6270 X258.546 Y15.745 Z17.519
N6275 X246.226 Y17.111 Z17.759
N6280 X238.348 Y17.89 Z17.893
N6285 X223.857 Y19.177 Z18.123
N6290 X207.19 Y20.468 Z18.352
N6295 X188.812 Y21.652 Z18.566
N6300 X171.077 Y22.587 Z18.734
N6305 X152.564 Y23.358 Z18.868
N6310 X133.879 Y23.927 Z18.967
N6315 X111.069 Y24.388 Z19.046
N6320 X87.037 Y24.63 Z19.086
N6325 X61.819 Y24.686 Z19.089
N6330 X29.174 Y24.523 Z19.049
N6335 X0.578 Y24.243 Z19.013
N6340 X-17.037 Y24.449 Z19.032
N6345 X-40.351 Y24.727 Z19.07
N6350 X-69.681 Y24.905 Z19.096
N6355 X-91.103 Y24.894 Z19.086
N6360 X-116.049 Y24.673 Z19.039
N6365 X-137.093 Y24.267 Z18.96
N6370 X-155.897 Y23.722 Z18.856
N6375 X-174.297 Y22.966 Z18.714
N6380 X-186.169 Y22.37 Z18.604
N6385 X-198.373 Y21.659 Z18.473
N6390 X-214.76 Y20.542 Z18.267
N6395 X-226.076 Y19.674 Z18.102
N6400 X-243.216 Y18.142 Z17.823
N6405 X-252.302 Y17.197 Z17.658
N6410 X-265.038 Y15.694 Z17.393
N6415 X-276.399 Y14.136 Z17.122
N6420 X-287.32 Y12.455 Z16.828
N6425 X-299.201 Y10.41 Z16.472
N6430 X-310.892 Y8.16 Z16.079
N6435 X-322.351 Y5.736 Z15.655
N6440 X-333.229 Y3.243 Z15.217
N6445 X-344.454 Y0.457 Z14.722
N6450 X-360.812 Y-3.818 Z13.935
N6455 X-377.682 Y-8.424 Z13.066
N6460 X-396.786 Y-13.895 Z12.026
N6465 X-400.73 Y-15.112 Z11.804
N6470 X-403.566 Y-16.289 Z11.639
N6475 X-406.277 Y-17.731 Z11.475
N6480 X-408.59 Y-19.244 Z11.315
N6485 X-410.898 Y-21.062 Z11.122
N6490 X-413.543 Y-23.525 Z10.882
N6495 X-416.152 Y-25.703 Z10.656
N6500 X-417.317 Y-26.891 Z10.523
N6505 X-417.868 Y-27.627 Z10.444
N6510 X-418.267 Y-28.457 Z10.362
N6515 X-418.497 Y-29.347 Z10.282
N6520 X-418.551 Y-30.266 Z10.206
N6525 X-418.349 Y-31.495 Z10.113
N6530 X-418.018 Y-33.102 Z9.95
N6535 X-417.98 Y-34.315 Z9.821
N6540 X-418.139 Y-35.518 Z9.687
N6545 X-418.496 Y-36.864 Z9.524
N6550 X-418.785 Y-38.312 Z9.326
N6555 X-418.971 Y-40.335 Z9.056
N6560 X-418.841 Y-40.932 Z8.98
N6565 X-418.51 Y-41.446 Z8.919
N6570 X-418.021 Y-41.812 Z8.872
N6575 X-417.427 Y-41.985 Z8.857
N6580 X-416.523 Y-42.017 Z8.869
N6585 X-414.662 Y-42.477 Z8.834
N6590 X-411.475 Y-43.366 Z8.756
N6595 X-409.064 Y-44.1 Z8.688
N6600 X-406.294 Y-45.002 Z8.582
N6605 X-403.308 Y-45.718 Z8.502
N6610 X-400.273 Y-46.187 Z8.465
N6615 X-397.21 Y-46.405 Z8.473
N6620 X-394.139 Y-46.372 Z8.519
N6625 X-391.082 Y-46.086 Z8.611
N6630 X-371.999 Y-43.271 Z9.374
N6635 X-347.875 Y-39.869 Z10.286
N6640 X-327.494 Y-37.186 Z10.986
N6645 X-313.201 Y-35.453 Z11.431
N6650 X-306.192 Y-34.665 Z11.632
N6655 X-291.004 Y-33.136 Z12.024
N6660 X-276.737 Y-31.878 Z12.346
N6665 X-262.56 Y-30.804 Z12.62
N6670 X-251.229 Y-30.069 Z12.808
N6675 X-233.679 Y-29.135 Z13.051
N6680 X-215.178 Y-28.328 Z13.264
N6685 X-190.921 Y-27.483 Z13.488
N6690 X-171.527 Y-26.957 Z13.629
N6695 X-149.529 Y-26.525 Z13.745
N6700 X-123.595 Y-26.213 Z13.831
N6705 X-96.919 Y-26.066 Z13.874
N6710 X-70.06 Y-26.059 Z13.88
N6715 X-47.375 Y-26.141 Z13.861
N6720 X-20.347 Y-26.303 Z13.821
N6725 X0.743 Y-26.445 Z13.782
N6730 X48.884 Y-26.28 Z13.838
N6735 X83.599 Y-26.306 Z13.836
N6740 X112.583 Y-26.481 Z13.794
N6745 X134.688 Y-26.73 Z13.73
N6750 X161.218 Y-27.234 Z13.602
N6755 X184.731 Y-27.86 Z13.44
N6760 X201.573 Y-28.438 Z13.291
N6765 X213.846 Y-28.919 Z13.167
N6770 X237.192 Y-29.991 Z12.887
N6775 X250.036 Y-30.715 Z12.702
N6780 X265.389 Y-31.759 Z12.437
N6785 X277.158 Y-32.685 Z12.203
N6790 X292.717 Y-34.086 Z11.846
N6795 X308.505 Y-35.721 Z11.428
N6800 X324.578 Y-37.639 Z10.935
N6805 X341.54 Y-39.847 Z10.356
N6810 X358.683 Y-42.187 Z9.731
N6815 X376.527 Y-44.737 Z9.042
N6820 X392.328 Y-47.055 Z8.41
N6825 X395.388 Y-47.303 Z8.325
N6830 X398.459 Y-47.275 Z8.292
N6835 X401.514 Y-46.972 Z8.31
N6840 X404.531 Y-46.397 Z8.365
N6845 X407.483 Y-45.553 Z8.467
N6850 X410.384 Y-44.537 Z8.596
N6855 X412.76 Y-43.917 Z8.647
N6860 X416.993 Y-43.24 Z8.671
N6865 X418.413 Y-43.113 Z8.664
N6870 X419.605 Y-43.025 Z8.655
N6875 X420.139 Y-42.731 Z8.69
N6880 X420.487 Y-42.231 Z8.76
N6885 X420.578 Y-41.655 Z8.844
N6890 X419.87 Y-38.618 Z9.261
N6895 X419.273 Y-35.976 Z9.605
N6900 X419.124 Y-34.141 Z9.807
N6905 X419.217 Y-32.631 Z9.966
N6910 X419.548 Y-30.496 Z10.151
N6915 X419.6 Y-29.577 Z10.224
N6920 X419.468 Y-28.667 Z10.303
N6925 X419.156 Y-27.801 Z10.384
N6930 X418.548 Y-26.849 Z10.483
N6935 X417.148 Y-25.403 Z10.628
N6940 X414.509 Y-23.198 Z10.858
N6945 X411.822 Y-20.675 Z11.103
N6950 X409.96 Y-19.149 Z11.256
N6955 X407.436 Y-17.4 Z11.42
N6960 X404.764 Y-15.887 Z11.585
N6965 X401.966 Y-14.623 Z11.749
N6970 X399.271 Y-13.68 Z11.903
N6975 X382.163 Y-8.647 Z12.844
N6980 X365.75 Y-3.985 Z13.703
N6985 X351.117 Y-0.021 Z14.432
N6990 X341.614 Y2.483 Z14.872
N6995 X329.784 Y5.416 Z15.383
N7000 X318.057 Y8.111 Z15.845
N7005 X310.849 Y9.642 Z16.107
N7010 X302.271 Y11.362 Z16.399
N7015 X291.61 Y13.315 Z16.733
N7020 X280.163 Y15.214 Z17.053
N7025 X271.428 Y16.515 Z17.275
N7030 X259.077 Y18.171 Z17.552
N7035 X246.739 Y19.575 Z17.795
N7040 X239.152 Y20.349 Z17.925
N7045 X223.448 Y21.778 Z18.174
N7050 X206.102 Y23.132 Z18.412
N7055 X188.62 Y24.281 Z18.614
N7060 X171.172 Y25.221 Z18.78
N7065 X153.258 Y25.998 Z18.911
N7070 X137.404 Y26.507 Z18.999
N7075 X119.089 Y26.924 Z19.07
N7080 X95.343 Y27.257 Z19.124
N7085 X66.421 Y27.38 Z19.139
N7090 X32.147 Y27.224 Z19.102
N7095 X1.187 Y26.908 Z19.014
N7100 X-17.937 Y27.135 Z19.08
N7105 X-40.638 Y27.408 Z19.118
N7110 X-69.675 Y27.586 Z19.144
N7115 X-89.266 Y27.582 Z19.136
N7120 X-115.777 Y27.351 Z19.088
N7125 X-136.527 Y26.943 Z19.01
N7130 X-155.668 Y26.381 Z18.905
N7135 X-174.085 Y25.608 Z18.763
N7140 X-185.361 Y25.033 Z18.659
N7145 X-197.583 Y24.312 Z18.528
N7150 X-213.991 Y23.175 Z18.323
N7155 X-229.589 Y21.916 Z18.096
N7160 X-244.262 Y20.554 Z17.85
N7165 X-257.195 Y19.131 Z17.605
N7170 X-266.656 Y17.949 Z17.4
N7175 X-275.771 Y16.669 Z17.181
N7180 X-287.773 Y14.776 Z16.858
N7185 X-298.701 Y12.866 Z16.53
N7190 X-310.332 Y10.584 Z16.14
N7195 X-321.221 Y8.248 Z15.74
N7200 X-331.318 Y5.903 Z15.337
N7205 X-342.251 Y3.18 Z14.859
N7210 X-356.323 Y-0.552 Z14.194
N7215 X-369.486 Y-4.178 Z13.526
N7220 X-384.265 Y-8.413 Z12.745
N7225 X-399.69 Y-12.977 Z11.894
N7230 X-402.577 Y-14.022 Z11.729
N7235 X-405.365 Y-15.311 Z11.565
N7240 X-408.031 Y-16.834 Z11.398
N7245 X-410.557 Y-18.579 Z11.235
N7250 X-412.816 Y-20.435 Z11.073
N7255 X-415.686 Y-23.109 Z10.811
N7260 X-418.067 Y-25.072 Z10.605
N7265 X-419.473 Y-26.494 Z10.47
N7270 X-420.031 Y-27.226 Z10.4
N7275 X-420.561 Y-28.331 Z10.291
N7280 X-420.818 Y-29.53 Z10.185
N7285 X-420.789 Y-30.755 Z10.086
N7290 X-420.426 Y-32.357 Z9.961
N7295 X-420.228 Y-33.56 Z9.837
N7300 X-420.235 Y-35.094 Z9.672
N7305 X-420.376 Y-36.004 Z9.57
N7310 X-420.76 Y-37.454 Z9.393
N7315 X-421.109 Y-39.204 Z9.154
N7320 X-421.251 Y-40.424 Z8.99
N7325 X-421.303 Y-41.365 Z8.865
N7330 X-421.127 Y-42.106 Z8.767
N7335 X-420.692 Y-42.697 Z8.684
N7340 X-420.046 Y-43.082 Z8.637
N7345 X-419.442 Y-43.187 Z8.633
N7350 X-418.628 Y-43.209 Z8.645
N7355 X-416.979 Y-43.605 Z8.615
N7360 X-414.248 Y-44.387 Z8.547
N7365 X-411.275 Y-45.203 Z8.47
N7370 X-407.833 Y-46.353 Z8.323
N7375 X-404.56 Y-47.188 Z8.227
N7380 X-401.23 Y-47.754 Z8.167
N7385 X-397.864 Y-48.048 Z8.152
N7390 X-394.487 Y-48.067 Z8.19
N7395 X-391.118 Y-47.812 Z8.281
N7400 X-373.239 Y-45.307 Z8.97
N7405 X-355.391 Y-42.892 Z9.631
N7410 X-336.385 Y-40.44 Z10.293
N7415 X-318.317 Y-38.251 Z10.871
N7420 X-306.151 Y-36.933 Z11.218
N7425 X-290.366 Y-35.422 Z11.616
N7430 X-275.203 Y-34.159 Z11.947
N7435 X-260.316 Y-33.101 Z12.225
N7440 X-244.043 Y-32.166 Z12.472
N7445 X-225.283 Y-31.3 Z12.705
N7450 X-203.335 Y-30.473 Z12.928
N7455 X-178.687 Y-29.764 Z13.122
N7460 X-157.598 Y-29.311 Z13.246
N7465 X-127.785 Y-28.914 Z13.356
N7470 X-100.156 Y-28.753 Z13.404
N7475 X-64.811 Y-28.755 Z13.407
N7480 X-32.135 Y-28.905 Z13.371
N7485 X-0.179 Y-29.116 Z13.313
N7490 X49.512 Y-28.96 Z13.366
N7495 X84.612 Y-28.992 Z13.362
N7500 X105.112 Y-29.097 Z13.335
N7505 X128.023 Y-29.317 Z13.279
N7510 X152.453 Y-29.693 Z13.18
N7515 X173.953 Y-30.175 Z13.053
N7520 X198.4 Y-30.912 Z12.858
N7525 X223.521 Y-31.876 Z12.6
N7530 X239.426 Y-32.623 Z12.402
N7535 X251.953 Y-33.316 Z12.221
N7540 X266.677 Y-34.287 Z11.967
N7545 X278.719 Y-35.206 Z11.728
N7550 X292.549 Y-36.406 Z11.414
N7555 X303.117 Y-37.428 Z11.146
N7560 X314.552 Y-38.647 Z10.826
N7565 X331.405 Y-40.621 Z10.305
N7570 X354.759 Y-43.612 Z9.501
N7575 X378.575 Y-46.846 Z8.614
N7580 X392.01 Y-48.723 Z8.096
N7585 X395.071 Y-48.968 Z8.011
N7590 X398.142 Y-48.964 Z7.973
N7595 X401.202 Y-48.711 Z7.984
N7600 X404.232 Y-48.209 Z8.042
N7605 X407.21 Y-47.463 Z8.139
N7610 X410.43 Y-46.37 Z8.28
N7615 X412.77 Y-45.624 Z8.374
N7620 X415.167 Y-45.085 Z8.422
N7625 X419.691 Y-44.402 Z8.441
N7630 X421.703 Y-44.3 Z8.418
N7635 X422.274 Y-44.087 Z8.44
N7640 X422.71 Y-43.66 Z8.497
N7645 X422.935 Y-43.094 Z8.58
N7650 X422.901 Y-42.45 Z8.68
N7655 X421.647 Y-37.201 Z9.404
N7660 X421.386 Y-35.379 Z9.608
N7665 X421.385 Y-33.537 Z9.806
N7670 X421.655 Y-31.519 Z9.993
N7675 X421.878 Y-29.868 Z10.12
N7680 X421.827 Y-28.949 Z10.196
N7685 X421.609 Y-28.055 Z10.276
N7690 X421.233 Y-27.215 Z10.356
N7695 X420.567 Y-26.293 Z10.432
N7700 X419.067 Y-24.773 Z10.577
N7705 X416.53 Y-22.674 Z10.796
N7710 X414.026 Y-20.316 Z11.022
N7715 X411.662 Y-18.299 Z11.182
N7720 X409.169 Y-16.506 Z11.345
N7725 X406.537 Y-14.923 Z11.511
N7730 X403.784 Y-13.563 Z11.676
N7735 X400.929 Y-12.433 Z11.841
N7740 X391.689 Y-9.578 Z12.361
N7745 X373.247 Y-4.126 Z13.352
N7750 X357.585 Y0.316 Z14.153
N7755 X343.269 Y4.212 Z14.838
N7760 X331.815 Y7.16 Z15.341
N7765 X319.178 Y10.146 Z15.844
N7770 X306.989 Y12.769 Z16.277
N7775 X298.388 Y14.465 Z16.556
N7780 X288.183 Y16.315 Z16.858
N7785 X275.596 Y18.361 Z17.193
N7790 X266.198 Y19.716 Z17.414
N7795 X254.422 Y21.218 Z17.662
N7800 X242.366 Y22.569 Z17.88
N7805 X225.458 Y24.178 Z18.152
N7810 X206.547 Y25.695 Z18.411
N7815 X189.041 Y26.874 Z18.613
N7820 X172.188 Y27.809 Z18.773
N7825 X153.337 Y28.651 Z18.91
N7830 X137.759 Y29.164 Z18.996
N7835 X119.738 Y29.587 Z19.066
N7840 X95.663 Y29.937 Z19.12
N7845 X67.624 Y30.06 Z19.135
N7850 X36.741 Y29.933 Z19.105
N7855 X3.217 Y29.586 Z19.02
N7860 X-5.322 Y29.623 Z19.029
N7865 X-31.71 Y29.993 Z19.093
N7870 X-58.941 Y30.23 Z19.127
N7875 X-78.21 Y30.278 Z19.13
N7880 X-103.19 Y30.172 Z19.104
N7885 X-127.67 Y29.821 Z19.036
N7890 X-147.981 Y29.281 Z18.936
N7895 X-163.42 Y28.72 Z18.834
N7900 X-181.236 Y27.888 Z18.684
N7905 X-195.875 Y27.031 Z18.533
N7910 X-212.916 Y25.838 Z18.324
N7915 X-229.149 Y24.505 Z18.09
N7920 X-244.147 Y23.085 Z17.841
N7925 X-257.4 Y21.599 Z17.592
N7930 X-268.711 Y20.129 Z17.348
N7935 X-280.29 Y18.405 Z17.063
N7940 X-292.029 Y16.45 Z16.739
N7945 X-303.849 Y14.226 Z16.37
N7950 X-314.627 Y11.988 Z16.001
N7955 X-324.702 Y9.709 Z15.62
N7960 X-335.156 Y7.174 Z15.195
N7965 X-344.362 Y4.781 Z14.793
N7970 X-359.633 Y0.604 Z14.062
N7975 X-369.056 Y-2.065 Z13.579
N7980 X-385.172 Y-6.781 Z12.726
N7985 X-400.149 Y-11.342 Z11.897
N7990 X-403.035 Y-12.394 Z11.735
N7995 X-406.103 Y-13.807 Z11.554
N8000 X-409.038 Y-15.478 Z11.37
N8005 X-411.819 Y-17.395 Z11.189
N8010 X-414.272 Y-19.403 Z11.025
N8015 X-416.819 Y-21.808 Z10.829
N8020 X-418.798 Y-23.462 Z10.657
N8025 X-420.431 Y-24.859 Z10.513
N8030 X-421.83 Y-26.33 Z10.375
N8035 X-422.501 Y-27.356 Z10.292
N8040 X-422.852 Y-28.207 Z10.219
N8045 X-423.101 Y-29.408 Z10.112
N8050 X-423.088 Y-30.634 Z10.013
N8055 X-422.606 Y-32.819 Z9.848
N8060 X-422.426 Y-34.327 Z9.691
N8065 X-422.504 Y-35.859 Z9.524
N8070 X-422.865 Y-37.451 Z9.342
N8075 X-423.279 Y-39.186 Z9.105
N8080 X-423.573 Y-41.315 Z8.817
N8085 X-423.661 Y-42.919 Z8.592
N8090 X-423.517 Y-43.504 Z8.505
N8095 X-423.152 Y-43.993 Z8.437
N8100 X-422.626 Y-44.302 Z8.4
N8105 X-422.128 Y-44.386 Z8.396
N8110 X-420.736 Y-44.402 Z8.421
N8115 X-419.304 Y-44.731 Z8.397
N8120 X-415.369 Y-45.838 Z8.296
N8125 X-412.846 Y-46.526 Z8.216
N8130 X-409.37 Y-47.698 Z8.065
N8135 X-406.11 Y-48.583 Z7.948
N8140 X-402.793 Y-49.224 Z7.866
N8145 X-399.438 Y-49.618 Z7.833
N8150 X-396.063 Y-49.763 Z7.847
N8155 X-392.687 Y-49.659 Z7.908
N8160 X-388.995 Y-49.263 Z8.029
N8165 X-360.273 Y-45.476 Z9.085
N8170 X-335.853 Y-42.472 Z9.909
N8175 X-317.635 Y-40.384 Z10.469
N8180 X-305.193 Y-39.111 Z10.809
N8185 X-290.034 Y-37.739 Z11.175
N8190 X-280.894 Y-36.995 Z11.373
N8195 X-270.222 Y-36.209 Z11.582
N8200 X-254.857 Y-35.245 Z11.84
N8205 X-238.92 Y-34.424 Z12.06
N8210 X-217.028 Y-33.524 Z12.306
N8215 X-198.336 Y-32.913 Z12.476
N8220 X-172.434 Y-32.245 Z12.66
N8225 X-149.047 Y-31.835 Z12.775
N8230 X-124.686 Y-31.566 Z12.852
N8235 X-99.943 Y-31.436 Z12.891
N8240 X-64.712 Y-31.428 Z12.897
N8245 X-15.232 Y-31.685 Z12.831
N8250 X2.457 Y-31.779 Z12.803
N8255 X55.428 Y-31.637 Z12.856
N8260 X90.826 Y-31.693 Z12.844
N8265 X119.484 Y-31.883 Z12.795
N8270 X143.726 Y-32.192 Z12.714
N8275 X173.211 Y-32.778 Z12.557
N8280 X199.294 Y-33.535 Z12.354
N8285 X223.656 Y-34.427 Z12.112
N8290 X239.849 Y-35.153 Z11.917
N8295 X252.345 Y-35.816 Z11.741
N8300 X268.009 Y-36.805 Z11.479
N8305 X284.902 Y-38.069 Z11.144
N8310 X300.032 Y-39.408 Z10.789
N8315 X312.971 Y-40.697 Z10.447
N8320 X329.916 Y-42.572 Z9.946
N8325 X353.136 Y-45.376 Z9.177
N8330 X372.616 Y-47.868 Z8.478
N8335 X391.726 Y-50.395 Z7.765
N8340 X395.095 Y-50.647 Z7.678
N8345 X398.472 Y-50.623 Z7.649
N8350 X401.837 Y-50.324 Z7.668
N8355 X405.166 Y-49.75 Z7.736
N8360 X408.437 Y-48.907 Z7.856
N8365 X411.253 Y-47.953 Z7.992
N8370 X413.682 Y-47.135 Z8.097
N8375 X416.367 Y-46.484 Z8.168
N8380 X420.175 Y-45.884 Z8.203
N8385 X421.992 Y-45.636 Z8.206
N8390 X424.355 Y-45.522 Z8.177
N8395 X424.915 Y-45.284 Z8.203
N8400 X425.301 Y-44.814 Z8.268
N8405 X425.428 Y-44.256 Z8.351
N8410 X425.249 Y-43.436 Z8.481
N8415 X423.909 Y-37.823 Z9.269
N8420 X423.635 Y-36.018 Z9.473
N8425 X423.595 Y-34.192 Z9.67
N8430 X423.755 Y-32.591 Z9.83
N8435 X424.153 Y-29.852 Z10.038
N8440 X424.072 Y-28.629 Z10.14
N8445 X423.834 Y-27.739 Z10.213
N8450 X423.293 Y-26.639 Z10.294
N8455 X422.509 Y-25.659 Z10.38
N8460 X420.754 Y-23.941 Z10.546
N8465 X418.405 Y-22.02 Z10.748
N8470 X416.96 Y-20.706 Z10.856
N8475 X415.094 Y-18.923 Z10.989
N8480 X412.634 Y-16.884 Z11.156
N8485 X409.869 Y-14.944 Z11.335
N8490 X407.224 Y-13.384 Z11.494
N8495 X404.188 Y-11.903 Z11.661
N8500 X401.041 Y-10.678 Z11.835
N8505 X388.547 Y-6.776 Z12.531
N8510 X373.059 Y-2.099 Z13.359
N8515 X358.476 Y2.138 Z14.104
N8520 X343.123 Y6.424 Z14.831
N8525 X331.521 Y9.445 Z15.334
N8530 X320.328 Y12.172 Z15.774
N8535 X308.889 Y14.712 Z16.182
N8540 X300.964 Y16.333 Z16.444
N8545 X288.61 Y18.648 Z16.816
N8550 X276.796 Y20.617 Z17.132
N8555 X267.671 Y21.988 Z17.349
N8560 X255.564 Y23.58 Z17.608
N8565 X245.017 Y24.804 Z17.803
N8570 X231.281 Y26.178 Z18.035
N8575 X221.651 Y27.055 Z18.173
N8580 X206.072 Y28.321 Z18.38
N8585 X189.155 Y29.486 Z18.574
N8590 X175.748 Y30.266 Z18.701
N8595 X162.01 Y30.938 Z18.81
N8600 X150.967 Y31.391 Z18.883
N8605 X136.886 Y31.852 Z18.957
N8610 X119.773 Y32.261 Z19.023
N8615 X95.983 Y32.616 Z19.075
N8620 X68.548 Y32.742 Z19.09
N8625 X38.57 Y32.628 Z19.061
N8630 X7.046 Y32.302 Z18.991
N8635 X-2.919 Y32.266 Z18.979
N8640 X-27.106 Y32.618 Z19.036
N8645 X-51.248 Y32.858 Z19.073
N8650 X-73.913 Y32.964 Z19.081
N8655 X-100.349 Y32.871 Z19.059
N8660 X-121.989 Y32.589 Z19.003
N8665 X-142.21 Y32.126 Z18.918
N8670 X-159.508 Y31.524 Z18.811
N8675 X-175.194 Y30.816 Z18.687
N8680 X-185.277 Y30.277 Z18.595
N8685 X-196.924 Y29.564 Z18.471
N8690 X-213.372 Y28.38 Z18.268
N8695 X-229.32 Y27.04 Z18.039
N8700 X-244.032 Y25.618 Z17.795
N8705 X-256.994 Y24.136 Z17.556
N8710 X-267.601 Y22.749 Z17.33
N8715 X-280.225 Y20.852 Z17.025
N8720 X-291.532 Y18.921 Z16.718
N8725 X-301.158 Y17.108 Z16.425
N8730 X-312.222 Y14.822 Z16.057
N8735 X-322.108 Y12.602 Z15.693
N8740 X-335.246 Y9.355 Z15.163
N8745 X-345.058 Y6.746 Z14.733
N8750 X-362.295 Y1.91 Z13.9
N8755 X-380.729 Y-3.54 Z12.942
N8760 X-396.454 Y-8.385 Z12.082
N8765 X-401.815 Y-10.122 Z11.781
N8770 X-404.946 Y-11.391 Z11.609
N8775 X-407.967 Y-12.901 Z11.442
N8780 X-410.86 Y-14.646 Z11.284
N8785 X-413.607 Y-16.612 Z11.109
N8790 X-416.185 Y-18.782 Z10.932
N8795 X-418.686 Y-21.154 Z10.755
N8800 X-420.708 Y-22.836 Z10.606
N8805 X-422.57 Y-24.438 Z10.441
N8810 X-423.987 Y-25.932 Z10.299
N8815 X-424.671 Y-26.95 Z10.216
N8820 X-425.143 Y-28.083 Z10.136
N8825 X-425.383 Y-29.286 Z10.039
N8830 Y-30.512 Z9.939
N8835 X-425.022 Y-32.262 Z9.81
N8840 X-424.746 Y-33.578 Z9.702
N8845 X-424.646 Y-35.102 Z9.541
N8850 X-424.781 Y-36.603 Z9.376
N8855 X-425.275 Y-38.58 Z9.136
N8860 X-425.65 Y-40.324 Z8.897
N8865 X-425.885 Y-42.092 Z8.659
N8870 X-426.023 Y-44.388 Z8.319
N8875 X-425.9 Y-44.972 Z8.232
N8880 X-425.493 Y-45.422 Z8.17
N8885 X-424.913 Y-45.604 Z8.154
N8890 X-422.85 Y-45.597 Z8.196
N8895 X-421.921 Y-45.781 Z8.185
N8900 X-418.267 Y-46.8 Z8.083
N8905 X-414.417 Y-47.85 Z7.961
N8910 X-411.998 Y-48.674 Z7.855
N8915 X-408.549 Y-49.734 Z7.696
N8920 X-404.957 Y-50.557 Z7.585
N8925 X-401.314 Y-51.112 Z7.518
N8930 X-397.639 Y-51.397 Z7.496
N8935 X-393.954 Y-51.409 Z7.531
N8940 X-390.278 Y-51.15 Z7.622
N8945 X-363.626 Y-47.824 Z8.571
N8950 X-340.03 Y-45.042 Z9.356
N8955 X-320.5 Y-42.891 Z9.951
N8960 X-306.377 Y-41.485 Z10.336
N8965 X-290.009 Y-40.079 Z10.722
N8970 X-279.673 Y-39.287 Z10.939
N8975 X-268.724 Y-38.536 Z11.145
N8980 X-253.077 Y-37.621 Z11.393
N8985 X-235.024 Y-36.764 Z11.627
N8990 X-212.58 Y-35.945 Z11.857
N8995 X-195.136 Y-35.422 Z12.004
N9000 X-169.934 Y-34.828 Z12.171
N9005 X-144.012 Y-34.432 Z12.285
N9010 X-115.24 Y-34.169 Z12.361
N9015 X-85.38 Y-34.087 Z12.388
N9020 X-43.521 Y-34.2 Z12.363
N9025 X0.921 Y-34.452 Z12.291
N9030 X56.056 Y-34.317 Z12.343
N9035 X91.13 Y-34.378 Z12.331
N9040 X125.621 Y-34.612 Z12.269
N9045 X152.784 Y-35.002 Z12.165
N9050 X176.307 Y-35.489 Z12.031
N9055 X199.261 Y-36.121 Z11.857
N9060 X222.87 Y-36.939 Z11.63
N9065 X240.272 Y-37.681 Z11.425
N9070 X253.35 Y-38.346 Z11.243
N9075 X268.982 Y-39.294 Z10.985
N9080 X284.334 Y-40.386 Z10.687
N9085 X297.556 Y-41.472 Z10.39
N9090 X311.692 Y-42.796 Z10.029
N9095 X328.197 Y-44.512 Z9.557
N9100 X338.849 Y-45.702 Z9.228
N9105 X363.105 Y-48.55 Z8.425
N9110 X385.7 Y-51.339 Z7.628
N9115 X391.782 Y-52.102 Z7.408
N9120 X395.152 Y-52.326 Z7.327
N9125 X398.53 Y-52.295 Z7.3
N9130 X401.896 Y-52.01 Z7.325
N9135 X405.231 Y-51.473 Z7.403
N9140 X408.516 Y-50.686 Z7.515
N9145 X411.782 Y-49.642 Z7.673
N9150 X414.595 Y-48.655 Z7.819
N9155 X417.268 Y-47.953 Z7.899
N9160 X420.095 Y-47.456 Z7.94
N9165 X423.847 Y-46.901 Z7.975
N9170 X427.015 Y-46.762 Z7.934
N9175 X427.437 Y-46.586 Z7.952
N9180 X427.748 Y-46.251 Z7.998
N9185 X427.893 Y-45.817 Z8.062
N9190 X427.863 Y-45.422 Z8.124
N9195 X427.339 Y-43.339 Z8.455
N9200 X426.171 Y-38.445 Z9.132
N9205 X425.883 Y-36.626 Z9.34
N9210 X425.815 Y-34.814 Z9.537
N9215 X425.924 Y-33.283 Z9.694
N9220 X426.46 Y-29.773 Z9.959
N9225 X426.468 Y-28.853 Z10.034
N9230 X426.313 Y-27.946 Z10.09
N9235 X425.863 Y-26.806 Z10.169
N9240 X425.357 Y-26.037 Z10.232
N9245 X423.578 Y-24.141 Z10.411
N9250 X421.96 Y-22.727 Z10.55
N9255 X419.65 Y-20.816 Z10.709
N9260 X416.272 Y-17.639 Z10.948
N9265 X414.123 Y-15.869 Z11.095
N9270 X411.342 Y-13.885 Z11.244
N9275 X408.451 Y-12.139 Z11.402
N9280 X405.434 Y-10.618 Z11.568
N9285 X402.311 Y-9.332 Z11.733
N9290 X394.61 Y-6.817 Z12.163
N9295 X377.577 Y-1.484 Z13.087
N9300 X361.046 Y3.468 Z13.936
N9305 X343.463 Y8.505 Z14.771
N9310 X331.884 Y11.589 Z15.268
N9315 X320.403 Y14.439 Z15.713
N9320 X309.242 Y16.971 Z16.105
N9325 X301.897 Y18.512 Z16.346
N9330 X289.695 Y20.865 Z16.711
N9335 X277.39 Y22.967 Z17.039
N9340 X268.603 Y24.319 Z17.246
N9345 X256.914 Y25.914 Z17.494
N9350 X246.715 Y27.149 Z17.686
N9355 X233.165 Y28.545 Z17.912
N9360 X220.586 Y29.719 Z18.097
N9365 X205.598 Y30.95 Z18.293
N9370 X191.318 Y31.968 Z18.457
N9375 X175.538 Y32.911 Z18.609
N9380 X162.396 Y33.569 Z18.713
N9385 X146.126 Y34.216 Z18.816
N9390 X136.013 Y34.542 Z18.866
N9395 X115.689 Y35.013 Z18.941
N9400 X94.46 Y35.308 Z18.981
N9405 X68.244 Y35.425 Z18.994
N9410 X38.376 Y35.306 Z18.965
N9415 X5.79 Y34.956 Z18.898
N9420 X-3.226 Y34.936 Z18.889
N9425 X-30.774 Y35.337 Z18.947
N9430 X-59.027 Y35.595 Z18.982
N9435 X-84.667 Y35.633
N9440 X-106.614 Y35.485 Z18.95
N9445 X-128.073 Y35.149 Z18.887
N9450 X-147.799 Y34.599 Z18.79
N9455 X-161.734 Y34.077 Z18.7
N9460 X-176.823 Y33.364 Z18.579
N9465 X-185.388 Y32.89 Z18.5
N9470 X-201.037 Y31.875 Z18.329
N9475 X-215.052 Y30.818 Z18.155
N9480 X-230.446 Y29.484 Z17.932
N9485 X-244.833 Y28.05 Z17.692
N9490 X-257.809 Y26.527 Z17.45
N9495 X-268.157 Y25.133 Z17.229
N9500 X-280.487 Y23.239 Z16.932
N9505 X-291.523 Y21.315 Z16.632
N9510 X-300.879 Y19.525 Z16.349
N9515 X-311.964 Y17.192 Z15.984
N9520 X-321.739 Y14.96 Z15.631
N9525 X-331.465 Y12.547 Z15.254
N9530 X-343.466 Y9.349 Z14.741
N9535 X-355.733 Y5.859 Z14.166
N9540 X-368.652 Y2.057 Z13.517
N9545 X-382.761 Y-2.257 Z12.779
N9550 X-395.832 Y-6.384 Z12.065
N9555 X-401.785 Y-8.32 Z11.732
N9560 X-405.212 Y-9.673 Z11.549
N9565 X-408.521 Y-11.295 Z11.377
N9570 X-411.433 Y-13.007 Z11.227
N9575 X-414.458 Y-15.112 Z11.065
N9580 X-416.487 Y-16.737 Z10.952
N9585 X-418.985 Y-19.029 Z10.777
N9590 X-421.305 Y-21.151 Z10.614
N9595 X-424.035 Y-23.388 Z10.423
N9600 X-425.357 Y-24.671 Z10.303
N9605 X-426.334 Y-25.776 Z10.202
N9610 X-426.983 Y-26.817 Z10.118
N9615 X-427.432 Y-27.959 Z10.039
N9620 X-427.666 Y-29.163 Z9.965
N9625 X-427.677 Y-30.39 Z9.865
N9630 X-427.439 Y-31.721 Z9.766
N9635 X-426.986 Y-33.76 Z9.616
N9640 X-426.869 Y-35.27 Z9.457
N9645 X-426.97 Y-36.786 Z9.291
N9650 X-427.134 Y-37.676 Z9.19
N9655 X-427.614 Y-39.466 Z8.962
N9660 X-428.08 Y-41.878 Z8.633
N9665 X-428.247 Y-43.405 Z8.427
N9670 X-428.376 Y-45.711 Z8.069
N9675 X-428.206 Y-46.287 Z7.983
N9680 X-427.782 Y-46.723 Z7.925
N9685 X-427.2 Y-46.909 Z7.907
N9690 X-425.023 Y-46.805 Z7.966
N9695 X-424.183 Y-46.924 Z7.965
N9700 X-421.258 Y-47.712 Z7.878
N9705 X-417.764 Y-48.684 Z7.764
N9710 X-415.109 Y-49.453 Z7.666
N9715 X-410.681 Y-50.925 Z7.442
N9720 X-407.111 Y-51.841 Z7.306
N9725 X-403.488 Y-52.512 Z7.204
N9730 X-399.52 Y-52.959 Z7.151
N9735 X-395.531 Y-53.112 Z7.16
N9740 X-391.541 Y-52.97 Z7.23
N9745 X-387.404 Y-52.534 Z7.361
N9750 X-357.979 Y-49.084 Z8.36
N9755 X-332.608 Y-46.317 Z9.149
N9760 X-322.564 Y-45.287 Z9.436
N9765 X-307.505 Y-43.86 Z9.833
N9770 X-293.047 Y-42.647 Z10.17
N9775 X-276.465 Y-41.457 Z10.501
N9780 X-263.167 Y-40.637 Z10.729
N9785 X-246.32 Y-39.768 Z10.971
N9790 X-227.938 Y-39.032 Z11.179
N9795 X-202.605 Y-38.215 Z11.412
N9800 X-179.177 Y-37.65 Z11.576
N9805 X-160.536 Y-37.312 Z11.674
N9810 X-138.603 Y-37.027 Z11.757
N9815 X-110.809 Y-36.827 Z11.817
N9820 X-76.679 Y-36.78 Z11.835
N9825 X-39.141 Y-36.899 Z11.805
N9830 X0.614 Y-37.122 Z11.743
N9835 X57.485 Y-36.996 Z11.789
N9840 X85.074 Y-37.033 Z11.781
N9845 X117.882 Y-37.224 Z11.731
N9850 X146.812 Y-37.547 Z11.641
N9855 X176.209 Y-38.108 Z11.485
N9860 X200.973 Y-38.761 Z11.302
N9865 X224.233 Y-39.537 Z11.084
N9870 X241.308 Y-40.233 Z10.889
N9875 X255.276 Y-40.917 Z10.7
N9880 X273.021 Y-41.957 Z10.412
N9885 X286.452 Y-42.904 Z10.151
N9890 X304.062 Y-44.326 Z9.757
N9895 X321.397 Y-45.947 Z9.307
N9900 X336.313 Y-47.49 Z8.875
N9905 X361.799 Y-50.303 Z8.07
N9910 X389.757 Y-53.571 Z7.114
N9915 X393.709 Y-53.944 Z6.997
N9920 X397.394 Y-54.007 Z6.952
N9925 X401.072 Y-53.789 Z6.962
N9930 X404.724 Y-53.291 Z7.029
N9935 X408.327 Y-52.518 Z7.152
N9940 X411.86 Y-51.472 Z7.322
N9945 X415.652 Y-50.12 Z7.531
N9950 X418.02 Y-49.467 Z7.624
N9955 X420.434 Y-49.015 Z7.664
N9960 X422.561 Y-48.782 Z7.671
N9965 X424.596 Y-48.69 Z7.654
N9970 X425.814 Y-48.839 Z7.608
N9975 X427.573 Y-49.261 Z7.506
N9980 X428.336 Y-49.22 Z7.501
N9985 X429.043 Y-48.931 Z7.539
N9990 X429.616 Y-48.425 Z7.618
N9995 X429.99 Y-47.758 Z7.721
N10000 X430.124 Y-46.979 Z7.839
N10005 X430.109 Y-45.316 Z8.095
N10010 X429.893 Y-44.169 Z8.277
N10015 X429.164 Y-41.832 Z8.613
N10020 X428.355 Y-38.728 Z9.041
N10025 X428.078 Y-36.907 Z9.245
N10030 X428.04 Y-35.066 Z9.444
N10035 X428.186 Y-33.562 Z9.589
N10040 X428.669 Y-31.366 Z9.749
N10045 X429.019 Y-29.452 Z9.89
N10050 X429.043 Y-28.571 Z9.934
N10055 X428.87 Y-27.668 Z9.989
N10060 X428.503 Y-26.825 Z10.049
N10065 X427.903 Y-26.023 Z10.118
N10070 X425.94 Y-23.937 Z10.307
N10075 X424.114 Y-22.294 Z10.438
N10080 X421.441 Y-20.09 Z10.625
N10085 X418.138 Y-16.967 Z10.853
N10090 X415.299 Y-14.607 Z11.005
N10095 X412.554 Y-12.638 Z11.144
N10100 X409.405 Y-10.725 Z11.295
N10105 X406.229 Y-9.117 Z11.46
N10110 X402.821 Y-7.713 Z11.64
N10115 X395.793 Y-5.366 Z12.032
N10120 X378.348 Y0.229 Z12.976
N10125 X362.53 Y5.091 Z13.786
N10130 X345.645 Y10.051 Z14.594
N10135 X334.056 Y13.261 Z15.091
N10140 X321.674 Y16.425 Z15.572
N10145 X310.194 Y19.093 Z15.975
N10150 X303.131 Y20.624 Z16.204
N10155 X290.461 Y23.128 Z16.581
N10160 X279.194 Y25.111 Z16.879
N10165 X267.875 Y26.899 Z17.143
N10170 X255.011 Y28.661 Z17.408
N10175 X245.693 Y29.782 Z17.576
N10180 X231.82 Y31.232 Z17.805
N10185 X219.855 Y32.348 Z17.975
N10190 X207.665 Y33.39 Z18.133
N10195 X190.829 Y34.617 Z18.325
N10200 X177.428 Y35.444 Z18.452
N10205 X161.241 Y36.267 Z18.58
N10210 X145.275 Y36.906 Z18.678
N10215 X127.156 Y37.444 Z18.76
N10220 X107.957 Y37.825 Z18.813
N10225 X83.415 Y38.067 Z18.845
N10230 X57.796 Y38.091 Z18.84
N10235 X32.638 Y37.942 Z18.806
N10240 X2.347 Y37.586 Z18.742
N10245 X-7.712 Y37.668 Z18.755
N10250 X-42.732 Y38.151 Z18.814
N10255 X-72.229 Y38.323 Z18.833
N10260 X-94.846 Y38.265 Z18.817
N10265 X-117.145 Y38.021 Z18.769
N10270 X-136.411 Y37.6 Z18.696
N10275 X-154.922 Y37.011 Z18.595
N10280 X-171.396 Y36.279 Z18.475
N10285 X-183.661 Y35.618 Z18.366
N10290 X-200.248 Y34.531 Z18.188
N10295 X-214.896 Y33.408 Z18.008
N10300 X-230.311 Y32.047 Z17.787
N10305 X-244.718 Y30.583 Z17.549
N10310 X-257.098 Y29.106 Z17.323
N10315 X-267.498 Y27.699 Z17.106
N10320 X-279.536 Y25.823 Z16.823
N10325 X-289.097 Y24.158 Z16.571
N10330 X-298.935 Y22.28 Z16.287
N10335 X-308.409 Y20.301 Z15.985
N10340 X-318.14 Y18.083 Z15.652
N10345 X-324.041 Y16.669 Z15.431
N10350 X-334.752 Y13.912 Z15.01
N10355 X-346.351 Y10.691 Z14.512
N10360 X-360.021 Y6.68 Z13.868
N10365 X-374.616 Y2.224 Z13.127
N10370 X-391.041 Y-2.994 Z12.253
N10375 X-402.092 Y-6.637 Z11.636
N10380 X-405.524 Y-7.98 Z11.457
N10385 X-408.848 Y-9.571 Z11.293
N10390 X-412.046 Y-11.403 Z11.135
N10395 X-415.099 Y-13.466 Z10.993
N10400 X-417.943 Y-15.706 Z10.849
N10405 X-420.219 Y-17.767 Z10.73
N10410 X-422.422 Y-19.845 Z10.576
N10415 X-424.793 Y-21.789 Z10.41
N10420 X-426.647 Y-23.401 Z10.277
N10425 X-428.505 Y-25.364 Z10.125
N10430 X-429.199 Y-26.376 Z10.041
N10435 X-429.696 Y-27.497 Z9.961
N10440 X-429.978 Y-28.692 Z9.886
N10445 X-430.035 Y-29.917 Z9.817
N10450 X-429.855 Y-31.183 Z9.721
N10455 X-429.235 Y-33.908 Z9.522
N10460 X-429.108 Y-35.414 Z9.374
N10465 X-429.194 Y-36.946 Z9.207
N10470 X-429.494 Y-38.451 Z9.036
N10475 X-430.005 Y-40.078 Z8.824
N10480 X-430.422 Y-41.807 Z8.586
N10485 X-430.66 Y-43.265 Z8.388
N10490 X-430.85 Y-45.426 Z8.063
N10495 X-430.767 Y-46.265 Z7.936
N10500 X-430.438 Y-47.117 Z7.811
N10505 X-429.881 Y-47.834 Z7.712
N10510 X-429.142 Y-48.362 Z7.637
N10515 X-428.273 Y-48.657 Z7.599
N10520 X-427.44 Y-48.696 Z7.606
N10525 X-425.954 Y-48.605 Z7.646
N10530 X-425.025 Y-48.725 Z7.641
N10535 X-422.497 Y-49.316 Z7.579
N10540 X-419.055 Y-50.214 Z7.468
N10545 X-416.38 Y-50.91 Z7.37
N10550 X-411.527 Y-52.53 Z7.116
N10555 X-407.666 Y-53.548 Z6.944
N10560 X-403.742 Y-54.279 Z6.832
N10565 X-399.774 Y-54.72 Z6.771
N10570 X-395.784 Y-54.869 Z6.77
N10575 X-391.795 Y-54.724 Z6.835
N10580 X-383.811 Y-53.867 Z7.093
N10585 X-359.788 Y-51.216 Z7.878
N10590 X-334.041 Y-48.565 Z8.654
N10595 X-323.082 Y-47.5 Z8.96
N10600 X-306.212 Y-46.001 Z9.39
N10605 X-289.878 Y-44.742 Z9.75
N10610 X-272.992 Y-43.638 Z10.062
N10615 X-255.88 Y-42.698 Z10.326
N10620 X-235.877 Y-41.853 Z10.568
N10625 X-215.044 Y-41.155 Z10.77
N10630 X-185.112 Y-40.391 Z10.994
N10635 X-161.887 Y-39.972 Z11.117
N10640 X-132.671 Y-39.64 Z11.217
N10645 X-99.056 Y-39.462 Z11.272
N10650 X-57.563 Y-39.505 Z11.265
N10655 X-14.987 Y-39.702 Z11.21
N10660 X7.271 Y-39.776 Z11.187
N10665 X49.94 Y-39.676 Z11.228
N10670 X91.215 Y-39.74 Z11.215
N10675 X123.179 Y-39.941 Z11.161
N10680 X153.14 Y-40.296 Z11.06
N10685 X182.931 Y-40.884 Z10.895
N10690 X197.014 Y-41.239 Z10.794
N10695 X223.447 Y-42.05 Z10.561
N10700 X244.334 Y-42.868 Z10.328
N10705 X260.808 Y-43.666 Z10.1
N10710 X270.277 Y-44.201 Z9.948
N10715 X285.947 Y-45.221 Z9.658
N10720 X302.076 Y-46.428 Z9.313
N10725 X315.448 Y-47.575 Z8.985
N10730 X335.156 Y-49.444 Z8.447
N10735 X363.54 Y-52.396 Z7.582
N10740 X391.21 Y-55.442 Z6.677
N10745 X394.888 Y-55.681 Z6.593
N10750 X398.573 Y-55.655 Z6.568
N10755 X402.247 Y-55.364 Z6.604
N10760 X405.89 Y-54.811 Z6.7
N10765 X409.484 Y-53.997 Z6.832
N10770 X412.774 Y-53.013 Z7.002
N10775 X415.838 Y-51.977 Z7.174
N10780 X418.228 Y-51.409 Z7.251
N10785 X420.662 Y-51.079 Z7.282
N10790 X422.628 Y-50.988 Z7.273
N10795 X424.607 Y-50.982 Z7.247
N10800 X425.819 Y-51.171 Z7.195
N10805 X427.299 Y-51.536 Z7.105
N10810 X428.218 Y-51.574 Z7.085
N10815 X429.29 Y-51.386 Z7.107
N10820 X430.137 Y-51.028 Z7.157
N10825 X430.886 Y-50.495 Z7.237
N10830 X431.503 Y-49.812 Z7.345
N10835 X431.956 Y-49.012 Z7.477
N10840 X432.223 Y-48.144 Z7.616
N10845 X432.335 Y-47.091 Z7.776
N10850 X432.425 Y-45.689 Z7.991
N10855 X432.318 Y-44.489 Z8.178
N10860 X431.982 Y-43.231 Z8.359
N10865 X430.708 Y-39.151 Z8.924
N10870 X430.34 Y-37.347 Z9.13
N10875 X430.24 Y-35.509 Z9.33
N10880 X430.362 Y-33.979 Z9.475
N10885 X430.943 Y-31.177 Z9.68
N10890 X431.232 Y-29.047 Z9.81
N10895 X431.315 Y-27.686 Z9.876
N10900 X431.141 Y-26.785 Z9.931
N10905 X430.699 Y-25.981 Z9.994
N10910 X429.49 Y-24.789 Z10.094
N10915 X427.156 Y-22.498 Z10.265
N10920 X425.407 Y-21.131 Z10.387
N10925 X423.425 Y-19.538 Z10.526
N10930 X421.734 Y-17.969 Z10.635
N10935 X419.774 Y-16.092 Z10.737
N10940 X417.252 Y-13.958 Z10.856
N10945 X414.404 Y-11.843 Z10.985
N10950 X411.294 Y-9.865 Z11.12
N10955 X407.928 Y-8.066 Z11.275
N10960 X404.558 Y-6.575 Z11.445
N10965 X400.151 Y-5.009 Z11.684
N10970 X386.924 Y-0.615 Z12.408
N10975 X374.056 Y3.541 Z13.085
N10980 X360.09 Y7.891 Z13.789
N10985 X346.656 Y11.919 Z14.417
N10990 X335.515 Y15.087 Z14.893
N10995 X325.338 Y17.779 Z15.293
N11000 X318.762 Y19.41 Z15.54
N11005 X307.954 Y21.934 Z15.906
N11010 X301.957 Y23.228 Z16.096
N11015 X290.299 Y25.568 Z16.437
N11020 X278.272 Y27.711 Z16.748
N11025 X267.959 Y29.354 Z16.981
N11030 X257.506 Y30.833 Z17.194
N11035 X246.936 Y32.159 Z17.388
N11040 X232.881 Y33.672 Z17.616
N11045 X221.558 Y34.772 Z17.775
N11050 X208.203 Y35.94 Z17.948
N11055 X191.26 Y37.206 Z18.139
N11060 X178.147 Y38.038 Z18.263
N11065 X161.935 Y38.885 Z18.389
N11070 X146.267 Y39.532 Z18.486
N11075 X127.205 Y40.126 Z18.571
N11080 X107.322 Y40.511 Z18.624
N11085 X83.735 Y40.748 Z18.654
N11090 X59.018 Y40.776 Z18.648
N11095 X35.463 Y40.642 Z18.619
N11100 X3.585 Y40.266 Z18.545
N11105 X-5.407 Y40.305 Z18.55
N11110 X-41.483 Y40.815 Z18.617
N11115 X-67.615 Y40.988 Z18.637
N11120 X-89.944 Y40.979 Z18.625
N11125 X-114.033 Y40.742 Z18.581
N11130 X-132.471 Y40.369 Z18.514
N11135 X-149.771 Y39.843 Z18.426
N11140 X-162.511 Y39.333 Z18.343
N11145 X-176.1 Y38.662 Z18.235
N11150 X-190.221 Y37.821 Z18.101
N11155 X-203.761 Y36.87 Z17.95
N11160 X-215.978 Y35.892 Z17.8
N11165 X-230.502 Y34.578 Z17.593
N11170 X-244.931 Y33.08 Z17.357
N11175 X-258.04 Y31.49 Z17.119
N11180 X-267.667 Y30.135 Z16.922
N11185 X-278.707 Y28.407 Z16.668
N11190 X-288.827 Y26.61 Z16.407
N11195 X-297.182 Y25.002 Z16.172
N11200 X-306.985 Y22.958 Z15.871
N11205 X-316.407 Y20.795 Z15.558
N11210 X-323.293 Y19.14 Z15.308
N11215 X-334.905 Y16.093 Z14.861
N11220 X-346.223 Y12.888 Z14.383
N11225 X-361.066 Y8.434 Z13.688
N11230 X-374.892 Y4.112 Z12.992
N11235 X-389.199 Y-0.536 Z12.237
N11240 X-402.688 Y-5.058 Z11.492
N11245 X-406.399 Y-6.529 Z11.301
N11250 X-409.996 Y-8.261 Z11.124
N11255 X-413.304 Y-10.157 Z10.98
N11260 X-416.489 Y-12.362 Z10.854
N11265 X-419.589 Y-14.831 Z10.719
N11270 X-421.812 Y-16.856 Z10.616
N11275 X-423.143 Y-18.122 Z10.545
N11280 X-424.607 Y-19.351 Z10.463
N11285 X-427.323 Y-21.348 Z10.276
N11290 X-428.783 Y-22.666 Z10.171
N11295 X-431.323 Y-25.061 Z9.985
N11300 X-431.949 Y-25.932 Z9.933
N11305 X-432.243 Y-26.64 Z9.887
N11310 X-432.413 Y-27.544 Z9.832
N11315 X-432.313 Y-29.451 Z9.738
N11320 X-432.052 Y-31.275 Z9.63
N11325 X-431.532 Y-33.587 Z9.462
N11330 X-431.36 Y-35.112 Z9.338
N11335 X-431.409 Y-36.62 Z9.175
N11340 X-431.68 Y-38.13 Z9.004
N11345 X-432.199 Y-39.753 Z8.811
N11350 X-432.663 Y-41.476 Z8.573
N11355 X-432.967 Y-43.107 Z8.35
N11360 X-433.159 Y-45.018 Z8.079
N11365 X-433.149 Y-45.892 Z7.945
N11370 X-432.971 Y-46.942 Z7.786
N11375 X-432.517 Y-48.077 Z7.621
N11380 X-431.853 Y-49.038 Z7.474
N11385 X-430.948 Y-49.866 Z7.345
N11390 X-429.879 Y-50.465 Z7.259
N11395 X-428.701 Y-50.804 Z7.219
N11400 X-427.467 Y-50.873 Z7.227
N11405 X-425.653 Y-50.908 Z7.247
N11410 X-422.917 Y-51.396 Z7.191
N11415 X-419.676 Y-52.141 Z7.092
N11420 X-417.305 Y-52.627 Z7.03
N11425 X-414.869 Y-53.323 Z6.915
N11430 X-410.487 Y-54.66 Z6.683
N11435 X-406.595 Y-55.552 Z6.526
N11440 X-402.651 Y-56.169 Z6.418
N11445 X-398.673 Y-56.507 Z6.374
N11450 X-394.681 Y-56.565 Z6.394
N11455 X-390.695 Y-56.343 Z6.477
N11460 X-358.535 Y-53.013 Z7.479
N11465 X-330.398 Y-50.315 Z8.279
N11470 X-316.383 Y-49.078 Z8.639
N11475 X-299.585 Y-47.759 Z9.022
N11480 X-282.914 Y-46.628 Z9.35
N11485 X-265.748 Y-45.648 Z9.635
N11490 X-248.173 Y-44.838 Z9.871
N11495 X-229.717 Y-44.166 Z10.069
N11500 X-209.196 Y-43.567 Z10.247
N11505 X-184.436 Y-42.991 Z10.419
N11510 X-159.206 Y-42.579 Z10.544
N11515 X-132.105 Y-42.307 Z10.627
N11520 X-100.655 Y-42.16 Z10.674
N11525 X-61.15 Y-42.168 Z10.675
N11530 X-5.332 Y-42.427 Z10.61
N11535 X19.558 Y-42.418
N11540 X65.492 Y-42.364 Z10.631
N11545 X103.591 Y-42.47 Z10.603
N11550 X136.617 Y-42.738 Z10.527
N11555 X166.717 Y-43.175 Z10.4
N11560 X195.04 Y-43.778 Z10.224
N11565 X223.382 Y-44.591 Z9.986
N11570 X245.185 Y-45.396 Z9.752
N11575 X262.569 Y-46.196 Z9.521
N11580 X272.637 Y-46.749 Z9.361
N11585 X290.619 Y-47.871 Z9.037
N11590 X306.566 Y-49.032 Z8.7
N11595 X326.157 Y-50.705 Z8.215
N11600 X351.846 Y-53.121 Z7.502
N11605 X375.443 Y-55.497 Z6.787
N11610 X392.136 Y-57.218 Z6.26
N11615 X396.125 Y-57.383 Z6.194
N11620 X400.115 Y-57.255 Z6.192
N11625 X404.086 Y-56.836 Z6.255
N11630 X408.015 Y-56.128 Z6.383
N11635 X411.881 Y-55.134 Z6.569
N11640 X415.386 Y-54.037 Z6.761
N11645 X417.781 Y-53.491 Z6.849
N11650 X420.218 Y-53.187 Z6.885
N11655 X422.286 Y-53.119 Z6.871
N11660 X424.616 Y-53.163 Z6.83
N11665 X425.828 Y-53.362 Z6.776
N11670 X427.168 Y-53.659 Z6.701
N11675 X428.394 Y-53.712 Z6.674
N11680 X429.309 Y-53.61 Z6.681
N11685 X430.329 Y-53.342 Z6.719
N11690 X431.439 Y-52.82 Z6.803
N11695 X432.423 Y-52.088 Z6.929
N11700 X433.245 Y-51.177 Z7.079
N11705 X433.869 Y-50.123 Z7.251
N11710 X434.269 Y-48.986 Z7.442
N11715 X434.413 Y-48.152 Z7.57
N11720 X434.596 Y-46.237 Z7.862
N11725 X434.539 Y-44.731 Z8.095
N11730 X434.231 Y-43.233 Z8.302
N11735 X432.93 Y-39.047 Z8.867
N11740 X432.562 Y-37.243 Z9.072
N11745 X432.467 Y-35.404 Z9.273
N11750 X432.599 Y-33.875 Z9.398
N11755 X433.029 Y-31.918 Z9.541
N11760 X433.361 Y-30.106 Z9.655
N11765 X433.527 Y-28.091 Z9.752
N11770 X433.408 Y-26.87 Z9.821
N11775 X433.143 Y-25.989 Z9.863
N11780 X432.568 Y-24.906 Z9.916
N11785 X431.768 Y-23.977 Z9.979
N11790 X428.623 Y-21.088 Z10.208
N11795 X426.931 Y-19.763 Z10.316
N11800 X424.828 Y-18.27 Z10.436
N11805 X422.902 Y-16.618 Z10.542
N11810 X420.256 Y-14.188 Z10.649
N11815 X417.886 Y-12.27 Z10.741
N11820 X414.63 Y-9.961 Z10.863
N11825 X411.481 Y-8.045 Z10.989
N11830 X407.933 Y-6.216 Z11.14
N11835 X404.26 Y-4.652 Z11.321
N11840 X395.756 Y-1.68 Z11.783
N11845 X379.118 Y3.895 Z12.669
N11850 X364.004 Y8.762 Z13.429
N11855 X348.378 Y13.58 Z14.167
N11860 X337.68 Y16.704 Z14.622
N11865 X329.862 Y18.85 Z14.937
N11870 X320.784 Y21.217 Z15.273
N11875 X309.149 Y24.013 Z15.663
N11880 X298.025 Y26.428 Z16.005
N11885 X287.805 Y28.442 Z16.288
N11890 X277.524 Y30.29 Z16.547
N11895 X265.97 Y32.13 Z16.802
N11900 X255.662 Y33.587 Z17.007
N11905 X242.411 Y35.214 Z17.231
N11910 X226.129 Y36.928 Z17.481
N11915 X209.368 Y38.441 Z17.702
N11920 X191.779 Y39.788 Z17.9
N11925 X178.941 Y40.626 Z18.02
N11930 X162.391 Y41.513 Z18.149
N11935 X147.001 Y42.166 Z18.243
N11940 X128.832 Y42.752 Z18.326
N11945 X109.517 Y43.16 Z18.379
N11950 X85.91 Y43.416 Z18.413
N11955 X61.463 Y43.465 Z18.407
N11960 X40.658 Y43.359 Z18.384
N11965 X11.047 Y43.039 Z18.316
N11970 X-0.755 Y42.927 Z18.286
N11975 X-19.825 Y43.205 Z18.338
N11980 X-45.318 Y43.532 Z18.373
N11985 X-72.778 Y43.688 Z18.386
N11990 X-92.734 Y43.639 Z18.371
N11995 X-116.023 Y43.39 Z18.323
N12000 X-135.02 Y42.966 Z18.253
N12005 X-152.351 Y42.405 Z18.162
N12010 X-166.043 Y41.818 Z18.068
N12015 X-182.474 Y40.942 Z17.93
N12020 X-199.733 Y39.772 Z17.754
N12025 X-214.417 Y38.608 Z17.578
N12030 X-230.217 Y37.159 Z17.356
N12035 X-244.986 Y35.598 Z17.118
N12040 X-255.896 Y34.262 Z16.929
N12045 X-265.477 Y32.937 Z16.738
N12050 X-275.509 Y31.377 Z16.519
N12055 X-286.225 Y29.514 Z16.258
N12060 X-295.366 Y27.755 Z16.01
N12065 X-303.698 Y26.016 Z15.764
N12070 X-313.203 Y23.882 Z15.461
N12075 X-323.921 Y21.262 Z15.08
N12080 X-335.337 Y18.203 Z14.643
N12085 X-347.28 Y14.743 Z14.141
N12090 X-361.527 Y10.363 Z13.48
N12095 X-373.293 Y6.615 Z12.894
N12100 X-385.258 Y2.675 Z12.273
N12105 X-399.695 Y-2.221 Z11.494
N12110 X-404.762 Y-4.035 Z11.222
N12115 X-408.43 Y-5.612 Z11.042
N12120 X-411.985 Y-7.427 Z10.889
N12125 X-414.597 Y-8.977 Z10.796
N12130 X-416.994 Y-10.614 Z10.711
N12135 X-419.846 Y-12.786 Z10.614
N12140 X-422.319 Y-14.899 Z10.526
N12145 X-424.464 Y-16.826 Z10.435
N12150 X-426.475 Y-18.319 Z10.328
N12155 X-428.526 Y-19.742 Z10.21
N12160 X-430.232 Y-21.257 Z10.116
N12165 X-432.871 Y-23.586 Z9.922
N12170 X-433.632 Y-24.548 Z9.861
N12175 X-434.188 Y-25.641 Z9.809
N12180 X-434.517 Y-26.823 Z9.769
N12185 X-434.609 Y-27.998 Z9.706
N12190 X-434.413 Y-30.372 Z9.592
N12195 X-434.2 Y-31.581 Z9.523
N12200 X-433.735 Y-33.573 Z9.379
N12205 X-433.565 Y-35.098 Z9.262
N12210 X-433.615 Y-36.603 Z9.108
N12215 X-433.887 Y-38.113 Z8.937
N12220 X-434.57 Y-40.29 Z8.681
N12225 X-435.015 Y-42.183 Z8.42
N12230 X-435.226 Y-43.663 Z8.22
N12235 X-435.343 Y-45.102 Z8.021
N12240 X-435.301 Y-46.246 Z7.846
N12245 X-435.074 Y-47.499 Z7.657
N12250 X-434.555 Y-48.871 Z7.456
N12255 X-433.776 Y-50.117 Z7.254
N12260 X-432.949 Y-51.024 Z7.11
N12265 X-431.985 Y-51.784 Z6.993
N12270 X-430.909 Y-52.375 Z6.895
N12275 X-429.752 Y-52.782 Z6.833
N12280 X-428.543 Y-52.995 Z6.809
N12285 X-425.605 Y-53.116 Z6.826
N12290 X-422.514 Y-53.608 Z6.773
N12295 X-419.641 Y-54.184 Z6.684
N12300 X-417.326 Y-54.596 Z6.623
N12305 X-415.127 Y-55.154 Z6.53
N12310 X-410.911 Y-56.377 Z6.302
N12315 X-407.015 Y-57.248 Z6.137
N12320 X-402.878 Y-57.88 Z6.028
N12325 X-398.785 Y-58.216 Z5.971
N12330 X-394.793 Y-58.272 Z5.983
N12335 X-390.806 Y-58.06 Z6.061
N12340 X-366.239 Y-55.675 Z6.797
N12345 X-339.587 Y-53.227 Z7.547
N12350 X-318.282 Y-51.426 Z8.09
N12355 X-300.81 Y-50.129 Z8.478
N12360 X-283.995 Y-49.057 Z8.795
N12365 X-265.272 Y-48.047 Z9.091
N12370 X-249.355 Y-47.367 Z9.293
N12375 X-229.303 Y-46.692 Z9.496
N12380 X-203.589 Y-46.011 Z9.702
N12385 X-178.466 Y-45.508 Z9.856
N12390 X-153.391 Y-45.16 Z9.963
N12395 X-124.821 Y-44.928 Z10.036
N12400 X-92.924 Y-44.831 Z10.069
N12405 X-48.471 Y-44.889 Z10.056
N12410 X3.939 Y-45.128 Z9.98
N12415 X57.933 Y-45.04 Z10.023
N12420 X98.892 Y-45.128 Z10.001
N12425 X134.467 Y-45.374 Z9.929
N12430 X166.103 Y-45.802 Z9.804
N12435 X182.626 Y-46.105 Z9.715
N12440 X212.66 Y-46.825 Z9.501
N12445 X241.383 Y-47.729 Z9.232
N12450 X261.249 Y-48.575 Z8.982
N12455 X273.146 Y-49.172 Z8.803
N12460 X290.631 Y-50.202 Z8.496
N12465 X301.903 Y-50.957 Z8.27
N12470 X313.187 Y-51.792 Z8.021
N12475 X327.467 Y-52.945 Z7.675
N12480 X355.382 Y-55.413 Z6.924
N12485 X383.654 Y-58.101 Z6.095
N12490 X392.172 Y-58.911 Z5.842
N12495 X396.161 Y-59.064 Z5.779
N12500 X400.152 Y-58.943 Z5.783
N12505 X404.125 Y-58.549 Z5.855
N12510 X408.061 Y-57.884 Z5.984
N12515 X412.078 Y-56.913 Z6.17
N12520 X415.176 Y-56.014 Z6.348
N12525 X417.58 Y-55.507 Z6.43
N12530 X420.02 Y-55.228 Z6.462
N12535 X422.523 Y-55.178 Z6.445
N12540 X424.621 Y-55.234 Z6.41
N12545 X426.059 Y-55.463 Z6.346
N12550 X427.576 Y-55.691 Z6.282
N12555 X429.11 Y-55.666 Z6.27
N12560 X430.552 Y-55.403 Z6.308
N12565 X431.986 Y-54.861 Z6.405
N12570 X433.292 Y-54.057 Z6.54
N12575 X434.397 Y-53.051 Z6.717
N12580 X435.316 Y-51.83 Z6.93
N12585 X435.987 Y-50.464 Z7.156
N12590 X436.387 Y-49.018 Z7.396
N12595 X436.534 Y-47.785 Z7.583
N12600 X436.65 Y-46.44 Z7.788
N12605 X436.644 Y-45.294 Z7.965
N12610 X436.458 Y-43.782 Z8.173
N12615 X435.871 Y-41.603 Z8.475
N12620 X435.009 Y-38.627 Z8.847
N12625 X434.706 Y-36.811 Z9.052
N12630 X434.659 Y-35.277 Z9.206
N12635 X434.852 Y-33.445 Z9.347
N12640 X435.358 Y-31.206 Z9.504
N12645 X435.58 Y-29.687 Z9.573
N12650 X435.691 Y-27.845 Z9.663
N12655 X435.585 Y-26.666 Z9.71
N12660 X435.276 Y-25.479 Z9.749
N12665 X434.771 Y-24.36 Z9.798
N12670 X434.085 Y-23.342 Z9.856
N12675 X433.238 Y-22.455 Z9.921
N12680 X430.286 Y-19.902 Z10.096
N12685 X428.63 Y-18.533 Z10.187
N12690 X425.966 Y-16.741 Z10.321
N12695 X423.993 Y-15.165 Z10.411
N12700 X421.051 Y-12.566 Z10.503
N12705 X418.396 Y-10.497 Z10.585
N12710 X415.101 Y-8.242 Z10.684
N12715 X411.66 Y-6.218 Z10.81
N12720 X408.089 Y-4.434 Z10.954
N12725 X404.403 Y-2.898 Z11.131
N12730 X393.713 Y0.872 Z11.71
N12735 X378.029 Y6.223 Z12.529
N12740 X364.463 Y10.683 Z13.199
N12745 X349.438 Y15.424 Z13.901
N12750 X339.612 Y18.369 Z14.313
N12755 X332.028 Y20.522 Z14.623
N12760 X322.368 Y23.12 Z14.968
N12765 X310.394 Y26.075 Z15.366
N12770 X299.555 Y28.49 Z15.696
N12775 X289.885 Y30.467 Z15.96
N12780 X278.65 Y32.551 Z16.238
N12785 X267.052 Y34.446 Z16.492
N12790 X257.452 Y35.845 Z16.679
N12795 X247.367 Y37.154 Z16.858
N12800 X233.853 Y38.671 Z17.069
N12805 X223.375 Y39.746 Z17.213
N12810 X209.627 Y41.012 Z17.388
N12815 X192.308 Y42.369 Z17.579
N12820 X179.437 Y43.229 Z17.698
N12825 X163.161 Y44.125 Z17.822
N12830 X148.047 Y44.788 Z17.914
N12835 X130.77 Y45.366 Z17.992
N12840 X111.099 Y45.817 Z18.048
N12845 X87.471 Y46.087 Z18.083
N12850 X63.294 Y46.153 Z18.08
N12855 X43.394 Y46.06 Z18.059
N12860 X13.45 Y45.744 Z18.006
N12865 X0.457 Y45.593 Z17.974
N12870 X-11.822 Y45.751 Z18.
N12875 X-43.447 Y46.196 Z18.043
N12880 X-72.765 Y46.37 Z18.058
N12885 X-92.452 Y46.322 Z18.044
N12890 X-115.24 Y46.078 Z17.998
N12895 X-134.499 Y45.645 Z17.929
N12900 X-151.248 Y45.099 Z17.843
N12905 X-161.596 Y44.664 Z17.776
N12910 X-173.719 Y44.058 Z17.685
N12915 X-187.908 Y43.204 Z17.558
N12920 X-201.524 Y42.235 Z17.414
N12925 X-214.997 Y41.136 Z17.255
N12930 X-230.543 Y39.679 Z17.04
N12935 X-245.346 Y38.08 Z16.804
N12940 X-255.393 Y36.828 Z16.632
N12945 X-265.916 Y35.349 Z16.426
N12950 X-274.6 Y33.981 Z16.239
N12955 X-281.022 Y32.879 Z16.089
N12960 X-290.258 Y31.159 Z15.857
N12965 X-301.024 Y28.97 Z15.555
N12970 X-311.423 Y26.626 Z15.237
N12975 X-322.53 Y23.899 Z14.861
N12980 X-327.276 Y22.633 Z14.691
N12985 X-336.392 Y20.128 Z14.342
N12990 X-345.399 Y17.491 Z13.975
N12995 X-358.477 Y13.414 Z13.391
N13000 X-370.537 Y9.536 Z12.799
N13005 X-384.334 Y4.931 Z12.099
N13010 X-399.391 Y-0.289 Z11.3
N13015 X-405.681 Y-2.589 Z10.969
N13020 X-409.616 Y-4.321 Z10.786
N13025 X-413.43 Y-6.305 Z10.645
N13030 X-415.814 Y-7.746 Z10.575
N13035 X-419.488 Y-10.31 Z10.469
N13040 X-421.959 Y-12.241 Z10.41
N13045 X-424.371 Y-14.348 Z10.338
N13050 X-426.345 Y-15.894 Z10.262
N13055 X-429.206 Y-17.783 Z10.118
N13060 X-430.757 Y-19.045 Z10.047
N13065 X-433.341 Y-21.239 Z9.904
N13070 X-434.475 Y-22.248 Z9.838
N13075 X-435.248 Y-23.202 Z9.791
N13080 X-436.003 Y-24.537 Z9.723
N13085 X-436.498 Y-25.988 Z9.669
N13090 X-436.718 Y-27.506 Z9.629
N13095 X-436.647 Y-29.498 Z9.533
N13100 X-436.337 Y-31.625 Z9.437
N13105 X-435.847 Y-33.88 Z9.274
N13110 X-435.726 Y-35.41 Z9.155
N13115 X-435.82 Y-36.926 Z9.005
N13120 X-436.124 Y-38.414 Z8.835
N13125 X-436.751 Y-40.525 Z8.589
N13130 X-437.088 Y-42.121 Z8.376
N13135 X-437.37 Y-44.69 Z8.031
N13140 X-437.386 Y-45.554 Z7.91
N13145 X-437.306 Y-46.706 Z7.734
N13150 X-437.129 Y-48.012 Z7.536
N13155 X-436.838 Y-49.13 Z7.369
N13160 X-436.402 Y-50.2 Z7.195
N13165 X-435.617 Y-51.506 Z6.981
N13170 X-434.652 Y-52.623 Z6.795
N13175 X-433.471 Y-53.589 Z6.627
N13180 X-432.14 Y-54.335 Z6.503
N13185 X-430.692 Y-54.84 Z6.424
N13190 X-429.177 Y-55.083 Z6.391
N13195 X-425.889 Y-55.214 Z6.4
N13200 X-422.623 Y-55.66 Z6.343
N13205 X-419.627 Y-56.195 Z6.264
N13210 X-417.33 Y-56.557 Z6.206
N13215 X-415.11 Y-57.072 Z6.108
N13220 X-410.513 Y-58.3 Z5.869
N13225 X-406.297 Y-59.141 Z5.695
N13230 X-402.033 Y-59.695 Z5.586
N13235 X-397.742 Y-59.958 Z5.549
N13240 X-393.442 Y-59.929 Z5.583
N13245 X-388.62 Y-59.569 Z5.702
N13250 X-354.595 Y-56.536 Z6.652
N13255 X-327.383 Y-54.303 Z7.34
N13260 X-311.652 Y-53.137 Z7.695
N13265 X-291.612 Y-51.836 Z8.09
N13270 X-272.51 Y-50.828 Z8.397
N13275 X-255.591 Y-50.091 Z8.621
N13280 X-244.279 Y-49.675 Z8.748
N13285 X-220.073 Y-48.976 Z8.964
N13290 X-196.72 Y-48.453 Z9.127
N13295 X-172.323 Y-48.048 Z9.255
N13300 X-150.933 Y-47.79 Z9.336
N13305 X-119.807 Y-47.574 Z9.405
N13310 X-80.446 Y-47.503 Z9.43
N13315 X-37.499 Y-47.618 Z9.399
N13320 X4.4 Y-47.793 Z9.358
N13325 X64.665 Y-47.724 Z9.376
N13330 X103.196 Y-47.827 Z9.348
N13335 X140.184 Y-48.091 Z9.268
N13340 X171.838 Y-48.528 Z9.137
N13345 X200.801 Y-49.109 Z8.96
N13350 X224.518 Y-49.71 Z8.775
N13355 X243.224 Y-50.299 Z8.596
N13360 X262.784 Y-51.084 Z8.359
N13365 X274.374 Y-51.633 Z8.193
N13370 X292.473 Y-52.634 Z7.89
N13375 X305.583 Y-53.469 Z7.637
N13380 X321.461 Y-54.601 Z7.294
N13385 X348.363 Y-56.769 Z6.628
N13390 X378.945 Y-59.425 Z5.795
N13395 X392.214 Y-60.604 Z5.418
N13400 X396.204 Y-60.745 Z5.361
N13405 X400.194 Y-60.631 Z5.367
N13410 X404.17 Y-60.262 Z5.432
N13415 X408.114 Y-59.641 Z5.56
N13420 X412.222 Y-58.714 Z5.76
N13425 X415.322 Y-57.893 Z5.92
N13430 X417.737 Y-57.443 Z6.001
N13435 X420.181 Y-57.202 Z6.034
N13440 X422.752 Y-57.168 Z6.02
N13445 X424.579 Y-57.209 Z5.994
N13450 X426.078 Y-57.421 Z5.932
N13455 X427.598 Y-57.634 Z5.87
N13460 X429.132 Y-57.626 Z5.858
N13465 X430.712 Y-57.393 Z5.891
N13470 X432.181 Y-56.95 Z5.967
N13475 X433.563 Y-56.285 Z6.089
N13480 X434.827 Y-55.415 Z6.256
N13485 X435.941 Y-54.36 Z6.445
N13490 X436.877 Y-53.15 Z6.663
N13495 X437.451 Y-52.154 Z6.838
N13500 X438.023 Y-50.755 Z7.071
N13505 X438.375 Y-49.294 Z7.313
N13510 X438.518 Y-47.956 Z7.516
N13515 X438.631 Y-46.29 Z7.77
N13520 X438.575 Y-44.772 Z7.989
N13525 X438.281 Y-42.954 Z8.236
N13530 X437.193 Y-38.847 Z8.756
N13535 X436.872 Y-37.033 Z8.961
N13540 X436.802 Y-35.5 Z9.106
N13545 X436.957 Y-33.665 Z9.249
N13550 X437.431 Y-31.442 Z9.395
N13555 X437.69 Y-29.618 Z9.478
N13560 X437.775 Y-28.068 Z9.554
N13565 X437.635 Y-26.139 Z9.6
N13570 X437.413 Y-24.932 Z9.635
N13575 X436.992 Y-23.779 Z9.68
N13580 X436.386 Y-22.712 Z9.713
N13585 X435.611 Y-21.761 Z9.754
N13590 X434.76 Y-21.006 Z9.803
N13595 X432.46 Y-19.183 Z9.921
N13600 X430.073 Y-17.167 Z10.031
N13605 X428.813 Y-16.29 Z10.087
N13610 X426.84 Y-15.025 Z10.174
N13615 X424.891 Y-13.53 Z10.245
N13620 X422.918 Y-11.818 Z10.29
N13625 X420.139 Y-9.632 Z10.349
N13630 X416.863 Y-7.349 Z10.42
N13635 X413.181 Y-5.13 Z10.526
N13640 X409.633 Y-3.299 Z10.659
N13645 X405.976 Y-1.697 Z10.831
N13650 X398.092 Y1.193 Z11.245
N13655 X381.767 Y6.941 Z12.093
N13660 X366.384 Y12.135 Z12.85
N13665 X350.498 Y17.264 Z13.59
N13670 X341.245 Y20.108 Z13.977
N13675 X331.897 Y22.818 Z14.351
N13680 X322.764 Y25.318 Z14.666
N13685 X311.039 Y28.272 Z15.047
N13690 X300.184 Y30.743 Z15.369
N13695 X291.057 Y32.656 Z15.614
N13700 X279.776 Y34.807 Z15.885
N13705 X268.436 Y36.71 Z16.131
N13710 X260.328 Y37.935 Z16.287
N13715 X250.088 Y39.342 Z16.465
N13720 X238.777 Y40.684 Z16.641
N13725 X225.82 Y42.084 Z16.825
N13730 X209.579 Y43.607 Z17.029
N13735 X192.837 Y44.948 Z17.21
N13740 X177.479 Y45.975 Z17.347
N13745 X162.704 Y46.795 Z17.455
N13750 X148.479 Y47.431 Z17.538
N13755 X131.787 Y48.007 Z17.612
N13760 X111.759 Y48.486 Z17.669
N13765 X88.418 Y48.763 Z17.702
N13770 X64.203 Y48.838 Z17.699
N13775 X44.903 Y48.752 Z17.679
N13780 X15.238 Y48.443 Z17.624
N13785 X0.747 Y48.261 Z17.597
N13790 X-11.498 Y48.417 Z17.613
N13795 X-43.113 Y48.872 Z17.655
N13800 X-72.826 Y49.054 Z17.668
N13805 X-90.635 Y49.015 Z17.656
N13810 X-114.636 Y48.763 Z17.61
N13815 X-133.364 Y48.343 Z17.544
N13820 X-149.838 Y47.806 Z17.462
N13825 X-159.298 Y47.418 Z17.404
N13830 X-172.068 Y46.788 Z17.312
N13835 X-187.212 Y45.87 Z17.18
N13840 X-201.171 Y44.864 Z17.035
N13845 X-214.965 Y43.72 Z16.876
N13850 X-230.564 Y42.231 Z16.663
N13855 X-246.012 Y40.527 Z16.422
N13860 X-258.701 Y38.888 Z16.2
N13865 X-269.693 Y37.235 Z15.989
N13870 X-279.34 Y35.627 Z15.776
N13875 X-287.918 Y34.04 Z15.569
N13880 X-299.287 Y31.717 Z15.27
N13885 X-309.378 Y29.458 Z14.97
N13890 X-315.618 Y27.946 Z14.776
N13895 X-325.623 Y25.386 Z14.43
N13900 X-336.499 Y22.347 Z14.03
N13905 X-345.886 Y19.524 Z13.66
N13910 X-355.734 Y16.418 Z13.231
N13915 X-369.252 Y12.011 Z12.586
N13920 X-384.496 Y6.82 Z11.827
N13925 X-400.113 Y1.284 Z11.009
N13930 X-406.294 Y-1.016 Z10.69
N13935 X-410.227 Y-2.754 Z10.517
N13940 X-414.038 Y-4.744 Z10.393
N13945 X-417.712 Y-6.977 Z10.287
N13950 X-420.987 Y-9.26 Z10.227
N13955 X-423.305 Y-11.054 Z10.185
N13960 X-425.679 Y-13.053 Z10.141
N13965 X-427.669 Y-14.494 Z10.072
N13970 X-430.34 Y-16.215 Z9.955
N13975 X-431.718 Y-17.317 Z9.903
N13980 X-434.11 Y-19.274 Z9.797
N13985 X-436.119 Y-20.796 Z9.696
N13990 X-436.963 Y-21.687 Z9.661
N13995 X-437.655 Y-22.701 Z9.626
N14000 X-438.18 Y-23.81 Z9.604
N14005 X-438.524 Y-24.988 Z9.569
N14010 X-438.712 Y-26.57 Z9.53
N14015 X-438.784 Y-28.247 Z9.496
N14020 X-438.626 Y-30.392 Z9.393
N14025 X-438.329 Y-32.119 Z9.318
N14030 X-437.934 Y-34.205 Z9.168
N14035 X-437.863 Y-35.738 Z9.046
N14040 X-437.989 Y-37.237 Z8.904
N14045 X-438.234 Y-38.44 Z8.767
N14050 X-438.79 Y-40.485 Z8.53
N14055 X-439.149 Y-42.405 Z8.286
N14060 X-439.339 Y-44.304 Z8.031
N14065 X-439.359 Y-46.146 Z7.777
N14070 X-439.024 Y-49.6 Z7.252
N14075 X-438.849 Y-50.574 Z7.088
N14080 X-438.488 Y-51.717 Z6.896
N14085 X-437.995 Y-52.752 Z6.723
N14090 X-437.37 Y-53.709 Z6.549
N14095 X-436.342 Y-54.842 Z6.347
N14100 X-435.187 Y-55.734 Z6.185
N14105 X-433.827 Y-56.444 Z6.053
N14110 X-432.362 Y-56.898 Z5.975
N14115 X-430.902 Y-57.078 Z5.955
N14120 X-425.612 Y-57.296 Z5.965
N14125 X-422.945 Y-57.636 Z5.912
N14130 X-419.146 Y-58.239 Z5.808
N14135 X-416.419 Y-58.685 Z5.731
N14140 X-413.465 Y-59.405 Z5.583
N14145 X-409.276 Y-60.374 Z5.371
N14150 X-405.034 Y-61.077 Z5.226
N14155 X-400.756 Y-61.51 Z5.135
N14160 X-396.46 Y-61.672 Z5.112
N14165 X-392.162 Y-61.562 Z5.162
N14170 X-373.701 Y-60.039 Z5.654
N14175 X-345.367 Y-57.773 Z6.381
N14180 X-319.743 Y-55.898 Z6.974
N14185 X-301.817 Y-54.746 Z7.335
N14190 X-286.025 Y-53.878 Z7.605
N14195 X-267.047 Y-53. Z7.876
N14200 X-248.123 Y-52.295 Z8.094
N14205 X-225.563 Y-51.665 Z8.292
N14210 X-196.297 Y-51.04 Z8.49
N14215 X-166.305 Y-50.603 Z8.63
N14220 X-136.521 Y-50.334 Z8.717
N14225 X-98.738 Y-50.187 Z8.767
N14230 X-54.66 Y-50.243 Z8.754
N14235 X-4.313 Y-50.441 Z8.686
N14240 X25.901 Y-50.43 Z8.703
N14245 X69.565 Y-50.412 Z8.713
N14250 X104.687 Y-50.513 Z8.685
N14255 X128.258 Y-50.658 Z8.641
N14260 X157.206 Y-50.955 Z8.551
N14265 X187.971 Y-51.432 Z8.403
N14270 X211.124 Y-51.915 Z8.253
N14275 X243.112 Y-52.787 Z7.982
N14280 X264.391 Y-53.585 Z7.733
N14285 X280.483 Y-54.324 Z7.502
N14290 X297.399 Y-55.234 Z7.217
N14295 X310.728 Y-56.048 Z6.961
N14300 X326.247 Y-57.109 Z6.628
N14305 X357.112 Y-59.439 Z5.887
N14310 X391.647 Y-62.257 Z4.979
N14315 X395.944 Y-62.424 Z4.913
N14320 X400.242 Y-62.319 Z4.921
N14325 X404.525 Y-61.94 Z5.002
N14330 X408.775 Y-61.289 Z5.149
N14335 X412.085 Y-60.588 Z5.3
N14340 X415.304 Y-59.804 Z5.472
N14345 X417.725 Y-59.389 Z5.558
N14350 X420.171 Y-59.165 Z5.589
N14355 X422.753 Y-59.133 Z5.573
N14360 X424.555 Y-59.17 Z5.549
N14365 X426.105 Y-59.372 Z5.489
N14370 X427.934 Y-59.587 Z5.424
N14375 X429.774 Y-59.516 Z5.423
N14380 X432.764 Y-59.11 Z5.488
N14385 X434.24 Y-58.691 Z5.569
N14390 X435.628 Y-58.038 Z5.699
N14395 X436.891 Y-57.167 Z5.866
N14400 X437.995 Y-56.102 Z6.076
N14405 X438.903 Y-54.883 Z6.303
N14410 X439.594 Y-53.55 Z6.547
N14415 X440.062 Y-52.134 Z6.796
N14420 X440.301 Y-50.632 Z7.052
N14425 X440.574 Y-47.046 Z7.612
N14430 X440.575 Y-45.23 Z7.876
N14435 X440.307 Y-43.098 Z8.164
N14440 X439.73 Y-40.673 Z8.479
N14445 X439.16 Y-38.25 Z8.758
N14450 X438.963 Y-36.728 Z8.923
N14455 X438.947 Y-34.886 Z9.073
N14460 X439.17 Y-33.058 Z9.213
N14465 X439.538 Y-31.237 Z9.305
N14470 X439.732 Y-29.714 Z9.374
N14475 X439.819 Y-28.129 Z9.435
N14480 X439.741 Y-26.379 Z9.471
N14485 X439.57 Y-24.143 Z9.509
N14490 X439.29 Y-22.949 Z9.514
N14495 X438.767 Y-21.839 Z9.529
N14500 X438.023 Y-20.864 Z9.552
N14505 X437.341 Y-20.246 Z9.582
N14510 X434.489 Y-18.261 Z9.721
N14515 X431.743 Y-16.033 Z9.822
N14520 X430.006 Y-14.768 Z9.887
N14525 X427.709 Y-13.319 Z9.973
N14530 X425.501 Y-11.659 Z10.033
N14535 X422.64 Y-9.324 Z10.063
N14540 X419.64 Y-7.142 Z10.107
N14545 X416.023 Y-4.817 Z10.176
N14550 X412.266 Y-2.727 Z10.277
N14555 X408.384 Y-0.878 Z10.427
N14560 X404.874 Y0.539 Z10.598
N14565 X393.434 Y4.732 Z11.197
N14570 X379.894 Y9.557 Z11.877
N14575 X366.843 Y14.054 Z12.501
N14580 X351.264 Y19.193 Z13.214
N14585 X340.635 Y22.517 Z13.644
N14590 X331.732 Y25.132 Z13.991
N14595 X324.699 Y27.118 Z14.223
N14600 X311.983 Y30.397 Z14.639
N14605 X301.412 Y32.859 Z14.948
N14610 X292.531 Y34.781 Z15.185
N14615 X280.687 Y37.09 Z15.469
N14620 X270.426 Y38.871 Z15.692
N14625 X262.595 Y40.101 Z15.843
N14630 X253.24 Y41.437 Z16.007
N14635 X242.172 Y42.846 Z16.177
N14640 X226.43 Y44.591 Z16.403
N14645 X209.837 Y46.178 Z16.608
N14650 X192.753 Y47.57 Z16.788
N14655 X177.975 Y48.58 Z16.917
N14660 X163.167 Y49.421 Z17.023
N14665 X149.525 Y50.05 Z17.101
N14670 X133.111 Y50.636 Z17.172
N14675 X114.467 Y51.105 Z17.229
N14680 X94.487 Y51.4 Z17.256
N14685 X77.096 Y51.503 Z17.264
N14690 X51.597 Y51.483 Z17.247
N14695 X27.233 Y51.268 Z17.206
N14700 X1.958 Y50.928 Z17.146
N14705 X-8.102 Y51.03 Z17.158
N14710 X-41.414 Y51.532 Z17.207
N14715 X-70.284 Y51.726 Z17.223
N14720 X-93.118 Y51.677 Z17.203
N14725 X-115.379 Y51.425 Z17.157
N14730 X-134.071 Y50.988 Z17.091
N14735 X-150.27 Y50.445 Z17.01
N14740 X-158.534 Y50.104 Z16.961
N14745 X-171.645 Y49.45 Z16.869
N14750 X-187.128 Y48.496 Z16.736
N14755 X-201.125 Y47.47 Z16.594
N14760 X-214.934 Y46.306 Z16.438
N14765 X-230.584 Y44.785 Z16.228
N14770 X-246.067 Y43.047 Z15.991
N14775 X-258.485 Y41.414 Z15.781
N14780 X-268.953 Y39.831 Z15.585
N14785 X-280.452 Y37.88 Z15.337
N14790 X-291.31 Y35.782 Z15.083
N14795 X-301.113 Y33.709 Z14.82
N14800 X-310.622 Y31.513 Z14.546
N14805 X-321.05 Y28.877 Z14.224
N14810 X-326.998 Y27.296 Z14.012
N14815 X-337.523 Y24.289 Z13.628
N14820 X-347.508 Y21.209 Z13.237
N14825 X-356.212 Y18.403 Z12.864
N14830 X-370.007 Y13.809 Z12.218
N14835 X-385.238 Y8.509 Z11.474
N14840 X-400.795 Y2.873 Z10.671
N14845 X-406.992 Y0.52 Z10.357
N14850 X-410.921 Y-1.226 Z10.19
N14855 X-414.739 Y-3.203 Z10.067
N14860 X-418.432 Y-5.405 Z9.985
N14865 X-421.738 Y-7.644 Z9.952
N14870 X-424.354 Y-9.608 Z9.915
N14875 X-426.768 Y-11.556 Z9.896
N14880 X-428.79 Y-12.953 Z9.839
N14885 X-431.235 Y-14.498 Z9.745
N14890 X-432.668 Y-15.607 Z9.704
N14895 X-434.132 Y-16.794 Z9.662
N14900 X-436.55 Y-18.491 Z9.556
N14905 X-438.325 Y-19.639 Z9.472
N14910 X-439.195 Y-20.447 Z9.444
N14915 X-439.744 Y-21.233 Z9.428
N14920 X-440.121 Y-22.072 Z9.427
N14925 X-440.369 Y-23.192 Z9.439
N14930 X-440.763 Y-27.014 Z9.397
N14935 X-440.811 Y-28.549 Z9.367
N14940 X-440.704 Y-30.236 Z9.299
N14945 X-440.317 Y-32.579 Z9.196
N14950 X-440.048 Y-34.206 Z9.084
N14955 X-439.992 Y-36.047 Z8.937
N14960 X-440.147 Y-37.557 Z8.8
N14965 X-440.558 Y-39.328 Z8.596
N14970 X-441.071 Y-41.777 Z8.316
N14975 X-441.283 Y-43.549 Z8.078
N14980 X-441.373 Y-45.468 Z7.823
N14985 X-441.31 Y-46.852 Z7.626
N14990 X-440.903 Y-51.462 Z6.897
N14995 X-440.64 Y-52.929 Z6.647
N15000 X-440.268 Y-53.996 Z6.452
N15005 X-439.561 Y-55.313 Z6.211
N15010 X-438.819 Y-56.276 Z6.03
N15015 X-438.036 Y-57.045 Z5.879
N15020 X-436.785 Y-57.933 Z5.708
N15025 X-435.393 Y-58.576 Z5.584
N15030 X-433.907 Y-58.953 Z5.513
N15035 X-431.697 Y-59.095 Z5.501
N15040 X-425.617 Y-59.345 Z5.499
N15045 X-422.371 Y-59.741 Z5.439
N15050 X-418.842 Y-60.246 Z5.339
N15055 X-416.113 Y-60.679 Z5.25
N15060 X-410.767 Y-61.882 Z4.986
N15065 X-406.226 Y-62.659 Z4.801
N15070 X-401.646 Y-63.151 Z4.691
N15075 X-397.043 Y-63.356 Z4.659
N15080 X-392.437 Y-63.273 Z4.703
N15085 X-376.504 Y-62.081 Z5.096
N15090 X-343.241 Y-59.642 Z5.889
N15095 X-318.887 Y-58.024 Z6.408
N15100 X-306.335 Y-57.278 Z6.646
N15105 X-289.285 Y-56.38 Z6.931
N15110 X-268.617 Y-55.482 Z7.217
N15115 X-254.191 Y-54.969 Z7.381
N15120 X-232.99 Y-54.385 Z7.569
N15125 X-211.572 Y-53.916 Z7.721
N15130 X-179.909 Y-53.403 Z7.888
N15135 X-149.505 Y-53.076 Z7.996
N15140 X-117.589 Y-52.913 Z8.051
N15145 X-74.892 Y-52.886 Z8.064
N15150 X-34.241 Y-52.996 Z8.032
N15155 X5.45 Y-53.133 Z8.
N15160 X58.215 Y-53.079 Z8.012
N15165 X102.763 Y-53.182 Z7.983
N15170 X138.701 Y-53.409 Z7.912
N15175 X172.145 Y-53.785 Z7.792
N15180 X206.736 Y-54.398 Z7.597
N15185 X235.349 Y-55.064 Z7.384
N15190 X255.821 Y-55.697 Z7.183
N15195 X276.354 Y-56.509 Z6.926
N15200 X290.329 Y-57.161 Z6.72
N15205 X307.102 Y-58.053 Z6.436
N15210 X324.809 Y-59.139 Z6.09
N15215 X351.34 Y-60.966 Z5.502
N15220 X385.564 Y-63.493 Z4.668
N15225 X393.531 Y-64.049 Z4.48
N15230 X398.138 Y-64.087 Z4.453
N15235 X402.738 Y-63.838 Z4.503
N15240 X407.313 Y-63.3 Z4.624
N15245 X411.545 Y-62.542 Z4.806
N15250 X415.288 Y-61.714 Z5.001
N15255 X418.02 Y-61.298 Z5.085
N15260 X420.777 Y-61.105 Z5.114
N15265 X423.927 Y-61.111 Z5.09
N15270 X425.458 Y-61.218 Z5.053
N15275 X427.646 Y-61.504 Z4.967
N15280 X429.488 Y-61.487 Z4.958
N15285 X434.81 Y-60.883 Z5.066
N15290 X436.291 Y-60.482 Z5.143
N15295 X437.682 Y-59.834 Z5.277
N15300 X438.941 Y-58.959 Z5.464
N15305 X440.03 Y-57.886 Z5.679
N15310 X440.907 Y-56.665 Z5.923
N15315 X441.563 Y-55.328 Z6.178
N15320 X441.988 Y-53.905 Z6.444
