%
(HOTDOGBUN2)
(MACHINE)
(  VENDOR AUTODESK)
(  DESCRIPTION GENERIC 3-AXIS)
(T1  D=3.175 CR=0. - ZMIN=0. - FLAT END MILL)
N10 G90 G94 G17 G91.1
N15 G21
(WHEN USING FUSION 360 FOR PERSONAL USE, THE FEEDRATE OF)
(RAPID MOVES IS REDUCED TO MATCH THE FEEDRATE OF CUTTING)
(MOVES, WHICH CAN INCREASE MACHINING TIME. UNRESTRICTED RAPID)
(MOVES ARE AVAILABLE WITH A FUSION 360 SUBSCRIPTION.)
N20 G53 G0 Z0.
(2D CONTOUR2)
N25 T1 M6
N30 S5000 M3
N35 G54
N40 G0 X20.848 Y-1.207
N45 G43 Z19.45 H1
N50 G1 Z9.45 F1000.
N55 Z5.45 F333.33
N60 Z3.567
N65 X20.847 Y-1.199 Z3.497 F2000.
N70 X20.843 Y-1.176 Z3.43
N75 X20.837 Y-1.139 Z3.37
N80 X20.829 Y-1.089 Z3.319
N85 X20.819 Y-1.03 Z3.281
N90 X20.808 Y-0.964 Z3.258
N95 X20.797 Y-0.894 Z3.25
N100 X20.745 Y-0.58
N105 G3 X20.381 Y-0.319 I-0.313 J-0.051
N110 G1 X20.358 Y-0.322 F1000.
N115 X19.753 Y-0.413
N120 X19.708 Y-0.419
N125 X19.111 Y-0.491
N130 X19.059 Y-0.496
N135 X18.47 Y-0.547
N140 X18.411 Y-0.551
N145 X17.83 Y-0.58
N150 X17.764 Y-0.582
N155 X17.19 Y-0.586
N160 X17.118 Y-0.585
N165 X16.551 Y-0.564
N170 X16.473 Y-0.559
N175 X15.913 Y-0.51
N180 X15.83 Y-0.5
N185 X15.276 Y-0.422
N190 X15.19 Y-0.408
N195 X14.642 Y-0.3
N200 X14.553 Y-0.279
N205 X14.011 Y-0.14
N210 X13.922 Y-0.114
N215 X13.384 Y0.058
N220 X13.296 Y0.089
N225 X12.765 Y0.295
N230 X12.679 Y0.331
N235 X12.152 Y0.572
N240 X12.07 Y0.612
N245 X11.549 Y0.887
N250 X11.472 Y0.931
N255 X10.955 Y1.241
N260 X10.883 Y1.287
N265 X10.373 Y1.633
N270 X10.306 Y1.68
N275 X9.801 Y2.062
N280 X9.741 Y2.109
N285 X9.242 Y2.526
N290 X9.186 Y2.574
N295 X8.694 Y3.025
N300 X8.644 Y3.072
N305 X8.158 Y3.557
N310 X8.114 Y3.604
N315 X7.635 Y4.122
N320 X7.595 Y4.167
N325 X7.125 Y4.717
N330 X7.089 Y4.761
N335 X6.627 Y5.341
N340 X6.595 Y5.384
N345 X6.143 Y5.994
N350 X6.113 Y6.035
N355 X5.673 Y6.673
N360 X5.646 Y6.713
N365 X5.216 Y7.376
N370 X5.191 Y7.416
N375 X4.774 Y8.103
N380 X4.751 Y8.142
N385 X4.347 Y8.852
N390 X4.326 Y8.889
N395 X3.936 Y9.619
N400 X3.917 Y9.656
N405 X3.541 Y10.405
N410 X3.524 Y10.441
N415 X3.164 Y11.207
N420 X3.148 Y11.242
N425 X2.804 Y12.022
N430 X2.789 Y12.057
N435 X2.463 Y12.849
N440 X2.449 Y12.884
N445 X2.141 Y13.686
N450 X2.128 Y13.721
N455 X1.838 Y14.531
N460 X1.826 Y14.567
N465 X1.556 Y15.382
N470 X1.545 Y15.418
N475 X1.295 Y16.237
N480 X1.285 Y16.273
N485 X1.056 Y17.094
N490 X1.046 Y17.13
N495 X0.838 Y17.951
N500 X0.829 Y17.988
N505 X0.642 Y18.806
N510 X0.634 Y18.844
N515 X0.469 Y19.658
N520 X0.462 Y19.697
N525 X0.319 Y20.505
N530 X0.313 Y20.545
N535 X0.192 Y21.346
N540 X0.186 Y21.386
N545 X0.087 Y22.178
N550 X0.083 Y22.219
N555 X0.005 Y23.001
N560 X0.002 Y23.042
N565 X-0.054 Y23.813
N570 X-0.057 Y23.854
N575 X-0.092 Y24.613
N580 X-0.093 Y24.655
N585 X-0.109 Y25.401
N590 Y25.442
N595 X-0.105 Y26.174
N600 X-0.104 Y26.215
N605 X-0.082 Y26.933
N610 X-0.08 Y26.973
N615 X-0.041 Y27.677
N620 X-0.038 Y27.715
N625 X0.017 Y28.406
N630 X0.021 Y28.442
N635 X0.091 Y29.118
N640 X0.094 Y29.152
N645 X0.177 Y29.815
N650 X0.181 Y29.846
N655 X0.276 Y30.496
N660 X0.28 Y30.523
N665 X0.384 Y31.161
N670 X0.388 Y31.184
N675 X0.5 Y31.81
N680 X0.503 Y31.83
N685 X0.621 Y32.445
N690 X0.625 Y32.466
N695 X0.872 Y33.667
N700 X0.875 Y33.679
N705 X1.123 Y34.845
N710 X1.358 Y35.975
N715 X1.565 Y37.081
N720 X1.654 Y37.618
N725 X1.732 Y38.156
N730 X1.8 Y38.692
N735 X1.854 Y39.229
N740 X1.896 Y39.767
N745 X1.924 Y40.31
N750 X1.939 Y40.859
N755 Y41.415
N760 X1.924 Y41.979
N765 X1.896 Y42.554
N770 X1.853 Y43.141
N775 X1.796 Y43.739
N780 X1.727 Y44.35
N785 X1.644 Y44.974
N790 X1.55 Y45.611
N795 X1.445 Y46.262
N800 X1.33 Y46.926
N805 X1.207 Y47.603
N810 X1.077 Y48.293
N815 X0.942 Y48.996
N820 X0.663 Y50.435
N825 X0.661 Y50.443
N830 X0.383 Y51.915
N835 X0.379 Y51.935
N840 X0.116 Y53.435
N845 X0.112 Y53.458
N850 X-0.011 Y54.216
N855 X-0.013 Y54.235
N860 X-0.127 Y55.
N865 X-0.13 Y55.021
N870 X-0.234 Y55.79
N875 X-0.237 Y55.814
N880 X-0.329 Y56.587
N885 X-0.332 Y56.613
N890 X-0.411 Y57.389
N895 X-0.414 Y57.418
N900 X-0.479 Y58.197
N905 X-0.482 Y58.228
N910 X-0.532 Y59.009
N915 X-0.533 Y59.041
N920 X-0.567 Y59.823
N925 X-0.568 Y59.858
N930 X-0.585 Y60.641
N935 X-0.586 Y60.676
N940 X-0.585 Y61.459
N945 Y61.495
N950 X-0.566 Y62.278
N955 X-0.565 Y62.315
N960 X-0.528 Y63.096
N965 X-0.526 Y63.133
N970 X-0.471 Y63.913
N975 X-0.468 Y63.95
N980 X-0.396 Y64.728
N985 X-0.392 Y64.763
N990 X-0.302 Y65.539
N995 X-0.297 Y65.573
N1000 X-0.19 Y66.346
N1005 X-0.186 Y66.379
N1010 X-0.063 Y67.149
N1015 X-0.057 Y67.18
N1020 X0.081 Y67.946
N1025 X0.086 Y67.975
N1030 X0.238 Y68.737
N1035 X0.244 Y68.764
N1040 X0.409 Y69.522
N1045 X0.414 Y69.546
N1050 X0.59 Y70.3
N1055 X0.595 Y70.321
N1060 X0.781 Y71.07
N1065 X0.788 Y71.096
N1070 X1.183 Y72.58
N1075 X1.19 Y72.604
N1080 X1.605 Y74.068
N1085 X1.608 Y74.08
N1090 X2.029 Y75.522
N1095 X2.44 Y76.935
N1100 X2.826 Y78.319
N1105 X3.004 Y78.992
N1110 X3.172 Y79.66
N1115 X3.327 Y80.32
N1120 X3.469 Y80.972
N1125 X3.597 Y81.616
N1130 X3.709 Y82.253
N1135 X3.805 Y82.884
N1140 X3.884 Y83.509
N1145 X3.947 Y84.128
N1150 X3.993 Y84.744
N1155 X4.021 Y85.357
N1160 X4.032 Y85.967
N1165 X4.027 Y86.577
N1170 X4.005 Y87.186
N1175 X3.966 Y87.797
N1180 X3.913 Y88.409
N1185 X3.844 Y89.025
N1190 X3.762 Y89.644
N1195 X3.666 Y90.268
N1200 X3.56 Y90.892
N1205 X3.313 Y92.174
N1210 X3.037 Y93.476
N1215 X2.742 Y94.805
N1220 Y94.807
N1225 X2.444 Y96.157
N1230 X2.44 Y96.175
N1235 X2.155 Y97.541
N1240 X2.149 Y97.573
N1245 X1.891 Y98.954
N1250 X1.885 Y98.988
N1255 X1.771 Y99.684
N1260 X1.767 Y99.711
N1265 X1.664 Y100.41
N1270 X1.66 Y100.44
N1275 X1.57 Y101.143
N1280 X1.566 Y101.176
N1285 X1.491 Y101.881
N1290 X1.488 Y101.917
N1295 X1.428 Y102.625
N1300 X1.426 Y102.663
N1305 X1.383 Y103.373
N1310 X1.382 Y103.413
N1315 X1.357 Y104.124
N1320 X1.356 Y104.166
N1325 X1.351 Y104.877
N1330 Y104.921
N1335 X1.366 Y105.632
N1340 X1.367 Y105.678
N1345 X1.402 Y106.387
N1350 X1.405 Y106.433
N1355 X1.46 Y107.14
N1360 X1.465 Y107.188
N1365 X1.542 Y107.892
N1370 X1.548 Y107.94
N1375 X1.646 Y108.64
N1380 X1.653 Y108.69
N1385 X1.773 Y109.384
N1390 X1.782 Y109.433
N1395 X1.924 Y110.121
N1400 X1.935 Y110.172
N1405 X2.098 Y110.851
N1410 X2.111 Y110.902
N1415 X2.295 Y111.572
N1420 X2.31 Y111.623
N1425 X2.516 Y112.283
N1430 X2.532 Y112.334
N1435 X2.759 Y112.983
N1440 X2.778 Y113.036
N1445 X3.026 Y113.671
N1450 X3.046 Y113.722
N1455 X3.314 Y114.344
N1460 X3.338 Y114.397
N1465 X3.625 Y115.003
N1470 X3.651 Y115.055
N1475 X3.958 Y115.645
N1480 X3.986 Y115.697
N1485 X4.312 Y116.27
N1490 X4.343 Y116.323
N1495 X4.687 Y116.877
N1500 X4.722 Y116.93
N1505 X5.083 Y117.464
N1510 X5.12 Y117.516
N1515 X5.499 Y118.03
N1520 X5.539 Y118.082
N1525 X5.935 Y118.575
N1530 X5.978 Y118.626
N1535 X6.39 Y119.097
N1540 X6.436 Y119.148
N1545 X6.864 Y119.596
N1550 X6.913 Y119.645
N1555 X7.355 Y120.07
N1560 X7.408 Y120.119
N1565 X7.865 Y120.52
N1570 X7.921 Y120.566
N1575 X8.392 Y120.943
N1580 X8.448 Y120.985
N1585 X8.933 Y121.339
N1590 X8.996 Y121.383
N1595 X9.495 Y121.711
N1600 X9.554 Y121.749
N1605 X10.066 Y122.054
N1610 X10.129 Y122.089
N1615 X10.653 Y122.37
N1620 X10.716 Y122.402
N1625 X11.252 Y122.66
N1630 X11.318 Y122.689
N1635 X11.867 Y122.923
N1640 X11.928 Y122.948
N1645 X12.489 Y123.16
N1650 X12.55 Y123.182
N1655 X13.123 Y123.372
N1660 X13.184 Y123.391
N1665 X13.769 Y123.559
N1670 X13.825 Y123.574
N1675 X14.421 Y123.722
N1680 X14.474 Y123.734
N1685 X15.082 Y123.863
N1690 X15.134 Y123.873
N1695 X15.753 Y123.983
N1700 X15.799 Y123.99
N1705 X16.429 Y124.083
N1710 X16.476 Y124.09
N1715 X17.117 Y124.165
N1720 X17.154 Y124.169
N1725 X17.807 Y124.23
N1730 X17.844 Y124.233
N1735 X18.508 Y124.279
N1740 X18.54 Y124.281
N1745 X19.214 Y124.314
N1750 X19.243 Y124.315
N1755 X19.928 Y124.336
N1760 X19.953
N1765 X20.649 Y124.346
N1770 X20.669
N1775 X21.375 Y124.347
N1780 X21.395
N1785 X22.11 Y124.339
N1790 X22.125
N1795 X22.851 Y124.324
N1800 X22.863
N1805 X23.599 Y124.303
N1810 X23.613 Y124.302
N1815 X25.111 Y124.246
N1820 X25.121
N1825 X26.653 Y124.179
N1830 X26.656
N1835 X28.217 Y124.108
N1840 X29.799 Y124.041
N1845 X31.399 Y123.985
N1850 X33.01 Y123.943
N1855 X34.629 Y123.92
N1860 X36.249 Y123.919
N1865 X37.864 Y123.941
N1870 X39.47 Y123.988
N1875 X41.059 Y124.061
N1880 X42.628 Y124.159
N1885 X44.171 Y124.279
N1890 X45.685 Y124.419
N1895 X46.425 Y124.496
N1900 X47.161 Y124.576
N1905 X47.885 Y124.659
N1910 X48.601 Y124.745
N1915 X49.307 Y124.832
N1920 X50.004 Y124.921
N1925 X50.691 Y125.008
N1930 X51.366 Y125.096
N1935 X51.367
N1940 X52.033 Y125.182
N1945 X52.039 Y125.183
N1950 X52.692 Y125.265
N1955 X52.696 Y125.266
N1960 X53.338 Y125.345
N1965 X53.349 Y125.346
N1970 X53.98 Y125.419
N1975 X53.994 Y125.421
N1980 X54.613 Y125.487
N1985 X54.631 Y125.488
N1990 X55.239 Y125.546
N1995 X55.257 Y125.548
N2000 X55.854 Y125.598
N2005 X55.882 Y125.6
N2010 X56.468 Y125.639
N2015 X56.497 Y125.641
N2020 X57.073 Y125.669
N2025 X57.108 Y125.67
N2030 X57.675 Y125.685
N2035 X57.714 Y125.686
N2040 X58.272 Y125.687
N2045 X58.315 Y125.686
N2050 X58.864 Y125.672
N2055 X58.914 Y125.67
N2060 X59.454 Y125.639
N2065 X59.503 Y125.635
N2070 X60.034 Y125.588
N2075 X60.096 Y125.582
N2080 X60.62 Y125.515
N2085 X60.676 Y125.506
N2090 X61.192 Y125.421
N2095 X61.258 Y125.409
N2100 X61.766 Y125.303
N2105 X61.835 Y125.287
N2110 X62.337 Y125.159
N2115 X62.402 Y125.141
N2120 X62.897 Y124.992
N2125 X62.967 Y124.969
N2130 X63.454 Y124.797
N2135 X63.52 Y124.772
N2140 X64.001 Y124.578
N2145 X64.073 Y124.547
N2150 X64.547 Y124.328
N2155 X64.611 Y124.297
N2160 X65.079 Y124.055
N2165 X65.141 Y124.021
N2170 X65.601 Y123.756
N2175 X65.665 Y123.717
N2180 X66.118 Y123.427
N2185 X66.175 Y123.389
N2190 X66.62 Y123.076
N2195 X66.676 Y123.035
N2200 X67.114 Y122.698
N2205 X67.166 Y122.656
N2210 X67.595 Y122.296
N2215 X67.644 Y122.253
N2220 X68.063 Y121.87
N2225 X68.108 Y121.828
N2230 X68.518 Y121.424
N2235 X68.561 Y121.379
N2240 X68.961 Y120.953
N2245 X69. Y120.91
N2250 X69.388 Y120.464
N2255 X69.426 Y120.419
N2260 X69.802 Y119.953
N2265 X69.837 Y119.908
N2270 X70.202 Y119.423
N2275 X70.233 Y119.38
N2280 X70.584 Y118.878
N2285 X70.614 Y118.833
N2290 X70.952 Y118.314
N2295 X70.98 Y118.269
N2300 X71.303 Y117.734
N2305 X71.328 Y117.69
N2310 X71.636 Y117.141
N2315 X71.66 Y117.096
N2320 X71.953 Y116.533
N2325 X71.975 Y116.488
N2330 X72.251 Y115.912
N2335 X72.271 Y115.867
N2340 X72.531 Y115.28
N2345 X72.55 Y115.236
N2350 X72.792 Y114.639
N2355 X72.809 Y114.594
N2360 X73.034 Y113.988
N2365 X73.05 Y113.943
N2370 X73.257 Y113.328
N2375 X73.272 Y113.284
N2380 X73.461 Y112.662
N2385 X73.474 Y112.618
N2390 X73.646 Y111.989
N2395 X73.657 Y111.945
N2400 X73.811 Y111.311
N2405 X73.821 Y111.269
N2410 X73.958 Y110.631
N2415 X73.966 Y110.589
N2420 X74.086 Y109.946
N2425 X74.093 Y109.906
N2430 X74.197 Y109.26
N2435 X74.202 Y109.222
N2440 X74.29 Y108.572
N2445 X74.295 Y108.536
N2450 X74.368 Y107.885
N2455 X74.371 Y107.85
N2460 X74.43 Y107.196
N2465 X74.433 Y107.165
N2470 X74.479 Y106.51
N2475 X74.48 Y106.481
N2480 X74.514 Y105.824
N2485 X74.515 Y105.797
N2490 X74.538 Y105.139
N2495 X74.539 Y105.106
N2500 X74.557 Y103.787
N2505 Y103.753
N2510 X74.548 Y102.43
N2515 X74.547 Y102.405
N2520 X74.486 Y99.746
N2525 X74.456 Y98.416
N2530 X74.44 Y97.092
N2535 X74.446 Y95.767
N2540 X74.482 Y94.432
N2545 X74.513 Y93.769
N2550 X74.553 Y93.099
N2555 X74.602 Y92.425
N2560 X74.661 Y91.747
N2565 X74.731 Y91.065
N2570 X74.81 Y90.378
N2575 X74.899 Y89.685
N2580 X74.997 Y88.99
N2585 X75.222 Y87.569
N2590 X75.478 Y86.127
N2595 X75.758 Y84.657
N2600 X76.056 Y83.159
N2605 X76.361 Y81.637
N2610 X76.362 Y81.63
N2615 X76.664 Y80.089
N2620 X76.667 Y80.073
N2625 X76.955 Y78.515
N2630 X76.96 Y78.49
N2635 X77.225 Y76.915
N2640 X77.231 Y76.882
N2645 X77.463 Y75.293
N2650 X77.467 Y75.262
N2655 X77.569 Y74.463
N2660 X77.571 Y74.44
N2665 X77.661 Y73.637
N2670 X77.664 Y73.613
N2675 X77.741 Y72.807
N2680 X77.744 Y72.781
N2685 X77.808 Y71.973
N2690 X77.81 Y71.945
N2695 X77.861 Y71.134
N2700 X77.862 Y71.106
N2705 X77.898 Y70.292
N2710 X77.899 Y70.263
N2715 X77.921 Y69.448
N2720 Y69.418
N2725 X77.927 Y68.6
N2730 Y68.57
N2735 X77.917 Y67.751
N2740 X77.916 Y67.721
N2745 X77.891 Y66.9
N2750 X77.89 Y66.871
N2755 X77.849 Y66.049
N2760 X77.847 Y66.019
N2765 X77.791 Y65.197
N2770 X77.789 Y65.168
N2775 X77.717 Y64.345
N2780 X77.715 Y64.317
N2785 X77.629 Y63.493
N2790 X77.626 Y63.467
N2795 X77.527 Y62.643
N2800 X77.524 Y62.618
N2805 X77.411 Y61.794
N2810 X77.408 Y61.771
N2815 X77.283 Y60.947
N2820 X77.28 Y60.926
N2825 X77.144 Y60.102
N2830 X77.139 Y60.075
N2835 X76.838 Y58.429
N2840 X76.832 Y58.4
N2845 X76.499 Y56.759
N2850 X76.495 Y56.738
N2855 X76.141 Y55.103
N2860 X76.139 Y55.092
N2865 X75.774 Y53.465
N2870 Y53.463
N2875 X75.41 Y51.849
N2880 X75.06 Y50.254
N2885 X74.734 Y48.68
N2890 X74.44 Y47.122
N2895 X74.309 Y46.358
N2900 X74.188 Y45.595
N2905 X74.079 Y44.838
N2910 X73.983 Y44.086
N2915 X73.901 Y43.338
N2920 X73.831 Y42.595
N2925 X73.776 Y41.857
N2930 X73.735 Y41.123
N2935 X73.708 Y40.391
N2940 X73.695 Y39.664
N2945 X73.696 Y38.938
N2950 X73.71 Y38.215
N2955 X73.737 Y37.493
N2960 X73.777 Y36.772
N2965 X73.829 Y36.051
N2970 X73.891 Y35.335
N2975 X74.045 Y33.886
N2980 X74.23 Y32.441
N2985 X74.654 Y29.515
N2990 X74.869 Y28.049
N2995 X74.871 Y28.034
N3000 X75.071 Y26.568
N3005 X75.075 Y26.54
N3010 X75.248 Y25.075
N3015 X75.251 Y25.046
N3020 X75.324 Y24.314
N3025 X75.327 Y24.291
N3030 X75.389 Y23.559
N3035 X75.391 Y23.533
N3040 X75.441 Y22.802
N3045 X75.443 Y22.773
N3050 X75.48 Y22.042
N3055 X75.482 Y22.011
N3060 X75.505 Y21.281
N3065 Y21.248
N3070 X75.513 Y20.519
N3075 Y20.484
N3080 X75.505 Y19.757
N3085 X75.504 Y19.72
N3090 X75.479 Y18.994
N3095 X75.477 Y18.956
N3100 X75.435 Y18.232
N3105 X75.432 Y18.193
N3110 X75.372 Y17.472
N3115 X75.368 Y17.432
N3120 X75.29 Y16.715
N3125 X75.285 Y16.674
N3130 X75.188 Y15.961
N3135 X75.182 Y15.92
N3140 X75.067 Y15.211
N3145 X75.06 Y15.17
N3150 X74.927 Y14.467
N3155 X74.919 Y14.426
N3160 X74.768 Y13.73
N3165 X74.759 Y13.689
N3170 X74.59 Y13.
N3175 X74.58 Y12.959
N3180 X74.395 Y12.278
N3185 X74.383 Y12.238
N3190 X74.181 Y11.566
N3195 X74.169 Y11.527
N3200 X73.951 Y10.865
N3205 X73.937 Y10.825
N3210 X73.704 Y10.175
N3215 X73.689 Y10.136
N3220 X73.441 Y9.498
N3225 X73.425 Y9.458
N3230 X73.163 Y8.834
N3235 X73.146 Y8.795
N3240 X72.871 Y8.185
N3245 X72.852 Y8.146
N3250 X72.564 Y7.552
N3255 X72.544 Y7.512
N3260 X72.244 Y6.936
N3265 X72.222 Y6.894
N3270 X71.91 Y6.337
N3275 X71.885 Y6.295
N3280 X71.563 Y5.757
N3285 X71.536 Y5.713
N3290 X71.203 Y5.197
N3295 X71.172 Y5.152
N3300 X70.829 Y4.658
N3305 X70.795 Y4.61
N3310 X70.443 Y4.14
N3315 X70.404 Y4.091
N3320 X70.042 Y3.646
N3325 X69.998 Y3.594
N3330 X69.626 Y3.175
N3335 X69.576 Y3.121
N3340 X69.195 Y2.73
N3345 X69.136 Y2.673
N3350 X68.746 Y2.312
N3355 X68.678 Y2.253
N3360 X68.277 Y1.923
N3365 X68.199 Y1.862
N3370 X67.788 Y1.564
N3375 X67.7 Y1.505
N3380 X67.278 Y1.24
N3385 X67.179 Y1.183
N3390 X66.745 Y0.953
N3395 X66.638 Y0.901
N3400 X66.191 Y0.705
N3405 X66.079 Y0.661
N3410 X65.619 Y0.5
N3415 X65.504 Y0.464
N3420 X65.031 Y0.338
N3425 X64.918 Y0.312
N3430 X64.431 Y0.219
N3435 X64.323 Y0.203
N3440 X63.821 Y0.142
N3445 X63.722 Y0.134
N3450 X63.204 Y0.104
N3455 X63.115 Y0.101
N3460 X62.582
N3465 X62.503 Y0.103
N3470 X61.954 Y0.13
N3475 X61.886 Y0.135
N3480 X61.321 Y0.186
N3485 X61.264 Y0.193
N3490 X60.682 Y0.267
N3495 X60.635 Y0.274
N3500 X60.037 Y0.369
N3505 X60. Y0.375
N3510 X59.384 Y0.488
N3515 X59.356 Y0.494
N3520 X58.724 Y0.621
N3525 X58.703 Y0.626
N3530 X58.055 Y0.766
N3535 X58.041 Y0.769
N3540 X57.376 Y0.919
N3545 X57.368 Y0.921
N3550 X56.687 Y1.078
N3555 X56.685
N3560 X55.99 Y1.24
N3565 X55.282 Y1.403
N3570 X54.562 Y1.565
N3575 X53.832 Y1.725
N3580 X53.09 Y1.881
N3585 X52.337 Y2.032
N3590 X51.573 Y2.177
N3595 X50.8 Y2.314
N3600 X50.018 Y2.443
N3605 X49.227 Y2.563
N3610 X48.429 Y2.673
N3615 X47.624 Y2.773
N3620 X46.814 Y2.862
N3625 X45.999 Y2.94
N3630 X45.18 Y3.006
N3635 X44.359 Y3.059
N3640 X43.535 Y3.1
N3645 X42.711 Y3.129
N3650 X41.886 Y3.144
N3655 X41.063 Y3.146
N3660 X40.24 Y3.135
N3665 X39.42 Y3.111
N3670 X38.603 Y3.073
N3675 X37.79 Y3.023
N3680 X36.981 Y2.96
N3685 X36.177 Y2.885
N3690 X35.379 Y2.798
N3695 X34.587 Y2.699
N3700 X33.802 Y2.59
N3705 X33.025 Y2.47
N3710 X32.255 Y2.34
N3715 X31.493 Y2.201
N3720 X30.739 Y2.054
N3725 X29.994 Y1.9
N3730 X29.257 Y1.74
N3735 X28.529 Y1.574
N3740 X27.81 Y1.404
N3745 X27.099 Y1.231
N3750 X26.397 Y1.057
N3755 X25.703 Y0.883
N3760 X25.018 Y0.71
N3765 X25.015 Y0.709
N3770 X24.34 Y0.54
N3775 X24.334 Y0.539
N3780 X23.67 Y0.375
N3785 X23.659 Y0.372
N3790 X23.006 Y0.216
N3795 X22.99 Y0.213
N3800 X22.347 Y0.066
N3805 X22.326 Y0.061
N3810 X21.693 Y-0.074
N3815 X21.667 Y-0.08
N3820 X21.044 Y-0.202
N3825 X21.011 Y-0.208
N3830 X20.397 Y-0.316
N3835 X20.381 Y-0.319
N3840 G3 X20.119 Y-0.683 I0.051 J-0.313 F2000.
N3845 G1 X20.17 Y-0.997
N3850 X20.182 Y-1.066 Z3.258
N3855 X20.193 Y-1.133 Z3.281
N3860 X20.202 Y-1.192 Z3.319
N3865 X20.211 Y-1.242 Z3.37
N3870 X20.217 Y-1.279 Z3.43
N3875 X20.221 Y-1.302 Z3.497
N3880 X20.222 Y-1.31 Z3.567
N3885 Z19.45 F1000.
(WHEN USING FUSION 360 FOR PERSONAL USE, THE FEEDRATE OF)
(RAPID MOVES IS REDUCED TO MATCH THE FEEDRATE OF CUTTING)
(MOVES, WHICH CAN INCREASE MACHINING TIME. UNRESTRICTED RAPID)
(MOVES ARE AVAILABLE WITH A FUSION 360 SUBSCRIPTION.)
(2D CONTOUR2 2)
N3890 G0 X20.848 Y-1.207
N3895 G1 Z19.45 F1000.
N3900 Z9.45
N3905 Z5.45 F333.33
N3910 Z0.794
N3915 X20.797 Y-0.894 F2000.
N3920 X20.745 Y-0.58
N3925 G3 X20.381 Y-0.319 I-0.313 J-0.051
N3930 G1 X20.358 Y-0.322 F1000.
N3935 X19.753 Y-0.413
N3940 X19.708 Y-0.419
N3945 X19.111 Y-0.491
N3950 X19.059 Y-0.496
N3955 X18.726 Y-0.525
N3960 Z0. F333.33
N3965 X18.47 Y-0.547 F1000.
N3970 X18.411 Y-0.551
N3975 X17.83 Y-0.58
N3980 X17.764 Y-0.582
N3985 X17.19 Y-0.586
N3990 X17.118 Y-0.585
N3995 X16.551 Y-0.564
N4000 X16.473 Y-0.559
N4005 X15.913 Y-0.51
N4010 X15.83 Y-0.5
N4015 X15.276 Y-0.422
N4020 X15.19 Y-0.408
N4025 X14.642 Y-0.3
N4030 X14.553 Y-0.279
N4035 X14.011 Y-0.14
N4040 X13.922 Y-0.114
N4045 X13.384 Y0.058
N4050 X13.296 Y0.089
N4055 X12.765 Y0.295
N4060 X12.679 Y0.331
N4065 X12.152 Y0.572
N4070 X12.07 Y0.612
N4075 X11.549 Y0.887
N4080 X11.472 Y0.931
N4085 X10.955 Y1.241
N4090 X10.883 Y1.287
N4095 X10.373 Y1.633
N4100 X10.306 Y1.68
N4105 X9.801 Y2.062
N4110 X9.741 Y2.109
N4115 X9.242 Y2.526
N4120 X9.186 Y2.574
N4125 X8.694 Y3.025
N4130 X8.644 Y3.072
N4135 X8.158 Y3.557
N4140 X8.114 Y3.604
N4145 X7.635 Y4.122
N4150 X7.595 Y4.167
N4155 X7.125 Y4.717
N4160 X7.089 Y4.761
N4165 X6.627 Y5.341
N4170 X6.595 Y5.384
N4175 X6.143 Y5.994
N4180 X6.113 Y6.035
N4185 X5.673 Y6.673
N4190 X5.646 Y6.713
N4195 X5.216 Y7.376
N4200 X5.191 Y7.416
N4205 X4.774 Y8.103
N4210 X4.751 Y8.142
N4215 X4.347 Y8.852
N4220 X4.326 Y8.889
N4225 X3.936 Y9.619
N4230 X3.917 Y9.656
N4235 X3.541 Y10.405
N4240 X3.524 Y10.441
N4245 X3.258 Y11.007
N4250 Z0.794
N4255 X3.164 Y11.207
N4260 X3.148 Y11.242
N4265 X2.804 Y12.022
N4270 X2.789 Y12.057
N4275 X2.463 Y12.849
N4280 X2.449 Y12.884
N4285 X2.141 Y13.686
N4290 X2.128 Y13.721
N4295 X1.838 Y14.531
N4300 X1.826 Y14.567
N4305 X1.556 Y15.382
N4310 X1.545 Y15.418
N4315 X1.295 Y16.237
N4320 X1.285 Y16.273
N4325 X1.089 Y16.975
N4330 Z0. F333.33
N4335 X1.056 Y17.094 F1000.
N4340 X1.046 Y17.13
N4345 X0.838 Y17.951
N4350 X0.829 Y17.988
N4355 X0.642 Y18.806
N4360 X0.634 Y18.844
N4365 X0.469 Y19.658
N4370 X0.462 Y19.697
N4375 X0.319 Y20.505
N4380 X0.313 Y20.545
N4385 X0.192 Y21.346
N4390 X0.186 Y21.386
N4395 X0.087 Y22.178
N4400 X0.083 Y22.219
N4405 X0.005 Y23.001
N4410 X0.002 Y23.042
N4415 X-0.054 Y23.813
N4420 X-0.057 Y23.854
N4425 X-0.092 Y24.613
N4430 X-0.093 Y24.655
N4435 X-0.109 Y25.401
N4440 Y25.442
N4445 X-0.105 Y26.174
N4450 X-0.104 Y26.215
N4455 X-0.082 Y26.933
N4460 X-0.08 Y26.973
N4465 X-0.041 Y27.677
N4470 X-0.038 Y27.715
N4475 X0.017 Y28.406
N4480 X0.021 Y28.442
N4485 X0.091 Y29.118
N4490 X0.094 Y29.152
N4495 X0.177 Y29.815
N4500 X0.181 Y29.846
N4505 X0.276 Y30.496
N4510 X0.28 Y30.523
N4515 X0.384 Y31.161
N4520 X0.388 Y31.184
N4525 X0.5 Y31.81
N4530 X0.503 Y31.83
N4535 X0.621 Y32.445
N4540 X0.625 Y32.466
N4545 X0.872 Y33.667
N4550 X0.875 Y33.679
N4555 X1.123 Y34.845
N4560 X1.358 Y35.975
N4565 X1.463 Y36.537
N4570 Z0.794
N4575 X1.565 Y37.081
N4580 X1.654 Y37.618
N4585 X1.732 Y38.156
N4590 X1.8 Y38.692
N4595 X1.854 Y39.229
N4600 X1.896 Y39.767
N4605 X1.924 Y40.31
N4610 X1.939 Y40.859
N4615 Y41.415
N4620 X1.924 Y41.979
N4625 X1.896 Y42.554
N4630 X1.872 Y42.874
N4635 Z0. F333.33
N4640 X1.853 Y43.141 F1000.
N4645 X1.796 Y43.739
N4650 X1.727 Y44.35
N4655 X1.644 Y44.974
N4660 X1.55 Y45.611
N4665 X1.445 Y46.262
N4670 X1.33 Y46.926
N4675 X1.207 Y47.603
N4680 X1.077 Y48.293
N4685 X0.942 Y48.996
N4690 X0.663 Y50.435
N4695 X0.661 Y50.443
N4700 X0.383 Y51.915
N4705 X0.379 Y51.935
N4710 X0.116 Y53.435
N4715 X0.112 Y53.458
N4720 X-0.011 Y54.216
N4725 X-0.013 Y54.235
N4730 X-0.127 Y55.
N4735 X-0.13 Y55.021
N4740 X-0.234 Y55.79
N4745 X-0.237 Y55.814
N4750 X-0.329 Y56.587
N4755 X-0.332 Y56.613
N4760 X-0.411 Y57.389
N4765 X-0.414 Y57.418
N4770 X-0.479 Y58.197
N4775 X-0.482 Y58.228
N4780 X-0.532 Y59.009
N4785 X-0.533 Y59.041
N4790 X-0.567 Y59.823
N4795 X-0.568 Y59.858
N4800 X-0.585 Y60.641
N4805 X-0.586 Y60.676
N4810 X-0.585 Y61.459
N4815 Y61.495
N4820 X-0.566 Y62.278
N4825 X-0.565 Y62.315
N4830 X-0.545 Y62.738
N4835 Z0.794
N4840 X-0.528 Y63.096
N4845 X-0.526 Y63.133
N4850 X-0.471 Y63.913
N4855 X-0.468 Y63.95
N4860 X-0.396 Y64.728
N4865 X-0.392 Y64.763
N4870 X-0.302 Y65.539
N4875 X-0.297 Y65.573
N4880 X-0.19 Y66.346
N4885 X-0.186 Y66.379
N4890 X-0.063 Y67.149
N4895 X-0.057 Y67.18
N4900 X0.081 Y67.946
N4905 X0.086 Y67.975
N4910 X0.238 Y68.737
N4915 X0.244 Y68.764
N4920 X0.302 Y69.031
N4925 Z0. F333.33
N4930 X0.409 Y69.522 F1000.
N4935 X0.414 Y69.546
N4940 X0.59 Y70.3
N4945 X0.595 Y70.321
N4950 X0.781 Y71.07
N4955 X0.788 Y71.096
N4960 X1.183 Y72.58
N4965 X1.19 Y72.604
N4970 X1.605 Y74.068
N4975 X1.608 Y74.08
N4980 X2.029 Y75.522
N4985 X2.44 Y76.935
N4990 X2.826 Y78.319
N4995 X3.004 Y78.992
N5000 X3.172 Y79.66
N5005 X3.327 Y80.32
N5010 X3.469 Y80.972
N5015 X3.597 Y81.616
N5020 X3.709 Y82.253
N5025 X3.805 Y82.884
N5030 X3.884 Y83.509
N5035 X3.947 Y84.128
N5040 X3.993 Y84.744
N5045 X4.021 Y85.357
N5050 X4.032 Y85.967
N5055 X4.027 Y86.577
N5060 X4.005 Y87.186
N5065 X3.97 Y87.745
N5070 Z0.794
N5075 X3.966 Y87.797
N5080 X3.913 Y88.409
N5085 X3.844 Y89.025
N5090 X3.762 Y89.644
N5095 X3.666 Y90.268
N5100 X3.56 Y90.892
N5105 X3.313 Y92.174
N5110 X3.037 Y93.476
N5115 X2.919 Y94.007
N5120 Z0. F333.33
N5125 X2.742 Y94.805 F1000.
N5130 Y94.807
N5135 X2.444 Y96.157
N5140 X2.44 Y96.175
N5145 X2.155 Y97.541
N5150 X2.149 Y97.573
N5155 X1.891 Y98.954
N5160 X1.885 Y98.988
N5165 X1.771 Y99.684
N5170 X1.767 Y99.711
N5175 X1.664 Y100.41
N5180 X1.66 Y100.44
N5185 X1.57 Y101.143
N5190 X1.566 Y101.176
N5195 X1.491 Y101.881
N5200 X1.488 Y101.917
N5205 X1.428 Y102.625
N5210 X1.426 Y102.663
N5215 X1.383 Y103.373
N5220 X1.382 Y103.413
N5225 X1.357 Y104.124
N5230 X1.356 Y104.166
N5235 X1.351 Y104.877
N5240 Y104.921
N5245 X1.366 Y105.632
N5250 X1.367 Y105.678
N5255 X1.402 Y106.387
N5260 X1.405 Y106.433
N5265 X1.46 Y107.14
N5270 X1.465 Y107.188
N5275 X1.542 Y107.892
N5280 X1.548 Y107.94
N5285 X1.646 Y108.64
N5290 X1.653 Y108.69
N5295 X1.773 Y109.384
N5300 X1.782 Y109.433
N5305 X1.924 Y110.121
N5310 X1.935 Y110.172
N5315 X2.098 Y110.851
N5320 X2.111 Y110.902
N5325 X2.295 Y111.572
N5330 X2.31 Y111.623
N5335 X2.516 Y112.283
N5340 X2.532 Y112.334
N5345 X2.759 Y112.983
N5350 X2.778 Y113.036
N5355 X3.026 Y113.671
N5360 X3.046 Y113.722
N5365 X3.085 Y113.811
N5370 Z0.794
N5375 X3.314 Y114.344
N5380 X3.338 Y114.397
N5385 X3.625 Y115.003
N5390 X3.651 Y115.055
N5395 X3.958 Y115.645
N5400 X3.986 Y115.697
N5405 X4.312 Y116.27
N5410 X4.343 Y116.323
N5415 X4.687 Y116.877
N5420 X4.722 Y116.93
N5425 X5.083 Y117.464
N5430 X5.12 Y117.516
N5435 X5.499 Y118.03
N5440 X5.539 Y118.082
N5445 X5.935 Y118.575
N5450 X5.978 Y118.626
N5455 X6.39 Y119.097
N5460 X6.436 Y119.148
N5465 X6.47 Y119.183
N5470 Z0. F333.33
N5475 X6.864 Y119.596 F1000.
N5480 X6.913 Y119.645
N5485 X7.355 Y120.07
N5490 X7.408 Y120.119
N5495 X7.865 Y120.52
N5500 X7.921 Y120.566
N5505 X8.392 Y120.943
N5510 X8.448 Y120.985
N5515 X8.933 Y121.339
N5520 X8.996 Y121.383
N5525 X9.495 Y121.711
N5530 X9.554 Y121.749
N5535 X10.066 Y122.054
N5540 X10.129 Y122.089
N5545 X10.653 Y122.37
N5550 X10.716 Y122.402
N5555 X11.252 Y122.66
N5560 X11.318 Y122.689
N5565 X11.867 Y122.923
N5570 X11.928 Y122.948
N5575 X12.489 Y123.16
N5580 X12.55 Y123.182
N5585 X13.123 Y123.372
N5590 X13.184 Y123.391
N5595 X13.769 Y123.559
N5600 X13.825 Y123.574
N5605 X14.421 Y123.722
N5610 X14.474 Y123.734
N5615 X15.082 Y123.863
N5620 X15.134 Y123.873
N5625 X15.753 Y123.983
N5630 X15.799 Y123.99
N5635 X16.429 Y124.083
N5640 X16.476 Y124.09
N5645 X17.117 Y124.165
N5650 X17.154 Y124.169
N5655 X17.807 Y124.23
N5660 X17.844 Y124.233
N5665 X18.508 Y124.279
N5670 X18.54 Y124.281
N5675 X19.214 Y124.314
N5680 X19.243 Y124.315
N5685 X19.928 Y124.336
N5690 X19.953
N5695 X20.649 Y124.346
N5700 X20.669
N5705 X21.375 Y124.347
N5710 X21.395
N5715 X22.11 Y124.339
N5720 X22.125
N5725 X22.851 Y124.324
N5730 X22.863
N5735 X23.599 Y124.303
N5740 X23.613 Y124.302
N5745 X24.374 Y124.274
N5750 Z0.794
N5755 X25.111 Y124.246
N5760 X25.121
N5765 X26.653 Y124.179
N5770 X26.656
N5775 X28.217 Y124.108
N5780 X29.799 Y124.041
N5785 X30.718 Y124.009
N5790 Z0. F333.33
N5795 X31.399 Y123.985 F1000.
N5800 X33.01 Y123.943
N5805 X34.629 Y123.92
N5810 X36.249 Y123.919
N5815 X37.864 Y123.941
N5820 X39.47 Y123.988
N5825 X41.059 Y124.061
N5830 X42.628 Y124.159
N5835 X44.171 Y124.279
N5840 X45.685 Y124.419
N5845 X46.425 Y124.496
N5850 X47.161 Y124.576
N5855 X47.885 Y124.659
N5860 X48.601 Y124.745
N5865 X49.307 Y124.832
N5870 X50.004 Y124.921
N5875 X50.691 Y125.008
N5880 X51.366 Y125.096
N5885 X51.367
N5890 X51.914 Y125.167
N5895 Z0.794
N5900 X52.033 Y125.182
N5905 X52.039 Y125.183
N5910 X52.692 Y125.265
N5915 X52.696 Y125.266
N5920 X53.338 Y125.345
N5925 X53.349 Y125.346
N5930 X53.98 Y125.419
N5935 X53.994 Y125.421
N5940 X54.613 Y125.487
N5945 X54.631 Y125.488
N5950 X55.239 Y125.546
N5955 X55.257 Y125.548
N5960 X55.854 Y125.598
N5965 X55.882 Y125.6
N5970 X56.468 Y125.639
N5975 X56.497 Y125.641
N5980 X57.073 Y125.669
N5985 X57.108 Y125.67
N5990 X57.675 Y125.685
N5995 X57.714 Y125.686
N6000 X58.243
N6005 Z0. F333.33
N6010 X58.272 Y125.687 F1000.
N6015 X58.315 Y125.686
N6020 X58.864 Y125.672
N6025 X58.914 Y125.67
N6030 X59.454 Y125.639
N6035 X59.503 Y125.635
N6040 X60.034 Y125.588
N6045 X60.096 Y125.582
N6050 X60.62 Y125.515
N6055 X60.676 Y125.506
N6060 X61.192 Y125.421
N6065 X61.258 Y125.409
N6070 X61.766 Y125.303
N6075 X61.835 Y125.287
N6080 X62.337 Y125.159
N6085 X62.402 Y125.141
N6090 X62.897 Y124.992
N6095 X62.967 Y124.969
N6100 X63.454 Y124.797
N6105 X63.52 Y124.772
N6110 X64.001 Y124.578
N6115 X64.073 Y124.547
N6120 X64.547 Y124.328
N6125 X64.611 Y124.297
N6130 X65.079 Y124.055
N6135 X65.141 Y124.021
N6140 X65.601 Y123.756
N6145 X65.665 Y123.717
N6150 X66.118 Y123.427
N6155 X66.175 Y123.389
N6160 X66.62 Y123.076
N6165 X66.676 Y123.035
N6170 X67.114 Y122.698
N6175 X67.166 Y122.656
N6180 X67.595 Y122.296
N6185 X67.644 Y122.253
N6190 X68.063 Y121.87
N6195 X68.108 Y121.828
N6200 X68.518 Y121.424
N6205 X68.561 Y121.379
N6210 X68.961 Y120.953
N6215 X69. Y120.91
N6220 X69.388 Y120.464
N6225 X69.426 Y120.419
N6230 X69.802 Y119.953
N6235 X69.837 Y119.908
N6240 X70.202 Y119.423
N6245 X70.233 Y119.38
N6250 X70.584 Y118.878
N6255 X70.614 Y118.833
N6260 X70.952 Y118.314
N6265 X70.98 Y118.269
N6270 X71.303 Y117.734
N6275 X71.328 Y117.69
N6280 X71.536 Y117.321
N6285 Z0.794
N6290 X71.636 Y117.141
N6295 X71.66 Y117.096
N6300 X71.953 Y116.533
N6305 X71.975 Y116.488
N6310 X72.251 Y115.912
N6315 X72.271 Y115.867
N6320 X72.531 Y115.28
N6325 X72.55 Y115.236
N6330 X72.792 Y114.639
N6335 X72.809 Y114.594
N6340 X73.034 Y113.988
N6345 X73.05 Y113.943
N6350 X73.257 Y113.328
N6355 X73.272 Y113.284
N6360 X73.461 Y112.662
N6365 X73.474 Y112.618
N6370 X73.646 Y111.989
N6375 X73.657 Y111.945
N6380 X73.793 Y111.385
N6385 Z0. F333.33
N6390 X73.811 Y111.311 F1000.
N6395 X73.821 Y111.269
N6400 X73.958 Y110.631
N6405 X73.966 Y110.589
N6410 X74.086 Y109.946
N6415 X74.093 Y109.906
N6420 X74.197 Y109.26
N6425 X74.202 Y109.222
N6430 X74.29 Y108.572
N6435 X74.295 Y108.536
N6440 X74.368 Y107.885
N6445 X74.371 Y107.85
N6450 X74.43 Y107.196
N6455 X74.433 Y107.165
N6460 X74.479 Y106.51
N6465 X74.48 Y106.481
N6470 X74.514 Y105.824
N6475 X74.515 Y105.797
N6480 X74.538 Y105.139
N6485 X74.539 Y105.106
N6490 X74.557 Y103.787
N6495 Y103.753
N6500 X74.548 Y102.43
N6505 X74.547 Y102.405
N6510 X74.486 Y99.746
N6515 X74.456 Y98.416
N6520 X74.44 Y97.092
N6525 X74.446 Y95.767
N6530 X74.482 Y94.432
N6535 X74.513 Y93.769
N6540 X74.553 Y93.099
N6545 X74.564 Y92.944
N6550 Z0.794
N6555 X74.602 Y92.425
N6560 X74.661 Y91.747
N6565 X74.731 Y91.065
N6570 X74.81 Y90.378
N6575 X74.899 Y89.685
N6580 X74.997 Y88.99
N6585 X75.222 Y87.569
N6590 X75.385 Y86.648
N6595 Z0. F333.33
N6600 X75.478 Y86.127 F1000.
N6605 X75.758 Y84.657
N6610 X76.056 Y83.159
N6615 X76.361 Y81.637
N6620 X76.362 Y81.63
N6625 X76.664 Y80.089
N6630 X76.667 Y80.073
N6635 X76.955 Y78.515
N6640 X76.96 Y78.49
N6645 X77.225 Y76.915
N6650 X77.231 Y76.882
N6655 X77.463 Y75.293
N6660 X77.467 Y75.262
N6665 X77.569 Y74.463
N6670 X77.571 Y74.44
N6675 X77.661 Y73.637
N6680 X77.664 Y73.613
N6685 X77.741 Y72.807
N6690 X77.744 Y72.781
N6695 X77.808 Y71.973
N6700 X77.81 Y71.945
N6705 X77.861 Y71.134
N6710 X77.862 Y71.106
N6715 X77.898 Y70.292
N6720 X77.899 Y70.263
N6725 X77.921 Y69.448
N6730 Y69.418
N6735 X77.927 Y68.6
N6740 Y68.57
N6745 X77.917 Y67.751
N6750 X77.916 Y67.721
N6755 X77.891 Y66.9
N6760 X77.89 Y66.871
N6765 X77.849 Y66.049
N6770 X77.847 Y66.019
N6775 X77.791 Y65.197
N6780 X77.789 Y65.168
N6785 X77.717 Y64.345
N6790 X77.715 Y64.317
N6795 X77.653 Y63.721
N6800 Z0.794
N6805 X77.629 Y63.493
N6810 X77.626 Y63.467
N6815 X77.527 Y62.643
N6820 X77.524 Y62.618
N6825 X77.411 Y61.794
N6830 X77.408 Y61.771
N6835 X77.283 Y60.947
N6840 X77.28 Y60.926
N6845 X77.144 Y60.102
N6850 X77.139 Y60.075
N6855 X76.838 Y58.429
N6860 X76.832 Y58.4
N6865 X76.64 Y57.452
N6870 Z0. F333.33
N6875 X76.499 Y56.759 F1000.
N6880 X76.495 Y56.738
N6885 X76.141 Y55.103
N6890 X76.139 Y55.092
N6895 X75.774 Y53.465
N6900 Y53.463
N6905 X75.41 Y51.849
N6910 X75.06 Y50.254
N6915 X74.734 Y48.68
N6920 X74.44 Y47.122
N6925 X74.309 Y46.358
N6930 X74.188 Y45.595
N6935 X74.079 Y44.838
N6940 X73.983 Y44.086
N6945 X73.901 Y43.338
N6950 X73.831 Y42.595
N6955 X73.776 Y41.857
N6960 X73.735 Y41.123
N6965 X73.708 Y40.391
N6970 X73.695 Y39.664
N6975 X73.696 Y38.938
N6980 X73.71 Y38.215
N6985 X73.737 Y37.493
N6990 X73.777 Y36.772
N6995 X73.829 Y36.051
N7000 X73.868 Y35.595
N7005 Z0.794
N7010 X73.891 Y35.335
N7015 X74.045 Y33.886
N7020 X74.23 Y32.441
N7025 X74.654 Y29.515
N7030 X74.686 Y29.298
N7035 Z0. F333.33
N7040 X74.869 Y28.049 F1000.
N7045 X74.871 Y28.034
N7050 X75.071 Y26.568
N7055 X75.075 Y26.54
N7060 X75.248 Y25.075
N7065 X75.251 Y25.046
N7070 X75.324 Y24.314
N7075 X75.327 Y24.291
N7080 X75.389 Y23.559
N7085 X75.391 Y23.533
N7090 X75.441 Y22.802
N7095 X75.443 Y22.773
N7100 X75.48 Y22.042
N7105 X75.482 Y22.011
N7110 X75.505 Y21.281
N7115 Y21.248
N7120 X75.513 Y20.519
N7125 Y20.484
N7130 X75.505 Y19.757
N7135 X75.504 Y19.72
N7140 X75.479 Y18.994
N7145 X75.477 Y18.956
N7150 X75.435 Y18.232
N7155 X75.432 Y18.193
N7160 X75.372 Y17.472
N7165 X75.368 Y17.432
N7170 X75.29 Y16.715
N7175 X75.285 Y16.674
N7180 X75.188 Y15.961
N7185 X75.182 Y15.92
N7190 X75.067 Y15.211
N7195 X75.06 Y15.17
N7200 X74.927 Y14.467
N7205 X74.919 Y14.426
N7210 X74.768 Y13.73
N7215 X74.759 Y13.689
N7220 X74.59 Y13.
N7225 X74.58 Y12.959
N7230 X74.395 Y12.278
N7235 X74.383 Y12.238
N7240 X74.181 Y11.566
N7245 X74.169 Y11.527
N7250 X73.951 Y10.865
N7255 X73.937 Y10.825
N7260 X73.704 Y10.175
N7265 X73.689 Y10.136
N7270 X73.441 Y9.498
N7275 X73.425 Y9.458
N7280 X73.163 Y8.834
N7285 X73.154 Y8.813
N7290 Z0.794
N7295 X73.146 Y8.795
N7300 X72.871 Y8.185
N7305 X72.852 Y8.146
N7310 X72.564 Y7.552
N7315 X72.544 Y7.512
N7320 X72.244 Y6.936
N7325 X72.222 Y6.894
N7330 X71.91 Y6.337
N7335 X71.885 Y6.295
N7340 X71.563 Y5.757
N7345 X71.536 Y5.713
N7350 X71.203 Y5.197
N7355 X71.172 Y5.152
N7360 X70.829 Y4.658
N7365 X70.795 Y4.61
N7370 X70.443 Y4.14
N7375 X70.404 Y4.091
N7380 X70.042 Y3.646
N7385 X69.998 Y3.594
N7390 X69.828 Y3.403
N7395 Z0. F333.33
N7400 X69.626 Y3.175 F1000.
N7405 X69.576 Y3.121
N7410 X69.195 Y2.73
N7415 X69.136 Y2.673
N7420 X68.746 Y2.312
N7425 X68.678 Y2.253
N7430 X68.277 Y1.923
N7435 X68.199 Y1.862
N7440 X67.788 Y1.564
N7445 X67.7 Y1.505
N7450 X67.278 Y1.24
N7455 X67.179 Y1.183
N7460 X66.745 Y0.953
N7465 X66.638 Y0.901
N7470 X66.191 Y0.705
N7475 X66.079 Y0.661
N7480 X65.619 Y0.5
N7485 X65.504 Y0.464
N7490 X65.031 Y0.338
N7495 X64.918 Y0.312
N7500 X64.431 Y0.219
N7505 X64.323 Y0.203
N7510 X63.821 Y0.142
N7515 X63.722 Y0.134
N7520 X63.204 Y0.104
N7525 X63.115 Y0.101
N7530 X62.582
N7535 X62.503 Y0.103
N7540 X61.954 Y0.13
N7545 X61.886 Y0.135
N7550 X61.321 Y0.186
N7555 X61.264 Y0.193
N7560 X60.682 Y0.267
N7565 X60.635 Y0.274
N7570 X60.037 Y0.369
N7575 X60. Y0.375
N7580 X59.384 Y0.488
N7585 X59.356 Y0.494
N7590 X58.724 Y0.621
N7595 X58.703 Y0.626
N7600 X58.055 Y0.766
N7605 X58.041 Y0.769
N7610 X57.376 Y0.919
N7615 X57.368 Y0.921
N7620 X56.687 Y1.078
N7625 X56.685
N7630 X55.99 Y1.24
N7635 X55.282 Y1.403
N7640 X54.562 Y1.565
N7645 X53.832 Y1.725
N7650 X53.09 Y1.881
N7655 X53.03 Y1.893
N7660 Z0.794
N7665 X52.337 Y2.032
N7670 X51.573 Y2.177
N7675 X50.8 Y2.314
N7680 X50.018 Y2.443
N7685 X49.227 Y2.563
N7690 X48.429 Y2.673
N7695 X47.624 Y2.773
N7700 X46.814 Y2.862
N7705 X46.755 Y2.868
N7710 Z0. F333.33
N7715 X45.999 Y2.94 F1000.
N7720 X45.18 Y3.006
N7725 X44.359 Y3.059
N7730 X43.535 Y3.1
N7735 X42.711 Y3.129
N7740 X41.886 Y3.144
N7745 X41.063 Y3.146
N7750 X40.24 Y3.135
N7755 X39.42 Y3.111
N7760 X38.603 Y3.073
N7765 X37.79 Y3.023
N7770 X36.981 Y2.96
N7775 X36.177 Y2.885
N7780 X35.379 Y2.798
N7785 X34.587 Y2.699
N7790 X33.802 Y2.59
N7795 X33.025 Y2.47
N7800 X32.255 Y2.34
N7805 X31.493 Y2.201
N7810 X30.739 Y2.054
N7815 X29.994 Y1.9
N7820 X29.257 Y1.74
N7825 X28.529 Y1.574
N7830 X27.81 Y1.404
N7835 X27.099 Y1.231
N7840 X26.397 Y1.057
N7845 X25.703 Y0.883
N7850 X25.018 Y0.71
N7855 X25.015 Y0.709
N7860 X24.958 Y0.695
N7865 Z0.794
N7870 X24.34 Y0.54
N7875 X24.334 Y0.539
N7880 X23.67 Y0.375
N7885 X23.659 Y0.372
N7890 X23.006 Y0.216
N7895 X22.99 Y0.213
N7900 X22.347 Y0.066
N7905 X22.326 Y0.061
N7910 X21.693 Y-0.074
N7915 X21.667 Y-0.08
N7920 X21.044 Y-0.202
N7925 X21.011 Y-0.208
N7930 X20.397 Y-0.316
N7935 X20.381 Y-0.319
N7940 G3 X20.119 Y-0.683 I0.051 J-0.313 F2000.
N7945 G1 X20.222 Y-1.31
N7950 Z19.45 F1000.
N7955 G53 G0 Z0.
N7960 M30
%
