%
(HVPOCKET)
(MACHINE)
(  VENDOR AUTODESK)
(  DESCRIPTION GENERIC 3-AXIS)
(T1  D=3.175 CR=0. - ZMIN=-4.12 - FLAT END MILL)
N10 G90 G94 G17 G91.1
N15 G21
(WHEN USING FUSION 360 FOR PERSONAL USE, THE FEEDRATE OF)
(RAPID MOVES IS REDUCED TO MATCH THE FEEDRATE OF CUTTING)
(MOVES, WHICH CAN INCREASE MACHINING TIME. UNRESTRICTED RAPID)
(MOVES ARE AVAILABLE WITH A FUSION 360 SUBSCRIPTION.)
N20 G53 G0 Z0.
(2D POCKET1)
N25 T1 M6
N30 S15000 M3
N35 G54
N40 G0 X-13.939 Y48.662
N45 G43 Z15. H1
N50 G1 Z5. F3000.
N55 Z2.817
N60 X-13.918 Y48.673 Z2.698 F1000.
N65 X-13.861 Y48.705 Z2.597
N70 X-13.777 Y48.759 Z2.527
N75 X-13.683 Y48.83 Z2.5
N80 G3 X-15.591 Y51.166 Z2.335 I-0.954 J1.168
N85 X-13.683 Y48.83 Z2.169 I0.954 J-1.168
N90 X-15.591 Y51.166 Z2.004 I-0.954 J1.168
N95 X-13.683 Y48.83 Z1.838 I0.954 J-1.168
N100 X-15.591 Y51.166 Z1.673 I-0.954 J1.168
N105 X-13.683 Y48.83 Z1.507 I0.954 J-1.168
N110 X-15.591 Y51.166 Z1.342 I-0.954 J1.168
N115 X-13.683 Y48.83 Z1.176 I0.954 J-1.168
N120 X-15.591 Y51.166 Z1.011 I-0.954 J1.168
N125 X-13.683 Y48.83 Z0.845 I0.954 J-1.168
N130 X-15.591 Y51.166 Z0.68 I-0.954 J1.168
N135 X-13.683 Y48.83 Z0.515 I0.954 J-1.168
N140 X-15.591 Y51.166 Z0.349 I-0.954 J1.168
N145 X-13.683 Y48.83 Z0.184 I0.954 J-1.168
N150 X-15.591 Y51.166 Z0.018 I-0.954 J1.168
N155 X-13.683 Y48.83 Z-0.147 I0.954 J-1.168
N160 X-15.591 Y51.166 Z-0.313 I-0.954 J1.168
N165 X-13.683 Y48.83 Z-0.478 I0.954 J-1.168
N170 X-15.591 Y51.166 Z-0.644 I-0.954 J1.168
N175 X-13.683 Y48.83 Z-0.809 I0.954 J-1.168
N180 X-15.591 Y51.166 Z-0.974 I-0.954 J1.168
N185 X-16.025 Y50.588 Z-1. I0.954 J-1.168
N190 G1 X-16.257 Y50.041 F3000.
N195 G3 X-16.067 Y49.753 I0.191 J-0.081
N200 G1 X-14.868
N205 G3 X-14.687 Y50.036 I0. J0.2
N210 G2 X-15.283 Y51.719 I8.972 J4.128
N215 G3 X-15.537 Y51.738 I-0.13 J-0.033
N220 G1 X-16.025 Y50.588
N225 G2 X-16.949 Y49.982 I-0.916 J0.389
N230 G3 X-17.873 Y49.376 I-0.007 J-0.997
N235 G1 X-18.113 Y48.813
N240 G3 X-17.923 Y48.525 I0.191 J-0.081
N245 G1 X-12.614
N250 G3 X-12.487 Y48.787 I0. J0.162
N255 G2 X-14.28 Y52.822 I6.911 J5.487
N260 X-13.854 Y57.217 I8.406 J1.402
N265 G1 X-9.961 Y67.468
N270 X-9.956 Y67.504
N275 X-9.963 Y67.538
N280 X-9.984 Y67.567
N285 X-10.013 Y67.587
N290 X-10.048 Y67.593
N295 X-10.083 Y67.586
N300 X-10.113 Y67.567
N305 X-10.133 Y67.538
N310 X-17.873 Y49.376
N315 G2 X-19.059 Y48.6 I-1.174 J0.501
N320 G3 X-20.244 Y47.824 I-0.01 J-1.277
N325 G1 X-20.494 Y47.237
N330 G3 X-20.304 Y46.949 I0.191 J-0.081
N335 G1 X-7.567 Y46.994
N340 G2 X-3.934 Y45.971 I0. J-6.961
N345 X-1.34 Y43.231 I-3.775 J-6.171
N350 G3 X-1.002 Y43.202 I0.179 J0.096
N355 X0.412 Y45.027 I-136.909 J107.54
N360 G2 X1.854 Y46.83 I41.822 J-31.963
N365 G3 X1.731 Y47.092 I-0.123 J0.102
N370 X-1.992 Y47.07 I0. J-308.022
N375 G2 X-5.715 Y47.047 I-3.723 J308.
N380 X-12.379 Y56.664 I0. J7.117
N385 G1 X-7.31 Y70.051
N390 G3 X-7.512 Y70.342 I-0.201 J0.076
N395 X-8.899 Y70.329 I0.381 J-119.362
N400 X-10.284 Y70.274 I0.411 J-27.76
N405 X-10.832 Y69.889 I0.042 J-0.641
N410 G1 X-20.244 Y47.824
N415 G2 X-21.798 Y46.805 I-1.543 J0.658
N420 G3 X-23.353 Y45.785 I-0.013 J-1.675
N425 G1 X-23.629 Y45.135
N430 G3 X-23.434 Y44.846 I0.195 J-0.079
N435 G1 X-6.922 Y44.85
N440 G2 X-2.862 Y38.192 I-0.643 J-4.959
N445 X-3.028 Y37.769 I-6.846 J2.452
N450 G3 X-3.195 Y37.347 I6.679 J-2.875
N455 G1 X-3.201 Y37.309
N460 X-3.194 Y37.272
N465 X-3.175 Y37.239
N470 X-3.145 Y37.215
N475 X-3.109 Y37.203
N480 X-3.071 Y37.204
N485 X-3.036 Y37.218
N490 X-3.008 Y37.243
N495 G3 X0.166 Y41.384 I-174.752 J137.265
N500 G2 X3.403 Y45.475 I77.248 J-57.797
N505 X4.878 Y47.204 I89.656 J-74.971
N510 G3 X6.353 Y48.933 I-80.892 J70.483
N515 X6.23 Y49.195 I-0.123 J0.102
N520 G1 X-6.359 Y49.192
N525 G2 X-10.409 Y55.925 I0.645 J4.973
N530 G1 X-4.272 Y72.164
N535 G3 X-4.474 Y72.455 I-0.201 J0.076
N540 G1 X-6.477 Y72.448
N545 G3 X-9.401 Y72.394 I0.303 J-95.001
N550 X-10.552 Y72.351 I5.498 J-161.77
N555 X-11.703 Y72.29 I2.001 J-48.668
N560 X-12.251 Y71.904 I0.042 J-0.641
N565 G1 X-23.353 Y45.785
N570 G2 X-24.608 Y44.951 I-1.261 J0.536
N575 G3 X-25.862 Y44.117 I-0.005 J-1.353
N580 G1 X-26.144 Y43.44
N585 G3 X-25.948 Y43.15 I0.195 J-0.079
N590 G1 X-7.14 Y43.168
N595 G2 X-4.443 Y38.758 I-0.427 J-3.291
N600 G1 X-8.491 Y27.588
N605 X-8.498 Y27.551
N610 X-8.491 Y27.514
N615 X-8.471 Y27.481
N620 X-8.442 Y27.458
N625 X-8.406 Y27.446
N630 X-8.368 Y27.448
N635 X-8.333 Y27.462
N640 X-8.305 Y27.488
N645 G3 X-5.819 Y30.856 I-163.496 J123.293
N650 G2 X-3.299 Y34.2 I84.533 J-61.077
N655 G1 X4.704 Y44.387
N660 X9.91 Y50.623
N665 G3 X9.775 Y50.891 I-0.135 J0.1
N670 G1 X-6.141 Y50.874
N675 G2 X-8.822 Y55.33 I0.427 J3.291
N680 G1 X-1.822 Y73.868
N685 G3 X-2.024 Y74.158 I-0.201 J0.076
N690 G1 X-9.458 Y74.09
N695 G3 X-12.716 Y73.924 I3.262 J-95.974
N700 X-13.342 Y73.528 I0.05 J-0.772
N705 G1 X-24.305 Y47.867
N710 X-25.862 Y44.117
N715 G2 X-27.12 Y43.264 I-1.277 J0.53
N720 G3 X-28.377 Y42.412 I0.007 J-1.363
N725 G1 X-28.76 Y41.465
N730 X-7.567
N735 G2 X-6.072 Y39.342 I0. J-1.588
N740 G1 X-13.084 Y19.766
N745 X-14.005 Y17.161
N750 X-9.697 Y22.843
N755 X-1.957 Y33.106
N760 X-1.938 Y33.13
N765 X6.002 Y43.239
N770 X6.032 Y43.277
N775 X8.353 Y46.052
N780 X10.774 Y48.952
N785 X12.943 Y51.901
N790 X13.352 Y52.577
N795 X-5.715
N800 G2 X-7.201 Y54.722 I0. J1.588
N805 G1 X0.723 Y75.853
N810 X-9.517 Y75.82
N815 X-14.163 Y75.519
N820 X-15.1 Y73.834
N825 X-18.16 Y66.768
N830 X-25.904 Y48.53
N835 X-28.377 Y42.412
N840 X-28.384 Y42.374
N845 X-28.376 Y42.337
N850 X-28.354 Y42.305
N855 X-28.322 Y42.285
N860 X-28.284 Y42.279
N865 X-28.247 Y42.288
N870 X-27.867 Y42.466
N875 X-15.924 Y50.531
N880 X-15.804 Y50.691
N885 X-15.791 Y50.723
N890 X-15.794 Y50.757
N895 X-15.811 Y50.787
N900 X-15.84 Y50.806
N905 X-15.874 Y50.81
N910 X-15.907 Y50.798
N915 X-15.931 Y50.774
N920 G3 X-13.343 Y49.223 Z-1.165 I1.294 J-0.775 F1000.
N925 X-15.931 Y50.774 Z-1.331 I-1.294 J0.775
N930 X-13.343 Y49.223 Z-1.496 I1.294 J-0.775
N935 X-15.931 Y50.774 Z-1.662 I-1.294 J0.775
N940 X-13.343 Y49.223 Z-1.827 I1.294 J-0.775
N945 X-13.953 Y51.342 Z-1.914 I-1.294 J0.775
N950 X-16.025 Y50.588 Z-2. I-0.684 J-1.344
N955 G1 X-16.257 Y50.041 F3000.
N960 G3 X-16.067 Y49.753 I0.191 J-0.081
N965 G1 X-14.868
N970 G3 X-14.687 Y50.036 I0. J0.2
N975 G2 X-15.283 Y51.719 I8.972 J4.128
N980 G3 X-15.537 Y51.738 I-0.13 J-0.033
N985 G1 X-16.025 Y50.588
N990 G2 X-16.949 Y49.982 I-0.916 J0.389
N995 G3 X-17.873 Y49.376 I-0.007 J-0.997
N1000 G1 X-18.113 Y48.813
N1005 G3 X-17.923 Y48.525 I0.191 J-0.081
N1010 G1 X-12.614
N1015 G3 X-12.487 Y48.787 I0. J0.162
N1020 G2 X-14.28 Y52.822 I6.911 J5.487
N1025 X-13.854 Y57.217 I8.406 J1.402
N1030 G1 X-9.961 Y67.468
N1035 X-9.956 Y67.504
N1040 X-9.963 Y67.538
N1045 X-9.984 Y67.567
N1050 X-10.013 Y67.587
N1055 X-10.048 Y67.593
N1060 X-10.083 Y67.586
N1065 X-10.113 Y67.567
N1070 X-10.133 Y67.538
N1075 X-17.873 Y49.376
N1080 G2 X-19.059 Y48.6 I-1.174 J0.501
N1085 G3 X-20.244 Y47.824 I-0.01 J-1.277
N1090 G1 X-20.494 Y47.237
N1095 G3 X-20.304 Y46.949 I0.191 J-0.081
N1100 G1 X-7.567 Y46.994
N1105 G2 X-3.934 Y45.971 I0. J-6.961
N1110 X-1.34 Y43.231 I-3.775 J-6.171
N1115 G3 X-1.002 Y43.202 I0.179 J0.096
N1120 X0.412 Y45.027 I-136.909 J107.54
N1125 G2 X1.854 Y46.83 I41.822 J-31.963
N1130 G3 X1.731 Y47.092 I-0.123 J0.102
N1135 X-1.992 Y47.07 I0. J-308.022
N1140 G2 X-5.715 Y47.047 I-3.723 J308.
N1145 X-12.379 Y56.664 I0. J7.117
N1150 G1 X-7.31 Y70.051
N1155 G3 X-7.512 Y70.342 I-0.201 J0.076
N1160 X-8.899 Y70.329 I0.381 J-119.362
N1165 X-10.284 Y70.274 I0.411 J-27.76
N1170 X-10.832 Y69.889 I0.042 J-0.641
N1175 G1 X-20.244 Y47.824
N1180 G2 X-21.798 Y46.805 I-1.543 J0.658
N1185 G3 X-23.353 Y45.785 I-0.013 J-1.675
N1190 G1 X-23.629 Y45.135
N1195 G3 X-23.434 Y44.846 I0.195 J-0.079
N1200 G1 X-6.922 Y44.85
N1205 G2 X-2.862 Y38.192 I-0.643 J-4.959
N1210 X-3.028 Y37.769 I-6.846 J2.452
N1215 G3 X-3.195 Y37.347 I6.679 J-2.875
N1220 G1 X-3.201 Y37.309
N1225 X-3.194 Y37.272
N1230 X-3.175 Y37.239
N1235 X-3.145 Y37.215
N1240 X-3.109 Y37.203
N1245 X-3.071 Y37.204
N1250 X-3.036 Y37.218
N1255 X-3.008 Y37.243
N1260 G3 X0.166 Y41.384 I-174.752 J137.265
N1265 G2 X3.403 Y45.475 I77.248 J-57.797
N1270 X4.878 Y47.204 I89.656 J-74.971
N1275 G3 X6.353 Y48.933 I-80.892 J70.483
N1280 X6.23 Y49.195 I-0.123 J0.102
N1285 G1 X-6.359 Y49.192
N1290 G2 X-10.409 Y55.925 I0.645 J4.973
N1295 G1 X-4.272 Y72.164
N1300 G3 X-4.474 Y72.455 I-0.201 J0.076
N1305 G1 X-6.477 Y72.448
N1310 G3 X-9.401 Y72.394 I0.303 J-95.001
N1315 X-10.552 Y72.351 I5.498 J-161.77
N1320 X-11.703 Y72.29 I2.001 J-48.668
N1325 X-12.251 Y71.904 I0.042 J-0.641
N1330 G1 X-23.353 Y45.785
N1335 G2 X-24.608 Y44.951 I-1.261 J0.536
N1340 G3 X-25.862 Y44.117 I-0.005 J-1.353
N1345 G1 X-26.144 Y43.44
N1350 G3 X-25.948 Y43.15 I0.195 J-0.079
N1355 G1 X-7.14 Y43.168
N1360 G2 X-4.443 Y38.758 I-0.427 J-3.291
N1365 G1 X-8.491 Y27.588
N1370 X-8.498 Y27.551
N1375 X-8.491 Y27.514
N1380 X-8.471 Y27.481
N1385 X-8.442 Y27.458
N1390 X-8.406 Y27.446
N1395 X-8.368 Y27.448
N1400 X-8.333 Y27.462
N1405 X-8.305 Y27.488
N1410 G3 X-5.819 Y30.856 I-163.496 J123.293
N1415 G2 X-3.299 Y34.2 I84.533 J-61.077
N1420 G1 X4.704 Y44.387
N1425 X9.91 Y50.623
N1430 G3 X9.775 Y50.891 I-0.135 J0.1
N1435 G1 X-6.141 Y50.874
N1440 G2 X-8.822 Y55.33 I0.427 J3.291
N1445 G1 X-1.822 Y73.868
N1450 G3 X-2.024 Y74.158 I-0.201 J0.076
N1455 G1 X-9.458 Y74.09
N1460 G3 X-12.716 Y73.924 I3.262 J-95.974
N1465 X-13.342 Y73.528 I0.05 J-0.772
N1470 G1 X-24.305 Y47.867
N1475 X-25.862 Y44.117
N1480 G2 X-27.12 Y43.264 I-1.277 J0.53
N1485 G3 X-28.377 Y42.412 I0.007 J-1.363
N1490 G1 X-28.76 Y41.465
N1495 X-7.567
N1500 G2 X-6.072 Y39.342 I0. J-1.588
N1505 G1 X-13.084 Y19.766
N1510 X-14.005 Y17.161
N1515 X-9.697 Y22.843
N1520 X-1.957 Y33.106
N1525 X-1.938 Y33.13
N1530 X6.002 Y43.239
N1535 X6.032 Y43.277
N1540 X8.353 Y46.052
N1545 X10.774 Y48.952
N1550 X12.943 Y51.901
N1555 X13.352 Y52.577
N1560 X-5.715
N1565 G2 X-7.201 Y54.722 I0. J1.588
N1570 G1 X0.723 Y75.853
N1575 X-9.517 Y75.82
N1580 X-14.163 Y75.519
N1585 X-15.1 Y73.834
N1590 X-18.16 Y66.768
N1595 X-25.904 Y48.53
N1600 X-28.377 Y42.412
N1605 X-28.384 Y42.374
N1610 X-28.376 Y42.337
N1615 X-28.354 Y42.305
N1620 X-28.322 Y42.285
N1625 X-28.284 Y42.279
N1630 X-28.247 Y42.288
N1635 X-27.867 Y42.466
N1640 X-15.924 Y50.531
N1645 X-15.804 Y50.691
N1650 X-15.791 Y50.723
N1655 X-15.794 Y50.757
N1660 X-15.811 Y50.787
N1665 X-15.84 Y50.806
N1670 X-15.874 Y50.81
N1675 X-15.907 Y50.798
N1680 X-15.931 Y50.774
N1685 G3 X-13.343 Y49.223 Z-2.165 I1.294 J-0.775 F1000.
N1690 X-15.931 Y50.774 Z-2.331 I-1.294 J0.775
N1695 X-13.343 Y49.223 Z-2.496 I1.294 J-0.775
N1700 X-15.931 Y50.774 Z-2.662 I-1.294 J0.775
N1705 X-13.343 Y49.223 Z-2.827 I1.294 J-0.775
N1710 X-13.953 Y51.342 Z-2.914 I-1.294 J0.775
N1715 X-16.025 Y50.588 Z-3. I-0.684 J-1.344
N1720 G1 X-16.257 Y50.041 F3000.
N1725 G3 X-16.067 Y49.753 I0.191 J-0.081
N1730 G1 X-14.868
N1735 G3 X-14.687 Y50.036 I0. J0.2
N1740 G2 X-15.283 Y51.719 I8.972 J4.128
N1745 G3 X-15.537 Y51.738 I-0.13 J-0.033
N1750 G1 X-16.025 Y50.588
N1755 G2 X-16.949 Y49.982 I-0.916 J0.389
N1760 G3 X-17.873 Y49.376 I-0.007 J-0.997
N1765 G1 X-18.113 Y48.813
N1770 G3 X-17.923 Y48.525 I0.191 J-0.081
N1775 G1 X-12.614
N1780 G3 X-12.487 Y48.787 I0. J0.162
N1785 G2 X-14.28 Y52.822 I6.911 J5.487
N1790 X-13.854 Y57.217 I8.406 J1.402
N1795 G1 X-9.961 Y67.468
N1800 X-9.956 Y67.504
N1805 X-9.963 Y67.538
N1810 X-9.984 Y67.567
N1815 X-10.013 Y67.587
N1820 X-10.048 Y67.593
N1825 X-10.083 Y67.586
N1830 X-10.113 Y67.567
N1835 X-10.133 Y67.538
N1840 X-17.873 Y49.376
N1845 G2 X-19.059 Y48.6 I-1.174 J0.501
N1850 G3 X-20.244 Y47.824 I-0.01 J-1.277
N1855 G1 X-20.494 Y47.237
N1860 G3 X-20.304 Y46.949 I0.191 J-0.081
N1865 G1 X-7.567 Y46.994
N1870 G2 X-3.934 Y45.971 I0. J-6.961
N1875 X-1.34 Y43.231 I-3.775 J-6.171
N1880 G3 X-1.002 Y43.202 I0.179 J0.096
N1885 X0.412 Y45.027 I-136.909 J107.54
N1890 G2 X1.854 Y46.83 I41.822 J-31.963
N1895 G3 X1.731 Y47.092 I-0.123 J0.102
N1900 X-1.992 Y47.07 I0. J-308.022
N1905 G2 X-5.715 Y47.047 I-3.723 J308.
N1910 X-12.379 Y56.664 I0. J7.117
N1915 G1 X-7.31 Y70.051
N1920 G3 X-7.512 Y70.342 I-0.201 J0.076
N1925 X-8.899 Y70.329 I0.381 J-119.362
N1930 X-10.284 Y70.274 I0.411 J-27.76
N1935 X-10.832 Y69.889 I0.042 J-0.641
N1940 G1 X-20.244 Y47.824
N1945 G2 X-21.798 Y46.805 I-1.543 J0.658
N1950 G3 X-23.353 Y45.785 I-0.013 J-1.675
N1955 G1 X-23.629 Y45.135
N1960 G3 X-23.434 Y44.846 I0.195 J-0.079
N1965 G1 X-6.922 Y44.85
N1970 G2 X-2.862 Y38.192 I-0.643 J-4.959
N1975 X-3.028 Y37.769 I-6.846 J2.452
N1980 G3 X-3.195 Y37.347 I6.679 J-2.875
N1985 G1 X-3.201 Y37.309
N1990 X-3.194 Y37.272
N1995 X-3.175 Y37.239
N2000 X-3.145 Y37.215
N2005 X-3.109 Y37.203
N2010 X-3.071 Y37.204
N2015 X-3.036 Y37.218
N2020 X-3.008 Y37.243
N2025 G3 X0.166 Y41.384 I-174.752 J137.265
N2030 G2 X3.403 Y45.475 I77.248 J-57.797
N2035 X4.878 Y47.204 I89.656 J-74.971
N2040 G3 X6.353 Y48.933 I-80.892 J70.483
N2045 X6.23 Y49.195 I-0.123 J0.102
N2050 G1 X-6.359 Y49.192
N2055 G2 X-10.409 Y55.925 I0.645 J4.973
N2060 G1 X-4.272 Y72.164
N2065 G3 X-4.474 Y72.455 I-0.201 J0.076
N2070 G1 X-6.477 Y72.448
N2075 G3 X-9.401 Y72.394 I0.303 J-95.001
N2080 X-10.552 Y72.351 I5.498 J-161.77
N2085 X-11.703 Y72.29 I2.001 J-48.668
N2090 X-12.251 Y71.904 I0.042 J-0.641
N2095 G1 X-23.353 Y45.785
N2100 G2 X-24.608 Y44.951 I-1.261 J0.536
N2105 G3 X-25.862 Y44.117 I-0.005 J-1.353
N2110 G1 X-26.144 Y43.44
N2115 G3 X-25.948 Y43.15 I0.195 J-0.079
N2120 G1 X-7.14 Y43.168
N2125 G2 X-4.443 Y38.758 I-0.427 J-3.291
N2130 G1 X-8.491 Y27.588
N2135 X-8.498 Y27.551
N2140 X-8.491 Y27.514
N2145 X-8.471 Y27.481
N2150 X-8.442 Y27.458
N2155 X-8.406 Y27.446
N2160 X-8.368 Y27.448
N2165 X-8.333 Y27.462
N2170 X-8.305 Y27.488
N2175 G3 X-5.819 Y30.856 I-163.496 J123.293
N2180 G2 X-3.299 Y34.2 I84.533 J-61.077
N2185 G1 X4.704 Y44.387
N2190 X9.91 Y50.623
N2195 G3 X9.775 Y50.891 I-0.135 J0.1
N2200 G1 X-6.141 Y50.874
N2205 G2 X-8.822 Y55.33 I0.427 J3.291
N2210 G1 X-1.822 Y73.868
N2215 G3 X-2.024 Y74.158 I-0.201 J0.076
N2220 G1 X-9.458 Y74.09
N2225 G3 X-12.716 Y73.924 I3.262 J-95.974
N2230 X-13.342 Y73.528 I0.05 J-0.772
N2235 G1 X-24.305 Y47.867
N2240 X-25.862 Y44.117
N2245 G2 X-27.12 Y43.264 I-1.277 J0.53
N2250 G3 X-28.377 Y42.412 I0.007 J-1.363
N2255 G1 X-28.76 Y41.465
N2260 X-7.567
N2265 G2 X-6.072 Y39.342 I0. J-1.588
N2270 G1 X-13.084 Y19.766
N2275 X-14.005 Y17.161
N2280 X-9.697 Y22.843
N2285 X-1.957 Y33.106
N2290 X-1.938 Y33.13
N2295 X6.002 Y43.239
N2300 X6.032 Y43.277
N2305 X8.353 Y46.052
N2310 X10.774 Y48.952
N2315 X12.943 Y51.901
N2320 X13.352 Y52.577
N2325 X-5.715
N2330 G2 X-7.201 Y54.722 I0. J1.588
N2335 G1 X0.723 Y75.853
N2340 X-9.517 Y75.82
N2345 X-14.163 Y75.519
N2350 X-15.1 Y73.834
N2355 X-18.16 Y66.768
N2360 X-25.904 Y48.53
N2365 X-28.377 Y42.412
N2370 G3 X-28.106 Y42.156 I0.185 J-0.075
N2375 G1 X-14.79 Y48.472
N2380 X-14.744 Y48.487
N2385 X-14.696 Y48.491
N2390 G3 X-14.578 Y51.505 Z-3.165 I0.059 J1.507 F1000.
N2395 X-14.696 Y48.491 Z-3.331 I-0.059 J-1.507
N2400 X-14.578 Y51.505 Z-3.496 I0.059 J1.507
N2405 X-16.025 Y50.588 Z-3.56 I-0.059 J-1.507
N2410 G1 X-16.257 Y50.041 F3000.
N2415 G3 X-16.067 Y49.753 I0.191 J-0.081
N2420 G1 X-14.868
N2425 G3 X-14.687 Y50.036 I0. J0.2
N2430 G2 X-15.283 Y51.719 I8.972 J4.128
N2435 G3 X-15.537 Y51.738 I-0.13 J-0.033
N2440 G1 X-16.025 Y50.588
N2445 G2 X-16.949 Y49.982 I-0.916 J0.389
N2450 G3 X-17.873 Y49.376 I-0.007 J-0.997
N2455 G1 X-18.113 Y48.813
N2460 G3 X-17.923 Y48.525 I0.191 J-0.081
N2465 G1 X-12.614
N2470 G3 X-12.487 Y48.787 I0. J0.162
N2475 G2 X-14.28 Y52.822 I6.911 J5.487
N2480 X-13.854 Y57.217 I8.406 J1.402
N2485 G1 X-9.961 Y67.468
N2490 X-9.956 Y67.504
N2495 X-9.963 Y67.538
N2500 X-9.984 Y67.567
N2505 X-10.013 Y67.587
N2510 X-10.048 Y67.593
N2515 X-10.083 Y67.586
N2520 X-10.113 Y67.567
N2525 X-10.133 Y67.538
N2530 X-17.873 Y49.376
N2535 G2 X-19.059 Y48.6 I-1.174 J0.501
N2540 G3 X-20.244 Y47.824 I-0.01 J-1.277
N2545 G1 X-20.494 Y47.237
N2550 G3 X-20.304 Y46.949 I0.191 J-0.081
N2555 G1 X-7.567 Y46.994
N2560 G2 X-3.934 Y45.971 I0. J-6.961
N2565 X-1.34 Y43.231 I-3.775 J-6.171
N2570 G3 X-1.002 Y43.202 I0.179 J0.096
N2575 X0.412 Y45.027 I-136.909 J107.54
N2580 G2 X1.854 Y46.83 I41.822 J-31.963
N2585 G3 X1.731 Y47.092 I-0.123 J0.102
N2590 X-1.992 Y47.07 I0. J-308.022
N2595 G2 X-5.715 Y47.047 I-3.723 J308.
N2600 X-12.379 Y56.664 I0. J7.117
N2605 G1 X-7.31 Y70.051
N2610 G3 X-7.512 Y70.342 I-0.201 J0.076
N2615 X-8.899 Y70.329 I0.381 J-119.362
N2620 X-10.284 Y70.274 I0.411 J-27.76
N2625 X-10.832 Y69.889 I0.042 J-0.641
N2630 G1 X-20.244 Y47.824
N2635 G2 X-21.798 Y46.805 I-1.543 J0.658
N2640 G3 X-23.353 Y45.785 I-0.013 J-1.675
N2645 G1 X-23.629 Y45.135
N2650 G3 X-23.434 Y44.846 I0.195 J-0.079
N2655 G1 X-6.922 Y44.85
N2660 G2 X-2.862 Y38.192 I-0.643 J-4.959
N2665 X-3.028 Y37.769 I-6.846 J2.452
N2670 G3 X-3.195 Y37.347 I6.679 J-2.875
N2675 G1 X-3.201 Y37.309
N2680 X-3.194 Y37.272
N2685 X-3.175 Y37.239
N2690 X-3.145 Y37.215
N2695 X-3.109 Y37.203
N2700 X-3.071 Y37.204
N2705 X-3.036 Y37.218
N2710 X-3.008 Y37.243
N2715 G3 X0.166 Y41.384 I-174.752 J137.265
N2720 G2 X3.403 Y45.475 I77.248 J-57.797
N2725 X4.878 Y47.204 I89.656 J-74.971
N2730 G3 X6.353 Y48.933 I-80.892 J70.483
N2735 X6.23 Y49.195 I-0.123 J0.102
N2740 G1 X-6.359 Y49.192
N2745 G2 X-10.409 Y55.925 I0.645 J4.973
N2750 G1 X-4.272 Y72.164
N2755 G3 X-4.474 Y72.455 I-0.201 J0.076
N2760 G1 X-6.477 Y72.448
N2765 G3 X-9.401 Y72.394 I0.303 J-95.001
N2770 X-10.552 Y72.351 I5.498 J-161.77
N2775 X-11.703 Y72.29 I2.001 J-48.668
N2780 X-12.251 Y71.904 I0.042 J-0.641
N2785 G1 X-23.353 Y45.785
N2790 G2 X-24.608 Y44.951 I-1.261 J0.536
N2795 G3 X-25.862 Y44.117 I-0.005 J-1.353
N2800 G1 X-26.144 Y43.44
N2805 G3 X-25.948 Y43.15 I0.195 J-0.079
N2810 G1 X-7.14 Y43.168
N2815 G2 X-4.443 Y38.758 I-0.427 J-3.291
N2820 G1 X-8.491 Y27.588
N2825 X-8.498 Y27.551
N2830 X-8.491 Y27.514
N2835 X-8.471 Y27.481
N2840 X-8.442 Y27.458
N2845 X-8.406 Y27.446
N2850 X-8.368 Y27.448
N2855 X-8.333 Y27.462
N2860 X-8.305 Y27.488
N2865 G3 X-5.819 Y30.856 I-163.496 J123.293
N2870 G2 X-3.299 Y34.2 I84.533 J-61.077
N2875 G1 X4.704 Y44.387
N2880 X9.91 Y50.623
N2885 G3 X9.775 Y50.891 I-0.135 J0.1
N2890 G1 X-6.141 Y50.874
N2895 G2 X-8.822 Y55.33 I0.427 J3.291
N2900 G1 X-1.822 Y73.868
N2905 G3 X-2.024 Y74.158 I-0.201 J0.076
N2910 G1 X-9.458 Y74.09
N2915 G3 X-12.716 Y73.924 I3.262 J-95.974
N2920 X-13.342 Y73.528 I0.05 J-0.772
N2925 G1 X-24.305 Y47.867
N2930 X-25.862 Y44.117
N2935 G2 X-27.12 Y43.264 I-1.277 J0.53
N2940 G3 X-28.377 Y42.412 I0.007 J-1.363
N2945 G1 X-28.76 Y41.465
N2950 X-7.567
N2955 G2 X-6.072 Y39.342 I0. J-1.588
N2960 G1 X-13.084 Y19.766
N2965 X-14.005 Y17.161
N2970 X-9.697 Y22.843
N2975 X-1.957 Y33.106
N2980 X-1.938 Y33.13
N2985 X6.002 Y43.239
N2990 X6.032 Y43.277
N2995 X8.353 Y46.052
N3000 X10.774 Y48.952
N3005 X12.943 Y51.901
N3010 X13.352 Y52.577
N3015 X-5.715
N3020 G2 X-7.201 Y54.722 I0. J1.588
N3025 G1 X0.723 Y75.853
N3030 X-9.517 Y75.82
N3035 X-14.163 Y75.519
N3040 X-15.1 Y73.834
N3045 X-18.16 Y66.768
N3050 X-25.904 Y48.53
N3055 X-28.377 Y42.412
N3060 G3 X-28.106 Y42.156 I0.185 J-0.075
N3065 G1 X-14.79 Y48.472
N3070 X-14.744 Y48.487
N3075 X-14.696 Y48.491
N3080 G3 X-14.578 Y51.505 Z-3.725 I0.059 J1.507 F1000.
N3085 X-14.696 Y48.491 Z-3.891 I-0.059 J-1.507
N3090 X-14.578 Y51.505 Z-4.056 I0.059 J1.507
N3095 X-16.025 Y50.588 Z-4.12 I-0.059 J-1.507
N3100 G1 X-16.257 Y50.041 F3000.
N3105 G3 X-16.067 Y49.753 I0.191 J-0.081
N3110 G1 X-14.868
N3115 G3 X-14.687 Y50.036 I0. J0.2
N3120 G2 X-15.283 Y51.719 I8.972 J4.128
N3125 G3 X-15.537 Y51.738 I-0.13 J-0.033
N3130 G1 X-16.025 Y50.588
N3135 G2 X-16.949 Y49.982 I-0.916 J0.389
N3140 G3 X-17.873 Y49.376 I-0.007 J-0.997
N3145 G1 X-18.113 Y48.813
N3150 G3 X-17.923 Y48.525 I0.191 J-0.081
N3155 G1 X-12.614
N3160 G3 X-12.487 Y48.787 I0. J0.162
N3165 G2 X-14.28 Y52.822 I6.911 J5.487
N3170 X-13.854 Y57.217 I8.406 J1.402
N3175 G1 X-9.961 Y67.468
N3180 X-9.956 Y67.504
N3185 X-9.963 Y67.538
N3190 X-9.984 Y67.567
N3195 X-10.013 Y67.587
N3200 X-10.048 Y67.593
N3205 X-10.083 Y67.586
N3210 X-10.113 Y67.567
N3215 X-10.133 Y67.538
N3220 X-17.873 Y49.376
N3225 G2 X-19.059 Y48.6 I-1.174 J0.501
N3230 G3 X-20.244 Y47.824 I-0.01 J-1.277
N3235 G1 X-20.494 Y47.237
N3240 G3 X-20.304 Y46.949 I0.191 J-0.081
N3245 G1 X-7.567 Y46.994
N3250 G2 X-3.934 Y45.971 I0. J-6.961
N3255 X-1.34 Y43.231 I-3.775 J-6.171
N3260 G3 X-1.002 Y43.202 I0.179 J0.096
N3265 X0.412 Y45.027 I-136.909 J107.54
N3270 G2 X1.854 Y46.83 I41.822 J-31.963
N3275 G3 X1.731 Y47.092 I-0.123 J0.102
N3280 X-1.992 Y47.07 I0. J-308.022
N3285 G2 X-5.715 Y47.047 I-3.723 J308.
N3290 X-12.379 Y56.664 I0. J7.117
N3295 G1 X-7.31 Y70.051
N3300 G3 X-7.512 Y70.342 I-0.201 J0.076
N3305 X-8.899 Y70.329 I0.381 J-119.362
N3310 X-10.284 Y70.274 I0.411 J-27.76
N3315 X-10.832 Y69.889 I0.042 J-0.641
N3320 G1 X-20.244 Y47.824
N3325 G2 X-21.798 Y46.805 I-1.543 J0.658
N3330 G3 X-23.353 Y45.785 I-0.013 J-1.675
N3335 G1 X-23.629 Y45.135
N3340 G3 X-23.434 Y44.846 I0.195 J-0.079
N3345 G1 X-6.922 Y44.85
N3350 G2 X-2.862 Y38.192 I-0.643 J-4.959
N3355 X-3.028 Y37.769 I-6.846 J2.452
N3360 G3 X-3.195 Y37.347 I6.679 J-2.875
N3365 G1 X-3.201 Y37.309
N3370 X-3.194 Y37.272
N3375 X-3.175 Y37.239
N3380 X-3.145 Y37.215
N3385 X-3.109 Y37.203
N3390 X-3.071 Y37.204
N3395 X-3.036 Y37.218
N3400 X-3.008 Y37.243
N3405 G3 X0.166 Y41.384 I-174.752 J137.265
N3410 G2 X3.403 Y45.475 I77.248 J-57.797
N3415 X4.878 Y47.204 I89.656 J-74.971
N3420 G3 X6.353 Y48.933 I-80.892 J70.483
N3425 X6.23 Y49.195 I-0.123 J0.102
N3430 G1 X-6.359 Y49.192
N3435 G2 X-10.409 Y55.925 I0.645 J4.973
N3440 G1 X-4.272 Y72.164
N3445 G3 X-4.474 Y72.455 I-0.201 J0.076
N3450 G1 X-6.477 Y72.448
N3455 G3 X-9.401 Y72.394 I0.303 J-95.001
N3460 X-10.552 Y72.351 I5.498 J-161.77
N3465 X-11.703 Y72.29 I2.001 J-48.668
N3470 X-12.251 Y71.904 I0.042 J-0.641
N3475 G1 X-23.353 Y45.785
N3480 G2 X-24.608 Y44.951 I-1.261 J0.536
N3485 G3 X-25.862 Y44.117 I-0.005 J-1.353
N3490 G1 X-26.144 Y43.44
N3495 G3 X-25.948 Y43.15 I0.195 J-0.079
N3500 G1 X-7.14 Y43.168
N3505 G2 X-4.443 Y38.758 I-0.427 J-3.291
N3510 G1 X-8.491 Y27.588
N3515 X-8.498 Y27.551
N3520 X-8.491 Y27.514
N3525 X-8.471 Y27.481
N3530 X-8.442 Y27.458
N3535 X-8.406 Y27.446
N3540 X-8.368 Y27.448
N3545 X-8.333 Y27.462
N3550 X-8.305 Y27.488
N3555 G3 X-5.819 Y30.856 I-163.496 J123.293
N3560 G2 X-3.299 Y34.2 I84.533 J-61.077
N3565 G1 X4.704 Y44.387
N3570 X9.91 Y50.623
N3575 G3 X9.775 Y50.891 I-0.135 J0.1
N3580 G1 X-6.141 Y50.874
N3585 G2 X-8.822 Y55.33 I0.427 J3.291
N3590 G1 X-1.822 Y73.868
N3595 G3 X-2.024 Y74.158 I-0.201 J0.076
N3600 G1 X-9.458 Y74.09
N3605 G3 X-12.716 Y73.924 I3.262 J-95.974
N3610 X-13.342 Y73.528 I0.05 J-0.772
N3615 G1 X-24.305 Y47.867
N3620 X-25.862 Y44.117
N3625 G2 X-27.12 Y43.264 I-1.277 J0.53
N3630 G3 X-28.377 Y42.412 I0.007 J-1.363
N3635 G1 X-28.76 Y41.465
N3640 X-7.567
N3645 G2 X-6.072 Y39.342 I0. J-1.588
N3650 G1 X-13.084 Y19.766
N3655 X-14.005 Y17.161
N3660 X-9.697 Y22.843
N3665 X-1.957 Y33.106
N3670 X-1.938 Y33.13
N3675 X6.002 Y43.239
N3680 X6.032 Y43.277
N3685 X8.353 Y46.052
N3690 X10.774 Y48.952
N3695 X12.943 Y51.901
N3700 X13.352 Y52.577
N3705 X-5.715
N3710 G2 X-7.201 Y54.722 I0. J1.588
N3715 G1 X0.723 Y75.853
N3720 X-9.517 Y75.82
N3725 X-14.163 Y75.519
N3730 X-15.1 Y73.834
N3735 X-18.16 Y66.768
N3740 X-25.904 Y48.53
N3745 X-28.377 Y42.412
N3750 X-28.395 Y42.354 Z-4.108
N3755 X-28.401 Y42.293 Z-4.096
N3760 X-28.396 Y42.242 Z-4.061
N3765 X-28.384 Y42.192 Z-4.027
N3770 X-28.355 Y42.13 Z-3.924
N3775 X-28.342 Y42.11 Z-3.803
N3780 Z5.
N3785 X-66.058 Y34.732
N3790 Z2.817
N3795 X-66.062 Y34.725 Z2.748 F1000.
N3800 X-66.074 Y34.706 Z2.682
N3805 X-66.093 Y34.675 Z2.623
N3810 X-66.119 Y34.634 Z2.573
N3815 X-66.15 Y34.585 Z2.535
N3820 X-66.184 Y34.53 Z2.51
N3825 X-66.22 Y34.472 Z2.5
N3830 X-74.927 Y20.516 Z1.926
N3835 X-74.938 Y20.499 Z1.925
N3840 X-78.031 Y15.678 Z1.725
N3845 X-79.461 Y13.322 Z1.629
N3850 X-80.734 Y10.966 Z1.535
N3855 X-81.796 Y8.579 Z1.444
N3860 X-82.588 Y6.16 Z1.355
N3865 X-83.066 Y3.753 Z1.269
N3870 X-82.697 Y4.055 Z1.253
N3875 X-82.171 Y4.734 Z1.223
N3880 X-81.7 Y5.612 Z1.188
N3885 X-81.228 Y6.703 Z1.146
N3890 X-80.708 Y7.947 Z1.099
N3895 X-80.675 Y8.019 Z1.096
N3900 X-80.042 Y9.342 Z1.045
N3905 X-79.972 Y9.472 Z1.04
N3910 X-77.653 Y13.346 Z0.882
N3915 X-77.63 Y13.383 Z0.881
N3920 X-75.216 Y17.173 Z0.724
N3925 X-65.141 Y33.453 Z0.055
N3930 X-55.001 Y49.713 Z-0.614
N3935 X-54.988 Y49.733 Z-0.615
N3940 X-53.879 Y51.452 Z-0.686
N3945 X-53.853 Y51.493 Z-0.688
N3950 X-52.646 Y53.244 Z-0.762
N3955 X-50.149 Y56.822 Z-0.914
N3960 X-48.985 Y58.606 Z-0.989
N3965 X-48.821 Y58.884 Z-1.
N3970 X-47.938 Y60.388 F3000.
N3975 X-47.058 Y62.156
N3980 X-46.825 Y62.764
N3985 X-47.336 Y63.085
N3990 X-48.07 Y63.443
N3995 X-48.151 Y63.464
N4000 X-48.242 Y63.381
N4005 X-48.798 Y62.614
N4010 X-49.346 Y61.645
N4015 X-49.826 Y60.794
N4020 X-49.861 Y60.735
N4025 X-56.438 Y50.151
N4030 X-74.927 Y20.516
N4035 X-74.938 Y20.499
N4040 X-78.031 Y15.678
N4045 X-79.461 Y13.322
N4050 X-80.734 Y10.966
N4055 X-81.796 Y8.579
N4060 X-82.588 Y6.16
N4065 X-83.066 Y3.753
N4070 X-82.697 Y4.055
N4075 X-82.171 Y4.734
N4080 X-81.7 Y5.612
N4085 X-81.228 Y6.703
N4090 X-80.708 Y7.947
N4095 X-80.675 Y8.019
N4100 X-80.042 Y9.342
N4105 X-79.972 Y9.472
N4110 X-77.653 Y13.346
N4115 X-77.63 Y13.383
N4120 X-75.216 Y17.173
N4125 X-65.141 Y33.453
N4130 X-55.001 Y49.713
N4135 X-54.988 Y49.733
N4140 X-53.879 Y51.452
N4145 X-53.853 Y51.493
N4150 X-52.646 Y53.244
N4155 X-50.149 Y56.822
N4160 X-48.985 Y58.606
N4165 X-48.821 Y58.884
N4170 X-47.938 Y60.388 Z-1.061 F1000.
N4175 X-47.058 Y62.156 Z-1.13
N4180 X-46.825 Y62.764 Z-1.153
N4185 X-47.336 Y63.085 Z-1.174
N4190 X-48.07 Y63.443 Z-1.202
N4195 X-48.151 Y63.464 Z-1.205
N4200 X-48.242 Y63.381 Z-1.209
N4205 X-48.798 Y62.614 Z-1.243
N4210 X-49.346 Y61.645 Z-1.281
N4215 X-49.826 Y60.794 Z-1.315
N4220 X-49.861 Y60.735 Z-1.318
N4225 X-56.438 Y50.151 Z-1.753
N4230 X-60.182 Y44.151 Z-2.
N4235 X-74.927 Y20.516 F3000.
N4240 X-74.938 Y20.499
N4245 X-78.031 Y15.678
N4250 X-79.461 Y13.322
N4255 X-80.734 Y10.966
N4260 X-81.796 Y8.579
N4265 X-82.588 Y6.16
N4270 X-83.066 Y3.753
N4275 X-82.697 Y4.055
N4280 X-82.171 Y4.734
N4285 X-81.7 Y5.612
N4290 X-81.228 Y6.703
N4295 X-80.708 Y7.947
N4300 X-80.675 Y8.019
N4305 X-80.042 Y9.342
N4310 X-79.972 Y9.472
N4315 X-77.653 Y13.346
N4320 X-77.63 Y13.383
N4325 X-75.216 Y17.173
N4330 X-65.141 Y33.453
N4335 X-55.001 Y49.713
N4340 X-54.988 Y49.733
N4345 X-53.879 Y51.452
N4350 X-53.853 Y51.493
N4355 X-52.646 Y53.244
N4360 X-50.149 Y56.822
N4365 X-48.985 Y58.606
N4370 X-47.938 Y60.388
N4375 X-47.058 Y62.156
N4380 X-46.825 Y62.764
N4385 X-47.336 Y63.085
N4390 X-48.07 Y63.443
N4395 X-48.151 Y63.464
N4400 X-48.242 Y63.381
N4405 X-48.798 Y62.614
N4410 X-49.346 Y61.645
N4415 X-49.826 Y60.794
N4420 X-49.861 Y60.735
N4425 X-56.438 Y50.151
N4430 X-60.182 Y44.151
N4435 X-74.927 Y20.516 Z-2.973 F1000.
N4440 X-74.938 Y20.499 Z-2.974
N4445 X-75.347 Y19.86 Z-3.
N4450 X-78.031 Y15.678 F3000.
N4455 X-79.461 Y13.322
N4460 X-80.734 Y10.966
N4465 X-81.796 Y8.579
N4470 X-82.588 Y6.16
N4475 X-83.066 Y3.753
N4480 X-82.697 Y4.055
N4485 X-82.171 Y4.734
N4490 X-81.7 Y5.612
N4495 X-81.228 Y6.703
N4500 X-80.708 Y7.947
N4505 X-80.675 Y8.019
N4510 X-80.042 Y9.342
N4515 X-79.972 Y9.472
N4520 X-77.653 Y13.346
N4525 X-77.63 Y13.383
N4530 X-75.216 Y17.173
N4535 X-65.141 Y33.453
N4540 X-55.001 Y49.713
N4545 X-54.988 Y49.733
N4550 X-53.879 Y51.452
N4555 X-53.853 Y51.493
N4560 X-52.646 Y53.244
N4565 X-50.149 Y56.822
N4570 X-48.985 Y58.606
N4575 X-47.938 Y60.388
N4580 X-47.058 Y62.156
N4585 X-46.825 Y62.764
N4590 X-47.336 Y63.085
N4595 X-48.07 Y63.443
N4600 X-48.151 Y63.464
N4605 X-48.242 Y63.381
N4610 X-48.798 Y62.614
N4615 X-49.346 Y61.645
N4620 X-49.826 Y60.794
N4625 X-49.861 Y60.735
N4630 X-56.438 Y50.151
N4635 X-74.927 Y20.516
N4640 X-74.938 Y20.499
N4645 X-75.347 Y19.86
N4650 X-78.031 Y15.678 Z-3.174 F1000.
N4655 X-79.461 Y13.322 Z-3.27
N4660 X-80.734 Y10.966 Z-3.363
N4665 X-81.796 Y8.579 Z-3.455
N4670 X-82.588 Y6.16 Z-3.543
N4675 X-82.681 Y5.694 Z-3.56
N4680 X-83.066 Y3.753 F3000.
N4685 X-82.697 Y4.055
N4690 X-82.171 Y4.734
N4695 X-81.7 Y5.612
N4700 X-81.228 Y6.703
N4705 X-80.708 Y7.947
N4710 X-80.675 Y8.019
N4715 X-80.042 Y9.342
N4720 X-79.972 Y9.472
N4725 X-77.653 Y13.346
N4730 X-77.63 Y13.383
N4735 X-75.216 Y17.173
N4740 X-65.141 Y33.453
N4745 X-55.001 Y49.713
N4750 X-54.988 Y49.733
N4755 X-53.879 Y51.452
N4760 X-53.853 Y51.493
N4765 X-52.646 Y53.244
N4770 X-50.149 Y56.822
N4775 X-48.985 Y58.606
N4780 X-47.938 Y60.388
N4785 X-47.058 Y62.156
N4790 X-46.825 Y62.764
N4795 X-47.336 Y63.085
N4800 X-48.07 Y63.443
N4805 X-48.151 Y63.464
N4810 X-48.242 Y63.381
N4815 X-48.798 Y62.614
N4820 X-49.346 Y61.645
N4825 X-49.826 Y60.794
N4830 X-49.861 Y60.735
N4835 X-56.438 Y50.151
N4840 X-74.927 Y20.516
N4845 X-74.938 Y20.499
N4850 X-78.031 Y15.678
N4855 X-79.461 Y13.322
N4860 X-80.734 Y10.966
N4865 X-81.796 Y8.579
N4870 X-82.588 Y6.16
N4875 X-82.681 Y5.694
N4880 X-83.066 Y3.753 Z-3.629 F1000.
N4885 X-82.697 Y4.055 Z-3.646
N4890 X-82.171 Y4.734 Z-3.676
N4895 X-81.7 Y5.612 Z-3.711
N4900 X-81.228 Y6.703 Z-3.752
N4905 X-80.708 Y7.947 Z-3.799
N4910 X-80.675 Y8.019 Z-3.802
N4915 X-80.042 Y9.342 Z-3.853
N4920 X-79.972 Y9.472 Z-3.858
N4925 X-77.653 Y13.346 Z-4.016
N4930 X-77.63 Y13.383 Z-4.017
N4935 X-76.053 Y15.859 Z-4.12
N4940 X-75.216 Y17.173 F3000.
N4945 X-65.141 Y33.453
N4950 X-55.001 Y49.713
N4955 X-54.988 Y49.733
N4960 X-53.879 Y51.452
N4965 X-53.853 Y51.493
N4970 X-52.646 Y53.244
N4975 X-50.149 Y56.822
N4980 X-48.985 Y58.606
N4985 X-47.938 Y60.388
N4990 X-47.058 Y62.156
N4995 X-46.825 Y62.764
N5000 X-47.336 Y63.085
N5005 X-48.07 Y63.443
N5010 X-48.151 Y63.464
N5015 X-48.242 Y63.381
N5020 X-48.798 Y62.614
N5025 X-49.346 Y61.645
N5030 X-49.826 Y60.794
N5035 X-49.861 Y60.735
N5040 X-56.438 Y50.151
N5045 X-74.927 Y20.516
N5050 X-74.938 Y20.499
N5055 X-78.031 Y15.678
N5060 X-79.461 Y13.322
N5065 X-80.734 Y10.966
N5070 X-81.796 Y8.579
N5075 X-82.588 Y6.16
N5080 X-83.066 Y3.753
N5085 X-82.697 Y4.055
N5090 X-82.171 Y4.734
N5095 X-81.7 Y5.612
N5100 X-81.228 Y6.703
N5105 X-80.708 Y7.947
N5110 X-80.675 Y8.019
N5115 X-80.042 Y9.342
N5120 X-79.972 Y9.472
N5125 X-77.653 Y13.346
N5130 X-77.63 Y13.383
N5135 X-76.053 Y15.859
N5140 X-76.025 Y15.913 Z-4.108
N5145 X-76.008 Y15.972 Z-4.096
N5150 X-76.003 Y16.023 Z-4.061
N5155 X-76.006 Y16.074 Z-4.027
N5160 X-76.023 Y16.141 Z-3.924
N5165 X-76.032 Y16.163 Z-3.803
N5170 Z5.
N5175 X-53.776 Y-5.569
N5180 Z2.817
N5185 X-53.783 Z2.748 F1000.
N5190 X-53.806 Y-5.57 Z2.682
N5195 X-53.842 Y-5.571 Z2.623
N5200 X-53.89 Y-5.572 Z2.573
N5205 X-53.948 Y-5.573 Z2.535
N5210 X-54.013 Y-5.574 Z2.51
N5215 X-54.082 Y-5.576 Z2.5
N5220 X-59.415 Y-5.687 Z2.314
N5225 X-61.859 Y-5.804 Z2.228
N5230 X-64.519 Y-5.939 Z2.135
N5235 X-64.566 Y-5.941 Z2.134
N5240 X-67.327 Y-5.998 Z2.037
N5245 X-67.427 Y-5.997 Z2.034
N5250 X-70.222 Y-5.88 Z1.936
N5255 X-70.304 Y-5.874 Z1.933
N5260 X-70.386 Y-5.865 Z1.93
N5265 X-73.195 Y-5.452 Z1.831
N5270 X-73.283 Y-5.437 Z1.828
N5275 X-73.37 Y-5.416 Z1.825
N5280 X-74.726 Y-5.058 Z1.776
N5285 X-74.875 Y-5.01 Z1.77
N5290 X-76.178 Y-4.524 Z1.722
N5295 X-76.265 Y-4.488 Z1.719
N5300 X-76.35 Y-4.447 Z1.715
N5305 X-77.582 Y-3.812 Z1.667
N5310 X-77.678 Y-3.758 Z1.663
N5315 X-77.771 Y-3.697 Z1.659
N5320 X-78.904 Y-2.896 Z1.611
N5325 X-79. Y-2.822 Z1.606
N5330 X-79.091 Y-2.741 Z1.602
N5335 X-80.075 Y-1.788 Z1.554
N5340 G2 X-80.241 Y-1.6 Z1.546 I1.104 J1.141
N5345 G1 X-80.251 Y-1.587 Z1.545
N5350 X-81.73 Y-2.376 Z1.486
N5355 X-81.299 Y-3.096 Z1.457
N5360 X-80.608 Y-3.912 Z1.42
N5365 X-79.785 Y-4.622 Z1.382
N5370 X-78.838 Y-5.231 Z1.343
N5375 X-77.791 Y-5.738 Z1.302
N5380 X-76.667 Y-6.15 Z1.26
N5385 X-75.513 Y-6.468 Z1.218
N5390 X-72.999 Y-6.914 Z1.129
N5395 X-70.421 Y-7.137 Z1.039
N5400 X-67.88 Y-7.212 Z0.95
N5405 X-65.509 Y-7.219 Z0.867
N5410 X-27.147 Y-7.179 Z-0.472
N5415 X-27.11 Z-0.474
N5420 X-22.061 Y-7.294 Z-0.65
N5425 X-22.042 Y-7.295 Z-0.651
N5430 X-16.918 Y-7.473 Z-0.83
N5435 X-12.043 Y-7.451 Z-1.
N5440 X-11.843 Y-7.45 F3000.
N5445 X-9.409 Y-7.285
N5450 X-8.45 Y-7.16
N5455 X-8.537 Y-5.76
N5460 X-9.771 Y-5.643
N5465 X-12.331 Y-5.531
N5470 X-17.536 Y-5.566
N5475 X-22.721 Y-5.732
N5480 X-22.759 Y-5.733
N5485 X-27.926 Y-5.776
N5490 X-27.965
N5495 X-43.704 Y-5.521
N5500 X-51.564 Y-5.523
N5505 X-59.415 Y-5.687
N5510 X-61.859 Y-5.804
N5515 X-64.519 Y-5.939
N5520 X-64.566 Y-5.941
N5525 X-67.327 Y-5.998
N5530 X-67.427 Y-5.997
N5535 X-70.222 Y-5.88
N5540 X-70.304 Y-5.874
N5545 X-70.386 Y-5.865
N5550 X-73.195 Y-5.452
N5555 X-73.283 Y-5.437
N5560 X-73.37 Y-5.416
N5565 X-74.726 Y-5.058
N5570 X-74.875 Y-5.01
N5575 X-76.178 Y-4.524
N5580 X-76.265 Y-4.488
N5585 X-76.35 Y-4.447
N5590 X-77.582 Y-3.812
N5595 X-77.678 Y-3.758
N5600 X-77.771 Y-3.697
N5605 X-78.904 Y-2.896
N5610 X-79. Y-2.822
N5615 X-79.091 Y-2.741
N5620 X-80.075 Y-1.788
N5625 G2 X-80.241 Y-1.6 I1.104 J1.141
N5630 G1 X-80.251 Y-1.587
N5635 X-81.73 Y-2.376
N5640 X-81.299 Y-3.096
N5645 X-80.608 Y-3.912
N5650 X-79.785 Y-4.622
N5655 X-78.838 Y-5.231
N5660 X-77.791 Y-5.738
N5665 X-76.667 Y-6.15
N5670 X-75.513 Y-6.468
N5675 X-72.999 Y-6.914
N5680 X-70.421 Y-7.137
N5685 X-67.88 Y-7.212
N5690 X-65.509 Y-7.219
N5695 X-27.147 Y-7.179
N5700 X-27.11
N5705 X-22.061 Y-7.294
N5710 X-22.042 Y-7.295
N5715 X-16.918 Y-7.473
N5720 X-12.043 Y-7.451
N5725 X-11.843 Y-7.45 Z-1.007 F1000.
N5730 X-9.409 Y-7.285 Z-1.092
N5735 X-8.45 Y-7.16 Z-1.126
N5740 X-8.537 Y-5.76 Z-1.175
N5745 X-9.771 Y-5.643 Z-1.218
N5750 X-12.331 Y-5.531 Z-1.308
N5755 X-17.536 Y-5.566 Z-1.489
N5760 X-22.721 Y-5.732 Z-1.671
N5765 X-22.759 Y-5.733 Z-1.672
N5770 X-27.926 Y-5.776 Z-1.852
N5775 X-27.965 Z-1.854
N5780 X-32.153 Y-5.708 Z-2.
N5785 X-43.704 Y-5.521 F3000.
N5790 X-51.564 Y-5.523
N5795 X-59.415 Y-5.687
N5800 X-61.859 Y-5.804
N5805 X-64.519 Y-5.939
N5810 X-64.566 Y-5.941
N5815 X-67.327 Y-5.998
N5820 X-67.427 Y-5.997
N5825 X-70.222 Y-5.88
N5830 X-70.304 Y-5.874
N5835 X-70.386 Y-5.865
N5840 X-73.195 Y-5.452
N5845 X-73.283 Y-5.437
N5850 X-73.37 Y-5.416
N5855 X-74.726 Y-5.058
N5860 X-74.875 Y-5.01
N5865 X-76.178 Y-4.524
N5870 X-76.265 Y-4.488
N5875 X-76.35 Y-4.447
N5880 X-77.582 Y-3.812
N5885 X-77.678 Y-3.758
N5890 X-77.771 Y-3.697
N5895 X-78.904 Y-2.896
N5900 X-79. Y-2.822
N5905 X-79.091 Y-2.741
N5910 X-80.075 Y-1.788
N5915 G2 X-80.241 Y-1.6 I1.104 J1.141
N5920 G1 X-80.251 Y-1.587
N5925 X-81.73 Y-2.376
N5930 X-81.299 Y-3.096
N5935 X-80.608 Y-3.912
N5940 X-79.785 Y-4.622
N5945 X-78.838 Y-5.231
N5950 X-77.791 Y-5.738
N5955 X-76.667 Y-6.15
N5960 X-75.513 Y-6.468
N5965 X-72.999 Y-6.914
N5970 X-70.421 Y-7.137
N5975 X-67.88 Y-7.212
N5980 X-65.509 Y-7.219
N5985 X-27.147 Y-7.179
N5990 X-27.11
N5995 X-22.061 Y-7.294
N6000 X-22.042 Y-7.295
N6005 X-16.918 Y-7.473
N6010 X-12.043 Y-7.451
N6015 X-11.843 Y-7.45
N6020 X-9.409 Y-7.285
N6025 X-8.45 Y-7.16
N6030 X-8.537 Y-5.76
N6035 X-9.771 Y-5.643
N6040 X-12.331 Y-5.531
N6045 X-17.536 Y-5.566
N6050 X-22.721 Y-5.732
N6055 X-22.759 Y-5.733
N6060 X-27.926 Y-5.776
N6065 X-27.965
N6070 X-32.153 Y-5.708
N6075 X-43.704 Y-5.521 Z-2.403 F1000.
N6080 X-51.564 Y-5.523 Z-2.678
N6085 X-59.415 Y-5.687 Z-2.952
N6090 X-60.785 Y-5.753 Z-3.
N6095 X-61.859 Y-5.804 F3000.
N6100 X-64.519 Y-5.939
N6105 X-64.566 Y-5.941
N6110 X-67.327 Y-5.998
N6115 X-67.427 Y-5.997
N6120 X-70.222 Y-5.88
N6125 X-70.304 Y-5.874
N6130 X-70.386 Y-5.865
N6135 X-73.195 Y-5.452
N6140 X-73.283 Y-5.437
N6145 X-73.37 Y-5.416
N6150 X-74.726 Y-5.058
N6155 X-74.875 Y-5.01
N6160 X-76.178 Y-4.524
N6165 X-76.265 Y-4.488
N6170 X-76.35 Y-4.447
N6175 X-77.582 Y-3.812
N6180 X-77.678 Y-3.758
N6185 X-77.771 Y-3.697
N6190 X-78.904 Y-2.896
N6195 X-79. Y-2.822
N6200 X-79.091 Y-2.741
N6205 X-80.075 Y-1.788
N6210 G2 X-80.241 Y-1.6 I1.104 J1.141
N6215 G1 X-80.251 Y-1.587
N6220 X-81.73 Y-2.376
N6225 X-81.299 Y-3.096
N6230 X-80.608 Y-3.912
N6235 X-79.785 Y-4.622
N6240 X-78.838 Y-5.231
N6245 X-77.791 Y-5.738
N6250 X-76.667 Y-6.15
N6255 X-75.513 Y-6.468
N6260 X-72.999 Y-6.914
N6265 X-70.421 Y-7.137
N6270 X-67.88 Y-7.212
N6275 X-65.509 Y-7.219
N6280 X-27.147 Y-7.179
N6285 X-27.11
N6290 X-22.061 Y-7.294
N6295 X-22.042 Y-7.295
N6300 X-16.918 Y-7.473
N6305 X-11.843 Y-7.45
N6310 X-9.409 Y-7.285
N6315 X-8.45 Y-7.16
N6320 X-8.537 Y-5.76
N6325 X-9.771 Y-5.643
N6330 X-12.331 Y-5.531
N6335 X-17.536 Y-5.566
N6340 X-22.721 Y-5.732
N6345 X-22.759 Y-5.733
N6350 X-27.926 Y-5.776
N6355 X-27.965
N6360 X-43.704 Y-5.521
N6365 X-51.564 Y-5.523
N6370 X-59.415 Y-5.687
N6375 X-60.785 Y-5.753
N6380 X-61.859 Y-5.804 Z-3.038 F1000.
N6385 X-64.519 Y-5.939 Z-3.131
N6390 X-64.566 Y-5.941 Z-3.132
N6395 X-67.327 Y-5.998 Z-3.229
N6400 X-67.427 Y-5.997 Z-3.232
N6405 X-70.222 Y-5.88 Z-3.33
N6410 X-70.304 Y-5.874 Z-3.333
N6415 X-70.386 Y-5.865 Z-3.336
N6420 X-73.195 Y-5.452 Z-3.435
N6425 X-73.283 Y-5.437 Z-3.438
N6430 X-73.37 Y-5.416 Z-3.441
N6435 X-74.726 Y-5.058 Z-3.49
N6440 X-74.875 Y-5.01 Z-3.495
N6445 X-76.178 Y-4.524 Z-3.544
N6450 X-76.265 Y-4.488 Z-3.547
N6455 X-76.35 Y-4.447 Z-3.551
N6460 X-76.59 Y-4.323 Z-3.56
N6465 X-77.582 Y-3.812 F3000.
N6470 X-77.678 Y-3.758
N6475 X-77.771 Y-3.697
N6480 X-78.904 Y-2.896
N6485 X-79. Y-2.822
N6490 X-79.091 Y-2.741
N6495 X-80.075 Y-1.788
N6500 G2 X-80.241 Y-1.6 I1.104 J1.141
N6505 G1 X-80.251 Y-1.587
N6510 X-81.73 Y-2.376
N6515 X-81.299 Y-3.096
N6520 X-80.608 Y-3.912
N6525 X-79.785 Y-4.622
N6530 X-78.838 Y-5.231
N6535 X-77.791 Y-5.738
N6540 X-76.667 Y-6.15
N6545 X-75.513 Y-6.468
N6550 X-72.999 Y-6.914
N6555 X-70.421 Y-7.137
N6560 X-67.88 Y-7.212
N6565 X-65.509 Y-7.219
N6570 X-27.147 Y-7.179
N6575 X-27.11
N6580 X-22.061 Y-7.294
N6585 X-22.042 Y-7.295
N6590 X-16.918 Y-7.473
N6595 X-11.843 Y-7.45
N6600 X-9.409 Y-7.285
N6605 X-8.45 Y-7.16
N6610 X-8.537 Y-5.76
N6615 X-9.771 Y-5.643
N6620 X-12.331 Y-5.531
N6625 X-17.536 Y-5.566
N6630 X-22.721 Y-5.732
N6635 X-22.759 Y-5.733
N6640 X-27.926 Y-5.776
N6645 X-27.965
N6650 X-43.704 Y-5.521
N6655 X-51.564 Y-5.523
N6660 X-59.415 Y-5.687
N6665 X-60.785 Y-5.753
N6670 X-61.859 Y-5.804
N6675 X-64.519 Y-5.939
N6680 X-64.566 Y-5.941
N6685 X-67.327 Y-5.998
N6690 X-67.427 Y-5.997
N6695 X-70.222 Y-5.88
N6700 X-70.304 Y-5.874
N6705 X-70.386 Y-5.865
N6710 X-73.195 Y-5.452
N6715 X-73.283 Y-5.437
N6720 X-73.37 Y-5.416
N6725 X-74.726 Y-5.058
N6730 X-74.875 Y-5.01
N6735 X-76.178 Y-4.524
N6740 X-76.265 Y-4.488
N6745 X-76.35 Y-4.447
N6750 X-76.59 Y-4.323
N6755 X-77.582 Y-3.812 Z-3.599 F1000.
N6760 X-77.678 Y-3.758 Z-3.603
N6765 X-77.771 Y-3.697 Z-3.607
N6770 X-78.904 Y-2.896 Z-3.655
N6775 X-79. Y-2.822 Z-3.659
N6780 X-79.091 Y-2.741 Z-3.664
N6785 X-80.075 Y-1.788 Z-3.711
N6790 G2 X-80.241 Y-1.6 Z-3.72 I1.104 J1.141
N6795 G1 X-80.251 Y-1.587 Z-3.721
N6800 X-81.73 Y-2.376 Z-3.779
N6805 X-81.299 Y-3.096 Z-3.809
N6810 X-80.608 Y-3.912 Z-3.846
N6815 X-79.785 Y-4.622 Z-3.884
N6820 X-78.838 Y-5.231 Z-3.923
N6825 X-77.791 Y-5.738 Z-3.964
N6830 X-76.667 Y-6.15 Z-4.006
N6835 X-75.513 Y-6.468 Z-4.048
N6840 X-73.469 Y-6.831 Z-4.12
N6845 X-72.999 Y-6.914 F3000.
N6850 X-70.421 Y-7.137
N6855 X-67.88 Y-7.212
N6860 X-65.509 Y-7.219
N6865 X-27.147 Y-7.179
N6870 X-27.11
N6875 X-22.061 Y-7.294
N6880 X-22.042 Y-7.295
N6885 X-16.918 Y-7.473
N6890 X-11.843 Y-7.45
N6895 X-9.409 Y-7.285
N6900 X-8.45 Y-7.16
N6905 X-8.537 Y-5.76
N6910 X-9.771 Y-5.643
N6915 X-12.331 Y-5.531
N6920 X-17.536 Y-5.566
N6925 X-22.721 Y-5.732
N6930 X-22.759 Y-5.733
N6935 X-27.926 Y-5.776
N6940 X-27.965
N6945 X-43.704 Y-5.521
N6950 X-51.564 Y-5.523
N6955 X-59.415 Y-5.687
N6960 X-61.859 Y-5.804
N6965 X-64.519 Y-5.939
N6970 X-64.566 Y-5.941
N6975 X-67.327 Y-5.998
N6980 X-67.427 Y-5.997
N6985 X-70.222 Y-5.88
N6990 X-70.304 Y-5.874
N6995 X-70.386 Y-5.865
N7000 X-73.195 Y-5.452
N7005 X-73.283 Y-5.437
N7010 X-73.37 Y-5.416
N7015 X-74.726 Y-5.058
N7020 X-74.875 Y-5.01
N7025 X-76.178 Y-4.524
N7030 X-76.265 Y-4.488
N7035 X-76.35 Y-4.447
N7040 X-77.582 Y-3.812
N7045 X-77.678 Y-3.758
N7050 X-77.771 Y-3.697
N7055 X-78.904 Y-2.896
N7060 X-79. Y-2.822
N7065 X-79.091 Y-2.741
N7070 X-80.075 Y-1.788
N7075 G2 X-80.241 Y-1.6 I1.104 J1.141
N7080 G1 X-80.251 Y-1.587
N7085 X-81.73 Y-2.376
N7090 X-81.299 Y-3.096
N7095 X-80.608 Y-3.912
N7100 X-79.785 Y-4.622
N7105 X-78.838 Y-5.231
N7110 X-77.791 Y-5.738
N7115 X-76.667 Y-6.15
N7120 X-75.513 Y-6.468
N7125 X-73.469 Y-6.831
N7130 X-73.409 Y-6.836 Z-4.108
N7135 X-73.348 Y-6.829 Z-4.096
N7140 X-73.299 Y-6.814 Z-4.061
N7145 X-73.253 Y-6.792 Z-4.027
N7150 X-73.198 Y-6.751 Z-3.924
N7155 X-73.181 Y-6.734 Z-3.803
N7160 Z5.
N7165 X-49.948 Y-27.408
N7170 Z2.817
N7175 X-49.962 Y-27.426 Z2.698 F1000.
N7180 X-50.001 Y-27.48 Z2.597
N7185 X-50.056 Y-27.563 Z2.527
N7190 X-50.113 Y-27.666 Z2.5
N7195 G3 X-47.421 Y-29.026 Z2.335 I1.346 J-0.68
N7200 X-50.113 Y-27.666 Z2.169 I-1.346 J0.68
N7205 X-47.421 Y-29.026 Z2.004 I1.346 J-0.68
N7210 X-50.113 Y-27.666 Z1.838 I-1.346 J0.68
N7215 X-47.421 Y-29.026 Z1.673 I1.346 J-0.68
N7220 X-50.113 Y-27.666 Z1.507 I-1.346 J0.68
N7225 X-47.421 Y-29.026 Z1.342 I1.346 J-0.68
N7230 X-50.113 Y-27.666 Z1.176 I-1.346 J0.68
N7235 X-47.421 Y-29.026 Z1.011 I1.346 J-0.68
N7240 X-50.113 Y-27.666 Z0.845 I-1.346 J0.68
N7245 X-47.421 Y-29.026 Z0.68 I1.346 J-0.68
N7250 X-50.113 Y-27.666 Z0.515 I-1.346 J0.68
N7255 X-47.421 Y-29.026 Z0.349 I1.346 J-0.68
N7260 X-50.113 Y-27.666 Z0.184 I-1.346 J0.68
N7265 X-47.421 Y-29.026 Z0.018 I1.346 J-0.68
N7270 X-50.113 Y-27.666 Z-0.147 I-1.346 J0.68
N7275 X-47.421 Y-29.026 Z-0.313 I1.346 J-0.68
N7280 X-50.113 Y-27.666 Z-0.478 I-1.346 J0.68
N7285 X-47.421 Y-29.026 Z-0.644 I1.346 J-0.68
N7290 X-50.113 Y-27.666 Z-0.809 I-1.346 J0.68
N7295 X-47.421 Y-29.026 Z-0.974 I1.346 J-0.68
N7300 X-47.259 Y-28.321 Z-1. I-1.346 J0.68
N7305 X-49.636 Y-28.36 I-1.188 J-0.02
N7310 X-49.477 Y-30.848 I26.55 J0.441 F3000.
N7315 G2 X-49.315 Y-33.677 I-24.662 J-2.829
N7320 G1 X-49.36 Y-52.662
N7325 G3 X-49.041 Y-52.981 I0.319 J0.
N7330 G1 X-48.642
N7335 G3 X-48.323 Y-52.662 I0. J0.319
N7340 X-48.345 Y-49.784 I-184.064 J0.
N7345 G2 X-48.368 Y-46.906 I184.042 J2.878
N7350 X-48.345 Y-46.56 I2.701 J0.
N7355 G1 X-47.927 Y-43.322
N7360 G2 X-45.614 Y-40.984 I2.69 J-0.348
N7365 G1 X-45.413 Y-40.962
N7370 X-45.212 Y-40.94
N7375 G3 X-44.883 Y-40.561 I-0.053 J0.379
N7380 G1 Y-40.357
N7385 G3 X-45.203 Y-40.037 I-0.319 J0.
N7390 G1 X-45.435 Y-40.045
N7395 X-45.667 Y-40.052
N7400 G2 X-48.337 Y-37.424 I0. J2.671
N7405 X-48.368 Y-33.677 I231.539 J3.747
N7410 X-48.345 Y-30.854 I177.085 J0.
N7415 G3 X-48.323 Y-28.032 I-177.063 J2.823
N7420 X-48.647 Y-27.687 I-0.346 J0.
N7425 G1 X-48.673 Y-27.685
N7430 X-48.7
N7435 G3 X-49.017 Y-27.69 I-0.081 J-4.904
N7440 G2 X-49.333 Y-27.702 I-0.848 J17.603
N7445 G3 X-49.639 Y-28.019 I0.01 J-0.315
N7450 X-49.636 Y-28.36 I26.553 J0.099
N7455 G2 X-50.172 Y-29.164 I-0.849 J-0.014
N7460 G3 X-50.684 Y-29.984 I0.3 J-0.757
N7465 G1 X-50.539 Y-31.88
N7470 X-50.465 Y-32.809
N7475 X-50.461 Y-32.868
N7480 X-50.43 Y-33.611
N7485 X-50.429 Y-33.677
N7490 Y-54.05
N7495 X-47.254
N7500 Y-46.906
N7505 X-47.251 Y-46.804
N7510 X-47.241 Y-46.703
N7515 X-46.817 Y-43.423
N7520 G2 X-45.464 Y-42.054 I1.574 J-0.204
N7525 G1 X-43.815 Y-41.822
N7530 Y-38.969
N7535 X-45.667
N7540 G2 X-47.254 Y-37.381 I0. J1.587
N7545 G1 Y-26.704
N7550 X-48.682 Y-26.614
N7555 X-50.175 Y-26.659
N7560 X-50.535 Y-26.737
N7565 X-50.594 Y-26.927
N7570 X-50.709 Y-27.731
N7575 X-50.701 Y-29.76
N7580 X-50.684 Y-29.984
N7585 X-50.676 Y-30.013
N7590 X-50.657 Y-30.037
N7595 X-50.63 Y-30.051
N7600 X-50.599 Y-30.054
N7605 X-50.57 Y-30.045
N7610 X-50.25 Y-29.865
N7615 X-47.698 Y-28.602
N7620 X-47.345 Y-28.596
N7625 X-47.319 Y-28.591
N7630 X-47.295 Y-28.577
N7635 X-47.278 Y-28.555
N7640 X-47.27 Y-28.529
N7645 G3 X-50.264 Y-28.163 Z-1.165 I-1.497 J0.183 F1000.
N7650 X-47.27 Y-28.529 Z-1.331 I1.497 J-0.183
N7655 X-50.264 Y-28.163 Z-1.496 I-1.497 J0.183
N7660 X-47.27 Y-28.529 Z-1.662 I1.497 J-0.183
N7665 X-50.264 Y-28.163 Z-1.827 I-1.497 J0.183
N7670 X-48.846 Y-29.852 Z-1.914 I1.497 J-0.183
N7675 X-47.259 Y-28.321 Z-2. I0.079 J1.506
N7680 X-49.636 Y-28.36 I-1.188 J-0.02
N7685 X-49.477 Y-30.848 I26.55 J0.441 F3000.
N7690 G2 X-49.315 Y-33.677 I-24.662 J-2.829
N7695 G1 X-49.36 Y-52.662
N7700 G3 X-49.041 Y-52.981 I0.319 J0.
N7705 G1 X-48.642
N7710 G3 X-48.323 Y-52.662 I0. J0.319
N7715 X-48.345 Y-49.784 I-184.064 J0.
N7720 G2 X-48.368 Y-46.906 I184.042 J2.878
N7725 X-48.345 Y-46.56 I2.701 J0.
N7730 G1 X-47.927 Y-43.322
N7735 G2 X-45.614 Y-40.984 I2.69 J-0.348
N7740 G1 X-45.413 Y-40.962
N7745 X-45.212 Y-40.94
N7750 G3 X-44.883 Y-40.561 I-0.053 J0.379
N7755 G1 Y-40.357
N7760 G3 X-45.203 Y-40.037 I-0.319 J0.
N7765 G1 X-45.435 Y-40.045
N7770 X-45.667 Y-40.052
N7775 G2 X-48.337 Y-37.424 I0. J2.671
N7780 X-48.368 Y-33.677 I231.539 J3.747
N7785 X-48.345 Y-30.854 I177.085 J0.
N7790 G3 X-48.323 Y-28.032 I-177.063 J2.823
N7795 X-48.647 Y-27.687 I-0.346 J0.
N7800 G1 X-48.673 Y-27.685
N7805 X-48.7
N7810 G3 X-49.017 Y-27.69 I-0.081 J-4.904
N7815 G2 X-49.333 Y-27.702 I-0.848 J17.603
N7820 G3 X-49.639 Y-28.019 I0.01 J-0.315
N7825 X-49.636 Y-28.36 I26.553 J0.099
N7830 G2 X-50.172 Y-29.164 I-0.849 J-0.014
N7835 G3 X-50.684 Y-29.984 I0.3 J-0.757
N7840 G1 X-50.539 Y-31.88
N7845 X-50.465 Y-32.809
N7850 X-50.461 Y-32.868
N7855 X-50.43 Y-33.611
N7860 X-50.429 Y-33.677
N7865 Y-54.05
N7870 X-47.254
N7875 Y-46.906
N7880 X-47.251 Y-46.804
N7885 X-47.241 Y-46.703
N7890 X-46.817 Y-43.423
N7895 G2 X-45.464 Y-42.054 I1.574 J-0.204
N7900 G1 X-43.815 Y-41.822
N7905 Y-38.969
N7910 X-45.667
N7915 G2 X-47.254 Y-37.381 I0. J1.587
N7920 G1 Y-26.704
N7925 X-48.682 Y-26.614
N7930 X-50.175 Y-26.659
N7935 X-50.535 Y-26.737
N7940 X-50.594 Y-26.927
N7945 X-50.709 Y-27.731
N7950 X-50.701 Y-29.76
N7955 X-50.684 Y-29.984
N7960 X-50.676 Y-30.013
N7965 X-50.657 Y-30.037
N7970 X-50.63 Y-30.051
N7975 X-50.599 Y-30.054
N7980 X-50.57 Y-30.045
N7985 X-50.25 Y-29.865
N7990 X-47.698 Y-28.602
N7995 X-47.345 Y-28.596
N8000 X-47.319 Y-28.591
N8005 X-47.295 Y-28.577
N8010 X-47.278 Y-28.555
N8015 X-47.27 Y-28.529
N8020 G3 X-50.264 Y-28.163 Z-2.165 I-1.497 J0.183 F1000.
N8025 X-47.27 Y-28.529 Z-2.331 I1.497 J-0.183
N8030 X-50.264 Y-28.163 Z-2.496 I-1.497 J0.183
N8035 X-47.27 Y-28.529 Z-2.662 I1.497 J-0.183
N8040 X-50.264 Y-28.163 Z-2.827 I-1.497 J0.183
N8045 X-48.846 Y-29.852 Z-2.914 I1.497 J-0.183
N8050 X-47.259 Y-28.321 Z-3. I0.079 J1.506
N8055 X-49.636 Y-28.36 I-1.188 J-0.02
N8060 X-49.477 Y-30.848 I26.55 J0.441 F3000.
N8065 G2 X-49.315 Y-33.677 I-24.662 J-2.829
N8070 G1 X-49.36 Y-52.662
N8075 G3 X-49.041 Y-52.981 I0.319 J0.
N8080 G1 X-48.642
N8085 G3 X-48.323 Y-52.662 I0. J0.319
N8090 X-48.345 Y-49.784 I-184.064 J0.
N8095 G2 X-48.368 Y-46.906 I184.042 J2.878
N8100 X-48.345 Y-46.56 I2.701 J0.
N8105 G1 X-47.927 Y-43.322
N8110 G2 X-45.614 Y-40.984 I2.69 J-0.348
N8115 G1 X-45.413 Y-40.962
N8120 X-45.212 Y-40.94
N8125 G3 X-44.883 Y-40.561 I-0.053 J0.379
N8130 G1 Y-40.357
N8135 G3 X-45.203 Y-40.037 I-0.319 J0.
N8140 G1 X-45.435 Y-40.045
N8145 X-45.667 Y-40.052
N8150 G2 X-48.337 Y-37.424 I0. J2.671
N8155 X-48.368 Y-33.677 I231.539 J3.747
N8160 X-48.345 Y-30.854 I177.085 J0.
N8165 G3 X-48.323 Y-28.032 I-177.063 J2.823
N8170 X-48.647 Y-27.687 I-0.346 J0.
N8175 G1 X-48.673 Y-27.685
N8180 X-48.7
N8185 G3 X-49.017 Y-27.69 I-0.081 J-4.904
N8190 G2 X-49.333 Y-27.702 I-0.848 J17.603
N8195 G3 X-49.639 Y-28.019 I0.01 J-0.315
N8200 X-49.636 Y-28.36 I26.553 J0.099
N8205 G2 X-50.172 Y-29.164 I-0.849 J-0.014
N8210 G3 X-50.684 Y-29.984 I0.3 J-0.757
N8215 G1 X-50.539 Y-31.88
N8220 X-50.465 Y-32.809
N8225 X-50.461 Y-32.868
N8230 X-50.43 Y-33.611
N8235 X-50.429 Y-33.677
N8240 Y-54.05
N8245 X-47.254
N8250 Y-46.906
N8255 X-47.251 Y-46.804
N8260 X-47.241 Y-46.703
N8265 X-46.817 Y-43.423
N8270 G2 X-45.464 Y-42.054 I1.574 J-0.204
N8275 G1 X-43.815 Y-41.822
N8280 Y-38.969
N8285 X-45.667
N8290 G2 X-47.254 Y-37.381 I0. J1.587
N8295 G1 Y-26.704
N8300 X-48.682 Y-26.614
N8305 X-50.175 Y-26.659
N8310 X-50.535 Y-26.737
N8315 X-50.594 Y-26.927
N8320 X-50.709 Y-27.731
N8325 X-50.701 Y-29.76
N8330 X-50.684 Y-29.984
N8335 X-50.675 Y-30.019
N8340 X-50.655 Y-30.048
N8345 X-50.625 Y-30.069
N8350 X-50.59 Y-30.078
N8355 X-50.555 Y-30.074
N8360 X-50.522 Y-30.058
N8365 X-50.498 Y-30.033
N8370 X-50.263 Y-29.678
N8375 X-49.327 Y-27.388
N8380 X-49.219 Y-27.042
N8385 X-49.216 Y-27.013
N8390 X-49.224 Y-26.984
N8395 X-49.241 Y-26.96
N8400 X-49.267 Y-26.945
N8405 X-49.296 Y-26.939
N8410 X-49.325 Y-26.945
N8415 G3 X-48.209 Y-29.747 Z-3.165 I0.558 J-1.401 F1000.
N8420 X-49.325 Y-26.945 Z-3.331 I-0.558 J1.401
N8425 X-48.209 Y-29.747 Z-3.496 I0.558 J-1.401
N8430 X-47.259 Y-28.321 Z-3.56 I-0.558 J1.401
N8435 X-49.636 Y-28.36 I-1.188 J-0.02
N8440 X-49.477 Y-30.848 I26.55 J0.441 F3000.
N8445 G2 X-49.315 Y-33.677 I-24.662 J-2.829
N8450 G1 X-49.36 Y-52.662
N8455 G3 X-49.041 Y-52.981 I0.319 J0.
N8460 G1 X-48.642
N8465 G3 X-48.323 Y-52.662 I0. J0.319
N8470 X-48.345 Y-49.784 I-184.064 J0.
N8475 G2 X-48.368 Y-46.906 I184.042 J2.878
N8480 X-48.345 Y-46.56 I2.701 J0.
N8485 G1 X-47.927 Y-43.322
N8490 G2 X-45.614 Y-40.984 I2.69 J-0.348
N8495 G1 X-45.413 Y-40.962
N8500 X-45.212 Y-40.94
N8505 G3 X-44.883 Y-40.561 I-0.053 J0.379
N8510 G1 Y-40.357
N8515 G3 X-45.203 Y-40.037 I-0.319 J0.
N8520 G1 X-45.435 Y-40.045
N8525 X-45.667 Y-40.052
N8530 G2 X-48.337 Y-37.424 I0. J2.671
N8535 X-48.368 Y-33.677 I231.539 J3.747
N8540 X-48.345 Y-30.854 I177.085 J0.
N8545 G3 X-48.323 Y-28.032 I-177.063 J2.823
N8550 X-48.647 Y-27.687 I-0.346 J0.
N8555 G1 X-48.673 Y-27.685
N8560 X-48.7
N8565 G3 X-49.017 Y-27.69 I-0.081 J-4.904
N8570 G2 X-49.333 Y-27.702 I-0.848 J17.603
N8575 G3 X-49.639 Y-28.019 I0.01 J-0.315
N8580 X-49.636 Y-28.36 I26.553 J0.099
N8585 G2 X-50.172 Y-29.164 I-0.849 J-0.014
N8590 G3 X-50.684 Y-29.984 I0.3 J-0.757
N8595 G1 X-50.539 Y-31.88
N8600 X-50.465 Y-32.809
N8605 X-50.461 Y-32.868
N8610 X-50.43 Y-33.611
N8615 X-50.429 Y-33.677
N8620 Y-54.05
N8625 X-47.254
N8630 Y-46.906
N8635 X-47.251 Y-46.804
N8640 X-47.241 Y-46.703
N8645 X-46.817 Y-43.423
N8650 G2 X-45.464 Y-42.054 I1.574 J-0.204
N8655 G1 X-43.815 Y-41.822
N8660 Y-38.969
N8665 X-45.667
N8670 G2 X-47.254 Y-37.381 I0. J1.587
N8675 G1 Y-26.704
N8680 X-48.682 Y-26.614
N8685 X-50.175 Y-26.659
N8690 X-50.535 Y-26.737
N8695 X-50.594 Y-26.927
N8700 X-50.709 Y-27.731
N8705 X-50.701 Y-29.76
N8710 X-50.684 Y-29.984
N8715 X-50.675 Y-30.019
N8720 X-50.655 Y-30.048
N8725 X-50.625 Y-30.069
N8730 X-50.59 Y-30.078
N8735 X-50.555 Y-30.074
N8740 X-50.522 Y-30.058
N8745 X-50.498 Y-30.033
N8750 X-50.263 Y-29.678
N8755 X-49.327 Y-27.388
N8760 X-49.219 Y-27.042
N8765 X-49.216 Y-27.013
N8770 X-49.224 Y-26.984
N8775 X-49.241 Y-26.96
N8780 X-49.267 Y-26.945
N8785 X-49.296 Y-26.939
N8790 X-49.325 Y-26.945
N8795 G3 X-48.209 Y-29.747 Z-3.725 I0.558 J-1.401 F1000.
N8800 X-49.325 Y-26.945 Z-3.891 I-0.558 J1.401
N8805 X-48.209 Y-29.747 Z-4.056 I0.558 J-1.401
N8810 X-47.259 Y-28.321 Z-4.12 I-0.558 J1.401
N8815 X-49.636 Y-28.36 I-1.188 J-0.02
N8820 X-49.477 Y-30.848 I26.55 J0.441 F3000.
N8825 G2 X-49.315 Y-33.677 I-24.662 J-2.829
N8830 G1 X-49.36 Y-52.662
N8835 G3 X-49.041 Y-52.981 I0.319 J0.
N8840 G1 X-48.642
N8845 G3 X-48.323 Y-52.662 I0. J0.319
N8850 X-48.345 Y-49.784 I-184.064 J0.
N8855 G2 X-48.368 Y-46.906 I184.042 J2.878
N8860 X-48.345 Y-46.56 I2.701 J0.
N8865 G1 X-47.927 Y-43.322
N8870 G2 X-45.614 Y-40.984 I2.69 J-0.348
N8875 G1 X-45.413 Y-40.962
N8880 X-45.212 Y-40.94
N8885 G3 X-44.883 Y-40.561 I-0.053 J0.379
N8890 G1 Y-40.357
N8895 G3 X-45.203 Y-40.037 I-0.319 J0.
N8900 G1 X-45.435 Y-40.045
N8905 X-45.667 Y-40.052
N8910 G2 X-48.337 Y-37.424 I0. J2.671
N8915 X-48.368 Y-33.677 I231.539 J3.747
N8920 X-48.345 Y-30.854 I177.085 J0.
N8925 G3 X-48.323 Y-28.032 I-177.063 J2.823
N8930 X-48.647 Y-27.687 I-0.346 J0.
N8935 G1 X-48.673 Y-27.685
N8940 X-48.7
N8945 G3 X-49.017 Y-27.69 I-0.081 J-4.904
N8950 G2 X-49.333 Y-27.702 I-0.848 J17.603
N8955 G3 X-49.639 Y-28.019 I0.01 J-0.315
N8960 X-49.636 Y-28.36 I26.553 J0.099
N8965 G2 X-50.172 Y-29.164 I-0.849 J-0.014
N8970 G3 X-50.684 Y-29.984 I0.3 J-0.757
N8975 G1 X-50.539 Y-31.88
N8980 X-50.465 Y-32.809
N8985 X-50.461 Y-32.868
N8990 X-50.43 Y-33.611
N8995 X-50.429 Y-33.677
N9000 Y-54.05
N9005 X-47.254
N9010 Y-46.906
N9015 X-47.251 Y-46.804
N9020 X-47.241 Y-46.703
N9025 X-46.817 Y-43.423
N9030 G2 X-45.464 Y-42.054 I1.574 J-0.204
N9035 G1 X-43.815 Y-41.822
N9040 Y-38.969
N9045 X-45.667
N9050 G2 X-47.254 Y-37.381 I0. J1.587
N9055 G1 Y-26.704
N9060 X-48.682 Y-26.614
N9065 X-50.175 Y-26.659
N9070 X-50.535 Y-26.737
N9075 X-50.594 Y-26.927
N9080 X-50.709 Y-27.731
N9085 X-50.701 Y-29.76
N9090 X-50.684 Y-29.984
N9095 X-50.674 Y-30.044 Z-4.108
N9100 X-50.652 Y-30.1 Z-4.096
N9105 X-50.626 Y-30.144 Z-4.061
N9110 X-50.592 Y-30.184 Z-4.027
N9115 X-50.539 Y-30.227 Z-3.924
N9120 X-50.518 Y-30.239 Z-3.803
N9125 Z5.
N9130 X-33.424 Y-27.44
N9135 Z2.817
N9140 X-33.437 Y-27.459 Z2.698 F1000.
N9145 X-33.474 Y-27.513 Z2.597
N9150 X-33.525 Y-27.599 Z2.527
N9155 X-33.578 Y-27.704 Z2.5
N9160 G3 X-30.833 Y-28.954 Z2.335 I1.373 J-0.625
N9165 X-33.578 Y-27.704 Z2.169 I-1.373 J0.625
N9170 X-30.833 Y-28.954 Z2.004 I1.373 J-0.625
N9175 X-33.578 Y-27.704 Z1.838 I-1.373 J0.625
N9180 X-30.833 Y-28.954 Z1.673 I1.373 J-0.625
N9185 X-33.578 Y-27.704 Z1.507 I-1.373 J0.625
N9190 X-30.833 Y-28.954 Z1.342 I1.373 J-0.625
N9195 X-33.578 Y-27.704 Z1.176 I-1.373 J0.625
N9200 X-30.833 Y-28.954 Z1.011 I1.373 J-0.625
N9205 X-33.578 Y-27.704 Z0.845 I-1.373 J0.625
N9210 X-30.833 Y-28.954 Z0.68 I1.373 J-0.625
N9215 X-33.578 Y-27.704 Z0.515 I-1.373 J0.625
N9220 X-30.833 Y-28.954 Z0.349 I1.373 J-0.625
N9225 X-33.578 Y-27.704 Z0.184 I-1.373 J0.625
N9230 X-30.833 Y-28.954 Z0.018 I1.373 J-0.625
N9235 X-33.578 Y-27.704 Z-0.147 I-1.373 J0.625
N9240 X-30.833 Y-28.954 Z-0.313 I1.373 J-0.625
N9245 X-33.578 Y-27.704 Z-0.478 I-1.373 J0.625
N9250 X-30.833 Y-28.954 Z-0.644 I1.373 J-0.625
N9255 X-33.578 Y-27.704 Z-0.809 I-1.373 J0.625
N9260 X-30.833 Y-28.954 Z-0.974 I1.373 J-0.625
N9265 X-30.7 Y-28.243 Z-1. I-1.373 J0.625
N9270 X-32.59 Y-28.351 I-0.945 J-0.054
N9275 X-32.545 Y-28.866 I8.569 J0.491 F3000.
N9280 G2 X-32.511 Y-29.444 I-4.889 J-0.577
N9285 G1 X-32.503 Y-37.381
N9290 G2 X-33.002 Y-39.03 I-2.973 J0.
N9295 X-34.306 Y-40.154 I-2.673 J1.781
N9300 G3 Y-40.429 I0.065 J-0.137
N9305 G2 X-33.002 Y-41.554 I-1.369 J-2.906
N9310 X-32.503 Y-43.202 I-2.474 J-1.648
N9315 G1 X-32.547 Y-52.576
N9320 X-32.541 Y-52.621
N9325 X-32.523 Y-52.663
N9330 X-32.495 Y-52.699
N9335 X-32.458 Y-52.726
N9340 X-32.415 Y-52.743
N9345 X-32.37 Y-52.748
N9350 X-32.308 Y-52.746
N9355 X-32.257 Y-52.736
N9360 X-32.211 Y-52.712
N9365 X-32.175 Y-52.675
N9370 X-32.151 Y-52.628
N9375 X-32.142 Y-52.577
N9380 G3 X-32.25 Y-50.799 I-11.569 J0.191
N9385 G2 X-32.372 Y-49.023 I12.836 J1.776
N9390 G1 X-32.334 Y-40.588
N9395 X-32.385 Y-31.414
N9400 G2 X-32.251 Y-29.852 I13.242 J-0.348
N9405 G3 X-32.141 Y-28.287 I-10.394 J1.515
N9410 G1 X-32.149 Y-28.237
N9415 X-32.172 Y-28.19
N9420 X-32.207 Y-28.153
N9425 X-32.252 Y-28.128
N9430 X-32.302 Y-28.117
N9435 X-32.411 Y-28.11
N9440 G3 X-32.593 Y-28.29 I-0.011 J-0.171
N9445 G1 X-32.59 Y-28.351
N9450 G2 X-33.291 Y-29.512 I-1.198 J-0.069
N9455 G3 X-34.025 Y-30.652 I0.519 J-1.14
N9460 G1 Y-37.381
N9465 G2 X-35.612 Y-38.969 I-1.587 J0.
N9470 G1 X-37.465
N9475 Y-41.615
N9480 X-35.612
N9485 G2 X-34.025 Y-43.202 I0. J-1.588
N9490 G1 Y-54.144
N9495 X-32.611 Y-54.234
N9500 X-31.132 Y-54.188
N9505 X-30.811 Y-54.116
N9510 X-30.761 Y-54.012
N9515 X-30.68 Y-53.566
N9520 X-30.656 Y-52.082
N9525 X-30.767 Y-50.479
N9530 X-30.822 Y-49.75
N9535 X-30.825 Y-49.692
N9540 X-30.849 Y-49.084
N9545 X-30.85 Y-49.016
N9550 X-30.812 Y-40.585
N9555 X-30.881 Y-32.147
N9560 X-30.88 Y-32.093
N9565 X-30.863 Y-31.454
N9570 X-30.859 Y-31.375
N9575 X-30.799 Y-30.587
N9580 X-30.661 Y-28.831
N9585 X-30.668 Y-27.224
N9590 X-30.746 Y-26.786
N9595 X-31.07 Y-26.713
N9600 X-32.478 Y-26.625
N9605 X-33.868 Y-26.759
N9610 X-34.059 Y-26.813
N9615 X-34.086 Y-26.921
N9620 X-34.104 Y-27.67
N9625 X-34.06 Y-28.549
N9630 X-34.059 Y-28.564
N9635 X-34.026 Y-29.379
N9640 X-34.025 Y-29.444
N9645 Y-30.652
N9650 X-34.018 Y-30.682
N9655 X-33.999 Y-30.707
N9660 X-33.972 Y-30.721
N9665 X-33.941 Y-30.723
N9670 X-33.913 Y-30.711
N9675 X-33.64 Y-30.521
N9680 X-31.096 Y-28.567
N9685 X-30.767 Y-28.518
N9690 X-30.736 Y-28.507
N9695 X-30.713 Y-28.483
N9700 X-30.702 Y-28.451
N9705 G3 X-33.709 Y-28.207 Z-1.165 I-1.503 J0.122 F1000.
N9710 X-30.702 Y-28.451 Z-1.331 I1.503 J-0.122
N9715 X-33.709 Y-28.207 Z-1.496 I-1.503 J0.122
N9720 X-30.702 Y-28.451 Z-1.662 I1.503 J-0.122
N9725 X-33.709 Y-28.207 Z-1.827 I-1.503 J0.122
N9730 X-32.224 Y-29.837 Z-1.914 I1.503 J-0.122
N9735 X-30.7 Y-28.243 Z-2. I0.018 J1.508
N9740 X-32.59 Y-28.351 I-0.945 J-0.054
N9745 X-32.545 Y-28.866 I8.569 J0.491 F3000.
N9750 G2 X-32.511 Y-29.444 I-4.889 J-0.577
N9755 G1 X-32.503 Y-37.381
N9760 G2 X-33.002 Y-39.03 I-2.973 J0.
N9765 X-34.306 Y-40.154 I-2.673 J1.781
N9770 G3 Y-40.429 I0.065 J-0.137
N9775 G2 X-33.002 Y-41.554 I-1.369 J-2.906
N9780 X-32.503 Y-43.202 I-2.474 J-1.648
N9785 G1 X-32.547 Y-52.576
N9790 X-32.541 Y-52.621
N9795 X-32.523 Y-52.663
N9800 X-32.495 Y-52.699
N9805 X-32.458 Y-52.726
N9810 X-32.415 Y-52.743
N9815 X-32.37 Y-52.748
N9820 X-32.308 Y-52.746
N9825 X-32.257 Y-52.736
N9830 X-32.211 Y-52.712
N9835 X-32.175 Y-52.675
N9840 X-32.151 Y-52.628
N9845 X-32.142 Y-52.577
N9850 G3 X-32.25 Y-50.799 I-11.569 J0.191
N9855 G2 X-32.372 Y-49.023 I12.836 J1.776
N9860 G1 X-32.334 Y-40.588
N9865 X-32.385 Y-31.414
N9870 G2 X-32.251 Y-29.852 I13.242 J-0.348
N9875 G3 X-32.141 Y-28.287 I-10.394 J1.515
N9880 G1 X-32.149 Y-28.237
N9885 X-32.172 Y-28.19
N9890 X-32.207 Y-28.153
N9895 X-32.252 Y-28.128
N9900 X-32.302 Y-28.117
N9905 X-32.411 Y-28.11
N9910 G3 X-32.593 Y-28.29 I-0.011 J-0.171
N9915 G1 X-32.59 Y-28.351
N9920 G2 X-33.291 Y-29.512 I-1.198 J-0.069
N9925 G3 X-34.025 Y-30.652 I0.519 J-1.14
N9930 G1 Y-37.381
N9935 G2 X-35.612 Y-38.969 I-1.587 J0.
N9940 G1 X-37.465
N9945 Y-41.615
N9950 X-35.612
N9955 G2 X-34.025 Y-43.202 I0. J-1.588
N9960 G1 Y-54.144
N9965 X-32.611 Y-54.234
N9970 X-31.132 Y-54.188
N9975 X-30.811 Y-54.116
N9980 X-30.761 Y-54.012
N9985 X-30.68 Y-53.566
N9990 X-30.656 Y-52.082
N9995 X-30.767 Y-50.479
N10000 X-30.822 Y-49.75
N10005 X-30.825 Y-49.692
N10010 X-30.849 Y-49.084
N10015 X-30.85 Y-49.016
N10020 X-30.812 Y-40.585
N10025 X-30.881 Y-32.147
N10030 X-30.88 Y-32.093
N10035 X-30.863 Y-31.454
N10040 X-30.859 Y-31.375
N10045 X-30.799 Y-30.587
N10050 X-30.661 Y-28.831
N10055 X-30.668 Y-27.224
N10060 X-30.746 Y-26.786
N10065 X-31.07 Y-26.713
N10070 X-32.478 Y-26.625
N10075 X-33.868 Y-26.759
N10080 X-34.059 Y-26.813
N10085 X-34.086 Y-26.921
N10090 X-34.104 Y-27.67
N10095 X-34.06 Y-28.549
N10100 X-34.059 Y-28.564
N10105 X-34.026 Y-29.379
N10110 X-34.025 Y-29.444
N10115 Y-30.652
N10120 X-34.018 Y-30.682
N10125 X-33.999 Y-30.707
N10130 X-33.972 Y-30.721
N10135 X-33.941 Y-30.723
N10140 X-33.913 Y-30.711
N10145 X-33.64 Y-30.521
N10150 X-31.096 Y-28.567
N10155 X-30.767 Y-28.518
N10160 X-30.736 Y-28.507
N10165 X-30.713 Y-28.483
N10170 X-30.702 Y-28.451
N10175 G3 X-33.709 Y-28.207 Z-2.165 I-1.503 J0.122 F1000.
N10180 X-30.702 Y-28.451 Z-2.331 I1.503 J-0.122
N10185 X-33.709 Y-28.207 Z-2.496 I-1.503 J0.122
N10190 X-30.702 Y-28.451 Z-2.662 I1.503 J-0.122
N10195 X-33.709 Y-28.207 Z-2.827 I-1.503 J0.122
N10200 X-32.224 Y-29.837 Z-2.914 I1.503 J-0.122
N10205 X-30.7 Y-28.243 Z-3. I0.018 J1.508
N10210 X-32.59 Y-28.351 I-0.945 J-0.054
N10215 X-32.545 Y-28.866 I8.569 J0.491 F3000.
N10220 G2 X-32.511 Y-29.444 I-4.889 J-0.577
N10225 G1 X-32.503 Y-37.381
N10230 G2 X-33.002 Y-39.03 I-2.973 J0.
N10235 X-34.306 Y-40.154 I-2.673 J1.781
N10240 G3 Y-40.429 I0.065 J-0.137
N10245 G2 X-33.002 Y-41.554 I-1.369 J-2.906
N10250 X-32.503 Y-43.202 I-2.474 J-1.648
N10255 G1 X-32.547 Y-52.576
N10260 X-32.541 Y-52.621
N10265 X-32.523 Y-52.663
N10270 X-32.495 Y-52.699
N10275 X-32.458 Y-52.726
N10280 X-32.415 Y-52.743
N10285 X-32.37 Y-52.748
N10290 X-32.308 Y-52.746
N10295 X-32.257 Y-52.736
N10300 X-32.211 Y-52.712
N10305 X-32.175 Y-52.675
N10310 X-32.151 Y-52.628
N10315 X-32.142 Y-52.577
N10320 G3 X-32.25 Y-50.799 I-11.569 J0.191
N10325 G2 X-32.372 Y-49.023 I12.836 J1.776
N10330 G1 X-32.334 Y-40.588
N10335 X-32.385 Y-31.414
N10340 G2 X-32.251 Y-29.852 I13.242 J-0.348
N10345 G3 X-32.141 Y-28.287 I-10.394 J1.515
N10350 G1 X-32.149 Y-28.237
N10355 X-32.172 Y-28.19
N10360 X-32.207 Y-28.153
N10365 X-32.252 Y-28.128
N10370 X-32.302 Y-28.117
N10375 X-32.411 Y-28.11
N10380 G3 X-32.593 Y-28.29 I-0.011 J-0.171
N10385 G1 X-32.59 Y-28.351
N10390 G2 X-33.291 Y-29.512 I-1.198 J-0.069
N10395 G3 X-34.025 Y-30.652 I0.519 J-1.14
N10400 G1 Y-37.381
N10405 G2 X-35.612 Y-38.969 I-1.587 J0.
N10410 G1 X-37.465
N10415 Y-41.615
N10420 X-35.612
N10425 G2 X-34.025 Y-43.202 I0. J-1.588
N10430 G1 Y-54.144
N10435 X-32.611 Y-54.234
N10440 X-31.132 Y-54.188
N10445 X-30.811 Y-54.116
N10450 X-30.761 Y-54.012
N10455 X-30.68 Y-53.566
N10460 X-30.656 Y-52.082
N10465 X-30.767 Y-50.479
N10470 X-30.822 Y-49.75
N10475 X-30.825 Y-49.692
N10480 X-30.849 Y-49.084
N10485 X-30.85 Y-49.016
N10490 X-30.812 Y-40.585
N10495 X-30.881 Y-32.147
N10500 X-30.88 Y-32.093
N10505 X-30.863 Y-31.454
N10510 X-30.859 Y-31.375
N10515 X-30.799 Y-30.587
N10520 X-30.661 Y-28.831
N10525 X-30.668 Y-27.224
N10530 X-30.746 Y-26.786
N10535 X-31.07 Y-26.713
N10540 X-32.478 Y-26.625
N10545 X-33.868 Y-26.759
N10550 X-34.059 Y-26.813
N10555 X-34.086 Y-26.921
N10560 X-34.104 Y-27.67
N10565 X-34.06 Y-28.549
N10570 X-34.059 Y-28.564
N10575 X-34.026 Y-29.379
N10580 X-34.025 Y-29.444
N10585 Y-30.652
N10590 G3 X-33.634 Y-30.711 I0.2 J0.
N10595 G1 X-32.547 Y-27.193
N10600 G3 X-32.82 Y-26.952 I-0.191 J0.059
N10605 X-31.591 Y-29.706 Z-3.165 I0.614 J-1.377 F1000.
N10610 X-32.82 Y-26.952 Z-3.331 I-0.614 J1.377
N10615 X-31.591 Y-29.706 Z-3.496 I0.614 J-1.377
N10620 X-30.7 Y-28.243 Z-3.56 I-0.614 J1.377
N10625 X-32.59 Y-28.351 I-0.945 J-0.054
N10630 X-32.545 Y-28.866 I8.569 J0.491 F3000.
N10635 G2 X-32.511 Y-29.444 I-4.889 J-0.577
N10640 G1 X-32.503 Y-37.381
N10645 G2 X-33.002 Y-39.03 I-2.973 J0.
N10650 X-34.306 Y-40.154 I-2.673 J1.781
N10655 G3 Y-40.429 I0.065 J-0.137
N10660 G2 X-33.002 Y-41.554 I-1.369 J-2.906
N10665 X-32.503 Y-43.202 I-2.474 J-1.648
N10670 G1 X-32.547 Y-52.576
N10675 X-32.541 Y-52.621
N10680 X-32.523 Y-52.663
N10685 X-32.495 Y-52.699
N10690 X-32.458 Y-52.726
N10695 X-32.415 Y-52.743
N10700 X-32.37 Y-52.748
N10705 X-32.308 Y-52.746
N10710 X-32.257 Y-52.736
N10715 X-32.211 Y-52.712
N10720 X-32.175 Y-52.675
N10725 X-32.151 Y-52.628
N10730 X-32.142 Y-52.577
N10735 G3 X-32.25 Y-50.799 I-11.569 J0.191
N10740 G2 X-32.372 Y-49.023 I12.836 J1.776
N10745 G1 X-32.334 Y-40.588
N10750 X-32.385 Y-31.414
N10755 G2 X-32.251 Y-29.852 I13.242 J-0.348
N10760 G3 X-32.141 Y-28.287 I-10.394 J1.515
N10765 G1 X-32.149 Y-28.237
N10770 X-32.172 Y-28.19
N10775 X-32.207 Y-28.153
N10780 X-32.252 Y-28.128
N10785 X-32.302 Y-28.117
N10790 X-32.411 Y-28.11
N10795 G3 X-32.593 Y-28.29 I-0.011 J-0.171
N10800 G1 X-32.59 Y-28.351
N10805 G2 X-33.291 Y-29.512 I-1.198 J-0.069
N10810 G3 X-34.025 Y-30.652 I0.519 J-1.14
N10815 G1 Y-37.381
N10820 G2 X-35.612 Y-38.969 I-1.587 J0.
N10825 G1 X-37.465
N10830 Y-41.615
N10835 X-35.612
N10840 G2 X-34.025 Y-43.202 I0. J-1.588
N10845 G1 Y-54.144
N10850 X-32.611 Y-54.234
N10855 X-31.132 Y-54.188
N10860 X-30.811 Y-54.116
N10865 X-30.761 Y-54.012
N10870 X-30.68 Y-53.566
N10875 X-30.656 Y-52.082
N10880 X-30.767 Y-50.479
N10885 X-30.822 Y-49.75
N10890 X-30.825 Y-49.692
N10895 X-30.849 Y-49.084
N10900 X-30.85 Y-49.016
N10905 X-30.812 Y-40.585
N10910 X-30.881 Y-32.147
N10915 X-30.88 Y-32.093
N10920 X-30.863 Y-31.454
N10925 X-30.859 Y-31.375
N10930 X-30.799 Y-30.587
N10935 X-30.661 Y-28.831
N10940 X-30.668 Y-27.224
N10945 X-30.746 Y-26.786
N10950 X-31.07 Y-26.713
N10955 X-32.478 Y-26.625
N10960 X-33.868 Y-26.759
N10965 X-34.059 Y-26.813
N10970 X-34.086 Y-26.921
N10975 X-34.104 Y-27.67
N10980 X-34.06 Y-28.549
N10985 X-34.059 Y-28.564
N10990 X-34.026 Y-29.379
N10995 X-34.025 Y-29.444
N11000 Y-30.652
N11005 G3 X-33.634 Y-30.711 I0.2 J0.
N11010 G1 X-32.547 Y-27.193
N11015 G3 X-32.82 Y-26.952 I-0.191 J0.059
N11020 X-31.591 Y-29.706 Z-3.725 I0.614 J-1.377 F1000.
N11025 X-32.82 Y-26.952 Z-3.891 I-0.614 J1.377
N11030 X-31.591 Y-29.706 Z-4.056 I0.614 J-1.377
N11035 X-30.7 Y-28.243 Z-4.12 I-0.614 J1.377
N11040 X-32.59 Y-28.351 I-0.945 J-0.054
N11045 X-32.545 Y-28.866 I8.569 J0.491 F3000.
N11050 G2 X-32.511 Y-29.444 I-4.889 J-0.577
N11055 G1 X-32.503 Y-37.381
N11060 G2 X-33.002 Y-39.03 I-2.973 J0.
N11065 X-34.306 Y-40.154 I-2.673 J1.781
N11070 G3 Y-40.429 I0.065 J-0.137
N11075 G2 X-33.002 Y-41.554 I-1.369 J-2.906
N11080 X-32.503 Y-43.202 I-2.474 J-1.648
N11085 G1 X-32.547 Y-52.576
N11090 X-32.541 Y-52.621
N11095 X-32.523 Y-52.663
N11100 X-32.495 Y-52.699
N11105 X-32.458 Y-52.726
N11110 X-32.415 Y-52.743
N11115 X-32.37 Y-52.748
N11120 X-32.308 Y-52.746
N11125 X-32.257 Y-52.736
N11130 X-32.211 Y-52.712
N11135 X-32.175 Y-52.675
N11140 X-32.151 Y-52.628
N11145 X-32.142 Y-52.577
N11150 G3 X-32.25 Y-50.799 I-11.569 J0.191
N11155 G2 X-32.372 Y-49.023 I12.836 J1.776
N11160 G1 X-32.334 Y-40.588
N11165 X-32.385 Y-31.414
N11170 G2 X-32.251 Y-29.852 I13.242 J-0.348
N11175 G3 X-32.141 Y-28.287 I-10.394 J1.515
N11180 G1 X-32.149 Y-28.237
N11185 X-32.172 Y-28.19
N11190 X-32.207 Y-28.153
N11195 X-32.252 Y-28.128
N11200 X-32.302 Y-28.117
N11205 X-32.411 Y-28.11
N11210 G3 X-32.593 Y-28.29 I-0.011 J-0.171
N11215 G1 X-32.59 Y-28.351
N11220 G2 X-33.291 Y-29.512 I-1.198 J-0.069
N11225 G3 X-34.025 Y-30.652 I0.519 J-1.14
N11230 G1 Y-37.381
N11235 G2 X-35.612 Y-38.969 I-1.587 J0.
N11240 G1 X-37.465
N11245 Y-41.615
N11250 X-35.612
N11255 G2 X-34.025 Y-43.202 I0. J-1.588
N11260 G1 Y-54.144
N11265 X-32.611 Y-54.234
N11270 X-31.132 Y-54.188
N11275 X-30.811 Y-54.116
N11280 X-30.761 Y-54.012
N11285 X-30.68 Y-53.566
N11290 X-30.656 Y-52.082
N11295 X-30.767 Y-50.479
N11300 X-30.822 Y-49.75
N11305 X-30.825 Y-49.692
N11310 X-30.849 Y-49.084
N11315 X-30.85 Y-49.016
N11320 X-30.812 Y-40.585
N11325 X-30.881 Y-32.147
N11330 X-30.88 Y-32.093
N11335 X-30.863 Y-31.454
N11340 X-30.859 Y-31.375
N11345 X-30.799 Y-30.587
N11350 X-30.661 Y-28.831
N11355 X-30.668 Y-27.224
N11360 X-30.746 Y-26.786
N11365 X-31.07 Y-26.713
N11370 X-32.478 Y-26.625
N11375 X-33.868 Y-26.759
N11380 X-34.059 Y-26.813
N11385 X-34.086 Y-26.921
N11390 X-34.104 Y-27.67
N11395 X-34.06 Y-28.549
N11400 X-34.059 Y-28.564
N11405 X-34.026 Y-29.379
N11410 X-34.025 Y-29.444
N11415 Y-30.652
N11420 X-34.019 Y-30.713 Z-4.108
N11425 X-34.002 Y-30.771 Z-4.096
N11430 X-33.979 Y-30.817 Z-4.061
N11435 X-33.949 Y-30.858 Z-4.027
N11440 X-33.899 Y-30.906 Z-3.924
N11445 X-33.879 Y-30.919 Z-3.803
N11450 Z5.
N11455 X-21.314 Y-28.8
N11460 Z2.817
N11465 X-21.327 Y-28.819 Z2.698 F1000.
N11470 X-21.363 Y-28.874 Z2.597
N11475 X-21.414 Y-28.96 Z2.527
N11480 X-21.466 Y-29.065 Z2.5
N11485 G3 X-18.715 Y-30.3 Z2.335 I1.376 J-0.617
N11490 X-21.466 Y-29.065 Z2.169 I-1.376 J0.617
N11495 X-18.715 Y-30.3 Z2.004 I1.376 J-0.617
N11500 X-21.466 Y-29.065 Z1.838 I-1.376 J0.617
N11505 X-18.715 Y-30.3 Z1.673 I1.376 J-0.617
N11510 X-21.466 Y-29.065 Z1.507 I-1.376 J0.617
N11515 X-18.715 Y-30.3 Z1.342 I1.376 J-0.617
N11520 X-21.466 Y-29.065 Z1.176 I-1.376 J0.617
N11525 X-18.715 Y-30.3 Z1.011 I1.376 J-0.617
N11530 X-21.466 Y-29.065 Z0.845 I-1.376 J0.617
N11535 X-18.715 Y-30.3 Z0.68 I1.376 J-0.617
N11540 X-21.466 Y-29.065 Z0.515 I-1.376 J0.617
N11545 X-18.715 Y-30.3 Z0.349 I1.376 J-0.617
N11550 X-21.466 Y-29.065 Z0.184 I-1.376 J0.617
N11555 X-18.715 Y-30.3 Z0.018 I1.376 J-0.617
N11560 X-21.466 Y-29.065 Z-0.147 I-1.376 J0.617
N11565 X-18.715 Y-30.3 Z-0.313 I1.376 J-0.617
N11570 X-21.466 Y-29.065 Z-0.478 I-1.376 J0.617
N11575 X-18.715 Y-30.3 Z-0.644 I1.376 J-0.617
N11580 X-21.466 Y-29.065 Z-0.809 I-1.376 J0.617
N11585 X-18.715 Y-30.3 Z-0.974 I1.376 J-0.617
N11590 X-18.585 Y-29.588 Z-1. I-1.376 J0.617
N11595 X-20.744 Y-29.724 I-1.08 J-0.068
N11600 X-20.654 Y-30.826 I28.857 J1.811 F3000.
N11605 G2 X-20.477 Y-33.606 I-37.175 J-3.763
N11610 G1 X-20.521 Y-52.662
N11615 G3 X-20.202 Y-52.982 I0.319 J0.
N11620 G1 X-19.802
N11625 G3 X-19.483 Y-52.662 I0. J0.319
N11630 G1 X-19.573 Y-33.582
N11635 G2 X-19.623 Y-30.819 I169.723 J4.467
N11640 G3 X-19.674 Y-28.055 I-169.773 J-1.703
N11645 X-20.009 Y-27.705 I-0.36 J-0.009
N11650 G1 X-20.026 Y-27.704
N11655 X-20.043
N11660 X-20.262 Y-27.706
N11665 X-20.481 Y-27.714
N11670 G3 X-20.801 Y-28.043 I0.008 J-0.328
N11675 X-20.744 Y-29.724 I28.914 J0.13
N11680 G2 X-21.24 Y-30.592 I-0.908 J-0.057
N11685 G3 X-21.73 Y-31.464 I0.408 J-0.803
N11690 G1 X-21.699 Y-31.877
N11695 X-21.625 Y-32.807
N11700 X-21.622 Y-32.867
N11705 X-21.591 Y-33.612
N11710 X-21.59 Y-33.677
N11715 Y-54.05
N11720 X-18.414
N11725 Y-35.286
N11730 X-18.64 Y-26.729
N11735 X-20.02 Y-26.634
N11740 X-21.415 Y-26.669
N11745 X-21.688 Y-26.732
N11750 X-21.7 Y-26.741
N11755 X-21.758 Y-26.926
N11760 X-21.871 Y-27.729
N11765 X-21.862 Y-29.757
N11770 X-21.73 Y-31.464
N11775 X-21.722 Y-31.492
N11780 X-21.703 Y-31.514
N11785 X-21.677 Y-31.527
N11790 X-21.648 Y-31.529
N11795 X-21.621 Y-31.518
N11800 X-21.334 Y-31.335
N11805 X-18.989 Y-29.894
N11810 X-18.654 Y-29.864
N11815 X-18.629 Y-29.858
N11820 X-18.608 Y-29.843
N11825 X-18.593 Y-29.822
N11830 X-18.587 Y-29.797
N11835 G3 X-21.594 Y-29.569 Z-1.165 I-1.504 J0.114 F1000.
N11840 X-18.587 Y-29.797 Z-1.331 I1.504 J-0.114
N11845 X-21.594 Y-29.569 Z-1.496 I-1.504 J0.114
N11850 X-18.587 Y-29.797 Z-1.662 I1.504 J-0.114
N11855 X-21.594 Y-29.569 Z-1.827 I-1.504 J0.114
N11860 X-20.1 Y-31.191 Z-1.914 I1.504 J-0.114
N11865 X-18.585 Y-29.588 Z-2. I0.01 J1.508
N11870 X-20.744 Y-29.724 I-1.08 J-0.068
N11875 X-20.654 Y-30.826 I28.857 J1.811 F3000.
N11880 G2 X-20.477 Y-33.606 I-37.175 J-3.763
N11885 G1 X-20.521 Y-52.662
N11890 G3 X-20.202 Y-52.982 I0.319 J0.
N11895 G1 X-19.802
N11900 G3 X-19.483 Y-52.662 I0. J0.319
N11905 G1 X-19.573 Y-33.582
N11910 G2 X-19.623 Y-30.819 I169.723 J4.467
N11915 G3 X-19.674 Y-28.055 I-169.773 J-1.703
N11920 X-20.009 Y-27.705 I-0.36 J-0.009
N11925 G1 X-20.026 Y-27.704
N11930 X-20.043
N11935 X-20.262 Y-27.706
N11940 X-20.481 Y-27.714
N11945 G3 X-20.801 Y-28.043 I0.008 J-0.328
N11950 X-20.744 Y-29.724 I28.914 J0.13
N11955 G2 X-21.24 Y-30.592 I-0.908 J-0.057
N11960 G3 X-21.73 Y-31.464 I0.408 J-0.803
N11965 G1 X-21.699 Y-31.877
N11970 X-21.625 Y-32.807
N11975 X-21.622 Y-32.867
N11980 X-21.591 Y-33.612
N11985 X-21.59 Y-33.677
N11990 Y-54.05
N11995 X-18.414
N12000 Y-35.286
N12005 X-18.64 Y-26.729
N12010 X-20.02 Y-26.634
N12015 X-21.415 Y-26.669
N12020 X-21.688 Y-26.732
N12025 X-21.7 Y-26.741
N12030 X-21.758 Y-26.926
N12035 X-21.871 Y-27.729
N12040 X-21.862 Y-29.757
N12045 X-21.73 Y-31.464
N12050 X-21.722 Y-31.492
N12055 X-21.703 Y-31.514
N12060 X-21.677 Y-31.527
N12065 X-21.648 Y-31.529
N12070 X-21.621 Y-31.518
N12075 X-21.334 Y-31.335
N12080 X-18.989 Y-29.894
N12085 X-18.654 Y-29.864
N12090 X-18.629 Y-29.858
N12095 X-18.608 Y-29.843
N12100 X-18.593 Y-29.822
N12105 X-18.587 Y-29.797
N12110 G3 X-21.594 Y-29.569 Z-2.165 I-1.504 J0.114 F1000.
N12115 X-18.587 Y-29.797 Z-2.331 I1.504 J-0.114
N12120 X-21.594 Y-29.569 Z-2.496 I-1.504 J0.114
N12125 X-18.587 Y-29.797 Z-2.662 I1.504 J-0.114
N12130 X-21.594 Y-29.569 Z-2.827 I-1.504 J0.114
N12135 X-20.1 Y-31.191 Z-2.914 I1.504 J-0.114
N12140 X-18.585 Y-29.588 Z-3. I0.01 J1.508
N12145 X-20.744 Y-29.724 I-1.08 J-0.068
N12150 X-20.654 Y-30.826 I28.857 J1.811 F3000.
N12155 G2 X-20.477 Y-33.606 I-37.175 J-3.763
N12160 G1 X-20.521 Y-52.662
N12165 G3 X-20.202 Y-52.982 I0.319 J0.
N12170 G1 X-19.802
N12175 G3 X-19.483 Y-52.662 I0. J0.319
N12180 G1 X-19.573 Y-33.582
N12185 G2 X-19.623 Y-30.819 I169.723 J4.467
N12190 G3 X-19.674 Y-28.055 I-169.773 J-1.703
N12195 X-20.009 Y-27.705 I-0.36 J-0.009
N12200 G1 X-20.026 Y-27.704
N12205 X-20.043
N12210 X-20.262 Y-27.706
N12215 X-20.481 Y-27.714
N12220 G3 X-20.801 Y-28.043 I0.008 J-0.328
N12225 X-20.744 Y-29.724 I28.914 J0.13
N12230 G2 X-21.24 Y-30.592 I-0.908 J-0.057
N12235 G3 X-21.73 Y-31.464 I0.408 J-0.803
N12240 G1 X-21.699 Y-31.877
N12245 X-21.625 Y-32.807
N12250 X-21.622 Y-32.867
N12255 X-21.591 Y-33.612
N12260 X-21.59 Y-33.677
N12265 Y-54.05
N12270 X-18.414
N12275 Y-35.286
N12280 X-18.64 Y-26.729
N12285 X-20.02 Y-26.634
N12290 X-21.415 Y-26.669
N12295 X-21.688 Y-26.732
N12300 X-21.7 Y-26.741
N12305 X-21.758 Y-26.926
N12310 X-21.871 Y-27.729
N12315 X-21.862 Y-29.757
N12320 X-21.73 Y-31.464
N12325 X-21.722 Y-31.497
N12330 X-21.701 Y-31.525
N12335 X-21.672 Y-31.544
N12340 X-21.638 Y-31.552
N12345 X-21.604 Y-31.547
N12350 X-21.574 Y-31.529
N12355 X-21.552 Y-31.503
N12360 X-21.368 Y-31.166
N12365 X-20.682 Y-28.71
N12370 X-20.613 Y-28.389
N12375 Y-28.357
N12380 X-20.627 Y-28.329
N12385 X-20.651 Y-28.31
N12390 X-20.682 Y-28.302
N12395 X-20.712 Y-28.309
N12400 G3 X-19.469 Y-31.057 Z-3.165 I0.622 J-1.374 F1000.
N12405 X-20.712 Y-28.309 Z-3.331 I-0.622 J1.374
N12410 X-19.469 Y-31.057 Z-3.496 I0.622 J-1.374
N12415 X-18.585 Y-29.588 Z-3.56 I-0.622 J1.374
N12420 X-20.744 Y-29.724 I-1.08 J-0.068
N12425 X-20.654 Y-30.826 I28.857 J1.811 F3000.
N12430 G2 X-20.477 Y-33.606 I-37.175 J-3.763
N12435 G1 X-20.521 Y-52.662
N12440 G3 X-20.202 Y-52.982 I0.319 J0.
N12445 G1 X-19.802
N12450 G3 X-19.483 Y-52.662 I0. J0.319
N12455 G1 X-19.573 Y-33.582
N12460 G2 X-19.623 Y-30.819 I169.723 J4.467
N12465 G3 X-19.674 Y-28.055 I-169.773 J-1.703
N12470 X-20.009 Y-27.705 I-0.36 J-0.009
N12475 G1 X-20.026 Y-27.704
N12480 X-20.043
N12485 X-20.262 Y-27.706
N12490 X-20.481 Y-27.714
N12495 G3 X-20.801 Y-28.043 I0.008 J-0.328
N12500 X-20.744 Y-29.724 I28.914 J0.13
N12505 G2 X-21.24 Y-30.592 I-0.908 J-0.057
N12510 G3 X-21.73 Y-31.464 I0.408 J-0.803
N12515 G1 X-21.699 Y-31.877
N12520 X-21.625 Y-32.807
N12525 X-21.622 Y-32.867
N12530 X-21.591 Y-33.612
N12535 X-21.59 Y-33.677
N12540 Y-54.05
N12545 X-18.414
N12550 Y-35.286
N12555 X-18.64 Y-26.729
N12560 X-20.02 Y-26.634
N12565 X-21.415 Y-26.669
N12570 X-21.688 Y-26.732
N12575 X-21.7 Y-26.741
N12580 X-21.758 Y-26.926
N12585 X-21.871 Y-27.729
N12590 X-21.862 Y-29.757
N12595 X-21.73 Y-31.464
N12600 X-21.722 Y-31.497
N12605 X-21.701 Y-31.525
N12610 X-21.672 Y-31.544
N12615 X-21.638 Y-31.552
N12620 X-21.604 Y-31.547
N12625 X-21.574 Y-31.529
N12630 X-21.552 Y-31.503
N12635 X-21.368 Y-31.166
N12640 X-20.682 Y-28.71
N12645 X-20.613 Y-28.389
N12650 Y-28.357
N12655 X-20.627 Y-28.329
N12660 X-20.651 Y-28.31
N12665 X-20.682 Y-28.302
N12670 X-20.712 Y-28.309
N12675 G3 X-19.469 Y-31.057 Z-3.725 I0.622 J-1.374 F1000.
N12680 X-20.712 Y-28.309 Z-3.891 I-0.622 J1.374
N12685 X-19.469 Y-31.057 Z-4.056 I0.622 J-1.374
N12690 X-18.585 Y-29.588 Z-4.12 I-0.622 J1.374
N12695 X-20.744 Y-29.724 I-1.08 J-0.068
N12700 X-20.654 Y-30.826 I28.857 J1.811 F3000.
N12705 G2 X-20.477 Y-33.606 I-37.175 J-3.763
N12710 G1 X-20.521 Y-52.662
N12715 G3 X-20.202 Y-52.982 I0.319 J0.
N12720 G1 X-19.802
N12725 G3 X-19.483 Y-52.662 I0. J0.319
N12730 G1 X-19.573 Y-33.582
N12735 G2 X-19.623 Y-30.819 I169.723 J4.467
N12740 G3 X-19.674 Y-28.055 I-169.773 J-1.703
N12745 X-20.009 Y-27.705 I-0.36 J-0.009
N12750 G1 X-20.026 Y-27.704
N12755 X-20.043
N12760 X-20.262 Y-27.706
N12765 X-20.481 Y-27.714
N12770 G3 X-20.801 Y-28.043 I0.008 J-0.328
N12775 X-20.744 Y-29.724 I28.914 J0.13
N12780 G2 X-21.24 Y-30.592 I-0.908 J-0.057
N12785 G3 X-21.73 Y-31.464 I0.408 J-0.803
N12790 G1 X-21.699 Y-31.877
N12795 X-21.625 Y-32.807
N12800 X-21.622 Y-32.867
N12805 X-21.591 Y-33.612
N12810 X-21.59 Y-33.677
N12815 Y-54.05
N12820 X-18.414
N12825 Y-35.286
N12830 X-18.64 Y-26.729
N12835 X-20.02 Y-26.634
N12840 X-21.415 Y-26.669
N12845 X-21.688 Y-26.732
N12850 X-21.7 Y-26.741
N12855 X-21.758 Y-26.926
N12860 X-21.871 Y-27.729
N12865 X-21.862 Y-29.757
N12870 X-21.73 Y-31.464
N12875 X-21.72 Y-31.523 Z-4.108
N12880 X-21.698 Y-31.58 Z-4.096
N12885 X-21.672 Y-31.624 Z-4.061
N12890 X-21.639 Y-31.663 Z-4.027
N12895 X-21.585 Y-31.707 Z-3.924
N12900 X-21.564 Y-31.719 Z-3.803
N12905 Z5.
N12910 X-4.42 Y-29.576
N12915 Z2.817
N12920 X-4.443 Y-29.577 Z2.698 F1000.
N12925 X-4.508 Y-29.583 Z2.597
N12930 X-4.607 Y-29.596 Z2.527
N12935 X-4.722 Y-29.621 Z2.5
N12940 G3 X-3.976 Y-32.544 Z2.335 I0.373 J-1.461
N12945 X-4.722 Y-29.621 Z2.169 I-0.373 J1.461
N12950 X-3.976 Y-32.544 Z2.004 I0.373 J-1.461
N12955 X-4.722 Y-29.621 Z1.838 I-0.373 J1.461
N12960 X-3.976 Y-32.544 Z1.673 I0.373 J-1.461
N12965 X-4.722 Y-29.621 Z1.507 I-0.373 J1.461
N12970 X-3.976 Y-32.544 Z1.342 I0.373 J-1.461
N12975 X-4.722 Y-29.621 Z1.176 I-0.373 J1.461
N12980 X-3.976 Y-32.544 Z1.011 I0.373 J-1.461
N12985 X-4.722 Y-29.621 Z0.845 I-0.373 J1.461
N12990 X-3.976 Y-32.544 Z0.68 I0.373 J-1.461
N12995 X-4.722 Y-29.621 Z0.515 I-0.373 J1.461
N13000 X-3.976 Y-32.544 Z0.349 I0.373 J-1.461
N13005 X-4.722 Y-29.621 Z0.184 I-0.373 J1.461
N13010 X-3.976 Y-32.544 Z0.018 I0.373 J-1.461
N13015 X-4.722 Y-29.621 Z-0.147 I-0.373 J1.461
N13020 X-3.976 Y-32.544 Z-0.313 I0.373 J-1.461
N13025 X-4.722 Y-29.621 Z-0.478 I-0.373 J1.461
N13030 X-3.976 Y-32.544 Z-0.644 I0.373 J-1.461
N13035 X-4.722 Y-29.621 Z-0.809 I-0.373 J1.461
N13040 X-3.976 Y-32.544 Z-0.974 I0.373 J-1.461
N13045 X-3.338 Y-32.202 Z-1. I-0.373 J1.461
N13050 X-3.244 Y-30.35 I-0.879 J0.973
N13055 X-5.096 Y-30.255 I-0.973 J-0.879
N13060 X-6.162 Y-31.331 I9.123 J-10.104 F3000.
N13065 G1 X-6.198 Y-31.375
N13070 X-6.23 Y-31.421
N13075 G3 X-8.894 Y-41.759 I14.109 J-9.147
N13080 X-8.357 Y-45.142 I19.144 J1.306
N13085 X-7.048 Y-48.307 I11.481 J2.893
N13090 X-5.912 Y-49.89 I9.797 J5.835
N13095 X-4.501 Y-51.234 I7.331 J6.279
N13100 X-4.199 Y-51.462 I7.699 J9.913
N13105 X-3.88 Y-51.665 I1.757 J2.408
N13110 G2 X-3.354 Y-51.999 I-2.403 J-4.366
N13115 G3 X-2.814 Y-52.311 I1.761 J2.423
N13120 X-2.641 Y-52.124 I0.055 J0.123
N13125 G1 X-2.67 Y-52.072
N13130 X-2.684 Y-52.052
N13135 G3 X-3.928 Y-50.62 I-36.968 J-30.859
N13140 G2 X-5.172 Y-49.188 I29.173 J26.599
N13145 X-6.86 Y-46.384 I8.478 J7.015
N13150 X-7.765 Y-43.24 I13.485 J5.586
N13155 X-7.963 Y-40.183 I14.609 J2.479
N13160 X-7.566 Y-37.146 I16.838 J-0.657
N13165 X-6.974 Y-35.29 I10.854 J-2.439
N13170 X-6.081 Y-33.559 I11.285 J-4.723
N13175 X-5.377 Y-32.666 I4.295 J-2.667
N13180 G3 X-4.597 Y-31.839 I-15.99 J15.854
N13185 G2 X-3.734 Y-30.992 I7.051 J-6.318
N13190 G3 X-2.911 Y-30.105 I-3.575 J4.14
N13195 X-2.61 Y-29.484 I-1.51 J1.117
N13200 X-2.507 Y-28.802 I-2.832 J0.776
N13205 X-2.797 Y-28.622 I-0.197 J0.006
N13210 X-4.599 Y-29.828 I5.332 J-9.916
N13215 X-5.096 Y-30.255 I8.626 J-10.531
N13220 G2 X-6.203 Y-30.537 I-0.82 J0.908
N13225 G3 X-7.264 Y-30.959 I-0.232 J-0.96
N13230 G1 X-8.055 Y-32.18
N13235 X-8.829 Y-33.809
N13240 X-9.42 Y-35.551
N13245 X-9.828 Y-37.366
N13250 X-10.055 Y-39.214
N13255 X-10.106 Y-41.077
N13260 X-9.979 Y-42.942
N13265 X-9.669 Y-44.769
N13270 X-9.173 Y-46.521
N13275 X-8.479 Y-48.178
N13280 X-7.577 Y-49.693
N13285 X-6.49 Y-51.007
N13290 X-5.217 Y-52.156
N13295 X-3.807 Y-53.093
N13300 X-2.215 Y-53.803
N13305 X-1.713 Y-53.981
N13310 X-1.303 Y-54.095
N13315 X-1.153 Y-53.697
N13320 X-1.1 Y-53.361
N13325 X-1.101 Y-53.051
N13330 X-1.305 Y-52.234
N13335 X-1.748 Y-51.428
N13340 X-3.369 Y-49.486
N13345 X-4.248 Y-48.478
N13350 X-4.344 Y-48.357
N13355 X-5.099 Y-47.3
N13360 X-5.167 Y-47.195
N13365 X-5.228 Y-47.086
N13370 X-5.796 Y-45.945
N13375 X-5.841 Y-45.848
N13380 X-5.878 Y-45.748
N13385 X-6.289 Y-44.54
N13390 X-6.317 Y-44.451
N13395 X-6.339 Y-44.361
N13400 X-6.606 Y-43.111
N13405 X-6.621 Y-43.03
N13410 X-6.632 Y-42.947
N13415 X-6.767 Y-41.674
N13420 X-6.776 Y-41.522
N13425 X-6.788 Y-40.247
N13430 X-6.783 Y-40.101
N13435 X-6.679 Y-38.841
N13440 X-6.66 Y-38.697
N13445 X-6.445 Y-37.474
N13450 X-6.412 Y-37.327
N13455 X-6.091 Y-36.165
N13460 X-6.061 Y-36.067
N13465 X-6.024 Y-35.97
N13470 X-5.678 Y-35.152
N13475 X-5.626 Y-35.04
N13480 X-5.564 Y-34.932
N13485 X-5.093 Y-34.172
N13490 G2 X-4.927 Y-33.951 I1.349 J-0.838
N13495 G1 X-3.73 Y-32.616
N13500 X-3.659 Y-32.541
N13505 X-2.436 Y-31.342
N13510 X-1.974 Y-30.798
N13515 X-1.63 Y-30.261
N13520 X-1.494 Y-29.897
N13525 X-1.407 Y-29.408
N13530 X-1.363 Y-28.019
N13535 X-1.41 Y-27.007
N13540 X-1.516 Y-27.021
N13545 X-3.128 Y-27.53
N13550 X-4.612 Y-28.328
N13555 X-5.941 Y-29.396
N13560 X-7.092 Y-30.695
N13565 X-7.264 Y-30.959
N13570 X-7.276 Y-30.989
N13575 X-7.275 Y-31.022
N13580 X-7.263 Y-31.052
N13585 X-7.24 Y-31.074
N13590 X-7.21 Y-31.087
N13595 X-6.813 Y-31.168
N13600 X-3.889 Y-32.047
N13605 X-3.611 Y-32.319
N13610 X-3.587 Y-32.336
N13615 X-3.559 Y-32.345
N13620 X-3.529 Y-32.343
N13625 X-3.503 Y-32.33
N13630 G3 X-5.196 Y-29.834 Z-1.165 I-0.847 J1.248 F1000.
N13635 X-3.503 Y-32.33 Z-1.331 I0.847 J-1.248
N13640 X-5.196 Y-29.834 Z-1.496 I-0.847 J1.248
N13645 X-3.503 Y-32.33 Z-1.662 I0.847 J-1.248
N13650 X-5.196 Y-29.834 Z-1.827 I-0.847 J1.248
N13655 X-5.536 Y-32.013 Z-1.914 I0.847 J-1.248
N13660 X-3.338 Y-32.202 Z-2. I1.187 J0.931
N13665 X-3.244 Y-30.35 I-0.879 J0.973
N13670 X-5.096 Y-30.255 I-0.973 J-0.879
N13675 X-6.162 Y-31.331 I9.123 J-10.104 F3000.
N13680 G1 X-6.198 Y-31.375
N13685 X-6.23 Y-31.421
N13690 G3 X-8.894 Y-41.759 I14.109 J-9.147
N13695 X-8.357 Y-45.142 I19.144 J1.306
N13700 X-7.048 Y-48.307 I11.481 J2.893
N13705 X-5.912 Y-49.89 I9.797 J5.835
N13710 X-4.501 Y-51.234 I7.331 J6.279
N13715 X-4.199 Y-51.462 I7.699 J9.913
N13720 X-3.88 Y-51.665 I1.757 J2.408
N13725 G2 X-3.354 Y-51.999 I-2.403 J-4.366
N13730 G3 X-2.814 Y-52.311 I1.761 J2.423
N13735 X-2.641 Y-52.124 I0.055 J0.123
N13740 G1 X-2.67 Y-52.072
N13745 X-2.684 Y-52.052
N13750 G3 X-3.928 Y-50.62 I-36.968 J-30.859
N13755 G2 X-5.172 Y-49.188 I29.173 J26.599
N13760 X-6.86 Y-46.384 I8.478 J7.015
N13765 X-7.765 Y-43.24 I13.485 J5.586
N13770 X-7.963 Y-40.183 I14.609 J2.479
N13775 X-7.566 Y-37.146 I16.838 J-0.657
N13780 X-6.974 Y-35.29 I10.854 J-2.439
N13785 X-6.081 Y-33.559 I11.285 J-4.723
N13790 X-5.377 Y-32.666 I4.295 J-2.667
N13795 G3 X-4.597 Y-31.839 I-15.99 J15.854
N13800 G2 X-3.734 Y-30.992 I7.051 J-6.318
N13805 G3 X-2.911 Y-30.105 I-3.575 J4.14
N13810 X-2.61 Y-29.484 I-1.51 J1.117
N13815 X-2.507 Y-28.802 I-2.832 J0.776
N13820 X-2.797 Y-28.622 I-0.197 J0.006
N13825 X-4.599 Y-29.828 I5.332 J-9.916
N13830 X-5.096 Y-30.255 I8.626 J-10.531
N13835 G2 X-6.203 Y-30.537 I-0.82 J0.908
N13840 G3 X-7.264 Y-30.959 I-0.232 J-0.96
N13845 G1 X-8.055 Y-32.18
N13850 X-8.829 Y-33.809
N13855 X-9.42 Y-35.551
N13860 X-9.828 Y-37.366
N13865 X-10.055 Y-39.214
N13870 X-10.106 Y-41.077
N13875 X-9.979 Y-42.942
N13880 X-9.669 Y-44.769
N13885 X-9.173 Y-46.521
N13890 X-8.479 Y-48.178
N13895 X-7.577 Y-49.693
N13900 X-6.49 Y-51.007
N13905 X-5.217 Y-52.156
N13910 X-3.807 Y-53.093
N13915 X-2.215 Y-53.803
N13920 X-1.713 Y-53.981
N13925 X-1.303 Y-54.095
N13930 X-1.153 Y-53.697
N13935 X-1.1 Y-53.361
N13940 X-1.101 Y-53.051
N13945 X-1.305 Y-52.234
N13950 X-1.748 Y-51.428
N13955 X-3.369 Y-49.486
N13960 X-4.248 Y-48.478
N13965 X-4.344 Y-48.357
N13970 X-5.099 Y-47.3
N13975 X-5.167 Y-47.195
N13980 X-5.228 Y-47.086
N13985 X-5.796 Y-45.945
N13990 X-5.841 Y-45.848
N13995 X-5.878 Y-45.748
N14000 X-6.289 Y-44.54
N14005 X-6.317 Y-44.451
N14010 X-6.339 Y-44.361
N14015 X-6.606 Y-43.111
N14020 X-6.621 Y-43.03
N14025 X-6.632 Y-42.947
N14030 X-6.767 Y-41.674
N14035 X-6.776 Y-41.522
N14040 X-6.788 Y-40.247
N14045 X-6.783 Y-40.101
N14050 X-6.679 Y-38.841
N14055 X-6.66 Y-38.697
N14060 X-6.445 Y-37.474
N14065 X-6.412 Y-37.327
N14070 X-6.091 Y-36.165
N14075 X-6.061 Y-36.067
N14080 X-6.024 Y-35.97
N14085 X-5.678 Y-35.152
N14090 X-5.626 Y-35.04
N14095 X-5.564 Y-34.932
N14100 X-5.093 Y-34.172
N14105 G2 X-4.927 Y-33.951 I1.349 J-0.838
N14110 G1 X-3.73 Y-32.616
N14115 X-3.659 Y-32.541
N14120 X-2.436 Y-31.342
N14125 X-1.974 Y-30.798
N14130 X-1.63 Y-30.261
N14135 X-1.494 Y-29.897
N14140 X-1.407 Y-29.408
N14145 X-1.363 Y-28.019
N14150 X-1.41 Y-27.007
N14155 X-1.516 Y-27.021
N14160 X-3.128 Y-27.53
N14165 X-4.612 Y-28.328
N14170 X-5.941 Y-29.396
N14175 X-7.092 Y-30.695
N14180 X-7.264 Y-30.959
N14185 X-7.276 Y-30.989
N14190 X-7.275 Y-31.022
N14195 X-7.263 Y-31.052
N14200 X-7.24 Y-31.074
N14205 X-7.21 Y-31.087
N14210 X-6.813 Y-31.168
N14215 X-3.889 Y-32.047
N14220 X-3.611 Y-32.319
N14225 X-3.587 Y-32.336
N14230 X-3.559 Y-32.345
N14235 X-3.529 Y-32.343
N14240 X-3.503 Y-32.33
N14245 G3 X-5.196 Y-29.834 Z-2.165 I-0.847 J1.248 F1000.
N14250 X-3.503 Y-32.33 Z-2.331 I0.847 J-1.248
N14255 X-5.196 Y-29.834 Z-2.496 I-0.847 J1.248
N14260 X-3.503 Y-32.33 Z-2.662 I0.847 J-1.248
N14265 X-5.196 Y-29.834 Z-2.827 I-0.847 J1.248
N14270 X-5.536 Y-32.013 Z-2.914 I0.847 J-1.248
N14275 X-3.338 Y-32.202 Z-3. I1.187 J0.931
N14280 X-3.244 Y-30.35 I-0.879 J0.973
N14285 X-5.096 Y-30.255 I-0.973 J-0.879
N14290 X-6.162 Y-31.331 I9.123 J-10.104 F3000.
N14295 G1 X-6.198 Y-31.375
N14300 X-6.23 Y-31.421
N14305 G3 X-8.894 Y-41.759 I14.109 J-9.147
N14310 X-8.357 Y-45.142 I19.144 J1.306
N14315 X-7.048 Y-48.307 I11.481 J2.893
N14320 X-5.912 Y-49.89 I9.797 J5.835
N14325 X-4.501 Y-51.234 I7.331 J6.279
N14330 X-4.199 Y-51.462 I7.699 J9.913
N14335 X-3.88 Y-51.665 I1.757 J2.408
N14340 G2 X-3.354 Y-51.999 I-2.403 J-4.366
N14345 G3 X-2.814 Y-52.311 I1.761 J2.423
N14350 X-2.641 Y-52.124 I0.055 J0.123
N14355 G1 X-2.67 Y-52.072
N14360 X-2.684 Y-52.052
N14365 G3 X-3.928 Y-50.62 I-36.968 J-30.859
N14370 G2 X-5.172 Y-49.188 I29.173 J26.599
N14375 X-6.86 Y-46.384 I8.478 J7.015
N14380 X-7.765 Y-43.24 I13.485 J5.586
N14385 X-7.963 Y-40.183 I14.609 J2.479
N14390 X-7.566 Y-37.146 I16.838 J-0.657
N14395 X-6.974 Y-35.29 I10.854 J-2.439
N14400 X-6.081 Y-33.559 I11.285 J-4.723
N14405 X-5.377 Y-32.666 I4.295 J-2.667
N14410 G3 X-4.597 Y-31.839 I-15.99 J15.854
N14415 G2 X-3.734 Y-30.992 I7.051 J-6.318
N14420 G3 X-2.911 Y-30.105 I-3.575 J4.14
N14425 X-2.61 Y-29.484 I-1.51 J1.117
N14430 X-2.507 Y-28.802 I-2.832 J0.776
N14435 X-2.797 Y-28.622 I-0.197 J0.006
N14440 X-4.599 Y-29.828 I5.332 J-9.916
N14445 X-5.096 Y-30.255 I8.626 J-10.531
N14450 G2 X-6.203 Y-30.537 I-0.82 J0.908
N14455 G3 X-7.264 Y-30.959 I-0.232 J-0.96
N14460 G1 X-8.055 Y-32.18
N14465 X-8.829 Y-33.809
N14470 X-9.42 Y-35.551
N14475 X-9.828 Y-37.366
N14480 X-10.055 Y-39.214
N14485 X-10.106 Y-41.077
N14490 X-9.979 Y-42.942
N14495 X-9.669 Y-44.769
N14500 X-9.173 Y-46.521
N14505 X-8.479 Y-48.178
N14510 X-7.577 Y-49.693
N14515 X-6.49 Y-51.007
N14520 X-5.217 Y-52.156
N14525 X-3.807 Y-53.093
N14530 X-2.215 Y-53.803
N14535 X-1.713 Y-53.981
N14540 X-1.303 Y-54.095
N14545 X-1.153 Y-53.697
N14550 X-1.1 Y-53.361
N14555 X-1.101 Y-53.051
N14560 X-1.305 Y-52.234
N14565 X-1.748 Y-51.428
N14570 X-3.369 Y-49.486
N14575 X-4.248 Y-48.478
N14580 X-4.344 Y-48.357
N14585 X-5.099 Y-47.3
N14590 X-5.167 Y-47.195
N14595 X-5.228 Y-47.086
N14600 X-5.796 Y-45.945
N14605 X-5.841 Y-45.848
N14610 X-5.878 Y-45.748
N14615 X-6.289 Y-44.54
N14620 X-6.317 Y-44.451
N14625 X-6.339 Y-44.361
N14630 X-6.606 Y-43.111
N14635 X-6.621 Y-43.03
N14640 X-6.632 Y-42.947
N14645 X-6.767 Y-41.674
N14650 X-6.776 Y-41.522
N14655 X-6.788 Y-40.247
N14660 X-6.783 Y-40.101
N14665 X-6.679 Y-38.841
N14670 X-6.66 Y-38.697
N14675 X-6.445 Y-37.474
N14680 X-6.412 Y-37.327
N14685 X-6.091 Y-36.165
N14690 X-6.061 Y-36.067
N14695 X-6.024 Y-35.97
N14700 X-5.678 Y-35.152
N14705 X-5.626 Y-35.04
N14710 X-5.564 Y-34.932
N14715 X-5.093 Y-34.172
N14720 G2 X-4.927 Y-33.951 I1.349 J-0.838
N14725 G1 X-3.73 Y-32.616
N14730 X-3.659 Y-32.541
N14735 X-2.436 Y-31.342
N14740 X-1.974 Y-30.798
N14745 X-1.63 Y-30.261
N14750 X-1.494 Y-29.897
N14755 X-1.407 Y-29.408
N14760 X-1.363 Y-28.019
N14765 X-1.41 Y-27.007
N14770 X-1.516 Y-27.021
N14775 X-3.128 Y-27.53
N14780 X-4.612 Y-28.328
N14785 X-5.941 Y-29.396
N14790 X-7.092 Y-30.695
N14795 X-7.264 Y-30.959
N14800 G3 X-7.097 Y-31.201 I0.133 J-0.086
N14805 G1 X-4.508 Y-30.638
N14810 X-4.462 Y-30.62
N14815 X-4.424 Y-30.589
N14820 X-3.678 Y-29.765
N14825 X-3.661 Y-29.741
N14830 G3 X-5.038 Y-32.424 Z-3.165 I-0.689 J-1.342 F1000.
N14835 X-3.661 Y-29.741 Z-3.331 I0.689 J1.342
N14840 X-5.038 Y-32.424 Z-3.496 I-0.689 J-1.342
N14845 X-3.338 Y-32.202 Z-3.56 I0.689 J1.342
N14850 X-3.244 Y-30.35 I-0.879 J0.973
N14855 X-5.096 Y-30.255 I-0.973 J-0.879
N14860 X-6.162 Y-31.331 I9.123 J-10.104 F3000.
N14865 G1 X-6.198 Y-31.375
N14870 X-6.23 Y-31.421
N14875 G3 X-8.894 Y-41.759 I14.109 J-9.147
N14880 X-8.357 Y-45.142 I19.144 J1.306
N14885 X-7.048 Y-48.307 I11.481 J2.893
N14890 X-5.912 Y-49.89 I9.797 J5.835
N14895 X-4.501 Y-51.234 I7.331 J6.279
N14900 X-4.199 Y-51.462 I7.699 J9.913
N14905 X-3.88 Y-51.665 I1.757 J2.408
N14910 G2 X-3.354 Y-51.999 I-2.403 J-4.366
N14915 G3 X-2.814 Y-52.311 I1.761 J2.423
N14920 X-2.641 Y-52.124 I0.055 J0.123
N14925 G1 X-2.67 Y-52.072
N14930 X-2.684 Y-52.052
N14935 G3 X-3.928 Y-50.62 I-36.968 J-30.859
N14940 G2 X-5.172 Y-49.188 I29.173 J26.599
N14945 X-6.86 Y-46.384 I8.478 J7.015
N14950 X-7.765 Y-43.24 I13.485 J5.586
N14955 X-7.963 Y-40.183 I14.609 J2.479
N14960 X-7.566 Y-37.146 I16.838 J-0.657
N14965 X-6.974 Y-35.29 I10.854 J-2.439
N14970 X-6.081 Y-33.559 I11.285 J-4.723
N14975 X-5.377 Y-32.666 I4.295 J-2.667
N14980 G3 X-4.597 Y-31.839 I-15.99 J15.854
N14985 G2 X-3.734 Y-30.992 I7.051 J-6.318
N14990 G3 X-2.911 Y-30.105 I-3.575 J4.14
N14995 X-2.61 Y-29.484 I-1.51 J1.117
N15000 X-2.507 Y-28.802 I-2.832 J0.776
N15005 X-2.797 Y-28.622 I-0.197 J0.006
N15010 X-4.599 Y-29.828 I5.332 J-9.916
N15015 X-5.096 Y-30.255 I8.626 J-10.531
N15020 G2 X-6.203 Y-30.537 I-0.82 J0.908
N15025 G3 X-7.264 Y-30.959 I-0.232 J-0.96
N15030 G1 X-8.055 Y-32.18
N15035 X-8.829 Y-33.809
N15040 X-9.42 Y-35.551
N15045 X-9.828 Y-37.366
N15050 X-10.055 Y-39.214
N15055 X-10.106 Y-41.077
N15060 X-9.979 Y-42.942
N15065 X-9.669 Y-44.769
N15070 X-9.173 Y-46.521
N15075 X-8.479 Y-48.178
N15080 X-7.577 Y-49.693
N15085 X-6.49 Y-51.007
N15090 X-5.217 Y-52.156
N15095 X-3.807 Y-53.093
N15100 X-2.215 Y-53.803
N15105 X-1.713 Y-53.981
N15110 X-1.303 Y-54.095
N15115 X-1.153 Y-53.697
N15120 X-1.1 Y-53.361
N15125 X-1.101 Y-53.051
N15130 X-1.305 Y-52.234
N15135 X-1.748 Y-51.428
N15140 X-3.369 Y-49.486
N15145 X-4.248 Y-48.478
N15150 X-4.344 Y-48.357
N15155 X-5.099 Y-47.3
N15160 X-5.167 Y-47.195
N15165 X-5.228 Y-47.086
N15170 X-5.796 Y-45.945
N15175 X-5.841 Y-45.848
N15180 X-5.878 Y-45.748
N15185 X-6.289 Y-44.54
N15190 X-6.317 Y-44.451
N15195 X-6.339 Y-44.361
N15200 X-6.606 Y-43.111
N15205 X-6.621 Y-43.03
N15210 X-6.632 Y-42.947
N15215 X-6.767 Y-41.674
N15220 X-6.776 Y-41.522
N15225 X-6.788 Y-40.247
N15230 X-6.783 Y-40.101
N15235 X-6.679 Y-38.841
N15240 X-6.66 Y-38.697
N15245 X-6.445 Y-37.474
N15250 X-6.412 Y-37.327
N15255 X-6.091 Y-36.165
N15260 X-6.061 Y-36.067
N15265 X-6.024 Y-35.97
N15270 X-5.678 Y-35.152
N15275 X-5.626 Y-35.04
N15280 X-5.564 Y-34.932
N15285 X-5.093 Y-34.172
N15290 G2 X-4.927 Y-33.951 I1.349 J-0.838
N15295 G1 X-3.73 Y-32.616
N15300 X-3.659 Y-32.541
N15305 X-2.436 Y-31.342
N15310 X-1.974 Y-30.798
N15315 X-1.63 Y-30.261
N15320 X-1.494 Y-29.897
N15325 X-1.407 Y-29.408
N15330 X-1.363 Y-28.019
N15335 X-1.41 Y-27.007
N15340 X-1.516 Y-27.021
N15345 X-3.128 Y-27.53
N15350 X-4.612 Y-28.328
N15355 X-5.941 Y-29.396
N15360 X-7.092 Y-30.695
N15365 X-7.264 Y-30.959
N15370 G3 X-7.097 Y-31.201 I0.133 J-0.086
N15375 G1 X-4.508 Y-30.638
N15380 X-4.462 Y-30.62
N15385 X-4.424 Y-30.589
N15390 X-3.678 Y-29.765
N15395 X-3.661 Y-29.741
N15400 G3 X-5.038 Y-32.424 Z-3.725 I-0.689 J-1.342 F1000.
N15405 X-3.661 Y-29.741 Z-3.891 I0.689 J1.342
N15410 X-5.038 Y-32.424 Z-4.056 I-0.689 J-1.342
N15415 X-3.338 Y-32.202 Z-4.12 I0.689 J1.342
N15420 X-3.244 Y-30.35 I-0.879 J0.973
N15425 X-5.096 Y-30.255 I-0.973 J-0.879
N15430 X-6.162 Y-31.331 I9.123 J-10.104 F3000.
N15435 G1 X-6.198 Y-31.375
N15440 X-6.23 Y-31.421
N15445 G3 X-8.894 Y-41.759 I14.109 J-9.147
N15450 X-8.357 Y-45.142 I19.144 J1.306
N15455 X-7.048 Y-48.307 I11.481 J2.893
N15460 X-5.912 Y-49.89 I9.797 J5.835
N15465 X-4.501 Y-51.234 I7.331 J6.279
N15470 X-4.199 Y-51.462 I7.699 J9.913
N15475 X-3.88 Y-51.665 I1.757 J2.408
N15480 G2 X-3.354 Y-51.999 I-2.403 J-4.366
N15485 G3 X-2.814 Y-52.311 I1.761 J2.423
N15490 X-2.641 Y-52.124 I0.055 J0.123
N15495 G1 X-2.67 Y-52.072
N15500 X-2.684 Y-52.052
N15505 G3 X-3.928 Y-50.62 I-36.968 J-30.859
N15510 G2 X-5.172 Y-49.188 I29.173 J26.599
N15515 X-6.86 Y-46.384 I8.478 J7.015
N15520 X-7.765 Y-43.24 I13.485 J5.586
N15525 X-7.963 Y-40.183 I14.609 J2.479
N15530 X-7.566 Y-37.146 I16.838 J-0.657
N15535 X-6.974 Y-35.29 I10.854 J-2.439
N15540 X-6.081 Y-33.559 I11.285 J-4.723
N15545 X-5.377 Y-32.666 I4.295 J-2.667
N15550 G3 X-4.597 Y-31.839 I-15.99 J15.854
N15555 G2 X-3.734 Y-30.992 I7.051 J-6.318
N15560 G3 X-2.911 Y-30.105 I-3.575 J4.14
N15565 X-2.61 Y-29.484 I-1.51 J1.117
N15570 X-2.507 Y-28.802 I-2.832 J0.776
N15575 X-2.797 Y-28.622 I-0.197 J0.006
N15580 X-4.599 Y-29.828 I5.332 J-9.916
N15585 X-5.096 Y-30.255 I8.626 J-10.531
N15590 G2 X-6.203 Y-30.537 I-0.82 J0.908
N15595 G3 X-7.264 Y-30.959 I-0.232 J-0.96
N15600 G1 X-8.055 Y-32.18
N15605 X-8.829 Y-33.809
N15610 X-9.42 Y-35.551
N15615 X-9.828 Y-37.366
N15620 X-10.055 Y-39.214
N15625 X-10.106 Y-41.077
N15630 X-9.979 Y-42.942
N15635 X-9.669 Y-44.769
N15640 X-9.173 Y-46.521
N15645 X-8.479 Y-48.178
N15650 X-7.577 Y-49.693
N15655 X-6.49 Y-51.007
N15660 X-5.217 Y-52.156
N15665 X-3.807 Y-53.093
N15670 X-2.215 Y-53.803
N15675 X-1.713 Y-53.981
N15680 X-1.303 Y-54.095
N15685 X-1.153 Y-53.697
N15690 X-1.1 Y-53.361
N15695 X-1.101 Y-53.051
N15700 X-1.305 Y-52.234
N15705 X-1.748 Y-51.428
N15710 X-3.369 Y-49.486
N15715 X-4.248 Y-48.478
N15720 X-4.344 Y-48.357
N15725 X-5.099 Y-47.3
N15730 X-5.167 Y-47.195
N15735 X-5.228 Y-47.086
N15740 X-5.796 Y-45.945
N15745 X-5.841 Y-45.848
N15750 X-5.878 Y-45.748
N15755 X-6.289 Y-44.54
N15760 X-6.317 Y-44.451
N15765 X-6.339 Y-44.361
N15770 X-6.606 Y-43.111
N15775 X-6.621 Y-43.03
N15780 X-6.632 Y-42.947
N15785 X-6.767 Y-41.674
N15790 X-6.776 Y-41.522
N15795 X-6.788 Y-40.247
N15800 X-6.783 Y-40.101
N15805 X-6.679 Y-38.841
N15810 X-6.66 Y-38.697
N15815 X-6.445 Y-37.474
N15820 X-6.412 Y-37.327
N15825 X-6.091 Y-36.165
N15830 X-6.061 Y-36.067
N15835 X-6.024 Y-35.97
N15840 X-5.678 Y-35.152
N15845 X-5.626 Y-35.04
N15850 X-5.564 Y-34.932
N15855 X-5.093 Y-34.172
N15860 G2 X-4.927 Y-33.951 I1.349 J-0.838
N15865 G1 X-3.73 Y-32.616
N15870 X-3.659 Y-32.541
N15875 X-2.436 Y-31.342
N15880 X-1.974 Y-30.798
N15885 X-1.63 Y-30.261
N15890 X-1.494 Y-29.897
N15895 X-1.407 Y-29.408
N15900 X-1.363 Y-28.019
N15905 X-1.41 Y-27.007
N15910 X-1.516 Y-27.021
N15915 X-3.128 Y-27.53
N15920 X-4.612 Y-28.328
N15925 X-5.941 Y-29.396
N15930 X-7.092 Y-30.695
N15935 X-7.264 Y-30.959
N15940 X-7.292 Y-31.013 Z-4.108
N15945 X-7.309 Y-31.071 Z-4.096
N15950 X-7.315 Y-31.123 Z-4.061
N15955 X-7.312 Y-31.174 Z-4.027
N15960 X-7.296 Y-31.241 Z-3.924
N15965 X-7.286 Y-31.263 Z-3.803
N15970 Z5.
N15975 X7.904 Y-27.904
N15980 Z2.817
N15985 X7.89 Y-27.885 Z2.698 F1000.
N15990 X7.849 Y-27.834 Z2.597
N15995 X7.782 Y-27.76 Z2.527
N16000 X7.697 Y-27.678 Z2.5
N16005 G3 X5.694 Y-29.933 Z2.335 I-1.002 J-1.127
N16010 X7.697 Y-27.678 Z2.169 I1.002 J1.127
N16015 X5.694 Y-29.933 Z2.004 I-1.002 J-1.127
N16020 X7.697 Y-27.678 Z1.838 I1.002 J1.127
N16025 X5.694 Y-29.933 Z1.673 I-1.002 J-1.127
N16030 X7.697 Y-27.678 Z1.507 I1.002 J1.127
N16035 X5.694 Y-29.933 Z1.342 I-1.002 J-1.127
N16040 X7.697 Y-27.678 Z1.176 I1.002 J1.127
N16045 X5.694 Y-29.933 Z1.011 I-1.002 J-1.127
N16050 X7.697 Y-27.678 Z0.845 I1.002 J1.127
N16055 X5.694 Y-29.933 Z0.68 I-1.002 J-1.127
N16060 X7.697 Y-27.678 Z0.515 I1.002 J1.127
N16065 X5.694 Y-29.933 Z0.349 I-1.002 J-1.127
N16070 X7.697 Y-27.678 Z0.184 I1.002 J1.127
N16075 X5.694 Y-29.933 Z0.018 I-1.002 J-1.127
N16080 X7.697 Y-27.678 Z-0.147 I1.002 J1.127
N16085 X5.694 Y-29.933 Z-0.313 I-1.002 J-1.127
N16090 X7.697 Y-27.678 Z-0.478 I1.002 J1.127
N16095 X5.694 Y-29.933 Z-0.644 I-1.002 J-1.127
N16100 X7.697 Y-27.678 Z-0.809 I1.002 J1.127
N16105 X5.694 Y-29.933 Z-0.974 I-1.002 J-1.127
N16110 X6.334 Y-30.27 Z-1. I1.002 J1.127
N16115 X6.836 Y-28.238 I0.251 J1.016
N16120 G1 X5.983 Y-28.028 F3000.
N16125 G3 X5.682 Y-28.263 I-0.058 J-0.236
N16130 G1 Y-28.627
N16135 G3 X5.956 Y-29.022 I0.422 J0.
N16140 G1 X7.748 Y-29.694
N16145 G3 X8.203 Y-29.516 I0.128 J0.342
N16150 G1 X8.356 Y-29.21
N16155 G3 X8.206 Y-28.806 I-0.264 J0.132
N16160 G1 X6.906 Y-28.26
N16165 X6.843 Y-28.24
N16170 X6.836 Y-28.238
N16175 G2 X6.18 Y-27.521 I0.21 J0.85
N16180 G3 X5.524 Y-26.804 I-0.866 J-0.133
N16185 G1 X5.141 Y-26.71
N16190 X4.604 Y-26.666
N16195 Y-29.667
N16200 X8.586 Y-31.16
N16205 X9.928 Y-28.476
N16210 X9.224 Y-28.065
N16215 X7.215 Y-27.221
N16220 X5.524 Y-26.804
N16225 G3 X5.282 Y-27.046 I-0.048 J-0.194
N16230 G1 X6.016 Y-30.068
N16235 X6.032 Y-30.112
N16240 X6.059 Y-30.152
N16245 X6.094 Y-30.183
N16250 X6.136 Y-30.206
N16255 G3 X7.255 Y-27.405 Z-1.165 I0.56 J1.4 F1000.
N16260 X6.136 Y-30.206 Z-1.331 I-0.56 J-1.4
N16265 X7.255 Y-27.405 Z-1.496 I0.56 J1.4
N16270 X6.136 Y-30.206 Z-1.662 I-0.56 J-1.4
N16275 X7.255 Y-27.405 Z-1.827 I0.56 J1.4
N16280 X5.26 Y-28.344 Z-1.914 I-0.56 J-1.4
N16285 X6.334 Y-30.27 Z-2. I1.436 J-0.462
N16290 X6.836 Y-28.238 I0.251 J1.016
N16295 G1 X5.983 Y-28.028 F3000.
N16300 G3 X5.682 Y-28.263 I-0.058 J-0.236
N16305 G1 Y-28.627
N16310 G3 X5.956 Y-29.022 I0.422 J0.
N16315 G1 X7.748 Y-29.694
N16320 G3 X8.203 Y-29.516 I0.128 J0.342
N16325 G1 X8.356 Y-29.21
N16330 G3 X8.206 Y-28.806 I-0.264 J0.132
N16335 G1 X6.906 Y-28.26
N16340 X6.843 Y-28.24
N16345 X6.836 Y-28.238
N16350 G2 X6.18 Y-27.521 I0.21 J0.85
N16355 G3 X5.524 Y-26.804 I-0.866 J-0.133
N16360 G1 X5.141 Y-26.71
N16365 X4.604 Y-26.666
N16370 Y-29.667
N16375 X8.586 Y-31.16
N16380 X9.928 Y-28.476
N16385 X9.224 Y-28.065
N16390 X7.215 Y-27.221
N16395 X5.524 Y-26.804
N16400 G3 X5.282 Y-27.046 I-0.048 J-0.194
N16405 G1 X6.016 Y-30.068
N16410 X6.032 Y-30.112
N16415 X6.059 Y-30.152
N16420 X6.094 Y-30.183
N16425 X6.136 Y-30.206
N16430 G3 X7.255 Y-27.405 Z-2.165 I0.56 J1.4 F1000.
N16435 X6.136 Y-30.206 Z-2.331 I-0.56 J-1.4
