%
(JOEYBOARD_OUTLINE)
(T3  D=0.639 CR=0. - ZMIN=-25. - FLAT END MILL)
N10 G90 G94 G17 G91.1
N15 G21
(WHEN USING FUSION 360 FOR PERSONAL USE, THE FEEDRATE OF)
(RAPID MOVES IS REDUCED TO MATCH THE FEEDRATE OF CUTTING)
(MOVES, WHICH CAN INCREASE MACHINING TIME. UNRESTRICTED RAPID)
(MOVES ARE AVAILABLE WITH A FUSION 360 SUBSCRIPTION.)
N20 G53 G0 Z0.
(2D CONTOUR2)
N25 T3 M6
N30 S10000 M3
N35 G54
N40 G64 P0.01 Q0.01
N45 G0 X332.864 Y-212.011
N50 G43 Z18. H3
N55 G1 Z8. F2200.
N60 Z7.5 F1000.33
N65 Z-6.436
N70 Y-212.006 Z-6.461 F2000.
N75 Y-211.992 Z-6.481
N80 Y-211.972 Z-6.495
N85 Y-211.947 Z-6.5
N90 Y-211.883
N95 X332.859 Y-211.859
N100 X332.845 Y-211.838
N105 X332.824 Y-211.824
N110 X332.8 Y-211.82
N115 X-332.8 F2200.
N120 G2 X-340.819 Y-203.8 I0. J8.02
N125 G1 Y203.8
N130 G2 X-332.8 Y211.82 I8.02 J0.
N135 G1 X332.8
N140 G2 X340.819 Y203.8 I0. J-8.02
N145 G1 Y-203.8
N150 G2 X332.8 Y-211.82 I-8.02 J0.
N155 G1 X332.776 Y-211.824 F2000.
N160 X332.755 Y-211.838
N165 X332.741 Y-211.859
N170 X332.736 Y-211.883
N175 Y-211.947
N180 Y-211.972 Z-6.495
N185 Y-211.992 Z-6.481
N190 Y-212.006 Z-6.461
N195 Y-212.011 Z-6.436
N200 Z8. F2200.
N205 X332.864
N210 Z1. F1000.33
N215 Z-12.936
N220 Y-212.006 Z-12.961 F2000.
N225 Y-211.992 Z-12.981
N230 Y-211.972 Z-12.995
N235 Y-211.947 Z-13.
N240 Y-211.883
N245 X332.859 Y-211.859
N250 X332.845 Y-211.838
N255 X332.824 Y-211.824
N260 X332.8 Y-211.82
N265 X-332.8 F2200.
N270 G2 X-340.819 Y-203.8 I0. J8.02
N275 G1 Y203.8
N280 G2 X-332.8 Y211.82 I8.02 J0.
N285 G1 X332.8
N290 G2 X340.819 Y203.8 I0. J-8.02
N295 G1 Y-203.8
N300 G2 X332.8 Y-211.82 I-8.02 J0.
N305 G1 X332.776 Y-211.824 F2000.
N310 X332.755 Y-211.838
N315 X332.741 Y-211.859
N320 X332.736 Y-211.883
N325 Y-211.947
N330 Y-211.972 Z-12.995
N335 Y-211.992 Z-12.981
N340 Y-212.006 Z-12.961
N345 Y-212.011 Z-12.936
N350 Z8. F2200.
N355 X332.864
N360 Z-5.5 F1000.33
N365 Z-19.436
N370 Y-212.006 Z-19.461 F2000.
N375 Y-211.992 Z-19.481
N380 Y-211.972 Z-19.495
N385 Y-211.947 Z-19.5
N390 Y-211.883
N395 X332.859 Y-211.859
N400 X332.845 Y-211.838
N405 X332.824 Y-211.824
N410 X332.8 Y-211.82
N415 X-332.8 F2200.
N420 G2 X-340.819 Y-203.8 I0. J8.02
N425 G1 Y203.8
N430 G2 X-332.8 Y211.82 I8.02 J0.
N435 G1 X332.8
N440 G2 X340.819 Y203.8 I0. J-8.02
N445 G1 Y-203.8
N450 G2 X332.8 Y-211.82 I-8.02 J0.
N455 G1 X332.776 Y-211.824 F2000.
N460 X332.755 Y-211.838
N465 X332.741 Y-211.859
N470 X332.736 Y-211.883
N475 Y-211.947
N480 Y-211.972 Z-19.495
N485 Y-211.992 Z-19.481
N490 Y-212.006 Z-19.461
N495 Y-212.011 Z-19.436
N500 Z8. F2200.
N505 X332.864
N510 Z-12. F1000.33
N515 Z-24.936
N520 Y-212.006 Z-24.961 F2000.
N525 Y-211.992 Z-24.981
N530 Y-211.972 Z-24.995
N535 Y-211.947 Z-25.
N540 Y-211.883
N545 X332.859 Y-211.859
N550 X332.845 Y-211.838
N555 X332.824 Y-211.824
N560 X332.8 Y-211.82
N565 X271.556 F2200.
N570 Z-23.903
N575 X270.278
N580 Z-25. F1000.33
N585 X211.732 F2200.
N590 Z-23.903
N595 X210.454
N600 Z-25. F1000.33
N605 X146.801 F2200.
N610 Z-23.903
N615 X145.523
N620 Z-25. F1000.33
N625 X80.086 F2200.
N630 Z-23.903
N635 X78.808
N640 Z-25. F1000.33
N645 X7.662 F2200.
N650 Z-23.903
N655 X6.384
N660 Z-25. F1000.33
N665 X-95.893 F2200.
N670 Z-23.903
N675 X-97.171
N680 Z-25. F1000.33
N685 X-177.534 F2200.
N690 Z-23.903
N695 X-178.812
N700 Z-25. F1000.33
N705 X-236.848 F2200.
N710 Z-23.903
N715 X-238.126
N720 Z-25. F1000.33
N725 X-291.127 F2200.
N730 Z-23.903
N735 X-292.405
N740 Z-25. F1000.33
N745 X-332.8 F2200.
N750 G2 X-340.819 Y-203.8 I0. J8.02
N755 G1 Y-156.12
N760 Z-23.903
N765 Y-154.842
N770 Z-25. F1000.33
N775 Y-99.769 F2200.
N780 Z-23.903
N785 Y-98.491
N790 Z-25. F1000.33
N795 Y-20.771 F2200.
N800 Z-23.903
N805 Y-19.493
N810 Z-25. F1000.33
N815 Y84.748 F2200.
N820 Z-23.903
N825 Y86.026
N830 Z-25. F1000.33
N835 Y161.538 F2200.
N840 Z-23.903
N845 Y162.816
N850 Z-25. F1000.33
N855 Y203.8 F2200.
N860 G2 X-332.8 Y211.82 I8.02 J0.
N865 G1 X-276.293
N870 Z-23.903
N875 X-275.015
N880 Z-25. F1000.33
N885 X-195.992 F2200.
N890 Z-23.903
N895 X-194.714
N900 Z-25. F1000.33
N905 X-109.753 F2200.
N910 Z-23.903
N915 X-108.475
N920 Z-25. F1000.33
N925 X-25.097 F2200.
N930 Z-23.903
N935 X-23.819
N940 Z-25. F1000.33
N945 X88.239 F2200.
N950 Z-23.903
N955 X89.517
N960 Z-25. F1000.33
N965 X201.774 F2200.
N970 Z-23.903
N975 X203.052
N980 Z-25. F1000.33
N985 X282.077 F2200.
N990 Z-23.903
N995 X283.355
N1000 Z-25. F1000.33
N1005 X332.8 F2200.
N1010 G2 X340.794 Y204.439 I0. J-8.02
N1015 G1 Z-23.903
N1020 G2 X340.819 Y203.8 I-7.994 J-0.639
N1025 G1 Y203.161
N1030 Z-25. F1000.33
N1035 Y145.681 F2200.
N1040 Z-23.903
N1045 Y144.403
N1050 Z-25. F1000.33
N1055 Y84.844 F2200.
N1060 Z-23.903
N1065 Y83.566
N1070 Z-25. F1000.33
N1075 Y12.809 F2200.
N1080 Z-23.903
N1085 Y11.531
N1090 Z-25. F1000.33
N1095 Y-65.262 F2200.
N1100 Z-23.903
N1105 Y-66.54
N1110 Z-25. F1000.33
N1115 Y-149.068 F2200.
N1120 Z-23.903
N1125 Y-150.346
N1130 Z-25. F1000.33
N1135 Y-203.8 F2200.
N1140 G2 X332.8 Y-211.82 I-8.02 J0.
N1145 G1 X332.776 Y-211.824 F2000.
N1150 X332.755 Y-211.838
N1155 X332.741 Y-211.859
N1160 X332.736 Y-211.883
N1165 Y-211.947
N1170 Y-211.972 Z-24.995
N1175 Y-211.992 Z-24.981
N1180 Y-212.006 Z-24.961
N1185 Y-212.011 Z-24.936
N1190 Z18. F2200.
N1195 G53 G0 Z0.
N1200 M30
%
