%
(JOEYBOARD_JUICEGROOVE.NGC)
(T1  D=16. CR=8. - ZMIN=-8. - BALL END MILL)
N10 G90 G94 G17 G91.1
N15 G21
(WHEN USING FUSION 360 FOR PERSONAL USE, THE FEEDRATE OF)
(RAPID MOVES IS REDUCED TO MATCH THE FEEDRATE OF CUTTING)
(MOVES, WHICH CAN INCREASE MACHINING TIME. UNRESTRICTED RAPID)
(MOVES ARE AVAILABLE WITH A FUSION 360 SUBSCRIPTION.)
N20 G53 G0 Z0.
(SLOT2)
N25 T1 M6
N30 S5000 M3
N35 G54
N40 G64 P0.01 Q0.01
N45 M8
N50 G0 X317. Y-188.
N55 G43 Z35. H1
N60 G1 Z15. F1000.
N65 Z2.5 F333.33
N70 Y188. Z2.314
N75 X-317. Z2.
N80 Y-188. Z1.814
N85 X317. Z1.5
N90 Y188. Z1.314
N95 X-317. Z1.
N100 Y-188. Z0.814
N105 X317. Z0.5
N110 Y188. Z0.314
N115 X-317. Z0.
N120 Y-188. Z-0.186
N125 X317. Z-0.5
N130 Y188. Z-0.686
N135 X-317. Z-1.
N140 Y-188. F1000.
N145 X317.
N150 Y188.
N155 X-317.
N160 Y-188. Z-1.186 F333.33
N165 X317. Z-1.5
N170 Y188. Z-1.686
N175 X-317. Z-2.
N180 Y-188. F1000.
N185 X317.
N190 Y188.
N195 X-317.
N200 Y-188. Z-2.186 F333.33
N205 X317. Z-2.5
N210 Y188. Z-2.686
N215 X-317. Z-3.
N220 Y-188. F1000.
N225 X317.
N230 Y188.
N235 X-317.
N240 Y-188. Z-3.186 F333.33
N245 X317. Z-3.5
N250 Y188. Z-3.686
N255 X-317. Z-4.
N260 Y-188. F1000.
N265 X317.
N270 Y188.
N275 X-317.
N280 Y-188. Z-4.186 F333.33
N285 X317. Z-4.5
N290 Y188. Z-4.686
N295 X-317. Z-5.
N300 Y-188. F1000.
N305 X317.
N310 Y188.
N315 X-317.
N320 Y-188. Z-5.186 F333.33
N325 X317. Z-5.5
N330 Y188. Z-5.686
N335 X-317. Z-6.
N340 Y-188. F1000.
N345 X317.
N350 Y188.
N355 X-317.
N360 Y-188. Z-6.186 F333.33
N365 X317. Z-6.5
N370 Y188. Z-6.686
N375 X-317. Z-7.
N380 Y-188. F1000.
N385 X317.
N390 Y188.
N395 X-317.
N400 Y-188. Z-7.186 F333.33
N405 X317. Z-7.5
N410 Y188. Z-7.686
N415 X-317. Z-8.
N420 Y-188. F1000.
N425 X317.
N430 Y188.
N435 X-317.
N440 Z35.
N445 M9
N450 G53 G0 Z0.
N455 M30
%
