%
(Header)
(Generated by gcodetools from Inkscape.)
(Using default header. To add your own header create file "header" in the output dir.)
M3
(Header end.)
G21 (All units in mm)

(Start cutting path id: path4689)
(Change tool to Default tool)

G00 Z5.000000
G00 X0.871733 Y185.843278

G01 Z-0.125000 F100.0(Penetrate)
G03 X0.051016 Y185.307280 Z-0.125000 I0.536675 J-1.718091 F400.000000
G03 X0.058587 Y184.996611 Z-0.125000 I0.173618 J-0.151196
G03 X0.424503 Y184.917034 Z-0.125000 I0.242197 J0.232608
G03 X1.278307 Y185.490500 Z-0.125000 I-0.891572 J2.249740
G03 X1.257827 Y185.785033 Z-0.125000 I-0.158452 J0.136961
G03 X0.871733 Y185.843278 Z-0.125000 I-0.238537 J-0.272422
G01 X0.871733 Y185.843278 Z-0.125000
G00 Z5.000000

(End cutting path id: path4689)


(Start cutting path id: path4685)
(Change tool to Default tool)

G00 Z5.000000
G00 X23.436546 Y171.449936

G01 Z-0.125000 F100.0(Penetrate)
G03 X22.961386 Y171.247474 Z-0.125000 I0.000000 J-0.658810 F400.000000
G03 X22.758924 Y170.744380 Z-0.125000 I0.523833 J-0.503094
G03 X22.993758 Y170.210927 Z-0.125000 I0.723317 J-0.000000
G03 X23.436546 Y170.038824 Z-0.125000 I0.442788 J0.483551
G03 X23.911706 Y170.241286 Z-0.125000 I0.000000 J0.658810
G03 X24.114168 Y170.744380 Z-0.125000 I-0.523833 J0.503094
G03 X23.942173 Y171.214979 Z-0.125000 I-0.729804 J0.000000
G03 X23.436546 Y171.449936 Z-0.125000 I-0.505627 J-0.426575
G01 X23.436546 Y171.449936 Z-0.125000
G00 Z5.000000

(End cutting path id: path4685)


(Start cutting path id: path4687)
(Change tool to Default tool)

G00 Z5.000000
G00 X20.997107 Y102.658226

G01 Z-0.125000 F100.0(Penetrate)
G03 X19.596300 Y105.087632 Z-0.125000 I-21.431624 J-10.739016 F400.000000
G03 X19.260700 Y105.418714 Z-0.125000 I-0.942156 J-0.619381
G03 X19.154142 Y105.339388 Z-0.125000 I-0.038221 J-0.059891
G03 X19.912912 Y103.363782 Z-0.125000 I11.371571 J3.233958
G02 X20.923583 Y100.563310 Z-0.125000 I-20.918432 J-9.131928
G02 X20.929345 Y99.694891 Z-0.125000 I-1.539332 J-0.444442
G03 X20.937782 Y99.000404 Z-0.125000 I1.045169 J-0.334597
G03 X21.335918 Y98.424890 Z-0.125000 I1.234492 J0.428540
G03 X22.065560 Y98.883486 Z-0.125000 I0.245493 J0.419153
G03 X20.997107 Y102.658226 Z-0.125000 I-10.112822 J-0.823884
G01 X20.997107 Y102.658226 Z-0.125000
G00 Z5.000000

(End cutting path id: path4687)


(Start cutting path id: path4677)
(Change tool to Default tool)

G00 Z5.000000
G00 X53.251914 Y68.438760

G01 Z-0.125000 F100.0(Penetrate)
G03 X52.801930 Y68.242488 Z-0.125000 I-0.000000 J-0.613965 F400.000000
G03 X52.574292 Y67.662648 Z-0.125000 I0.624666 J-0.579839
G03 X52.787864 Y67.342343 Z-0.125000 I0.346976 J0.000000
G03 X53.251914 Y67.380426 Z-0.125000 I0.195137 J0.468527
G03 X53.820852 Y67.847419 Z-0.125000 I-0.825696 J1.586012
G03 X53.929536 Y68.156538 Z-0.125000 I-0.385255 J0.309118
G03 X53.833679 Y68.307985 Z-0.125000 I-0.167568 J-0.000000
G03 X53.251914 Y68.438760 Z-0.125000 I-0.581765 J-1.228638
G01 X53.251914 Y68.438760 Z-0.125000
G00 Z5.000000

(End cutting path id: path4677)


(Start cutting path id: path4679)
(Change tool to Default tool)

G00 Z5.000000
G00 X52.845341 Y58.490420

G01 Z-0.125000 F100.0(Penetrate)
G03 X52.388436 Y58.295737 Z-0.125000 I-0.000000 J-0.633498 F400.000000
G03 X52.438768 Y58.067087 Z-0.125000 I0.101534 J-0.097514
G03 X53.297253 Y57.928833 Z-0.125000 I0.689047 J1.544121
G03 X53.726249 Y58.137642 Z-0.125000 I-0.069221 J0.687301
G03 X53.700722 Y58.348845 Z-0.125000 I-0.076454 J0.097903
G03 X52.845341 Y58.490420 Z-0.125000 I-0.695512 J-1.547355
G01 X52.845341 Y58.490420 Z-0.125000
G00 Z5.000000

(End cutting path id: path4679)


(Start cutting path id: path4675)
(Change tool to Default tool)

G00 Z5.000000
G00 X62.670860 Y58.560976

G01 Z-0.125000 F100.0(Penetrate)
G03 X62.361293 Y58.348276 Z-0.125000 I0.000000 J-0.331624 F400.000000
G03 X62.399811 Y57.855420 Z-0.125000 I0.536284 J-0.206021
G03 X62.854399 Y57.258725 Z-0.125000 I1.674168 J0.803943
G03 X63.145195 Y57.149864 Z-0.125000 I0.290796 J0.333968
G03 X63.288358 Y57.243530 Z-0.125000 I0.000000 J0.156242
G03 X63.416244 Y57.855420 Z-0.125000 I-1.399904 J0.611890
G03 X63.219451 Y58.332702 Z-0.125000 I-0.677172 J0.000000
G03 X62.670860 Y58.560976 Z-0.125000 I-0.548591 J-0.545054
G01 X62.670860 Y58.560976 Z-0.125000
G00 Z5.000000

(End cutting path id: path4675)


(Start cutting path id: path4683)
(Change tool to Default tool)

G00 Z5.000000
G00 X38.411992 Y41.627632

G01 Z-0.125000 F100.0(Penetrate)
G03 X37.810094 Y41.457287 Z-0.125000 I0.000000 J-1.148550 F400.000000
G03 X37.327797 Y40.922076 Z-0.125000 I0.669708 J-1.088409
G03 X37.435448 Y40.643316 Z-0.125000 I0.184868 J-0.088774
G03 X37.937657 Y40.639854 Z-0.125000 I0.255449 J0.628511
G03 X38.625018 Y41.294034 Z-0.125000 I-0.485026 J1.197831
G03 X38.411992 Y41.627632 Z-0.125000 I-0.213026 J0.098783
G01 X38.411992 Y41.627632 Z-0.125000
G00 Z5.000000

(End cutting path id: path4683)


(Start cutting path id: path4681)
(Change tool to Default tool)

G00 Z5.000000
G00 X46.746743 Y22.507064

G01 Z-0.125000 F100.0(Penetrate)
G03 X46.289838 Y22.312381 Z-0.125000 I0.000000 J-0.633498 F400.000000
G03 X46.340170 Y22.083731 Z-0.125000 I0.101534 J-0.097514
G03 X47.198655 Y21.945477 Z-0.125000 I0.689047 J1.544121
G03 X47.627651 Y22.154286 Z-0.125000 I-0.069221 J0.687301
G03 X47.602124 Y22.365489 Z-0.125000 I-0.076454 J0.097903
G03 X46.746743 Y22.507064 Z-0.125000 I-0.695512 J-1.547355
G01 X46.746743 Y22.507064 Z-0.125000
G00 Z5.000000

(End cutting path id: path4681)


(Start cutting path id: path4673)
(Change tool to Default tool)

G00 Z5.000000
G00 X129.416627 Y16.157060

G01 Z-0.125000 F100.0(Penetrate)
G03 X128.959722 Y15.962377 Z-0.125000 I0.000000 J-0.633498 F400.000000
G03 X129.010054 Y15.733727 Z-0.125000 I0.101534 J-0.097514
G03 X129.868539 Y15.595473 Z-0.125000 I0.689047 J1.544121
G03 X130.297535 Y15.804282 Z-0.125000 I-0.069221 J0.687301
G03 X130.272008 Y16.015485 Z-0.125000 I-0.076454 J0.097903
G03 X129.416627 Y16.157060 Z-0.125000 I-0.695512 J-1.547355
G01 X129.416627 Y16.157060 Z-0.125000
G00 Z5.000000

(End cutting path id: path4673)


(Start cutting path id: path4671)
(Change tool to Default tool)

G00 Z5.000000
G00 X165.737166 Y82.549880

G01 Z-0.125000 F100.0(Penetrate)
G03 X165.287182 Y82.353608 Z-0.125000 I-0.000000 J-0.613965 F400.000000
G03 X165.059544 Y81.773768 Z-0.125000 I0.624666 J-0.579839
G03 X165.273116 Y81.453463 Z-0.125000 I0.346976 J0.000000
G03 X165.737166 Y81.491546 Z-0.125000 I0.195137 J0.468527
G03 X166.306104 Y81.958539 Z-0.125000 I-0.825696 J1.586012
G03 X166.414788 Y82.267658 Z-0.125000 I-0.385255 J0.309118
G03 X166.318931 Y82.419105 Z-0.125000 I-0.167568 J-0.000000
G03 X165.737166 Y82.549880 Z-0.125000 I-0.581765 J-1.228638
G01 X165.737166 Y82.549880 Z-0.125000
G00 Z5.000000

(End cutting path id: path4671)


(Start cutting path id: path4655)
(Change tool to Default tool)

G00 Z5.000000
G00 X114.779992 Y91.228219

G01 Z-0.125000 F100.0(Penetrate)
G02 X114.729660 Y91.456869 Z-0.125000 I0.051203 J0.131136 F400.000000
G02 X115.186565 Y91.651552 Z-0.125000 I0.456905 J-0.438815
G02 X116.041946 Y91.509977 Z-0.125000 I0.159869 J-1.688931
G02 X116.067473 Y91.298774 Z-0.125000 I-0.050926 J-0.113299
G02 X115.638477 Y91.089965 Z-0.125000 I-0.498217 J0.478492
G02 X114.779992 Y91.228219 Z-0.125000 I-0.169439 J1.682375
G01 X114.779992 Y91.228219 Z-0.125000
G00 Z5.000000

(End cutting path id: path4655)


(Start cutting path id: path4667)
(Change tool to Default tool)

G00 Z5.000000
G00 X226.790908 Y81.844324

G01 Z-0.125000 F100.0(Penetrate)
G03 X224.745870 Y89.715167 Z-0.125000 I-96.063175 J-20.758476 F400.000000
G03 X222.589652 Y95.602666 Z-0.125000 I-54.085374 J-16.469454
G02 X222.100149 Y97.035756 Z-0.125000 I104.348389 J36.442576
G02 X220.963359 Y100.894336 Z-0.125000 I53.317570 J17.804829
G03 X219.786030 Y104.719858 Z-0.125000 I-106.649254 J-30.728056
G03 X219.201542 Y106.397673 Z-0.125000 I-45.327406 J-14.849677
G02 X218.728258 Y108.065225 Z-0.125000 I10.528908 J3.889251
G02 X218.591682 Y109.431564 Z-0.125000 I6.766317 J1.366338
G03 X217.572792 Y113.937758 Z-0.125000 I-10.474111 J-0.000000
G03 X215.881194 Y115.005456 Z-0.125000 I-1.691598 J-0.806186
G03 X215.642587 Y114.697912 Z-0.125000 I0.000000 J-0.246333
G03 X216.558816 Y112.183232 Z-0.125000 I13.209964 J3.388824
G02 X217.743871 Y109.381897 Z-0.125000 I-20.631553 J-10.379139
G02 X217.914060 Y108.373230 Z-0.125000 I-2.903967 J-1.008667
G03 X218.282137 Y105.708589 Z-0.125000 I9.829189 J0.000000
G03 X223.402798 Y88.899884 Z-0.125000 I399.282387 J112.454415
G02 X224.999011 Y82.085256 Z-0.125000 I-35.838289 J-11.988779
G02 X225.706713 Y72.319318 Z-0.125000 I-74.652909 J-10.318434
G02 X225.197406 Y62.528201 Z-0.125000 I-94.368743 J0.000000
G02 X224.486993 Y60.465977 Z-0.125000 I-4.802715 J0.501004
G03 X223.798963 Y58.844762 Z-0.125000 I6.299527 J-3.630072
G03 X224.012658 Y58.560976 Z-0.125000 I0.213695 J-0.061435
G03 X224.534435 Y58.771412 Z-0.125000 I0.000000 J0.752093
G03 X225.706713 Y60.254310 Z-0.125000 I-4.866548 J5.051969
G03 X226.395492 Y62.144281 Z-0.125000 I-3.726479 J2.428568
G03 X227.087368 Y70.229108 Z-0.125000 I-111.842506 J13.643175
G03 X227.226325 Y78.212026 Z-0.125000 I-124.827181 J6.165519
G03 X226.790908 Y81.844324 Z-0.125000 I-17.490132 J-0.254361
G01 X226.790908 Y81.844324 Z-0.125000
G00 Z5.000000

(End cutting path id: path4667)


(Start cutting path id: path4665)
(Change tool to Default tool)

G00 Z5.000000
G00 X233.499366 Y79.727656

G01 Z-0.125000 F100.0(Penetrate)
G03 X233.049382 Y79.531384 Z-0.125000 I-0.000000 J-0.613965 F400.000000
G03 X232.821744 Y78.951544 Z-0.125000 I0.624666 J-0.579839
G03 X233.035316 Y78.631239 Z-0.125000 I0.346976 J0.000000
G03 X233.499366 Y78.669322 Z-0.125000 I0.195137 J0.468527
G03 X234.068304 Y79.136315 Z-0.125000 I-0.825696 J1.586012
G03 X234.176988 Y79.445434 Z-0.125000 I-0.385255 J0.309118
G03 X234.081131 Y79.596881 Z-0.125000 I-0.167568 J0.000000
G03 X233.499366 Y79.727656 Z-0.125000 I-0.581765 J-1.228638
G01 X233.499366 Y79.727656 Z-0.125000
G00 Z5.000000

(End cutting path id: path4665)


(Start cutting path id: path4663)
(Change tool to Default tool)

G00 Z5.000000
G00 X245.628800 Y115.005456

G01 Z-0.125000 F100.0(Penetrate)
G03 X244.730166 Y114.858915 Z-0.125000 I-0.359827 J-0.622046 F400.000000
G03 X244.747891 Y114.017678 Z-0.125000 I0.465706 J-0.410993
G02 X245.536669 Y112.829191 Z-0.125000 I-2.884793 J-2.770580
G02 X245.425513 Y112.394899 Z-0.125000 I-0.336973 J-0.145124
G02 X245.049361 Y112.326616 Z-0.125000 I-0.223497 J0.160987
G02 X244.070269 Y113.241566 Z-0.125000 I2.272772 J3.413445
G03 X243.038471 Y114.039024 Z-0.125000 I-1.858992 J-1.339044
G03 X241.969641 Y114.017678 Z-0.125000 I-0.508403 J-1.313120
G03 X241.583011 Y113.436519 Z-0.125000 I0.203896 J-0.554834
G03 X242.037403 Y112.536010 Z-0.125000 I1.227994 J0.054743
G03 X245.043480 Y111.499615 Z-0.125000 I2.980039 J3.765862
G03 X246.645233 Y112.606566 Z-0.125000 I-0.009358 J1.725880
G03 X246.602260 Y113.932819 Z-0.125000 I-1.739391 J0.607464
G03 X245.628800 Y115.005456 Z-0.125000 I-2.021467 J-0.856515
G01 X245.628800 Y115.005456 Z-0.125000
G00 Z5.000000

(End cutting path id: path4663)


(Start cutting path id: path4657)
(Change tool to Default tool)

G00 Z5.000000
G00 X260.604246 Y53.974862

G01 Z-0.125000 F100.0(Penetrate)
G03 X260.056403 Y53.525702 Z-0.125000 I1.466458 J-2.347331 F400.000000
G03 X259.926624 Y53.198750 Z-0.125000 I0.346955 J-0.326952
G03 X260.039524 Y53.029428 Z-0.125000 I0.183421 J0.000000
G03 X260.604246 Y52.916528 Z-0.125000 I0.564722 J1.355909
G03 X261.087145 Y53.145817 Z-0.125000 I-0.000000 J0.623154
G03 X261.281868 Y53.692640 Z-0.125000 I-0.670433 J0.546823
G03 X261.091811 Y53.987843 Z-0.125000 I-0.324289 J0.000000
G03 X260.604246 Y53.974862 Z-0.125000 I-0.230461 J-0.506831
G01 X260.604246 Y53.974862 Z-0.125000
G00 Z5.000000

(End cutting path id: path4657)


(Start cutting path id: path4661)
(Change tool to Default tool)

G00 Z5.000000
G00 X257.283898 Y48.683192

G01 Z-0.125000 F100.0(Penetrate)
G03 X255.989576 Y48.483794 Z-0.125000 I-0.516149 J-0.950118 F400.000000
G03 X256.064179 Y47.483747 Z-0.125000 I0.483784 J-0.466716
G03 X258.074571 Y46.458654 Z-0.125000 I3.174345 J3.741547
G03 X258.571380 Y46.848746 Z-0.125000 I0.095256 J0.390092
G03 X258.283855 Y47.744270 Z-0.125000 I-1.538357 J-0.000000
G03 X257.283898 Y48.683192 Z-0.125000 I-2.870378 J-2.055026
G01 X257.283898 Y48.683192 Z-0.125000
G00 Z5.000000

(End cutting path id: path4661)


(Start cutting path id: path4659)
(Change tool to Default tool)

G00 Z5.000000
G00 X258.164807 Y39.440408

G01 Z-0.125000 F100.0(Penetrate)
G03 X257.707902 Y39.245725 Z-0.125000 I0.000000 J-0.633498 F400.000000
G03 X257.758234 Y39.017075 Z-0.125000 I0.101534 J-0.097514
G03 X258.616719 Y38.878821 Z-0.125000 I0.689047 J1.544121
G03 X259.045715 Y39.087630 Z-0.125000 I-0.069221 J0.687301
G03 X259.020188 Y39.298833 Z-0.125000 I-0.076454 J0.097903
G03 X258.164807 Y39.440408 Z-0.125000 I-0.695512 J-1.547355
G01 X258.164807 Y39.440408 Z-0.125000
G00 Z5.000000

(End cutting path id: path4659)


(Start cutting path id: path4655)
(Change tool to Default tool)

G00 Z5.000000
G00 X275.918503 Y28.080957

G01 Z-0.125000 F100.0(Penetrate)
G01 X273.614588 Y26.105400 Z-0.125000 F400.000000
G01 X264.060118 Y28.222068 Z-0.125000
G02 X249.008242 Y32.339231 Z-0.125000 I29.553621 J137.617212
G02 X236.751952 Y37.323740 Z-0.125000 I32.883183 J98.416267
G02 X227.160785 Y45.338634 Z-0.125000 I10.936290 J22.833275
G02 X215.271334 Y67.098204 Z-0.125000 I80.510548 J58.119035
G02 X208.643102 Y85.944927 Z-0.125000 I283.148069 J110.169681
G02 X208.833925 Y87.559328 Z-0.125000 I1.888719 J0.595230
G03 X208.866212 Y88.271251 Z-0.125000 I-0.820264 J0.393895
G03 X208.291828 Y89.111551 Z-0.125000 I-1.985276 J-0.740571
G02 X207.219163 Y90.777546 Z-0.125000 I2.116796 J2.541236
G02 X204.293858 Y103.293226 Z-0.125000 I162.213653 J44.514100
G02 X204.101936 Y110.919315 Z-0.125000 I23.850714 J4.415697
G02 X207.478681 Y127.705464 Z-0.125000 I129.118152 J-17.241028
G02 X217.110352 Y149.927009 Z-0.125000 I83.867178 J-23.153115
G02 X226.045524 Y158.185483 Z-0.125000 I19.041068 J-11.638393
G02 X229.695714 Y159.864398 Z-0.125000 I41.401392 J-85.204821
G02 X229.975732 Y159.808262 Z-0.125000 I0.099656 J-0.229357
G02 X230.009331 Y159.534488 Z-0.125000 I-0.165873 J-0.159306
G02 X227.739579 Y155.857148 Z-0.125000 I-58.540157 J33.593403
G03 X226.012842 Y152.239021 Z-0.125000 I12.047061 J-7.970513
G03 X226.248811 Y151.129923 Z-0.125000 I1.096272 J-0.346411
G03 X227.383655 Y150.505590 Z-0.125000 I1.693740 J1.735127
G03 X232.211884 Y149.586519 Z-0.125000 I12.737571 J53.773563
G03 X237.081547 Y149.098390 Z-0.125000 I8.014557 J55.420193
G03 X238.581531 Y149.366033 Z-0.125000 I0.185489 J3.297530
G02 X238.981735 Y148.916217 Z-0.125000 I0.113265 J-0.302168
G02 X236.074330 Y144.497697 Z-0.125000 I-22.070502 J11.356681
G01 X232.482933 Y140.264361 Z-0.125000
G01 X234.109226 Y138.923804 Z-0.125000
G03 X235.849511 Y138.067588 Z-0.125000 I2.496137 J2.876773
G03 X240.682159 Y137.583248 Z-0.125000 I4.832648 J23.867428
G02 X245.398322 Y137.286535 Z-0.125000 I-0.000000 J-37.629284
G02 X245.696562 Y136.948248 Z-0.125000 I-0.042735 J-0.338287
G02 X245.530734 Y136.364738 Z-0.125000 I-1.109529 J0.000000
G02 X244.070269 Y134.267135 Z-0.125000 I-19.981708 J12.355115
G03 X241.193948 Y128.608177 Z-0.125000 I11.426999 J-9.368550
G03 X241.630830 Y124.883240 Z-0.125000 I5.013013 J-1.300134
G03 X242.801821 Y123.985932 Z-0.125000 I1.512257 J0.760773
G03 X247.119568 Y123.754350 Z-0.125000 I2.928126 J14.226636
G02 X251.670784 Y124.082899 Z-0.125000 I18.779483 J-228.455696
G02 X251.795160 Y123.966017 Z-0.125000 I0.007269 J-0.116881
G02 X251.739965 Y123.725075 Z-0.125000 I-0.553487 J0.000000
G02 X249.762294 Y119.873792 Z-0.125000 I-81.185751 J39.256250
G03 X247.923239 Y115.187306 Z-0.125000 I20.725317 J-10.837042
G03 X248.059769 Y113.294483 Z-0.125000 I2.759826 J-0.752268
G03 X249.368833 Y112.110547 Z-0.125000 I1.961035 J0.852618
G03 X253.421453 Y111.477676 Z-0.125000 I4.052619 J12.659131
G02 X259.001805 Y110.573102 Z-0.125000 I0.000000 J-17.664990
G02 X259.926624 Y109.290452 Z-0.125000 I-0.427056 J-1.282650
G02 X259.713095 Y108.587145 Z-0.125000 I-1.265016 J-0.000000
G02 X257.554947 Y105.762672 Z-0.125000 I-23.490482 J15.712069
G03 X255.452107 Y100.172388 Z-0.125000 I6.681465 J-5.703943
G03 X257.487185 Y98.072112 Z-0.125000 I2.073630 J-0.026830
G02 X262.077971 Y96.870115 Z-0.125000 I-0.000000 J-9.367796
G02 X263.314734 Y94.755999 Z-0.125000 I-1.188550 J-2.114117
G02 X263.248306 Y94.511908 Z-0.125000 I-0.481675 J0.000000
G02 X261.214106 Y91.298774 Z-0.125000 I-49.713875 J29.222842
G03 X259.503578 Y87.968450 Z-0.125000 I12.972710 J-8.767515
G03 X259.045715 Y85.724882 Z-0.125000 I7.029799 J-2.603129
G03 X260.247783 Y81.745721 Z-0.125000 I6.632197 J-0.167622
G03 X262.772636 Y80.433212 Z-0.125000 I2.524853 J1.772256
G02 X266.656136 Y79.344914 Z-0.125000 I-0.000000 J-7.473120
G02 X269.752143 Y76.199876 Z-0.125000 I-4.693775 J-7.716989
G02 X269.729429 Y75.484826 Z-0.125000 I-0.699036 J-0.335680
G02 X267.380466 Y72.107651 Z-0.125000 I-18.612927 J10.440562
G03 X263.153174 Y65.388138 Z-0.125000 I19.219769 J-16.780755
G03 X263.179210 Y62.441534 Z-0.125000 I3.364424 J-1.443690
G03 X264.146688 Y60.852787 Z-0.125000 I8.457702 J4.061424
G03 X264.805502 Y60.395422 Z-0.125000 I1.024868 J0.773098
G02 X271.595591 Y57.828108 Z-0.125000 I-14.321582 J-48.140993
G02 X272.530393 Y56.797086 Z-0.125000 I-0.750221 J-1.619499
G02 X272.525829 Y55.943922 Z-0.125000 I-1.023121 J-0.421120
G02 X270.836338 Y52.845972 Z-0.125000 I-16.583411 J7.034226
G03 X269.145455 Y47.550377 Z-0.125000 I8.053840 J-5.489338
G03 X270.633052 Y45.014301 Z-0.125000 I2.810313 J-0.055874
G02 X272.241191 Y43.019631 Z-0.125000 I-1.423083 J-2.792906
G02 X271.785009 Y40.639854 Z-0.125000 I-2.711063 J-0.713925
G03 X271.151871 Y36.616865 Z-0.125000 I3.661786 J-2.637608
G03 X274.292210 Y32.808182 Z-0.125000 I6.372991 J2.055686
G02 X278.063248 Y30.621588 Z-0.125000 I-52.218353 J-94.401790
G02 X278.222418 Y30.338736 Z-0.125000 I-0.171737 J-0.282852
G02 X278.089735 Y30.024327 Z-0.125000 I-0.438856 J-0.000000
G02 X275.918503 Y28.080957 Z-0.125000 I-24.178466 J24.828815
G01 X275.918503 Y28.080957 Z-0.125000
G00 Z5.000000

(End cutting path id: path4655)


(Start cutting path id: path4669)
(Change tool to Default tool)

G00 Z5.000000
G00 X219.879164 Y1.410940

G01 Z-0.125000 F100.0(Penetrate)
G03 X219.569597 Y1.198240 Z-0.125000 I0.000000 J-0.331624 F400.000000
G03 X219.608115 Y0.705384 Z-0.125000 I0.536284 J-0.206021
G03 X220.062703 Y0.108689 Z-0.125000 I1.674168 J0.803943
G03 X220.353499 Y-0.000172 Z-0.125000 I0.290796 J0.333968
G03 X220.496662 Y0.093494 Z-0.125000 I0.000000 J0.156242
G03 X220.624548 Y0.705384 Z-0.125000 I-1.399904 J0.611890
G03 X220.427755 Y1.182666 Z-0.125000 I-0.677172 J0.000000
G03 X219.879164 Y1.410940 Z-0.125000 I-0.548591 J-0.545054
G01 X219.879164 Y1.410940 Z-0.125000
G00 Z5.000000

(End cutting path id: path4669)


(Start cutting path id: path4655)
(Change tool to Default tool)

G00 Z5.000000
G00 X341.918886 Y73.024874

G01 Z-0.125000 F100.0(Penetrate)
G02 X338.572139 Y52.988877 Z-0.125000 I-151.377180 J14.988035 F400.000000
G02 X333.787422 Y38.382074 Z-0.125000 I-88.900560 J21.033891
G02 X329.248119 Y31.424262 Z-0.125000 I-21.257116 J8.908589
G02 X322.809946 Y26.881512 Z-0.125000 I-14.596415 J13.853042
G02 X309.462565 Y23.419483 Z-0.125000 I-15.955000 J34.051818
G02 X286.624931 Y24.341510 Z-0.125000 I-7.235135 J104.086423
G02 X278.598136 Y25.571297 Z-0.125000 I51.956199 J365.927297
G02 X277.002698 Y25.893733 Z-0.125000 I3.629507 J22.067456
G01 X275.511930 Y26.246511 Z-0.125000
G01 X277.341509 Y28.151512 Z-0.125000
G02 X279.254992 Y29.720093 Z-0.125000 I9.984359 J-10.228334
G02 X279.780949 Y29.774291 Z-0.125000 I0.312900 J-0.457355
G03 X280.093349 Y29.818780 Z-0.125000 I0.125137 J0.240366
G03 X280.255284 Y30.197625 Z-0.125000 I-0.362183 J0.378845
G03 X279.999261 Y30.677467 Z-0.125000 I-0.577675 J0.000000
G03 X277.477034 Y32.173182 Z-0.125000 I-14.779332 J-22.047942
G02 X272.229996 Y35.493468 Z-0.125000 I9.354999 J20.589755
G02 X271.446198 Y37.182629 Z-0.125000 I1.428254 J1.689161
G02 X271.690479 Y38.251249 Z-0.125000 I2.459509 J0.000000
G02 X273.140253 Y40.639854 Z-0.125000 I13.120678 J-6.329378
G03 X274.680341 Y43.012459 Z-0.125000 I-17.228084 J12.869110
G03 X274.834308 Y43.603189 Z-0.125000 I-1.056248 J0.590730
G03 X274.583909 Y44.082695 Z-0.125000 I-0.584319 J-0.000000
G03 X272.123820 Y45.508190 Z-0.125000 I-9.784779 J-14.050833
G02 X269.742993 Y47.004651 Z-0.125000 I5.062290 J10.696107
G02 X269.413332 Y47.695414 Z-0.125000 I0.558873 J0.690763
G02 X269.592809 Y48.418490 Z-0.125000 I1.546303 J0.000000
G02 X271.785009 Y52.210972 Z-0.125000 I51.607939 J-27.301540
G03 X273.947806 Y55.904702 Z-0.125000 I-56.750410 J35.709240
G03 X274.156686 Y56.726530 Z-0.125000 I-1.512284 J0.821828
G03 X273.503776 Y57.905044 Z-0.125000 I-1.390073 J-0.000000
G03 X267.787039 Y60.677644 Z-0.125000 I-15.718084 J-25.128739
G02 X264.876212 Y62.229432 Z-0.125000 I3.486989 J10.046802
G02 X264.085529 Y63.614521 Z-0.125000 I1.213068 J1.610711
G02 X264.402438 Y65.328372 Z-0.125000 I2.978807 J0.335413
G02 X266.838368 Y69.144316 Z-0.125000 I22.283203 J-11.539145
G03 X270.224480 Y75.359825 Z-0.125000 I-17.248310 J13.426712
G03 X269.752143 Y77.610988 Z-0.125000 I-2.101105 J0.734283
G03 X267.638786 Y79.376306 Z-0.125000 I-9.071648 J-8.712488
G03 X264.195643 Y81.279879 Z-0.125000 I-13.419227 J-20.206694
G02 X261.040990 Y83.359275 Z-0.125000 I4.256413 J9.890070
G02 X260.070619 Y85.266271 Z-0.125000 I2.202245 J2.320991
G02 X260.417288 Y87.477481 Z-0.125000 I3.943283 J0.514560
G02 X262.908161 Y91.369330 Z-0.125000 I16.299687 J-7.689142
G03 X264.559422 Y93.550195 Z-0.125000 I-20.620110 J17.328264
G03 X264.669978 Y93.909332 Z-0.125000 I-0.528042 J0.359136
G03 X263.617658 Y96.318157 Z-0.125000 I-3.283134 J-0.000000
G03 X259.384526 Y98.777668 Z-0.125000 I-7.597697 J-8.203967
G02 X256.889433 Y99.565870 Z-0.125000 I121.285084 J388.277432
G02 X255.996416 Y99.906558 Z-0.125000 I2.632795 J8.241866
G02 X255.568788 Y101.069832 Z-0.125000 I0.262664 J0.756794
G02 X259.723337 Y106.186006 Z-0.125000 I19.019410 J-11.199642
G03 X261.139067 Y108.697206 Z-0.125000 I-3.153574 J3.432548
G03 X260.672008 Y110.454620 Z-0.125000 I-2.012760 J0.405850
G03 X258.816101 Y111.721930 Z-0.125000 I-3.377024 J-2.952876
G03 X253.895788 Y112.818232 Z-0.125000 I-6.762905 J-18.763009
G02 X249.220059 Y113.492448 Z-0.125000 I6.813894 J63.805186
G02 X248.678099 Y113.735455 Z-0.125000 I0.222353 J1.221745
G02 X248.608249 Y114.271235 Z-0.125000 I0.461817 J0.332650
G02 X250.710965 Y118.886014 Z-0.125000 I37.866546 J-14.467381
G03 X253.022267 Y123.678457 Z-0.125000 I-61.603176 J32.663577
G03 X253.006409 Y124.812684 Z-0.125000 I-1.260359 J0.549604
G03 X252.141539 Y125.376062 Z-0.125000 I-0.887511 J-0.416922
G03 X247.729428 Y125.236018 Z-0.125000 I-0.930063 J-40.270306
G02 X242.948020 Y125.453286 Z-0.125000 I-1.618619 J17.099895
G02 X242.308452 Y126.223796 Z-0.125000 I0.144347 J0.770511
G02 X243.057289 Y129.786361 Z-0.125000 I8.848797 J0.000000
G02 X245.899849 Y134.478802 Z-0.125000 I19.326370 J-8.500219
G03 X247.162252 Y136.613249 Z-0.125000 I-7.221429 J5.711606
G03 X247.119568 Y137.442137 Z-0.125000 I-0.878267 J0.370316
G03 X246.457594 Y137.904238 Z-0.125000 I-0.890112 J-0.569914
G03 X240.749921 Y138.712138 Z-0.125000 I-8.092986 J-36.609726
G02 X234.969906 Y139.404757 Z-0.125000 I7.693643 J88.668479
G02 X234.515799 Y139.770472 Z-0.125000 I0.087899 J0.573933
G02 X234.506181 Y140.266657 Z-0.125000 I0.354085 J0.255049
G02 X237.565098 Y144.356586 Z-0.125000 I37.554450 J-24.898649
G03 X240.696083 Y148.417949 Z-0.125000 I-49.379260 J41.305003
G03 X240.953208 Y149.224922 Z-0.125000 I-1.137761 J0.806973
G03 X240.561222 Y149.700313 Z-0.125000 I-0.484264 J0.000000
G03 X234.380275 Y150.494923 Z-0.125000 I-9.302650 J-47.924677
G02 X227.864546 Y151.242870 Z-0.125000 I7.163747 J91.161636
G02 X227.265244 Y151.553257 Z-0.125000 I0.156834 J1.036587
G02 X227.146545 Y152.231829 Z-0.125000 I0.445161 J0.427537
G02 X229.365872 Y156.351038 Z-0.125000 I28.401892 J-12.644764
G01 X232.076360 Y160.584374 Z-0.125000
G01 X239.055866 Y161.924930 Z-0.125000
G02 X246.071059 Y162.837230 Z-0.125000 I9.688362 J-47.071269
G02 X263.992356 Y163.336042 Z-0.125000 I17.921297 J-321.688394
G02 X287.590247 Y161.507248 Z-0.125000 I-0.000000 J-153.162402
G02 X301.261566 Y157.479927 Z-0.125000 I-8.354935 J-53.580315
G02 X313.394635 Y150.732989 Z-0.125000 I-29.340369 J-67.045969
G02 X322.877708 Y142.592696 Z-0.125000 I-33.200674 J-48.271099
G02 X334.923787 Y126.607833 Z-0.125000 I-64.769330 J-61.341058
G02 X339.140636 Y115.005456 Z-0.125000 I-28.930395 J-17.082154
G02 X340.926522 Y103.517246 Z-0.125000 I-297.068831 J-52.063401
G02 X341.647837 Y97.013778 Z-0.125000 I-132.429303 J-17.979787
G03 X342.180511 Y91.391537 Z-0.125000 I96.930713 J6.347256
G03 X342.325459 Y91.087108 Z-0.125000 I0.530515 J0.065873
G02 X342.914636 Y89.428823 Z-0.125000 I-1.925120 J-1.617789
G02 X341.918886 Y73.024874 Z-0.125000 I-184.596217 J2.973134
G01 X341.918886 Y73.024874 Z-0.125000
G00 Z5.000000

(End cutting path id: path4655)


(Start cutting path id: path4655)
(Change tool to Default tool)

G00 Z5.000000
G00 X341.647837 Y105.903784

G01 Z-0.125000 F100.0(Penetrate)
G03 X338.634160 Y121.016347 Z-0.125000 I-159.742873 J-23.998412 F400.000000
G03 X336.701197 Y125.729907 Z-0.125000 I-17.149042 J-4.279456
G02 X335.227634 Y128.408506 Z-0.125000 I39.280574 J23.353818
G02 X335.142666 Y128.763798 Z-0.125000 I0.700336 J0.355292
G03 X334.592616 Y130.552555 Z-0.125000 I-3.183535 J0.000000
G03 X331.754556 Y134.055468 Z-0.125000 I-22.152238 J-15.046588
G02 X331.404283 Y134.445834 Z-0.125000 I5.582534 J5.361513
G02 X327.485537 Y139.206027 Z-0.125000 I272.090040 J227.986460
G03 X307.430979 Y155.736370 Z-0.125000 I-49.672068 J-39.831759
G03 X279.577662 Y164.394376 Z-0.125000 I-37.389387 J-71.151977
G03 X262.606887 Y165.251394 Z-0.125000 I-15.284774 J-134.213738
G03 X244.680129 Y163.900487 Z-0.125000 I1.789582 J-143.368965
G02 X236.481534 Y162.826665 Z-0.125000 I-53.777639 J378.755691
G02 X234.380275 Y162.701042 Z-0.125000 I-2.101260 J17.510687
G03 X232.373710 Y162.490553 Z-0.125000 I0.000000 J-9.669419
G03 X232.144122 Y162.207152 Z-0.125000 I0.060119 J-0.283400
G02 X231.864253 Y161.771457 Z-0.125000 I-0.479076 J0.000000
G02 X228.417201 Y160.513818 Z-0.125000 I-9.666626 J21.142356
G03 X222.176785 Y157.329004 Z-0.125000 I6.483579 J-20.410343
G03 X216.491054 Y151.623812 Z-0.125000 I15.917857 J-21.549325
G03 X212.367369 Y144.898265 Z-0.125000 I33.909686 J-25.418265
G03 X208.766163 Y136.031025 Z-0.125000 I60.509095 J-29.739132
G03 X203.575417 Y112.080042 Z-0.125000 I119.747595 J-38.490116
G03 X204.361620 Y98.424890 Z-0.125000 I39.381227 J-4.582812
G03 X205.882567 Y92.000374 Z-0.125000 I543.374214 J125.246697
G02 X206.394486 Y89.817107 Z-0.125000 I-135.048627 J-32.817033
G02 X206.567286 Y88.016673 Z-0.125000 I-5.795469 J-1.464741
G02 X206.326724 Y87.912106 Z-0.125000 I-0.146592 J0.008245
G02 X205.889398 Y88.420304 Z-0.125000 I0.597548 J0.956483
G02 X205.716864 Y89.252662 Z-0.125000 I1.921515 J0.832358
G03 X205.013258 Y90.500439 Z-0.125000 I-1.458209 J0.000000
G03 X198.805120 Y93.415442 Z-0.125000 I-16.944305 J-28.018312
G03 X193.583740 Y94.664297 Z-0.125000 I-8.401041 J-23.584647
G03 X165.398355 Y97.719334 Z-0.125000 I-92.914184 J-725.669690
G02 X160.652557 Y98.226873 Z-0.125000 I7.973483 J96.998818
G02 X159.638568 Y98.424890 Z-0.125000 I1.093149 J8.292868
G03 X158.296856 Y98.681678 Z-0.125000 I-2.238197 J-8.060937
G03 X144.392073 Y100.118224 Z-0.125000 I-169.543202 J-1573.048887
G03 X136.831050 Y100.589067 Z-0.125000 I-10.339834 J-105.097414
G03 X121.344455 Y100.823780 Z-0.125000 I-18.257205 J-693.599389
G03 X105.139385 Y100.657185 Z-0.125000 I-2.267005 J-567.718134
G03 X104.751186 Y100.259336 Z-0.125000 I0.009770 J-0.397850
G03 X105.052876 Y99.942105 Z-0.125000 I0.317631 J0.000000
G03 X124.537748 Y99.271557 Z-0.125000 I30.948401 J615.870995
G02 X144.343897 Y98.563388 Z-0.125000 I-7.491300 J-486.841926
G02 X157.266891 Y97.437112 Z-0.125000 I-11.792692 J-210.013250
G02 X170.202340 Y95.986754 Z-0.125000 I-234.826282 J-2152.778379
G02 X173.529819 Y95.602666 Z-0.125000 I-740.202451 J-6427.216613
G02 X193.935285 Y92.982462 Z-0.125000 I-52.379565 J-488.684728
G02 X199.753790 Y91.651552 Z-0.125000 I-5.803429 J-38.755785
G02 X203.905420 Y89.603676 Z-0.125000 I-4.637069 J-14.632864
G02 X203.683998 Y88.899884 Z-0.125000 I-0.221422 J-0.317065
G02 X202.779064 Y89.183182 Z-0.125000 I-0.000000 J1.586958
G02 X202.667565 Y89.605440 Z-0.125000 I0.191958 J0.276537
G03 X202.611677 Y90.022554 Z-0.125000 I-0.298918 J0.172250
G03 X201.854419 Y90.381552 Z-0.125000 I-0.887773 J-0.894473
G02 X200.636204 Y90.425788 Z-0.125000 I-0.000000 J16.796025
G02 X197.585400 Y90.663774 Z-0.125000 I21.113081 J290.328003
G03 X194.506628 Y90.817943 Z-0.125000 I-3.869294 J-46.451287
G03 X160.451714 Y91.298774 Z-0.125000 I-101.620044 J-5991.040922
G02 X126.390989 Y91.778974 Z-0.125000 I19.460214 J2588.531112
G02 X123.182504 Y92.004330 Z-0.125000 I0.672739 J32.530876
G03 X105.634143 Y93.349093 Z-0.125000 I-23.245407 J-188.168591
G03 X69.159090 Y93.935790 Z-0.125000 I-39.236259 J-1305.201890
G03 X30.988151 Y93.355526 Z-0.125000 I-2.331170 J-1102.422533
G03 X29.060809 Y92.215997 Z-0.125000 I0.075714 J-2.327730
G03 X29.270172 Y91.855826 Z-0.125000 I0.213200 J-0.117005
G03 X42.477724 Y92.004330 Z-0.125000 I3.856224 J244.434305
G02 X87.637761 Y92.811723 Z-0.125000 I51.107628 J-1595.236547
G02 X107.122863 Y92.004330 Z-0.125000 I0.805253 J-216.090826
G02 X109.864800 Y91.848208 Z-0.125000 I-6.773423 J-143.115575
G02 X111.866217 Y91.651552 Z-0.125000 I-2.121577 J-31.874726
G02 X111.867444 Y91.524917 Z-0.125000 I-0.003881 J-0.063361
G02 X100.007832 Y90.663774 Z-0.125000 I-59.264295 J734.088626
G02 X86.155341 Y89.678570 Z-0.125000 I-197.831388 J2683.734763
G03 X81.373227 Y89.323218 Z-0.125000 I28.502541 J-415.924594
G02 X76.650324 Y88.965197 Z-0.125000 I-30.521281 J371.296721
G02 X70.192464 Y88.547106 Z-0.125000 I-48.159243 J693.788219
G03 X63.787960 Y87.937862 Z-0.125000 I17.215232 J-214.937523
G03 X50.202615 Y86.289327 Z-0.125000 I68.168170 J-618.566036
G03 X36.634071 Y84.616200 Z-0.125000 I3316.548025 J-26952.039226
G02 X35.159407 Y84.525437 Z-0.125000 I-1.474664 J11.934341
G03 X33.922331 Y84.219235 Z-0.125000 I0.000000 J-2.652037
G03 X33.329827 Y83.537658 Z-0.125000 I0.582616 J-1.104800
G03 X33.742972 Y82.980735 Z-0.125000 I0.397944 J-0.136496
G03 X44.442828 Y83.960992 Z-0.125000 I-3.517240 J97.278442
G02 X51.601908 Y85.001989 Z-0.125000 I43.256613 J-272.344134
G02 X62.738622 Y86.430438 Z-0.125000 I198.006938 J-1499.608056
G02 X66.184721 Y86.757161 Z-0.125000 I8.553275 J-71.878086
G02 X82.389660 Y87.841550 Z-0.125000 I150.910350 J-2133.557334
G03 X98.286096 Y88.961052 Z-0.125000 I-549.061979 J7909.857107
G03 X115.728662 Y90.381552 Z-0.125000 I-62.688687 J877.566142
G02 X124.693548 Y90.906128 Z-0.125000 I17.538052 J-222.855033
G02 X125.977695 Y90.822524 Z-0.125000 I0.239137 J-6.230878
G02 X125.979518 Y90.640507 Z-0.125000 I-0.015499 J-0.091173
G02 X119.658870 Y89.675996 Z-0.125000 I-16.191606 J84.914510
G03 X105.392979 Y87.431911 Z-0.125000 I15.279283 J-143.599031
G03 X104.751186 Y86.642105 Z-0.125000 I0.165081 J-0.789806
G03 X104.997421 Y86.319427 Z-0.125000 I0.334543 J0.000000
G03 X105.970906 Y86.289327 Z-0.125000 I0.549265 J2.007018
G02 X118.198101 Y88.504571 Z-0.125000 I16.771061 J-57.717000
G02 X150.422909 Y89.675996 Z-0.125000 I30.994600 J-408.809642
G02 X197.521311 Y88.798806 Z-0.125000 I-5.329924 J-1551.028105
G02 X202.599803 Y87.982661 Z-0.125000 I-0.694323 J-20.529071
G02 X206.566885 Y86.668327 Z-0.125000 I-13.204331 J-46.499024
G02 X207.139870 Y86.289327 Z-0.125000 I-0.556140 J-1.463421
G02 X207.463054 Y85.625401 Z-0.125000 I-4.589621 J-2.644746
G02 X208.766163 Y81.844324 Z-0.125000 I-36.120862 J-14.563767
G03 X213.869498 Y67.628203 Z-0.125000 I186.352952 J58.873344
G03 X221.031121 Y51.293749 Z-0.125000 I276.753954 J111.601881
G03 X227.224845 Y42.919506 Z-0.125000 I25.418511 J12.322326
G03 X237.836147 Y35.630406 Z-0.125000 I29.978340 J32.273375
G03 X252.772194 Y29.984231 Z-0.125000 I36.140738 J73.025968
G03 X280.594095 Y24.059288 Z-0.125000 I69.282463 J257.046877
G02 X285.378511 Y23.288027 Z-0.125000 I-387.607802 J-2419.701981
G03 X290.284090 Y22.507064 Z-0.125000 I135.167027 J833.247082
G03 X310.235858 Y22.099012 Z-0.125000 I11.496219 J74.132877
G03 X324.165190 Y26.387622 Z-0.125000 I-4.448100 J39.212765
G03 X330.691312 Y31.610397 Z-0.125000 I-9.964374 J19.139740
G03 X335.210428 Y39.510964 Z-0.125000 I-19.279096 J16.270372
G03 X336.436619 Y43.419834 Z-0.125000 I-55.824888 J19.658723
G03 X339.614971 Y55.738752 Z-0.125000 I-363.757108 J100.420905
G03 X341.943090 Y68.169025 Z-0.125000 I-107.526827 J26.572316
G03 X342.935319 Y81.491546 Z-0.125000 I-123.455168 J15.892851
G03 X342.749538 Y94.885673 Z-0.125000 I-180.291047 J4.197650
G03 X341.647837 Y105.903784 Z-0.125000 I-113.720222 J-5.806745
G01 X341.647837 Y105.903784 Z-0.125000
G00 Z5.000000

(End cutting path id: path4655)


(Footer)
M5
G00 X0.0000 Y0.0000
M2
(Using default footer. To add your own footer create file "footer" in the output dir.)
(end)
%