%
(Header)
(Generated by gcodetools from Inkscape.)
(Using default header. To add your own header create file "header" in the output dir.)
M3
(Header end.)
G21 (All units in mm)

(Start cutting path id: path4689)
(Change tool to Default tool)

G00 Z5.000000
G00 X0.435877 Y92.922119

G01 Z-0.125000 F100.0(Penetrate)
G03 X0.025518 Y92.654120 Z-0.125000 I0.268338 J-0.859046 F400.000000
G03 X0.029304 Y92.498786 Z-0.125000 I0.086809 J-0.075598
G03 X0.212261 Y92.458997 Z-0.125000 I0.121098 J0.116304
G03 X0.639163 Y92.745730 Z-0.125000 I-0.445786 J1.124870
G03 X0.628923 Y92.892997 Z-0.125000 I-0.079226 J0.068480
G03 X0.435877 Y92.922119 Z-0.125000 I-0.119268 J-0.136211
G01 X0.435877 Y92.922119 Z-0.125000
G00 Z5.000000

(End cutting path id: path4689)


(Start cutting path id: path4685)
(Change tool to Default tool)

G00 Z5.000000
G00 X11.718283 Y85.725448

G01 Z-0.125000 F100.0(Penetrate)
G03 X11.480703 Y85.624217 Z-0.125000 I0.000000 J-0.329405 F400.000000
G03 X11.379472 Y85.372670 Z-0.125000 I0.261917 J-0.251547
G03 X11.496889 Y85.105944 Z-0.125000 I0.361658 J-0.000000
G03 X11.718283 Y85.019892 Z-0.125000 I0.221394 J0.241776
G03 X11.955863 Y85.121123 Z-0.125000 I0.000000 J0.329405
G03 X12.057094 Y85.372670 Z-0.125000 I-0.261917 J0.251547
G03 X11.971096 Y85.607970 Z-0.125000 I-0.364902 J0.000000
G03 X11.718283 Y85.725448 Z-0.125000 I-0.252813 J-0.213288
G01 X11.718283 Y85.725448 Z-0.125000
G00 Z5.000000

(End cutting path id: path4685)


(Start cutting path id: path4687)
(Change tool to Default tool)

G00 Z5.000000
G00 X10.498563 Y51.329593

G01 Z-0.125000 F100.0(Penetrate)
G03 X9.798160 Y52.544296 Z-0.125000 I-10.715812 J-5.369508 F400.000000
G03 X9.630360 Y52.709837 Z-0.125000 I-0.471078 J-0.309690
G01 X9.577081 Y52.670174 Z-0.125000
G03 X9.956466 Y51.682371 Z-0.125000 I5.685785 J1.616979
G02 X10.461801 Y50.282135 Z-0.125000 I-10.459216 J-4.565964
G02 X10.464682 Y49.847925 Z-0.125000 I-0.769666 J-0.222221
G03 X10.468901 Y49.500682 Z-0.125000 I0.522585 J-0.167298
G03 X10.667969 Y49.212925 Z-0.125000 I0.617246 J0.214270
G03 X11.032790 Y49.442223 Z-0.125000 I0.122746 J0.209576
G03 X10.498563 Y51.329593 Z-0.125000 I-5.056411 J-0.411942
G01 X10.498563 Y51.329593 Z-0.125000
G00 Z5.000000

(End cutting path id: path4687)


(Start cutting path id: path4677)
(Change tool to Default tool)

G00 Z5.000000
G00 X26.625967 Y34.219860

G01 Z-0.125000 F100.0(Penetrate)
G03 X26.400975 Y34.121724 Z-0.125000 I0.000000 J-0.306983 F400.000000
G03 X26.287156 Y33.831804 Z-0.125000 I0.312333 J-0.289920
G03 X26.393942 Y33.671651 Z-0.125000 I0.173488 J0.000000
G03 X26.625967 Y33.690693 Z-0.125000 I0.097568 J0.234264
G03 X26.910436 Y33.924190 Z-0.125000 I-0.412848 J0.793006
G03 X26.964778 Y34.078749 Z-0.125000 I-0.192627 J0.154559
G03 X26.916850 Y34.154473 Z-0.125000 I-0.083784 J0.000000
G03 X26.625967 Y34.219860 Z-0.125000 I-0.290883 J-0.614319
G01 X26.625967 Y34.219860 Z-0.125000
G00 Z5.000000

(End cutting path id: path4677)


(Start cutting path id: path4679)
(Change tool to Default tool)

G00 Z5.000000
G00 X26.422680 Y29.245690

G01 Z-0.125000 F100.0(Penetrate)
G03 X26.194228 Y29.148348 Z-0.125000 I0.000000 J-0.316749 F400.000000
G03 X26.219394 Y29.034023 Z-0.125000 I0.050767 J-0.048757
G03 X26.648637 Y28.964896 Z-0.125000 I0.344523 J0.772061
G03 X26.863135 Y29.069301 Z-0.125000 I-0.034610 J0.343651
G03 X26.850371 Y29.174902 Z-0.125000 I-0.038227 J0.048951
G03 X26.422680 Y29.245690 Z-0.125000 I-0.347756 J-0.773677
G01 X26.422680 Y29.245690 Z-0.125000
G00 Z5.000000

(End cutting path id: path4679)


(Start cutting path id: path4675)
(Change tool to Default tool)

G00 Z5.000000
G00 X31.335440 Y29.280968

G01 Z-0.125000 F100.0(Penetrate)
G03 X31.180656 Y29.174618 Z-0.125000 I0.000000 J-0.165812 F400.000000
G03 X31.199915 Y28.928190 Z-0.125000 I0.268142 J-0.103010
G03 X31.427210 Y28.629842 Z-0.125000 I0.837084 J0.401971
G03 X31.572608 Y28.575412 Z-0.125000 I0.145398 J0.166984
G03 X31.644189 Y28.622245 Z-0.125000 I0.000000 J0.078121
G03 X31.708132 Y28.928190 Z-0.125000 I-0.699952 J0.305945
G03 X31.609735 Y29.166831 Z-0.125000 I-0.338586 J0.000000
G03 X31.335440 Y29.280968 Z-0.125000 I-0.274296 J-0.272527
G01 X31.335440 Y29.280968 Z-0.125000
G00 Z5.000000

(End cutting path id: path4675)


(Start cutting path id: path4683)
(Change tool to Default tool)

G00 Z5.000000
G00 X19.206006 Y20.814296

G01 Z-0.125000 F100.0(Penetrate)
G03 X18.905057 Y20.729124 Z-0.125000 I-0.000000 J-0.574275 F400.000000
G03 X18.663908 Y20.461518 Z-0.125000 I0.334854 J-0.544204
G03 X18.717734 Y20.322138 Z-0.125000 I0.092434 J-0.044387
G03 X18.968838 Y20.320407 Z-0.125000 I0.127725 J0.314256
G03 X19.312519 Y20.647497 Z-0.125000 I-0.242513 J0.598916
G03 X19.206006 Y20.814296 Z-0.125000 I-0.106513 J0.049391
G01 X19.206006 Y20.814296 Z-0.125000
G00 Z5.000000

(End cutting path id: path4683)


(Start cutting path id: path4681)
(Change tool to Default tool)

G00 Z5.000000
G00 X23.373381 Y11.254012

G01 Z-0.125000 F100.0(Penetrate)
G03 X23.144929 Y11.156670 Z-0.125000 I-0.000000 J-0.316749 F400.000000
G03 X23.170095 Y11.042345 Z-0.125000 I0.050767 J-0.048757
G03 X23.599338 Y10.973218 Z-0.125000 I0.344523 J0.772061
G03 X23.813836 Y11.077623 Z-0.125000 I-0.034610 J0.343651
G03 X23.801072 Y11.183224 Z-0.125000 I-0.038227 J0.048951
G03 X23.373381 Y11.254012 Z-0.125000 I-0.347756 J-0.773677
G01 X23.373381 Y11.254012 Z-0.125000
G00 Z5.000000

(End cutting path id: path4681)


(Start cutting path id: path4673)
(Change tool to Default tool)

G00 Z5.000000
G00 X64.708323 Y8.079010

G01 Z-0.125000 F100.0(Penetrate)
G03 X64.479871 Y7.981668 Z-0.125000 I0.000000 J-0.316749 F400.000000
G03 X64.505037 Y7.867343 Z-0.125000 I0.050767 J-0.048757
G03 X64.934280 Y7.798216 Z-0.125000 I0.344523 J0.772061
G03 X65.148778 Y7.902621 Z-0.125000 I-0.034610 J0.343651
G03 X65.136014 Y8.008222 Z-0.125000 I-0.038227 J0.048951
G03 X64.708323 Y8.079010 Z-0.125000 I-0.347756 J-0.773677
G01 X64.708323 Y8.079010 Z-0.125000
G00 Z5.000000

(End cutting path id: path4673)


(Start cutting path id: path4671)
(Change tool to Default tool)

G00 Z5.000000
G00 X82.868593 Y41.275420

G01 Z-0.125000 F100.0(Penetrate)
G03 X82.643601 Y41.177284 Z-0.125000 I-0.000000 J-0.306983 F400.000000
G03 X82.529782 Y40.887364 Z-0.125000 I0.312333 J-0.289920
G03 X82.636568 Y40.727211 Z-0.125000 I0.173488 J0.000000
G03 X82.868593 Y40.746253 Z-0.125000 I0.097568 J0.234264
G03 X83.153062 Y40.979750 Z-0.125000 I-0.412848 J0.793006
G03 X83.207404 Y41.134309 Z-0.125000 I-0.192627 J0.154559
G03 X83.159476 Y41.210033 Z-0.125000 I-0.083784 J0.000000
G03 X82.868593 Y41.275420 Z-0.125000 I-0.290883 J-0.614319
G01 X82.868593 Y41.275420 Z-0.125000
G00 Z5.000000

(End cutting path id: path4671)


(Start cutting path id: path4655)
(Change tool to Default tool)

G00 Z5.000000
G00 X57.390006 Y45.614589

G01 Z-0.125000 F100.0(Penetrate)
G02 X57.364840 Y45.728914 Z-0.125000 I0.025602 J0.065568 F400.000000
G02 X57.593292 Y45.826256 Z-0.125000 I0.228452 J-0.219407
G02 X58.020983 Y45.755468 Z-0.125000 I0.079934 J-0.844465
G02 X58.033747 Y45.649867 Z-0.125000 I-0.025463 J-0.056650
G02 X57.819249 Y45.545462 Z-0.125000 I-0.249109 J0.239246
G02 X57.390006 Y45.614589 Z-0.125000 I-0.084719 J0.841188
G01 X57.390006 Y45.614589 Z-0.125000
G00 Z5.000000

(End cutting path id: path4655)


(Start cutting path id: path4667)
(Change tool to Default tool)

G00 Z5.000000
G00 X113.395464 Y40.922642

G01 Z-0.125000 F100.0(Penetrate)
G03 X112.372945 Y44.858063 Z-0.125000 I-48.031588 J-10.379238 F400.000000
G03 X111.294836 Y47.801813 Z-0.125000 I-27.042687 J-8.234727
G02 X111.050085 Y48.518358 Z-0.125000 I52.174195 J18.221288
G02 X110.481689 Y50.447648 Z-0.125000 I26.658785 J8.902414
G03 X109.893025 Y52.360409 Z-0.125000 I-53.324627 J-15.364028
G03 X109.600781 Y53.199316 Z-0.125000 I-22.663703 J-7.424839
G02 X109.364139 Y54.033093 Z-0.125000 I5.264454 J1.944626
G02 X109.295851 Y54.716262 Z-0.125000 I3.383158 J0.683169
G03 X108.786406 Y56.969359 Z-0.125000 I-5.237056 J-0.000000
G03 X107.940607 Y57.503208 Z-0.125000 I-0.845799 J-0.403093
G03 X107.821304 Y57.349436 Z-0.125000 I0.000000 J-0.123167
G03 X108.279418 Y56.092096 Z-0.125000 I6.604982 J1.694412
G02 X108.871946 Y54.691428 Z-0.125000 I-10.315777 J-5.189569
G02 X108.957040 Y54.187095 Z-0.125000 I-1.451984 J-0.504333
G03 X109.141078 Y52.854775 Z-0.125000 I4.914595 J-0.000000
G03 X111.701409 Y44.450422 Z-0.125000 I199.641193 J56.227208
G02 X112.499516 Y41.043108 Z-0.125000 I-17.919144 J-5.994390
G02 X112.853366 Y36.160139 Z-0.125000 I-37.326454 J-5.159217
G02 X112.598713 Y31.264580 Z-0.125000 I-47.184371 J0.000000
G02 X112.243507 Y30.233469 Z-0.125000 I-2.401357 J0.250502
G03 X111.899492 Y29.422861 Z-0.125000 I3.149763 J-1.815036
G03 X112.006339 Y29.280968 Z-0.125000 I0.106847 J-0.030718
G03 X112.267228 Y29.386186 Z-0.125000 I0.000000 J0.376047
G03 X112.853366 Y30.127635 Z-0.125000 I-2.433274 J2.525985
G03 X114.033549 Y33.792098 Z-0.125000 I-6.134723 J3.998035
G03 X113.395464 Y40.922642 Z-0.125000 I-26.603606 J1.213169
G01 X113.395464 Y40.922642 Z-0.125000
G00 Z5.000000

(End cutting path id: path4667)


(Start cutting path id: path4665)
(Change tool to Default tool)

G00 Z5.000000
G00 X116.749693 Y39.864308

G01 Z-0.125000 F100.0(Penetrate)
G03 X116.524701 Y39.766172 Z-0.125000 I-0.000000 J-0.306983 F400.000000
G03 X116.410882 Y39.476252 Z-0.125000 I0.312333 J-0.289920
G03 X116.517668 Y39.316099 Z-0.125000 I0.173488 J0.000000
G03 X116.749693 Y39.335141 Z-0.125000 I0.097568 J0.234264
G03 X117.034162 Y39.568638 Z-0.125000 I-0.412848 J0.793006
G03 X117.088504 Y39.723197 Z-0.125000 I-0.192627 J0.154559
G03 X117.040576 Y39.798921 Z-0.125000 I-0.083784 J0.000000
G03 X116.749693 Y39.864308 Z-0.125000 I-0.290883 J-0.614319
G01 X116.749693 Y39.864308 Z-0.125000
G00 Z5.000000

(End cutting path id: path4665)


(Start cutting path id: path4663)
(Change tool to Default tool)

G00 Z5.000000
G00 X122.814410 Y57.503208

G01 Z-0.125000 F100.0(Penetrate)
G03 X122.365093 Y57.429937 Z-0.125000 I-0.179914 J-0.311023 F400.000000
G03 X122.373956 Y57.009319 Z-0.125000 I0.232853 J-0.205496
G02 X122.768345 Y56.415076 Z-0.125000 I-1.442397 J-1.385290
G02 X122.712767 Y56.197929 Z-0.125000 I-0.168486 J-0.072562
G02 X122.524691 Y56.163788 Z-0.125000 I-0.111749 J0.080493
G02 X122.035145 Y56.621263 Z-0.125000 I1.136386 J1.706722
G03 X121.519246 Y57.019992 Z-0.125000 I-0.929496 J-0.669522
G03 X120.984830 Y57.009319 Z-0.125000 I-0.254202 J-0.656560
G03 X120.791516 Y56.718740 Z-0.125000 I0.101948 J-0.277417
G03 X121.018712 Y56.268485 Z-0.125000 I0.613997 J0.027371
G03 X122.521750 Y55.750288 Z-0.125000 I1.490020 J1.882931
G03 X123.322626 Y56.303763 Z-0.125000 I-0.004679 J0.862940
G03 X123.301140 Y56.966889 Z-0.125000 I-0.869696 J0.303732
G03 X122.814410 Y57.503208 Z-0.125000 I-1.010734 J-0.428258
G01 X122.814410 Y57.503208 Z-0.125000
G00 Z5.000000

(End cutting path id: path4663)


(Start cutting path id: path4657)
(Change tool to Default tool)

G00 Z5.000000
G00 X130.302133 Y26.987911

G01 Z-0.125000 F100.0(Penetrate)
G03 X130.028212 Y26.763331 Z-0.125000 I0.733229 J-1.173666 F400.000000
G03 X129.963322 Y26.599855 Z-0.125000 I0.173477 J-0.163476
G03 X130.019772 Y26.515194 Z-0.125000 I0.091711 J-0.000000
G03 X130.302133 Y26.458744 Z-0.125000 I0.282361 J0.677955
G03 X130.543582 Y26.573388 Z-0.125000 I0.000000 J0.311577
G03 X130.640944 Y26.846800 Z-0.125000 I-0.335216 J0.273411
G03 X130.545916 Y26.994402 Z-0.125000 I-0.162145 J0.000000
G03 X130.302133 Y26.987911 Z-0.125000 I-0.115231 J-0.253415
G01 X130.302133 Y26.987911 Z-0.125000
G00 Z5.000000

(End cutting path id: path4657)


(Start cutting path id: path4661)
(Change tool to Default tool)

G00 Z5.000000
G00 X128.641959 Y24.342076

G01 Z-0.125000 F100.0(Penetrate)
G03 X127.994798 Y24.242377 Z-0.125000 I-0.258075 J-0.475059 F400.000000
G03 X128.032099 Y23.742353 Z-0.125000 I0.241892 J-0.233358
G03 X129.037295 Y23.229807 Z-0.125000 I1.587172 J1.870773
G03 X129.285700 Y23.424853 Z-0.125000 I0.047628 J0.195046
G03 X129.141937 Y23.872615 Z-0.125000 I-0.769178 J0.000000
G03 X128.641959 Y24.342076 Z-0.125000 I-1.435189 J-1.027513
G01 X128.641959 Y24.342076 Z-0.125000
G00 Z5.000000

(End cutting path id: path4661)


(Start cutting path id: path4659)
(Change tool to Default tool)

G00 Z5.000000
G00 X129.082413 Y19.720684

G01 Z-0.125000 F100.0(Penetrate)
G03 X128.853961 Y19.623342 Z-0.125000 I0.000000 J-0.316749 F400.000000
G03 X128.879127 Y19.509017 Z-0.125000 I0.050767 J-0.048757
G03 X129.308370 Y19.439890 Z-0.125000 I0.344523 J0.772061
G03 X129.522868 Y19.544295 Z-0.125000 I-0.034610 J0.343651
G03 X129.510104 Y19.649896 Z-0.125000 I-0.038227 J0.048951
G03 X129.082413 Y19.720684 Z-0.125000 I-0.347756 J-0.773677
G01 X129.082413 Y19.720684 Z-0.125000
G00 Z5.000000

(End cutting path id: path4659)


(Start cutting path id: path4655)
(Change tool to Default tool)

G00 Z5.000000
G00 X137.959262 Y14.040958

G01 Z-0.125000 F100.0(Penetrate)
G01 X136.807304 Y13.053180 Z-0.125000 F400.000000
G01 X132.030069 Y14.111514 Z-0.125000
G02 X124.504131 Y16.170095 Z-0.125000 I14.776811 J68.808606
G02 X118.375986 Y18.662350 Z-0.125000 I16.441591 J49.208133
G02 X113.580403 Y22.669797 Z-0.125000 I5.468145 J11.416638
G02 X107.635677 Y33.549582 Z-0.125000 I40.255274 J29.059517
G02 X104.321561 Y42.972944 Z-0.125000 I141.574035 J55.084841
G02 X104.416973 Y43.780144 Z-0.125000 I0.944360 J0.297615
G03 X104.433116 Y44.136105 Z-0.125000 I-0.410132 J0.196947
G03 X104.145924 Y44.556255 Z-0.125000 I-0.992638 J-0.370285
G02 X103.609591 Y45.389253 Z-0.125000 I1.058398 J1.270618
G02 X102.146939 Y51.647093 Z-0.125000 I81.106827 J22.257050
G02 X102.050978 Y55.460137 Z-0.125000 I11.925357 J2.207849
G02 X103.739351 Y63.853212 Z-0.125000 I64.559076 J-8.620514
G02 X108.555186 Y74.963984 Z-0.125000 I41.933589 J-11.576558
G02 X113.022772 Y79.093222 Z-0.125000 I9.520534 J-5.819196
G02 X114.847867 Y79.932679 Z-0.125000 I20.700696 J-42.602411
G02 X114.987876 Y79.904611 Z-0.125000 I0.049828 J-0.114678
G02 X115.004676 Y79.767724 Z-0.125000 I-0.082937 J-0.079653
G02 X113.869799 Y77.929054 Z-0.125000 I-29.270078 J16.796701
G03 X113.006431 Y76.119991 Z-0.125000 I6.023531 J-3.985257
G03 X113.124415 Y75.565442 Z-0.125000 I0.548136 J-0.173206
G03 X115.795440 Y74.232266 Z-0.125000 I3.413746 J3.497163
G03 X119.290775 Y74.683497 Z-0.125000 I0.965870 J6.281601
G02 X119.490877 Y74.458589 Z-0.125000 I0.056632 J-0.151084
G02 X118.037175 Y72.249328 Z-0.125000 I-11.035251 J5.678340
G01 X116.241476 Y70.132660 Z-0.125000
G01 X117.054623 Y69.462382 Z-0.125000
G03 X117.924766 Y69.034274 Z-0.125000 I1.248068 J1.438386
G03 X120.341090 Y68.792104 Z-0.125000 I2.416324 J11.933714
G02 X122.699171 Y68.643747 Z-0.125000 I-0.000000 J-18.814642
G02 X122.848291 Y68.474604 Z-0.125000 I-0.021368 J-0.169143
G02 X122.765377 Y68.182849 Z-0.125000 I-0.554764 J0.000000
G02 X122.035145 Y67.134047 Z-0.125000 I-9.990854 J6.177558
G03 X120.596984 Y64.304569 Z-0.125000 I5.713499 J-4.684275
G03 X120.815425 Y62.442100 Z-0.125000 I2.506507 J-0.650067
G03 X121.400920 Y61.993446 Z-0.125000 I0.756128 J0.380386
G03 X123.559794 Y61.877655 Z-0.125000 I1.464063 J7.113318
G02 X125.835402 Y62.041929 Z-0.125000 I9.389742 J-114.227848
G02 X125.897590 Y61.983489 Z-0.125000 I0.003634 J-0.058441
G02 X125.869992 Y61.863017 Z-0.125000 I-0.276744 J0.000000
G02 X124.881157 Y59.937376 Z-0.125000 I-40.592876 J19.628125
G03 X124.776305 Y57.007454 Z-0.125000 I3.011352 J-1.574603
G03 X126.710736 Y55.739318 Z-0.125000 I1.934431 J0.841335
G02 X129.500912 Y55.287031 Z-0.125000 I0.000000 J-8.832495
G02 X129.963322 Y54.645706 Z-0.125000 I-0.213528 J-0.641325
G02 X129.856557 Y54.294052 Z-0.125000 I-0.632508 J-0.000000
G02 X128.777483 Y52.881816 Z-0.125000 I-11.745241 J7.856034
G03 X127.726063 Y50.086674 Z-0.125000 I3.340732 J-2.851971
G03 X128.743602 Y49.036536 Z-0.125000 I1.036815 J-0.013415
G02 X131.038996 Y48.435538 Z-0.125000 I0.000000 J-4.683898
G02 X131.657377 Y47.378479 Z-0.125000 I-0.594275 J-1.057058
G02 X131.624163 Y47.256434 Z-0.125000 I-0.240837 J-0.000000
G02 X130.607063 Y45.649867 Z-0.125000 I-24.856937 J14.611421
G03 X129.751799 Y43.984705 Z-0.125000 I6.486355 J-4.383758
G03 X129.522868 Y42.862921 Z-0.125000 I3.514900 J-1.301565
G03 X130.123902 Y40.873341 Z-0.125000 I3.316099 J-0.083811
G03 X131.386328 Y40.217086 Z-0.125000 I1.262427 J0.886128
G02 X133.328078 Y39.672937 Z-0.125000 I-0.000000 J-3.736560
G02 X134.876081 Y38.100418 Z-0.125000 I-2.346887 J-3.858494
G02 X134.864724 Y37.742893 Z-0.125000 I-0.349518 J-0.167840
G02 X133.690243 Y36.054306 Z-0.125000 I-9.306464 J5.220281
G03 X131.576597 Y32.694549 Z-0.125000 I9.609885 J-8.390377
G03 X131.589615 Y31.221247 Z-0.125000 I1.682212 J-0.721845
G03 X132.073354 Y30.426873 Z-0.125000 I4.228851 J2.030712
G03 X132.402761 Y30.198191 Z-0.125000 I0.512434 J0.386549
G02 X135.797805 Y28.914534 Z-0.125000 I-7.160791 J-24.070496
G02 X136.265207 Y28.399023 Z-0.125000 I-0.375111 J-0.809750
G02 X136.262924 Y27.972441 Z-0.125000 I-0.511560 J-0.210560
G02 X135.418179 Y26.423466 Z-0.125000 I-8.291706 J3.517113
G03 X134.572737 Y23.775669 Z-0.125000 I4.026920 J-2.744669
G03 X135.316536 Y22.507630 Z-0.125000 I1.405156 J-0.027937
G02 X136.120605 Y21.510295 Z-0.125000 I-0.711541 J-1.396453
G02 X135.892514 Y20.320407 Z-0.125000 I-1.355531 J-0.356963
G03 X135.575945 Y18.308913 Z-0.125000 I1.830893 J-1.318804
G03 X137.146115 Y16.404571 Z-0.125000 I3.186496 J1.027843
G02 X139.031634 Y15.311274 Z-0.125000 I-26.109176 J-47.200895
G02 X139.111219 Y15.169848 Z-0.125000 I-0.085868 J-0.141426
G02 X139.044877 Y15.012644 Z-0.125000 I-0.219428 J0.000000
G02 X137.959262 Y14.040958 Z-0.125000 I-12.089233 J12.414407
G01 X137.959262 Y14.040958 Z-0.125000
G00 Z5.000000

(End cutting path id: path4655)


(Start cutting path id: path4669)
(Change tool to Default tool)

G00 Z5.000000
G00 X109.939592 Y0.705950

G01 Z-0.125000 F100.0(Penetrate)
G03 X109.784808 Y0.599600 Z-0.125000 I0.000000 J-0.165812 F400.000000
G03 X109.804067 Y0.353172 Z-0.125000 I0.268142 J-0.103010
G03 X110.031362 Y0.054824 Z-0.125000 I0.837084 J0.401971
G03 X110.176760 Y0.000394 Z-0.125000 I0.145398 J0.166984
G03 X110.248341 Y0.047227 Z-0.125000 I0.000000 J0.078121
G03 X110.312284 Y0.353172 Z-0.125000 I-0.699952 J0.305945
G03 X110.213887 Y0.591813 Z-0.125000 I-0.338586 J0.000000
G03 X109.939592 Y0.705950 Z-0.125000 I-0.274296 J-0.272527
G01 X109.939592 Y0.705950 Z-0.125000
G00 Z5.000000

(End cutting path id: path4669)


(Start cutting path id: path4655)
(Change tool to Default tool)

G00 Z5.000000
G00 X170.959453 Y36.512917

G01 Z-0.125000 F100.0(Penetrate)
G02 X169.286079 Y26.494919 Z-0.125000 I-75.688590 J7.494017 F400.000000
G02 X166.893721 Y19.191517 Z-0.125000 I-44.450280 J10.516945
G02 X164.624069 Y15.712611 Z-0.125000 I-10.628558 J4.454294
G02 X161.404983 Y13.441236 Z-0.125000 I-7.298208 J6.926521
G02 X154.731292 Y11.710222 Z-0.125000 I-7.977500 J17.025909
G02 X143.312475 Y12.171235 Z-0.125000 I-3.617568 J52.043212
G02 X139.299078 Y12.786128 Z-0.125000 I25.978100 J182.963648
G02 X138.501359 Y12.947347 Z-0.125000 I1.814753 J11.033728
G01 X137.755975 Y13.123736 Z-0.125000
G01 X138.670765 Y14.076236 Z-0.125000
G02 X139.627506 Y14.860526 Z-0.125000 I4.992179 J-5.114167
G02 X139.890484 Y14.887626 Z-0.125000 I0.156450 J-0.228678
G03 X140.046684 Y14.909870 Z-0.125000 I0.062569 J0.120183
G03 X140.127652 Y15.099292 Z-0.125000 I-0.181091 J0.189422
G03 X139.999640 Y15.339213 Z-0.125000 I-0.288837 J-0.000000
G03 X138.738527 Y16.087071 Z-0.125000 I-7.389666 J-11.023971
G02 X136.115008 Y17.747214 Z-0.125000 I4.677499 J10.294878
G02 X135.723109 Y18.591795 Z-0.125000 I0.714127 J0.844581
G02 X135.845249 Y19.126105 Z-0.125000 I1.229755 J-0.000000
G02 X136.570136 Y20.320407 Z-0.125000 I6.560339 J-3.164689
G03 X137.340180 Y21.506710 Z-0.125000 I-8.614042 J6.434555
G03 X137.417164 Y21.802074 Z-0.125000 I-0.528124 J0.295365
G03 X137.291965 Y22.041828 Z-0.125000 I-0.292160 J0.000000
G03 X136.061920 Y22.754575 Z-0.125000 I-4.892389 J-7.025416
G02 X134.871507 Y23.502805 Z-0.125000 I2.531145 J5.348053
G02 X134.706676 Y23.848187 Z-0.125000 I0.279436 J0.345382
G02 X134.796414 Y24.209725 Z-0.125000 I0.773152 J-0.000000
G02 X135.892514 Y26.105966 Z-0.125000 I25.803969 J-13.650770
G03 X136.973913 Y27.952831 Z-0.125000 I-28.375205 J17.854620
G03 X137.078353 Y28.363745 Z-0.125000 I-0.756142 J0.410914
G03 X136.751898 Y28.953002 Z-0.125000 I-0.695036 J0.000000
G03 X133.893530 Y30.339302 Z-0.125000 I-7.859042 J-12.564369
G02 X132.663956 Y31.877335 Z-0.125000 I0.605494 J1.744565
G02 X133.419194 Y34.572638 Z-0.125000 I3.700707 J0.416505
G03 X135.112250 Y37.680392 Z-0.125000 I-8.624155 J6.713356
G03 X134.876081 Y38.805974 Z-0.125000 I-1.050553 J0.367141
G03 X133.819403 Y39.688633 Z-0.125000 I-4.535824 J-4.356244
G03 X132.097831 Y40.640420 Z-0.125000 I-6.709614 J-10.103347
G02 X130.571331 Y42.660185 Z-0.125000 I1.012084 J2.351646
G02 X131.454090 Y45.685145 Z-0.125000 I3.884151 J0.507792
G03 X132.279721 Y46.775578 Z-0.125000 I-10.310055 J8.664132
G03 X132.334999 Y46.955146 Z-0.125000 I-0.264021 J0.179568
G03 X131.808839 Y48.159558 Z-0.125000 I-1.641567 J-0.000000
G03 X129.692273 Y49.389314 Z-0.125000 I-3.798848 J-4.101983
G02 X128.444726 Y49.783415 Z-0.125000 I60.642542 J194.138716
G02 X127.998218 Y49.953759 Z-0.125000 I1.316397 J4.120933
G02 X127.784404 Y50.535396 Z-0.125000 I0.131332 J0.378397
G02 X129.861679 Y53.093483 Z-0.125000 I9.509705 J-5.599821
G03 X129.959021 Y54.870512 Z-0.125000 I-0.862140 J0.938407
G03 X126.947904 Y56.409596 Z-0.125000 I-3.432256 J-2.999916
G02 X124.610039 Y56.746704 Z-0.125000 I3.406947 J31.902593
G02 X124.339059 Y56.868208 Z-0.125000 I0.111177 J0.610872
G02 X124.304135 Y57.136097 Z-0.125000 I0.230909 J0.166325
G02 X125.355492 Y59.443487 Z-0.125000 I18.933273 J-7.233690
G03 X126.511143 Y61.839709 Z-0.125000 I-30.801588 J16.331789
G03 X126.503215 Y62.406822 Z-0.125000 I-0.630179 J0.274802
G03 X126.070779 Y62.688511 Z-0.125000 I-0.443756 J-0.208461
G03 X123.864724 Y62.618489 Z-0.125000 I-0.465031 J-20.135153
G02 X121.474020 Y62.727123 Z-0.125000 I-0.809310 J8.549947
G02 X121.154236 Y63.112378 Z-0.125000 I0.072174 J0.385255
G02 X121.528655 Y64.893660 Z-0.125000 I4.424399 J0.000000
G02 X122.949934 Y67.239881 Z-0.125000 I9.663185 J-4.250110
G03 X123.581136 Y68.307104 Z-0.125000 I-3.610714 J2.855803
G03 X123.559794 Y68.721548 Z-0.125000 I-0.439133 J0.185158
G03 X123.228807 Y68.952599 Z-0.125000 I-0.445056 J-0.284957
G03 X120.374971 Y69.356549 Z-0.125000 I-4.046493 J-18.304863
G02 X117.484963 Y69.702859 Z-0.125000 I3.846821 J44.334240
G02 X117.257909 Y69.885716 Z-0.125000 I0.043949 J0.286967
G02 X117.253100 Y70.133808 Z-0.125000 I0.177042 J0.127525
G02 X118.782559 Y72.178773 Z-0.125000 I18.777225 J-12.449325
G03 X120.348052 Y74.209454 Z-0.125000 I-24.689630 J20.652502
G03 X120.476614 Y74.612941 Z-0.125000 I-0.568881 J0.403487
G03 X120.280621 Y74.850636 Z-0.125000 I-0.242132 J0.000000
G03 X117.190147 Y75.247941 Z-0.125000 I-4.651325 J-23.962339
G02 X113.932283 Y75.621915 Z-0.125000 I3.581873 J45.580818
G02 X113.632632 Y75.777108 Z-0.125000 I0.078417 J0.518293
G02 X113.573283 Y76.116394 Z-0.125000 I0.222581 J0.213768
G02 X114.682946 Y78.175999 Z-0.125000 I14.200946 J-6.322382
G01 X116.038190 Y80.292667 Z-0.125000
G01 X119.527943 Y80.962945 Z-0.125000
G02 X123.035539 Y81.419095 Z-0.125000 I4.844181 J-23.535635
G02 X131.996188 Y81.668501 Z-0.125000 I8.960649 J-160.844197
G02 X143.795133 Y80.754104 Z-0.125000 I0.000000 J-76.581201
G02 X150.630793 Y78.740444 Z-0.125000 I-4.177467 J-26.790158
G02 X156.697328 Y75.366975 Z-0.125000 I-14.670185 J-33.522985
G02 X161.438864 Y71.296828 Z-0.125000 I-16.600337 J-24.135550
G02 X167.461903 Y63.304396 Z-0.125000 I-32.384665 J-30.670529
G02 X169.570328 Y57.503208 Z-0.125000 I-14.465198 J-8.541077
G02 X170.463271 Y51.759103 Z-0.125000 I-148.534415 J-26.031701
G02 X170.823929 Y48.507369 Z-0.125000 I-66.214652 J-8.989894
G03 X171.090266 Y45.696248 Z-0.125000 I48.465357 J3.173628
G03 X171.162740 Y45.544034 Z-0.125000 I0.265257 J0.032936
G02 X171.457328 Y44.714892 Z-0.125000 I-0.962560 J-0.808894
G02 X170.959453 Y36.512917 Z-0.125000 I-92.298109 J1.486567
G01 X170.959453 Y36.512917 Z-0.125000
G00 Z5.000000

(End cutting path id: path4655)


(Start cutting path id: path4655)
(Change tool to Default tool)

G00 Z5.000000
G00 X170.823929 Y52.952372

G01 Z-0.125000 F100.0(Penetrate)
G03 X169.317090 Y60.508654 Z-0.125000 I-79.871437 J-11.999206 F400.000000
G03 X168.350608 Y62.865434 Z-0.125000 I-8.574521 J-2.139728
G02 X167.613827 Y64.204733 Z-0.125000 I19.640287 J11.676909
G02 X167.571343 Y64.382379 Z-0.125000 I0.350168 J0.177646
G03 X167.296318 Y65.276757 Z-0.125000 I-1.591767 J0.000000
G03 X165.877288 Y67.028214 Z-0.125000 I-11.076119 J-7.523294
G02 X165.702151 Y67.223397 Z-0.125000 I2.791267 J2.680757
G02 X163.742779 Y69.603493 Z-0.125000 I136.045020 J113.993230
G03 X153.715500 Y77.868665 Z-0.125000 I-24.836034 J-19.915879
G03 X139.788841 Y82.197668 Z-0.125000 I-18.694693 J-35.575989
G03 X131.303453 Y82.626177 Z-0.125000 I-7.642387 J-67.106869
G03 X122.340075 Y81.950723 Z-0.125000 I0.894791 J-71.684482
G02 X118.240777 Y81.413813 Z-0.125000 I-26.888820 J189.377846
G02 X117.190147 Y81.351001 Z-0.125000 I-1.050630 J8.755344
G03 X116.186865 Y81.245756 Z-0.125000 I0.000000 J-4.834710
G03 X116.072071 Y81.104056 Z-0.125000 I0.030059 J-0.141700
G02 X115.932136 Y80.886208 Z-0.125000 I-0.239538 J-0.000000
G02 X114.208610 Y80.257389 Z-0.125000 I-4.833313 J10.571178
G03 X111.088402 Y78.664982 Z-0.125000 I3.241789 J-10.205171
G03 X108.245537 Y75.812386 Z-0.125000 I7.958929 J-10.774663
G03 X106.183694 Y72.449613 Z-0.125000 I16.954843 J-12.709133
G03 X104.383091 Y68.015992 Z-0.125000 I30.254548 J-14.869566
G03 X101.787718 Y56.040501 Z-0.125000 I59.873797 J-19.245058
G03 X102.180820 Y49.212925 Z-0.125000 I19.690613 J-2.291406
G03 X102.941293 Y46.000667 Z-0.125000 I271.687107 J62.623349
G02 X103.197253 Y44.909033 Z-0.125000 I-67.524314 J-16.408517
G02 X103.283653 Y44.008817 Z-0.125000 I-2.897734 J-0.732371
G02 X103.163372 Y43.956533 Z-0.125000 I-0.073296 J0.004123
G02 X102.944709 Y44.210632 Z-0.125000 I0.298774 J0.478241
G02 X102.858442 Y44.626811 Z-0.125000 I0.960758 J0.416179
G03 X102.506639 Y45.250699 Z-0.125000 I-0.729104 J0.000000
G03 X99.402570 Y46.708201 Z-0.125000 I-8.472152 J-14.009156
G03 X96.791880 Y47.332629 Z-0.125000 I-4.200521 J-11.792324
G03 X82.699187 Y48.860147 Z-0.125000 I-46.457092 J-362.834845
G02 X80.326288 Y49.113916 Z-0.125000 I3.986742 J48.499409
G02 X79.819294 Y49.212925 Z-0.125000 I0.546574 J4.146434
G03 X79.148438 Y49.341319 Z-0.125000 I-1.119098 J-4.030469
G03 X72.196046 Y50.059592 Z-0.125000 I-84.771601 J-786.524444
G03 X53.302747 Y51.051021 Z-0.125000 I-20.300354 J-206.339366
G03 X52.375603 Y50.130148 Z-0.125000 I-0.006250 J-0.920873
G03 X52.526448 Y49.971532 Z-0.125000 I0.158816 J0.000000
G03 X62.268884 Y49.636259 Z-0.125000 I15.474200 J307.935498
G02 X72.171958 Y49.282174 Z-0.125000 I-3.745650 J-243.420963
G02 X78.633455 Y48.719036 Z-0.125000 I-5.896346 J-105.006625
G02 X85.101180 Y47.993857 Z-0.125000 I-117.413145 J-1076.389189
G02 X86.764919 Y47.801813 Z-0.125000 I-370.101096 J-3213.608322
G02 X96.967653 Y46.491711 Z-0.125000 I-26.189782 J-244.342364
G02 X99.876905 Y45.826256 Z-0.125000 I-2.901715 J-19.377892
G02 X101.952720 Y44.802318 Z-0.125000 I-2.318534 J-7.316432
G02 X101.842009 Y44.450422 Z-0.125000 I-0.110711 J-0.158532
G02 X101.389542 Y44.592071 Z-0.125000 I0.000000 J0.793479
G02 X101.333793 Y44.803200 Z-0.125000 I0.095979 J0.138268
G03 X101.305848 Y45.011757 Z-0.125000 I-0.149459 J0.086125
G03 X100.927219 Y45.191256 Z-0.125000 I-0.443886 J-0.447237
G02 X100.318112 Y45.213374 Z-0.125000 I-0.000000 J8.398013
G02 X98.792710 Y45.332367 Z-0.125000 I10.556541 J145.164001
G03 X97.253324 Y45.409452 Z-0.125000 I-1.934647 J-23.225643
G03 X80.225867 Y45.649867 Z-0.125000 I-50.810022 J-2995.520461
G02 X63.195504 Y45.889967 Z-0.125000 I9.730107 J1294.265556
G02 X61.591262 Y46.002645 Z-0.125000 I0.336370 J16.265438
G03 X52.817082 Y46.675027 Z-0.125000 I-11.622703 J-94.084295
G03 X34.579555 Y46.968375 Z-0.125000 I-19.618129 J-652.600945
G03 X15.494086 Y46.678243 Z-0.125000 I-1.165585 J-551.211266
G03 X14.530414 Y46.108479 Z-0.125000 I0.037857 J-1.163865
G03 X14.635096 Y45.928393 Z-0.125000 I0.106600 J-0.058503
G03 X21.238872 Y46.002645 Z-0.125000 I1.928112 J122.217152
G02 X43.818890 Y46.406341 Z-0.125000 I25.553814 J-797.618273
G02 X53.561442 Y46.002645 Z-0.125000 I0.402627 J-108.045413
G02 X54.932410 Y45.924584 Z-0.125000 I-3.386712 J-71.557788
G02 X55.933118 Y45.826256 Z-0.125000 I-1.060789 J-15.937363
G01 X55.933732 Y45.762939 Z-0.125000
G02 X50.003926 Y45.332367 Z-0.125000 I-29.632148 J367.044313
G02 X43.077681 Y44.839765 Z-0.125000 I-98.915670 J1341.867383
G03 X40.686624 Y44.662089 Z-0.125000 I14.251269 J-207.962297
G02 X38.325172 Y44.483078 Z-0.125000 I-15.260641 J185.648361
G02 X35.096242 Y44.274033 Z-0.125000 I-24.079622 J346.894109
G03 X31.893990 Y43.969411 Z-0.125000 I8.607616 J-107.468761
G03 X25.101317 Y43.145143 Z-0.125000 I34.084085 J-309.283018
G03 X18.317046 Y42.308580 Z-0.125000 I1658.274001 J-13476.019614
G02 X17.579713 Y42.263198 Z-0.125000 I-0.737332 J5.967170
G03 X16.961176 Y42.110098 Z-0.125000 I0.000000 J-1.326018
G03 X16.664924 Y41.769309 Z-0.125000 I0.291308 J-0.552400
G03 X16.871496 Y41.490848 Z-0.125000 I0.198972 J-0.068248
G03 X22.221424 Y41.980976 Z-0.125000 I-1.758620 J48.639221
G02 X25.800964 Y42.501475 Z-0.125000 I21.628307 J-136.172067
G02 X31.369321 Y43.215699 Z-0.125000 I99.003469 J-749.804028
G02 X33.092371 Y43.379061 Z-0.125000 I4.276638 J-35.939043
G02 X41.194840 Y43.921255 Z-0.125000 I75.455175 J-1066.778667
G03 X49.143058 Y44.481006 Z-0.125000 I-274.530989 J3954.928554
G03 X57.864341 Y45.191256 Z-0.125000 I-31.344344 J438.783071
G02 X62.346784 Y45.453544 Z-0.125000 I8.769026 J-111.427516
G02 X62.988858 Y45.411742 Z-0.125000 I0.119569 J-3.115439
G01 X62.989769 Y45.320733 Z-0.125000
G02 X59.829445 Y44.838478 Z-0.125000 I-8.095803 J42.457255
G03 X52.696500 Y43.716436 Z-0.125000 I7.639641 J-71.799516
G03 X52.375603 Y43.321532 Z-0.125000 I0.082540 J-0.394903
G03 X52.498721 Y43.160194 Z-0.125000 I0.167272 J0.000000
G03 X52.985463 Y43.145143 Z-0.125000 I0.274633 J1.003509
G02 X59.099061 Y44.252765 Z-0.125000 I8.385530 J-28.858500
G02 X75.211464 Y44.838478 Z-0.125000 I15.497300 J-204.404821
G02 X98.760665 Y44.399883 Z-0.125000 I-2.664962 J-775.514052
G02 X101.299911 Y43.991811 Z-0.125000 I-0.347161 J-10.264536
G02 X103.283452 Y43.334643 Z-0.125000 I-6.602165 J-23.249512
G02 X103.569945 Y43.145143 Z-0.125000 I-0.278070 J-0.731711
G02 X103.731537 Y42.813180 Z-0.125000 I-2.294810 J-1.322373
G02 X104.383091 Y40.922642 Z-0.125000 I-18.060431 J-7.281884
G03 X106.934759 Y33.814582 Z-0.125000 I93.176476 J29.436672
G03 X110.515571 Y25.647355 Z-0.125000 I138.376977 J55.800941
G03 X113.612432 Y21.460233 Z-0.125000 I12.709255 J6.161163
G03 X118.918083 Y17.815683 Z-0.125000 I14.989170 J16.136687
G03 X126.386107 Y14.992596 Z-0.125000 I18.070369 J36.512984
G03 X140.297057 Y12.030124 Z-0.125000 I34.641231 J128.523438
G02 X142.689266 Y11.644494 Z-0.125000 I-193.803901 J-1209.850991
G03 X145.142055 Y11.254012 Z-0.125000 I67.583513 J416.623541
G03 X155.117939 Y11.049986 Z-0.125000 I5.748110 J37.066439
G03 X162.082605 Y13.194291 Z-0.125000 I-2.224050 J19.606382
G03 X165.345666 Y15.805678 Z-0.125000 I-4.982187 J9.569870
G03 X167.605224 Y19.755962 Z-0.125000 I-9.639548 J8.135186
G03 X168.218320 Y21.710397 Z-0.125000 I-27.912444 J9.829361
G03 X169.807496 Y27.869856 Z-0.125000 I-181.878554 J50.210452
G03 X170.971555 Y34.084993 Z-0.125000 I-53.763414 J13.286158
G03 X171.467669 Y40.746253 Z-0.125000 I-61.727584 J7.946425
G03 X171.374779 Y47.443316 Z-0.125000 I-90.145523 J2.098825
G03 X170.823929 Y52.952372 Z-0.125000 I-56.860111 J-2.903373
G01 X170.823929 Y52.952372 Z-0.125000
G00 Z5.000000

(End cutting path id: path4655)


(Footer)
M5
G00 X0.0000 Y0.0000
M2
(Using default footer. To add your own footer create file "footer" in the output dir.)
(end)
%