%
(Header)
(Generated by gcodetools from Inkscape.)
(Using default header. To add your own header create file "header" in the output dir.)
M3
(Header end.)
G21 (All units in mm)

(Start cutting path id: path3961)
(Change tool to Default tool)

G00 Z5.000000
G00 X0.191447 Y572.988370

G01 Z-0.125000 F100.0(Penetrate)
G01 X1.137213 Y1147.560787 Z-0.125000 F400.000000
G01 X1072.537700 Y1148.501115 Z-0.125000
G02 X1608.559871 Y1148.659860 Z-0.125000 I404.478069 J-460890.030224
G02 X1875.703587 Y1148.271703 Z-0.125000 I-32.639771 J-114395.488690
G02 X2141.107048 Y1146.639999 Z-0.125000 I-98.592834 J-37621.850691
G02 X2141.625500 Y1145.699433 Z-0.125000 I-0.005965 J-0.616460
G02 X2139.955193 Y1144.755858 Z-0.125000 I-1.692635 J1.046116
G02 X1878.308312 Y1142.739879 Z-0.125000 I-417.462594 J37200.889364
G02 X1616.579688 Y1141.954909 Z-0.125000 I-460.930883 J110054.762563
G02 X1098.241800 Y1141.329463 Z-0.125000 I-777.455866 J429479.431864
G03 X71.216925 Y1139.973115 Z-0.125000 I431.718577 J-715727.911306
G03 X71.179240 Y1139.236177 Z-0.125000 I0.000753 J-0.369471
G02 X83.823124 Y1136.541621 Z-0.125000 I-6.371221 J-60.908434
G02 X85.187645 Y1134.660441 Z-0.125000 I-0.614473 J-1.881180
G02 X83.732537 Y1131.776302 Z-0.125000 I-3.585848 J-0.000000
G02 X78.669311 Y1129.124450 Z-0.125000 I-11.083735 J15.002783
G02 X73.306431 Y1128.293908 Z-0.125000 I-5.030133 J14.750441
G02 X71.159321 Y1129.876561 Z-0.125000 I0.049435 J2.314835
G03 X69.412427 Y1131.321286 Z-0.125000 I-2.030660 J-0.676885
G03 X59.667092 Y1131.726303 Z-0.125000 I-7.081519 J-52.945828
G03 X49.817643 Y1130.671147 Z-0.125000 I4.348284 J-87.087324
G03 X40.360748 Y1128.338783 Z-0.125000 I10.144153 J-61.469210
G03 X37.074357 Y1126.318086 Z-0.125000 I2.648227 J-7.989768
G03 X36.736736 Y1124.971548 Z-0.125000 I0.947717 J-0.953219
G03 X37.787349 Y1123.523025 Z-0.125000 I2.636012 J0.806632
G03 X41.670559 Y1121.432885 Z-0.125000 I10.684731 J15.198531
G03 X50.841221 Y1118.956042 Z-0.125000 I15.694185 J39.892782
G03 X66.251101 Y1118.153282 Z-0.125000 I11.676538 J75.837928
G02 X83.989467 Y1117.816464 Z-0.125000 I6.383918 J-131.053633
G02 X85.190282 Y1116.508169 Z-0.125000 I-0.113760 J-1.309644
G03 X86.301161 Y1114.987580 Z-0.125000 I1.598467 J0.001698
G03 X94.975026 Y1113.374141 Z-0.125000 I10.702241 J33.413246
G03 X103.036977 Y1115.173921 Z-0.125000 I0.871644 J15.051831
G03 X106.547220 Y1119.652988 Z-0.125000 I-3.412508 J6.289403
G02 X109.469884 Y1125.484582 Z-0.125000 I15.221578 J-3.980529
G02 X113.628240 Y1128.528629 Z-0.125000 I7.676637 J-6.124452
G02 X116.667594 Y1127.138633 Z-0.125000 I0.838366 J-2.184747
G02 X117.297886 Y1120.814617 Z-0.125000 I-12.215577 J-4.410901
G02 X114.952667 Y1112.849185 Z-0.125000 I-29.746212 J4.430056
G02 X110.535670 Y1107.763158 Z-0.125000 I-10.721405 J4.850082
G03 X108.350721 Y1105.988997 Z-0.125000 I6.480062 J-10.212957
G03 X108.270999 Y1105.385187 Z-0.125000 I0.364867 J-0.355342
G03 X108.861156 Y1104.967098 Z-0.125000 I0.733640 J0.410010
G03 X112.270560 Y1104.658880 Z-0.125000 I3.593586 J20.740098
G02 X117.333397 Y1103.140126 Z-0.125000 I-0.082682 J-9.473600
G02 X118.807820 Y1100.430419 Z-0.125000 I-1.752749 J-2.709707
G02 X117.232890 Y1098.298898 Z-0.125000 I-2.229873 J0.000000
G02 X111.474020 Y1098.176990 Z-0.125000 I-3.093874 J10.069050
G03 X99.348939 Y1095.231021 Z-0.125000 I-3.328200 J-12.727043
G03 X100.009487 Y1087.866037 Z-0.125000 I3.089393 J-3.435033
G02 X102.242309 Y1084.995603 Z-0.125000 I-2.741889 J-4.436469
G02 X101.864648 Y1081.972895 Z-0.125000 I-3.490574 J-1.098830
G03 X102.331841 Y1080.683709 Z-0.125000 I0.743805 J-0.459697
G03 X105.517830 Y1080.754661 Z-0.125000 I1.494011 J4.480165
G03 X108.933376 Y1083.767489 Z-0.125000 I-2.338170 J6.093170
G03 X108.834630 Y1086.950056 Z-0.125000 I-2.812210 J1.505560
G02 X109.358431 Y1088.457980 Z-0.125000 I0.875216 J0.540917
G02 X112.897180 Y1088.426411 Z-0.125000 I1.727118 J-4.752598
G03 X119.556026 Y1086.637637 Z-0.125000 I11.900482 J31.012031
G03 X129.386170 Y1085.791434 Z-0.125000 I10.733364 J67.166620
G01 X139.353480 Y1085.659060 Z-0.125000
G01 X130.014540 Y1080.375011 Z-0.125000
G01 X120.675610 Y1075.090958 Z-0.125000
G01 X132.705680 Y1072.591395 Z-0.125000
G02 X143.070845 Y1068.246947 Z-0.125000 I-5.989655 J-28.827416
G02 X146.965810 Y1063.065519 Z-0.125000 I-5.440525 J-8.144400
G03 X150.467940 Y1057.777533 Z-0.125000 I11.028643 J3.500365
G03 X155.170100 Y1056.039206 Z-0.125000 I4.702160 J5.490489
G02 X158.585637 Y1054.979361 Z-0.125000 I-0.000000 J-6.033506
G02 X158.712010 Y1053.606887 Z-0.125000 I-0.507331 J-0.738768
G03 X158.377114 Y1051.305204 Z-0.125000 I1.375322 J-1.375315
G03 X162.758890 Y1046.135737 Z-0.125000 I14.517564 J7.863679
G02 X166.731544 Y1042.635141 Z-0.125000 I-26.519965 J-34.100684
G02 X167.370287 Y1041.096906 Z-0.125000 I-1.532833 J-1.538235
G02 X166.731544 Y1039.558671 Z-0.125000 I-2.171574 J0.000000
G02 X162.758890 Y1036.058080 Z-0.125000 I-30.492546 J30.600049
G03 X158.377112 Y1030.888605 Z-0.125000 I10.135819 J-13.033168
G03 X158.712010 Y1028.586930 Z-0.125000 I1.710210 J-0.926363
G02 X158.334646 Y1027.318416 Z-0.125000 I-0.532097 J-0.532097
G02 X147.135930 Y1026.154610 Z-0.125000 I-11.198716 J53.297902
G03 X135.945229 Y1024.124909 Z-0.125000 I-0.000000 J-31.864662
G03 X134.686890 Y1021.485140 Z-0.125000 I0.739850 J-1.972476
G03 X138.674156 Y1018.092040 Z-0.125000 I4.802048 J1.603646
G03 X175.797040 Y1014.781620 Z-0.125000 I41.288839 J253.208690
G02 X184.992220 Y1014.220361 Z-0.125000 I-1.673118 J-103.014482
G02 X187.455118 Y1013.133295 Z-0.125000 I-0.465504 J-4.388214
G02 X188.379031 Y1010.888929 Z-0.125000 I-1.833847 J-2.067271
G02 X187.412160 Y1004.477990 Z-0.125000 I-37.857058 J2.431063
G02 X184.552803 Y994.530529 Z-0.125000 I-112.742823 J27.022773
G02 X183.635339 Y993.220225 Z-0.125000 I-2.684184 J0.903092
G02 X182.934063 Y993.474505 Z-0.125000 I-0.272809 J0.341783
G02 X182.198990 Y1000.316880 Z-0.125000 I35.752293 J7.301521
G03 X181.894223 Y1005.994310 Z-0.125000 I-69.274679 J-0.871798
G03 X181.456721 Y1006.702382 Z-0.125000 I-0.935511 J-0.088834
G03 X180.809452 Y1006.584645 Z-0.125000 I-0.258965 J-0.414392
G03 X178.261240 Y1002.777680 Z-0.125000 I29.129694 J-22.254424
G03 X175.851865 Y996.229406 Z-0.125000 I17.338443 J-10.096906
G03 X176.485590 Y992.896280 Z-0.125000 I4.669234 J-0.839049
G02 X176.421114 Y990.294652 Z-0.125000 I-2.024851 J-1.251431
G02 X172.646670 Y987.322500 Z-0.125000 I-6.680623 J4.601239
G02 X166.436911 Y985.285190 Z-0.125000 I-23.712817 J61.794721
G02 X164.956615 Y985.304559 Z-0.125000 I-0.706559 J2.576757
G02 X164.486501 Y986.136156 Z-0.125000 I0.200253 J0.661886
G02 X165.859220 Y989.376040 Z-0.125000 I11.204712 J-2.836619
G03 X166.772912 Y991.363670 Z-0.125000 I-7.602499 J4.698607
G03 X166.653672 Y991.824000 Z-0.125000 I-0.425398 J0.135418
G03 X166.178766 Y991.929675 Z-0.125000 I-0.326255 J-0.346240
G03 X164.150960 Y990.985700 Z-0.125000 I2.971062 J-9.032317
G03 X161.608475 Y987.850325 Z-0.125000 I3.219482 J-5.209230
G03 X161.926460 Y984.805160 Z-0.125000 I3.314750 J-1.193049
G02 X161.405715 Y982.816289 Z-0.125000 I-1.207699 J-0.746398
G02 X155.636910 Y981.327710 Z-0.125000 I-5.768805 J10.433862
G03 X151.071848 Y980.977833 Z-0.125000 I0.000000 J-29.956531
G03 X149.954511 Y980.393815 Z-0.125000 I0.297629 J-1.930266
G03 X149.802948 Y979.417151 Z-0.125000 I0.628058 J-0.597557
G03 X151.522550 Y977.003340 Z-0.125000 I8.045880 J3.912466
G03 X155.960511 Y975.128434 Z-0.125000 I4.527951 J4.527951
G03 X160.898690 Y976.871550 Z-0.125000 I0.106326 J7.565173
G02 X166.394620 Y978.844234 Z-0.125000 I5.465995 J-6.586133
G02 X179.826980 Y976.805350 Z-0.125000 I-0.162055 J-46.333908
G03 X193.128210 Y974.859178 Z-0.125000 I12.982013 J42.299244
G03 X198.094100 Y976.937140 Z-0.125000 I-0.051188 J7.095025
G03 X199.657243 Y979.326535 Z-0.125000 I-4.933537 J4.933522
G03 X199.348708 Y980.393846 Z-0.125000 I-0.849518 J0.332675
G03 X197.860311 Y980.983753 Z-0.125000 I-1.864710 J-2.532215
G03 X192.131810 Y981.327740 Z-0.125000 I-5.728501 J-47.527080
G02 X185.499761 Y981.631393 Z-0.125000 I-0.000000 J72.576682
G02 X184.359879 Y982.261633 Z-0.125000 I0.148087 J1.613780
G02 X184.348952 Y983.348562 Z-0.125000 I0.721245 J0.550770
G02 X187.649120 Y987.197930 Z-0.125000 I26.706073 J-19.556494
G03 X192.626271 Y993.438019 Z-0.125000 I-25.222839 J25.222917
G03 X193.519310 Y996.536870 Z-0.125000 I-4.929996 J3.098851
G02 X194.572613 Y998.952309 Z-0.125000 I3.296201 J-0.000000
G02 X197.254890 Y1000.005610 Z-0.125000 I2.682277 J-2.888619
G02 X199.699427 Y998.714587 Z-0.125000 I0.000000 J-2.959862
G02 X200.990460 Y994.533680 Z-0.125000 I-6.124247 J-4.180907
G03 X206.389067 Y985.896126 Z-0.125000 I9.609173 J0.000000
G03 X226.649450 Y982.025650 Z-0.125000 I17.266509 J35.420510
G02 X235.620993 Y981.233171 Z-0.125000 I2.093666 J-27.476907
G02 X242.662450 Y978.306468 Z-0.125000 I-6.740337 J-26.150808
G02 X247.415893 Y973.655888 Z-0.125000 I-7.171195 J-12.084391
G02 X247.423560 Y969.697750 Z-0.125000 I-3.184548 J-1.985245
G03 X247.578544 Y967.596370 Z-0.125000 I1.527061 J-0.943779
G03 X250.266370 Y966.328240 Z-0.125000 I2.729598 J2.302921
G02 X252.572679 Y966.023201 Z-0.125000 I-0.113849 J-9.731969
G02 X252.973267 Y965.623239 Z-0.125000 I-0.138439 J-0.539245
G02 X252.827657 Y965.062339 Z-0.125000 I-0.577899 J-0.149327
G02 X250.990310 Y963.526560 Z-0.125000 I-7.642680 J7.276452
G03 X247.716134 Y960.110450 Z-0.125000 I5.857322 J-8.891084
G03 X244.084280 Y952.008260 Z-0.125000 I32.152248 J-19.277529
G03 X242.768992 Y946.468564 Z-0.125000 I39.081669 J-12.205141
G03 X243.206774 Y945.107467 Z-0.125000 I1.543144 J-0.254617
G03 X244.567407 Y944.673618 Z-0.125000 I1.100857 J1.101971
G03 X250.088760 Y946.009840 Z-0.125000 I-6.783782 J40.106423
G02 X255.394127 Y947.422257 Z-0.125000 I17.622055 J-55.522233
G02 X256.364990 Y947.267940 Z-0.125000 I0.286898 J-1.326202
G02 X256.550408 Y946.599538 Z-0.125000 I-0.250646 J-0.429450
G02 X254.428030 Y943.477250 Z-0.125000 I-17.321083 J9.491536
G02 X249.256336 Y939.640306 Z-0.125000 I-10.433277 J8.658826
G02 X239.815770 Y937.324490 Z-0.125000 I-11.988585 J28.471776
G03 X230.293385 Y935.755070 Z-0.125000 I4.932941 J-59.603434
G03 X228.019362 Y934.658908 Z-0.125000 I1.498231 J-6.014972
G03 X228.145449 Y933.807580 Z-0.125000 I0.299577 J-0.390632
G03 X233.870800 Y932.765270 Z-0.125000 I5.725351 J15.203366
G02 X238.899935 Y930.739359 Z-0.125000 I0.000000 J-7.255136
G02 X239.697090 Y927.161910 Z-0.125000 I-2.298206 J-2.389643
G03 X239.643086 Y922.999403 Z-0.125000 I5.614425 J-2.154445
G03 X241.682120 Y921.558540 Z-0.125000 I2.039034 J0.722335
G03 X244.704810 Y922.671088 Z-0.125000 I-0.000000 J4.662460
G03 X245.817360 Y925.079630 Z-0.125000 I-2.050833 J2.408542
G02 X247.334821 Y926.916619 Z-0.125000 I1.870630 J0.000000
G02 X253.546645 Y927.014730 Z-0.125000 I3.384755 J-17.605625
G02 X260.309489 Y925.194103 Z-0.125000 I-5.287547 J-33.111792
G02 X266.004650 Y921.855970 Z-0.125000 I-7.329094 J-19.031406
G03 X270.854932 Y919.791228 Z-0.125000 I5.881327 J7.086548
G03 X279.080390 Y920.382770 Z-0.125000 I2.523334 J22.396473
G02 X286.806340 Y920.428850 Z-0.125000 I3.953277 J-15.117338
G02 X290.969420 Y917.424750 Z-0.125000 I-1.665724 J-6.695006
G02 X293.804660 Y911.386106 Z-0.125000 I-22.509435 J-14.253459
G02 X293.279709 Y909.166790 Z-0.125000 I-2.089930 J-0.677396
G02 X290.860469 Y907.972741 Z-0.125000 I-2.928293 J2.885147
G02 X281.056280 Y907.363360 Z-0.125000 I-9.804189 J78.563933
G03 X268.116659 Y906.436483 Z-0.125000 I-0.000000 J-90.784945
G03 X265.491390 Y905.122010 Z-0.125000 I0.662764 J-4.602506
G03 X265.831381 Y903.949898 Z-0.125000 I0.492503 J-0.492507
G03 X275.479030 Y902.880670 Z-0.125000 I9.647649 J42.990756
G02 X282.400727 Y902.466229 Z-0.125000 I-0.000000 J-58.007883
G02 X284.742724 Y901.667451 Z-0.125000 I-0.711247 J-5.918084
G02 X285.819900 Y899.997156 Z-0.125000 I-1.146066 J-1.921584
G02 X285.430460 Y896.945470 Z-0.125000 I-6.443967 J-0.728347
G03 X285.314193 Y891.337024 Z-0.125000 I7.728352 J-2.965642
G03 X290.634160 Y881.499390 Z-0.125000 I31.180978 J10.504681
G02 X297.051386 Y871.620195 Z-0.125000 I-51.258050 J-40.319495
G02 X298.115410 Y867.324620 Z-0.125000 I-8.138832 J-4.295575
G03 X299.673283 Y863.863585 Z-0.125000 I4.623524 J-0.000000
G03 X305.586560 Y860.706970 Z-0.125000 I9.561649 J10.794836
G02 X311.171842 Y857.297101 Z-0.125000 I-2.872420 J-10.984166
G02 X313.057710 Y852.364450 Z-0.125000 I-5.507956 J-4.932651
G02 X310.921945 Y848.741774 Z-0.125000 I-4.140268 J0.000000
G02 X305.217060 Y848.026050 Z-0.125000 I-3.746897 J6.771651
G03 X299.584051 Y848.810698 Z-0.125000 I-6.143633 J-23.493236
G03 X299.302400 Y848.150450 Z-0.125000 I-0.008134 J-0.386728
G02 X299.556917 Y846.224453 Z-0.125000 I-1.129024 J-1.129014
G02 X294.068540 Y839.064610 Z-0.125000 I-29.833951 J17.185731
G03 X288.121681 Y831.420290 Z-0.125000 I27.630039 J-27.629969
G03 X287.027480 Y827.235280 Z-0.125000 I6.698012 J-3.986792
G03 X288.377389 Y826.394994 Z-0.125000 I0.951572 J0.024239
G03 X292.630850 Y829.817050 Z-0.125000 I-4.695434 J10.190669
G02 X297.240250 Y834.460465 Z-0.125000 I19.506097 J-14.753681
G02 X298.115410 Y834.029110 Z-0.125000 I0.331275 J-0.431355
G03 X299.160615 Y833.215663 Z-0.125000 I0.839141 J0.000000
G03 X303.386200 Y835.364320 Z-0.125000 I-2.639854 J10.420965
G02 X308.273266 Y837.394446 Z-0.125000 I5.736543 J-6.912111
G02 X310.918280 Y836.079840 Z-0.125000 I0.264636 J-2.785761
G02 X311.413712 Y832.837859 Z-0.125000 I-3.565740 J-2.203754
G02 X309.383070 Y830.074620 Z-0.125000 I-4.439945 J1.135059
G03 X306.049067 Y826.425521 Z-0.125000 I4.752540 J-7.689770
G03 X305.707709 Y823.787062 Z-0.125000 I3.622225 J-1.809948
G03 X307.094788 Y822.086518 Z-0.125000 I2.334131 J0.487905
G03 X311.070290 Y822.003000 Z-0.125000 I2.090093 J4.829792
G02 X316.031326 Y822.558143 Z-0.125000 I3.545463 J-9.239306
G02 X318.519980 Y820.926310 Z-0.125000 I-0.503077 J-3.480822
G02 X316.605222 Y816.168793 Z-0.125000 I-2.708537 J-1.673970
G02 X298.074550 Y815.663170 Z-0.125000 I-10.371573 J40.289842
G03 X289.095511 Y815.228846 Z-0.125000 I-3.623632 J-18.118162
G03 X286.908680 Y812.281670 Z-0.125000 I0.892528 J-2.947176
G02 X285.416987 Y807.443444 Z-0.125000 I-8.592109 J0.000000
G02 X279.590590 Y801.541890 Z-0.125000 I-19.050514 J12.981028
G03 X275.187973 Y795.280984 Z-0.125000 I6.455627 J-9.217938
G03 X274.921120 Y784.395530 Z-0.125000 I21.975979 J-5.984732
G03 X279.101847 Y776.008625 Z-0.125000 I18.822188 J4.147071
G03 X282.558270 Y775.474260 Z-0.125000 I2.039432 J1.745877
G03 X286.650697 Y778.997027 Z-0.125000 I-9.247159 J14.880986
G03 X287.227740 Y780.958240 Z-0.125000 I-1.912099 J1.628089
G02 X287.403629 Y782.788867 Z-0.125000 I4.017893 J0.537720
G02 X288.271965 Y783.439040 Z-0.125000 I0.905819 J-0.304825
G02 X289.859894 Y783.224456 Z-0.125000 I0.181962 J-4.636133
G02 X295.409070 Y781.279350 Z-0.125000 I-30.443450 J-95.739996
G02 X298.811748 Y779.496364 Z-0.125000 I-5.932484 J-15.460002
G02 X299.771789 Y778.189245 Z-0.125000 I-1.377045 J-2.017519
G02 X299.663906 Y776.602401 Z-0.125000 I-2.142978 J-0.651398
G02 X297.753350 Y773.567100 Z-0.125000 I-12.479954 J5.736504
G02 X292.904956 Y769.592623 Z-0.125000 I-12.679616 J10.523165
G02 X288.187640 Y768.399980 Z-0.125000 I-4.717316 J8.732987
G03 X285.818536 Y766.625358 Z-0.125000 I0.000000 J-2.468677
G03 X286.272470 Y761.862720 Z-0.125000 I6.188829 J-1.813085
G02 X288.390128 Y755.243617 Z-0.125000 I-18.768151 J-9.652823
G02 X287.918530 Y750.530410 Z-0.125000 I-9.702752 J-1.409350
G03 X287.749117 Y746.008058 Z-0.125000 I7.066256 J-2.529060
G03 X290.748490 Y740.257580 Z-0.125000 I14.861346 J4.094025
G02 X293.077003 Y736.952195 Z-0.125000 I-19.709758 J-16.357610
G02 X293.246068 Y735.863475 Z-0.125000 I-1.275816 J-0.755605
G02 X292.574817 Y735.173781 Z-0.125000 I-0.904118 J0.208443
G02 X289.485600 Y734.779810 Z-0.125000 I-3.089217 J11.914654
G03 X284.915042 Y732.826299 Z-0.125000 I0.000000 J-6.323541
G03 X281.433525 Y727.203324 Z-0.125000 I11.542062 J-11.035667
G03 X280.361950 Y720.477098 Z-0.125000 I17.159400 J-6.182185
G03 X282.355290 Y714.988770 Z-0.125000 I9.317859 J0.278059
G02 X284.855444 Y710.029501 Z-0.125000 I-10.983501 J-8.647040
G02 X285.679261 Y704.142779 Z-0.125000 I-22.470310 J-6.145615
G02 X284.702754 Y698.884582 Z-0.125000 I-13.818187 J-0.153576
G02 X282.550510 Y697.424060 Z-0.125000 I-2.152244 J0.855526
G03 X280.604130 Y696.257457 Z-0.125000 I0.000000 J-2.206988
G03 X279.437530 Y691.600220 Z-0.125000 I8.712882 J-4.657237
G03 X280.861692 Y688.330804 Z-0.125000 I4.464843 J0.000000
G03 X283.199490 Y688.101450 Z-0.125000 I1.319321 J1.418566
G02 X286.174390 Y688.093726 Z-0.125000 I1.481237 J-2.396770
G02 X289.322710 Y684.273120 Z-0.125000 I-4.136443 J-6.616049
G03 X290.930190 Y681.039715 Z-0.125000 I17.778175 J6.822096
G03 X291.818649 Y680.399980 Z-0.125000 I1.221462 J0.759547
G03 X292.789706 Y680.658948 Z-0.125000 I0.245239 J1.030500
G03 X294.696570 Y682.994240 Z-0.125000 I-7.897059 J8.394444
G02 X297.960768 Y685.708014 Z-0.125000 I5.677218 J-3.508686
G02 X300.379770 Y685.198160 Z-0.125000 I0.818413 J-2.110444
G02 X300.974627 Y682.475831 Z-0.125000 I-1.824919 J-1.824919
G02 X296.847310 Y675.673260 Z-0.125000 I-19.729037 J7.316811
G03 X291.897084 Y668.336245 Z-0.125000 I23.180757 J-20.978318
G03 X290.644260 Y662.881380 Z-0.125000 I11.248977 J-5.454865
G03 X294.055779 Y648.495290 Z-0.125000 I32.038227 J0.000000
G03 X298.506840 Y647.235710 Z-0.125000 I2.802264 J1.408252
G02 X302.447864 Y644.729962 Z-0.125000 I1.363938 J-2.206889
G02 X296.881330 Y633.218870 Z-0.125000 I-19.317846 J2.240245
G03 X294.214922 Y623.771703 Z-0.125000 I7.105320 J-7.105308
G03 X300.294490 Y618.976990 Z-0.125000 I6.079568 J1.457008
G02 X304.224064 Y617.614510 Z-0.125000 I0.000000 J-6.347948
G02 X305.586560 Y614.805730 Z-0.125000 I-2.213896 J-2.808780
G02 X304.003577 Y612.684649 Z-0.125000 I-2.212538 J0.000000
G02 X298.115410 Y612.588220 Z-0.125000 I-3.116848 J10.501193
G03 X291.995889 Y612.791437 Z-0.125000 I-3.508689 J-13.417049
G03 X290.644260 Y611.156110 Z-0.125000 I0.313472 J-1.635327
G03 X291.865426 Y608.991425 Z-0.125000 I2.529184 J0.000000
G03 X296.247620 Y607.770260 Z-0.125000 I4.382194 J7.252247
G02 X299.983194 Y605.902472 Z-0.125000 I0.000000 J-4.669466
G02 X301.850980 Y600.299110 Z-0.125000 I-7.471155 J-5.603362
G02 X300.424117 Y594.254820 Z-0.125000 I-13.515449 J0.000000
G02 X298.115410 Y592.827960 Z-0.125000 I-2.308707 J1.154353
G03 X295.654810 Y591.552987 Z-0.125000 I0.000000 J-3.011871
G03 X294.379830 Y587.535890 Z-0.125000 I5.690872 J-4.017097
G02 X293.080154 Y583.180599 Z-0.125000 I-7.947255 J-0.000000
G02 X289.943840 Y580.765160 Z-0.125000 I-5.042764 J3.303865
G03 X288.851612 Y578.497140 Z-0.125000 I0.554710 J-1.664142
G03 X293.368120 Y571.426220 Z-0.125000 I18.295947 J6.708519
G02 X299.345750 Y563.565985 Z-0.125000 I-25.899052 J-25.899052
G02 X299.049300 Y561.386860 Z-0.125000 I-1.580955 J-0.894653
G03 X299.435187 Y560.215877 Z-0.125000 I0.488188 J-0.488196
G03 X318.972360 Y558.401800 Z-0.125000 I25.909428 J172.925984
G02 X322.166525 Y558.102600 Z-0.125000 I-1.027177 J-28.165387
G02 X322.173896 Y557.931356 Z-0.125000 I-0.013080 J-0.086344
G02 X320.908252 Y557.723510 Z-0.125000 I-2.042053 J8.477329
G02 X314.552309 Y557.246308 Z-0.125000 I-19.957583 J223.252194
G02 X301.706244 Y556.598718 Z-0.125000 I-37.701984 J620.148925
G02 X272.888300 Y555.600120 Z-0.125000 I-107.227091 J2678.082617
G03 X209.891566 Y551.827345 Z-0.125000 I30.215072 J-1032.359918
G03 X205.591677 Y550.173048 Z-0.125000 I0.760496 J-8.392036
G03 X206.022103 Y548.728185 Z-0.125000 I0.482729 J-0.642738
G03 X261.704930 Y547.200830 Z-0.125000 I48.093176 J737.555641
G02 X309.960875 Y545.996779 Z-0.125000 I7.039701 J-685.465851
G02 X310.251860 Y544.276660 Z-0.125000 I-0.053836 J-0.893779
G02 X301.787741 Y542.177231 Z-0.125000 I-11.076201 J26.543329
G02 X295.309560 Y542.914000 Z-0.125000 I-1.460089 J16.010595
G03 X294.315890 Y542.723289 Z-0.125000 I-0.325177 J-0.989754
G03 X294.288395 Y542.118488 Z-0.125000 I0.263540 J-0.315007
G03 X295.977621 Y540.661326 Z-0.125000 I10.443432 J10.398926
G03 X301.007380 Y537.191810 Z-0.125000 I56.417838 J76.408389
G03 X313.518986 Y530.256766 Z-0.125000 I59.079877 J91.833091
G03 X317.817460 Y529.266000 Z-0.125000 I4.428167 J9.391840
G02 X320.374444 Y528.659946 Z-0.125000 I-0.075195 J-6.014324
G02 X320.568029 Y528.065215 Z-0.125000 I-0.190190 J-0.390778
G02 X319.758067 Y527.194235 Z-0.125000 I-2.037860 J1.082997
G02 X316.562385 Y525.498678 Z-0.125000 I-13.152820 J20.930328
G02 X309.119929 Y522.865820 Z-0.125000 I-21.346975 J48.507336
G02 X299.983190 Y521.417480 Z-0.125000 I-11.231232 J41.307963
G03 X292.109794 Y520.916318 Z-0.125000 I13.200419 J-269.479776
G03 X291.958732 Y520.617916 Z-0.125000 I0.015292 J-0.195178
G03 X292.454756 Y520.270890 Z-0.125000 I0.652795 J0.405066
G03 X301.850980 Y518.407400 Z-0.125000 I100.535052 J482.304194
G02 X307.967482 Y516.697153 Z-0.125000 I-6.793284 J-36.088013
G02 X307.969525 Y515.874389 Z-0.125000 I-0.154630 J-0.411769
G02 X305.004870 Y515.122849 Z-0.125000 I-4.709179 J12.353439
G02 X287.850580 Y513.070380 Z-0.125000 I-85.968478 J645.801111
G02 X261.087761 Y511.565155 Z-0.125000 I-28.530472 J268.596963
G02 X256.454910 Y512.864920 Z-0.125000 I-0.056959 J8.703472
G03 X254.469650 Y513.780075 Z-0.125000 I-4.736160 J-7.663318
G03 X254.002351 Y513.667908 Z-0.125000 I-0.141325 J-0.440712
G03 X253.888393 Y513.202534 Z-0.125000 I0.323245 J-0.325794
G03 X254.799580 Y511.222540 Z-0.125000 I8.511780 J2.717433
G02 X253.966563 Y508.860254 Z-0.125000 I-1.368164 J-0.845559
G02 X242.576150 Y506.909740 Z-0.125000 I-11.390413 J32.283026
G03 X229.591000 Y504.444634 Z-0.125000 I0.000000 J-35.432723
G03 X225.978940 Y500.372490 Z-0.125000 I2.202405 J-5.591621
G02 X224.714423 Y495.896981 Z-0.125000 I-113.899205 J29.764863
G02 X224.452724 Y495.703013 Z-0.125000 I-0.261699 J0.079555
G02 X224.229143 Y495.903511 Z-0.125000 I0.000000 J0.224909
G02 X223.837240 Y500.372490 Z-0.125000 I104.790767 J11.441208
G03 X222.107043 Y505.524059 Z-0.125000 I-10.632895 J-0.704810
G03 X219.536900 Y506.909740 Z-0.125000 I-2.570143 J-1.690693
G03 X218.118719 Y505.442845 Z-0.125000 I0.000000 J-1.418990
G03 X219.797420 Y499.197390 Z-0.125000 I14.247713 J0.481275
G03 X224.566748 Y494.582156 Z-0.125000 I9.578217 J5.126115
G03 X228.333900 Y494.983290 Z-0.125000 I1.566943 J3.174150
G02 X233.992161 Y497.509827 Z-0.125000 I7.760586 J-9.780885
G02 X259.670940 Y500.966760 Z-0.125000 I61.691158 J-361.152079
G02 X285.586477 Y502.588876 Z-0.125000 I35.515240 J-359.575703
G02 X290.879610 Y501.160920 Z-0.125000 I0.254623 J-9.580414
G02 X292.027819 Y498.294457 Z-0.125000 I-1.366088 J-2.210407
G02 X288.360950 Y491.508310 Z-0.125000 I-15.689012 J4.093735
G02 X282.132249 Y487.353955 Z-0.125000 I-11.351493 J10.272920
G02 X279.382820 Y488.320400 Z-0.125000 I-0.776186 J2.185968
G03 X276.713495 Y489.497597 Z-0.125000 I-2.191568 J-1.354456
G03 X272.514270 Y487.024230 Z-0.125000 I1.333244 J-7.064906
G03 X271.123931 Y481.709250 Z-0.125000 I4.995872 J-4.146202
G03 X275.050450 Y473.166520 Z-0.125000 I18.703636 J3.423061
G03 X279.196293 Y468.674548 Z-0.125000 I36.743607 J29.753150
G03 X281.159661 Y467.456034 Z-0.125000 I3.907349 J4.104810
G03 X283.043440 Y467.614536 Z-0.125000 I0.770930 J2.111085
G03 X285.022840 Y469.524780 Z-0.125000 I-2.757116 J4.837582
G03 X286.226491 Y471.918293 Z-0.125000 I-13.021023 J8.047424
G03 X286.220634 Y472.515776 Z-0.125000 I-0.733582 J0.291578
G03 X285.826076 Y472.711666 Z-0.125000 I-0.310763 J-0.130632
G03 X284.008410 Y471.938040 Z-0.125000 I1.630240 J-6.352467
G02 X280.359762 Y471.151953 Z-0.125000 I-2.930621 J4.741867
G02 X277.915960 Y472.729380 Z-0.125000 I0.436082 J3.357316
G02 X279.674194 Y480.348824 Z-0.125000 I4.727418 J2.921703
G02 X305.501610 Y490.164730 Z-0.125000 I37.069309 J-58.649784
G02 X316.595162 Y491.726297 Z-0.125000 I39.630858 J-241.356437
G02 X318.849116 Y491.515693 Z-0.125000 I0.633193 J-5.389925
G02 X319.360697 Y490.358837 Z-0.125000 I-0.251160 J-0.802610
G02 X316.969290 Y486.576150 Z-0.125000 I-15.780029 J7.328839
G02 X310.984842 Y482.461128 Z-0.125000 I-10.264992 J8.519225
G02 X303.979730 Y482.175230 Z-0.125000 I-3.988897 J11.773436
G03 X299.168136 Y483.109323 Z-0.125000 I-11.153802 J-44.594696
G03 X298.782162 Y482.698550 Z-0.125000 I-0.047636 J-0.341962
G03 X299.280932 Y481.824742 Z-0.125000 I1.576533 J0.320633
G03 X305.066510 Y476.831570 Z-0.125000 I115.951735 J128.504563
G03 X314.398670 Y470.982412 Z-0.125000 I27.025261 J32.748837
G03 X320.942700 Y469.554000 Z-0.125000 I6.544030 J14.275985
G02 X326.526265 Y468.745311 Z-0.125000 I-0.000000 J-19.680109
G02 X327.601017 Y467.354313 Z-0.125000 I-0.426019 J-1.439865
G02 X326.942255 Y465.191743 Z-0.125000 I-3.504411 J-0.114106
G02 X321.308380 Y458.323400 Z-0.125000 I-57.214391 J41.186262
G02 X316.882252 Y454.301180 Z-0.125000 I-26.344912 J24.544038
G02 X314.060330 Y453.159360 Z-0.125000 I-3.473872 J4.527419
G02 X310.961250 Y453.532425 Z-0.125000 I-0.768027 J6.678620
G02 X304.498290 Y456.390280 Z-0.125000 I19.697434 J53.282038
G03 X294.383002 Y458.829296 Z-0.125000 I-9.998777 J-19.272768
G03 X284.107010 Y456.280830 Z-0.125000 I0.120624 J-22.478183
G02 X273.660949 Y451.620166 Z-0.125000 I-43.277560 J82.962226
G02 X269.743680 Y450.898980 Z-0.125000 I-3.981168 J10.625207
G03 X264.978644 Y449.260796 Z-0.125000 I0.045699 J-7.882121
G03 X258.948229 Y443.286410 Z-0.125000 I20.900708 J-27.127398
G03 X254.788907 Y436.122611 Z-0.125000 I23.380310 J-18.364030
G03 X255.111960 Y432.269860 Z-0.125000 I3.954622 J-1.608325
G02 X255.787793 Y428.266240 Z-0.125000 I-4.583075 J-2.832500
G02 X252.916430 Y422.410820 Z-0.125000 I-13.567228 J3.021321
G03 X250.503954 Y418.923964 Z-0.125000 I18.674701 J-15.498593
G03 X250.075367 Y417.198090 Z-0.125000 I2.851460 J-1.624257
G03 X250.703370 Y415.646403 Z-0.125000 I2.415909 J0.074846
G03 X253.189980 Y413.581120 Z-0.125000 I8.596351 J7.820458
G03 X258.332300 Y411.732226 Z-0.125000 I6.942344 J11.233104
G03 X262.844760 Y412.252710 Z-0.125000 I1.243687 J9.038720
G02 X266.919648 Y412.383315 Z-0.125000 I2.225412 J-5.799334
G02 X269.941230 Y410.039310 Z-0.125000 I-1.627110 J-5.216972
G02 X267.610801 Y405.935139 Z-0.125000 I-2.288410 J-1.414313
G02 X247.860940 Y410.384100 Z-0.125000 I0.773149 J49.493515
G02 X239.999772 Y415.783340 Z-0.125000 I11.404918 J25.027756
G02 X238.346210 Y419.723370 Z-0.125000 I3.867280 J3.940030
G03 X237.055669 Y423.436552 Z-0.125000 I-5.987107 J0.000000
G03 X234.390170 Y424.727100 Z-0.125000 I-2.665499 J-2.107387
G03 X232.457336 Y423.599084 Z-0.125000 I-0.000000 J-2.219945
G03 X232.500930 Y421.382940 Z-0.125000 I1.896145 J-1.071201
G02 X232.442003 Y418.756054 Z-0.125000 I-2.051756 J-1.268078
G02 X228.680290 Y415.779580 Z-0.125000 I-6.641780 J4.528689
G02 X222.769702 Y413.825476 Z-0.125000 I-23.680800 J61.711474
G02 X221.052144 Y413.896915 Z-0.125000 I-0.748696 J2.682362
G02 X220.083152 Y415.027347 Z-0.125000 I0.533574 J1.437893
G02 X219.668340 Y419.123740 Z-0.125000 I20.019164 J4.096393
G03 X218.180506 Y423.247095 Z-0.125000 I-6.457609 J-0.000000
G03 X214.998870 Y424.751720 Z-0.125000 I-3.203565 J-2.657955
G02 X214.427670 Y425.994622 Z-0.125000 I0.004379 J0.754716
G02 X220.967280 Y431.789880 Z-0.125000 I23.503274 J-19.934657
G03 X227.367099 Y438.321565 Z-0.125000 I-11.921318 J18.081790
G03 X226.570640 Y440.678080 Z-0.125000 I-1.355682 J0.854656
G02 X225.988152 Y442.644917 Z-0.125000 I0.447673 J1.202252
G02 X230.875060 Y446.477630 Z-0.125000 I9.443297 J-7.008807
G03 X237.008630 Y449.238352 Z-0.125000 I-51.968553 J123.653839
G03 X237.530379 Y449.829993 Z-0.125000 I-0.438657 J0.912714
G03 X237.255938 Y450.263973 Z-0.125000 I-0.314233 J0.105051
G03 X232.266360 Y450.639330 Z-0.125000 I-6.634636 J-54.842914
G02 X225.036344 Y452.346972 Z-0.125000 I0.551024 J18.492465
G02 X219.668340 Y456.479490 Z-0.125000 I6.470329 J13.957430
G03 X214.196154 Y460.332849 Z-0.125000 I-9.848254 J-8.173357
G03 X204.268640 Y462.082850 Z-0.125000 I-9.927514 J-27.283712
G02 X196.463804 Y463.359635 Z-0.125000 I-0.000000 J24.493404
G02 X193.921447 Y465.179790 Z-0.125000 I1.702069 J5.063052
G02 X193.856469 Y467.306925 Z-0.125000 I1.451364 J1.108895
G02 X197.916280 Y470.397040 Z-0.125000 I6.557667 J-4.403541
G03 X200.040164 Y472.686624 Z-0.125000 I-1.027786 J3.083284
G03 X199.451490 Y476.493130 Z-0.125000 I-4.794216 J1.207350
G03 X196.144861 Y478.405475 Z-0.125000 I-3.433577 J-2.122073
G03 X191.318960 Y476.749010 Z-0.125000 I-0.226499 J-7.198179
G02 X187.370350 Y475.190243 Z-0.125000 I-4.352251 J5.244339
G02 X186.048160 Y476.436310 Z-0.125000 I-0.073932 J1.246067
G02 X187.913914 Y480.861454 Z-0.125000 I6.180594 J-0.000000
G02 X193.298230 Y484.506808 Z-0.125000 I12.844866 J-13.173231
G02 X199.110819 Y485.658598 Z-0.125000 I5.458970 J-12.306351
G02 X202.045480 Y483.532560 Z-0.125000 I-0.084204 J-3.204668
G03 X204.749371 Y480.914700 Z-0.125000 I4.004495 J1.430790
G03 X206.400525 Y481.569865 Z-0.125000 I0.427510 J1.330795
G03 X207.431831 Y485.036415 Z-0.125000 I-7.409121 J4.090913
G03 X206.633630 Y491.842040 Z-0.125000 I-18.036434 J1.334208
G03 X202.681983 Y496.968835 Z-0.125000 I-9.012762 J-2.860556
G03 X197.479870 Y497.642230 Z-0.125000 I-3.323623 J-5.245276
G02 X183.403309 Y498.238042 Z-0.125000 I-6.221238 J19.601221
G02 X178.577010 Y505.455150 Z-0.125000 I2.982978 J7.217108
G03 X177.639907 Y510.437083 Z-0.125000 I-13.711307 J-0.000000
G03 X171.105860 Y524.611960 Z-0.125000 I-121.101812 J-47.229649
G02 X164.591739 Y538.791773 Z-0.125000 I112.129669 J60.097875
G02 X163.634720 Y543.916030 Z-0.125000 I13.240133 J5.124257
G03 X162.460781 Y548.828243 Z-0.125000 I-10.864268 J0.000000
G03 X157.452380 Y556.111970 Z-0.125000 I-29.684035 J-15.047404
G02 X154.396567 Y559.938667 Z-0.125000 I29.438957 J26.641966
G02 X153.782587 Y561.393674 Z-0.125000 I3.059307 J2.148005
G02 X154.215413 Y562.383381 Z-0.125000 I0.941709 J0.177662
G02 X156.163570 Y562.943370 Z-0.125000 I1.948157 J-3.108745
G03 X158.111721 Y563.503357 Z-0.125000 I-0.000000 J3.668723
G03 X158.544544 Y564.493061 Z-0.125000 I-0.508882 J0.812041
G03 X157.930563 Y565.948064 Z-0.125000 I-3.673286 J-0.693004
G03 X154.874750 Y569.774760 Z-0.125000 I-32.494920 J-22.815406
G02 X150.095210 Y577.145526 Z-0.125000 I20.406120 J18.467275
G02 X148.702790 Y583.783170 Z-0.125000 I15.011645 J6.613957
G03 X147.561787 Y590.231332 Z-0.125000 I-18.636638 J0.027277
G03 X140.706211 Y606.752971 Z-0.125000 I-201.959543 J-74.118994
G03 X132.455620 Y622.692506 Z-0.125000 I-190.511088 J-88.506892
G03 X128.657960 Y626.929840 Z-0.125000 I-11.821616 J-6.774510
G02 X128.102007 Y628.944813 Z-0.125000 I0.988790 J1.357001
G02 X130.525740 Y631.314920 Z-0.125000 I4.063023 J-1.730613
G03 X133.189846 Y632.772307 Z-0.125000 I-4.696975 J11.749769
G03 X133.624216 Y633.679955 Z-0.125000 I-0.606494 J0.848010
G03 X133.157815 Y634.693599 Z-0.125000 I-1.524538 J-0.087352
G03 X130.192900 Y637.124000 Z-0.125000 I-16.852222 J-17.534815
G03 X124.732103 Y639.576586 Z-0.125000 I-9.260808 J-13.313965
G03 X121.897380 Y639.123390 Z-0.125000 I-0.873904 J-3.625900
G02 X119.949406 Y639.566617 Z-0.125000 I-0.748753 J1.211510
G02 X117.272942 Y645.790530 Z-0.125000 I17.507321 J11.216093
G02 X115.969242 Y653.513685 Z-0.125000 I50.573162 J12.508573
G02 X115.793000 Y663.803880 Z-0.125000 I68.513118 J6.320041
G03 X113.500460 Y679.720288 Z-0.125000 I-40.247251 J2.326245
G03 X106.095620 Y690.886800 Z-0.125000 I-26.349786 J-9.434874
G02 X101.731091 Y696.380771 Z-0.125000 I15.291629 J16.628624
G02 X102.360048 Y697.481250 Z-0.125000 I0.641452 J0.363364
G03 X102.873994 Y698.341355 Z-0.125000 I-0.009497 J0.589279
G03 X100.669824 Y700.746930 Z-0.125000 I-5.547007 J-2.869986
G02 X98.461082 Y702.937182 Z-0.125000 I3.877036 J6.118586
G02 X97.917381 Y705.373591 Z-0.125000 I3.028076 J1.954605
G02 X98.790682 Y708.133068 Z-0.125000 I8.359469 J-1.127625
G02 X102.527481 Y714.518380 Z-0.125000 I64.960322 J-33.729864
G03 X106.283574 Y720.729217 Z-0.125000 I-84.048216 J55.070557
G03 X106.885716 Y722.481089 Z-0.125000 I-4.603663 J2.561761
G03 X106.300901 Y723.245261 Z-0.125000 I-0.657927 J0.102357
G03 X103.835730 Y722.927500 Z-0.125000 I-0.578298 J-5.234808
G02 X98.667144 Y722.701257 Z-0.125000 I-2.922628 J7.616238
G02 X93.425749 Y725.908940 Z-0.125000 I3.168303 J11.063143
G02 X90.887971 Y730.062901 Z-0.125000 I8.824316 J8.243219
G02 X91.577622 Y731.043970 Z-0.125000 I0.689584 J0.248184
G03 X93.636193 Y732.799337 Z-0.125000 I0.000195 J2.084528
G03 X94.093757 Y742.663530 Z-0.125000 I-43.537916 J6.962276
G03 X92.501847 Y753.016849 Z-0.125000 I-60.354283 J-3.980934
G03 X89.812959 Y757.797740 Z-0.125000 I-9.879781 J-2.410033
G02 X87.360097 Y762.176978 Z-0.125000 I6.539337 J6.539316
G02 X87.659957 Y766.760510 Z-0.125000 I7.530392 J1.808927
G03 X87.318116 Y770.935092 Z-0.125000 I-4.512885 J1.731743
G03 X82.026605 Y776.379240 Z-0.125000 I-13.703576 J-8.025720
G02 X77.231320 Y781.867754 Z-0.125000 I6.651217 J10.650196
G02 X77.291873 Y786.878960 Z-0.125000 I5.412190 J2.440571
G03 X78.532244 Y797.075548 Z-0.125000 I-14.423575 J6.928302
G03 X73.047027 Y807.223270 Z-0.125000 I-19.754767 J-4.121837
G02 X68.225400 Y813.037762 Z-0.125000 I28.733267 J28.733255
G02 X66.833140 Y816.378755 Z-0.125000 I7.362262 J5.028594
G02 X67.324809 Y819.541922 Z-0.125000 I4.651846 J0.896732
G02 X70.106054 Y822.479730 Z-0.125000 I6.930370 J-3.775616
G03 X71.269488 Y825.330650 Z-0.125000 I-1.374322 J2.223701
G03 X66.298950 Y837.883460 Z-0.125000 I-48.788662 J-12.058356
G02 X60.573551 Y851.029494 Z-0.125000 I61.991346 J34.818439
G02 X60.993825 Y854.459640 Z-0.125000 I3.933446 J1.258880
G03 X61.063468 Y857.538642 Z-0.125000 I-2.586921 J1.598801
G03 X55.461995 Y864.387800 Z-0.125000 I-21.926579 J-12.217181
G02 X49.023966 Y871.469544 Z-0.125000 I24.988191 J29.184102
G02 X47.831897 Y875.236650 Z-0.125000 I5.356256 J3.767106
G03 X46.749308 Y879.044030 Z-0.125000 I-7.236419 J-0.000000
G03 X42.343624 Y884.107280 Z-0.125000 I-17.692424 J-10.946318
G02 X38.901941 Y889.482146 Z-0.125000 I6.711594 J8.086966
G02 X38.152067 Y899.799200 Z-0.125000 I26.671314 J7.124329
G03 X37.392499 Y909.691774 Z-0.125000 I-25.750883 J2.998253
G03 X34.562430 Y912.811320 Z-0.125000 I-4.503935 J-1.242495
G02 X30.678211 Y916.040493 Z-0.125000 I2.815644 J7.337463
G02 X25.998874 Y925.477353 Z-0.125000 I50.101774 J30.721908
G02 X23.691387 Y934.613299 Z-0.125000 I35.737292 J13.885626
G02 X25.357932 Y936.500840 Z-0.125000 I1.666545 J0.208059
G03 X27.046555 Y937.901644 Z-0.125000 I0.000000 J1.718192
G03 X27.288778 Y946.773670 Z-0.125000 I-27.632695 J5.193743
G02 X25.971067 Y957.050815 Z-0.125000 I1396.945209 J184.335965
G02 X25.675829 Y959.730940 Z-0.125000 I94.690797 J11.787317
G03 X24.475330 Y960.892212 Z-0.125000 I-1.280691 J-0.122790
G03 X19.438074 Y960.120500 Z-0.125000 I-0.746497 J-11.953221
G02 X14.090220 Y959.922902 Z-0.125000 I-2.962864 J7.721078
G02 X9.746752 Y963.039420 Z-0.125000 I2.379932 J7.901880
G03 X7.603533 Y965.709917 Z-0.125000 I-24.176839 J-17.207963
G03 X7.286408 Y965.711044 Z-0.125000 I-0.159075 J-0.143515
G03 X7.176054 Y965.289252 Z-0.125000 I0.344789 J-0.315539
G03 X8.255977 Y961.410450 Z-0.125000 I46.471470 J10.848696
G02 X10.072654 Y954.501128 Z-0.125000 I-60.033921 J-19.478283
G02 X10.533352 Y950.203730 Z-0.125000 I-22.636934 J-4.600161
G03 X11.624396 Y949.430828 Z-0.125000 I0.826965 J0.010840
G03 X14.211724 Y951.443140 Z-0.125000 I-1.587010 J4.709980
G02 X16.579010 Y954.667137 Z-0.125000 I28.187900 J-18.216433
G02 X17.193071 Y954.866951 Z-0.125000 I0.465249 J-0.386325
G02 X17.611986 Y954.397071 Z-0.125000 I-0.138380 J-0.545050
G02 X17.890097 Y950.509250 Z-0.125000 I-30.842406 J-4.160132
G02 X16.163344 Y945.740405 Z-0.125000 I-7.272788 J-0.063636
G02 X12.343937 Y943.971990 Z-0.125000 I-3.819407 J3.240352
G03 X10.775093 Y942.505463 Z-0.125000 I-0.000000 J-1.572413
G03 X7.685591 Y864.627774 Z-0.125000 I1401.770550 J-94.610052
G03 X7.033844 Y770.738833 Z-0.125000 I9448.568372 J-112.535661
G03 X6.740575 Y473.510050 Z-0.125000 I150620.515758 J-297.229577
G02 X6.426325 Y240.178368 Z-0.125000 I-86624.981321 J-0.000138
G02 X5.794645 Y121.217416 Z-0.125000 I-22734.468011 J61.237445
G02 X3.946743 Y2.396764 Z-0.125000 I-7792.808361 J61.769224
G02 X2.993128 Y0.732000 Z-0.125000 I-2.011318 J0.046621
G02 X2.046778 Y1.248396 Z-0.125000 I-0.326130 J0.527674
G02 X0.417448 Y142.449193 Z-0.125000 I10627.183055 J193.237861
G02 X0.030096 Y285.389034 Z-0.125000 I32695.368093 J160.071624
G02 X0.191447 Y572.988370 Z-0.125000 I132533.838476 J69.444207
G01 X0.191447 Y572.988370 Z-0.125000
G00 Z5.000000

(End cutting path id: path3961)


(Start cutting path id: path3922)
(Change tool to Default tool)

G00 Z5.000000
G00 X0.191447 Y572.988370

G01 Z-0.125000 F100.0(Penetrate)
G01 X1.137213 Y1147.560787 Z-0.125000 F400.000000
G01 X1072.537700 Y1148.501115 Z-0.125000
G02 X1608.559871 Y1148.659860 Z-0.125000 I404.478069 J-460890.030224
G02 X1875.703587 Y1148.271703 Z-0.125000 I-32.639771 J-114395.488690
G02 X2141.107048 Y1146.639999 Z-0.125000 I-98.592834 J-37621.850691
G02 X2141.625500 Y1145.699433 Z-0.125000 I-0.005965 J-0.616460
G02 X2139.955193 Y1144.755858 Z-0.125000 I-1.692635 J1.046116
G02 X1878.308312 Y1142.739879 Z-0.125000 I-417.462594 J37200.889364
G02 X1616.579688 Y1141.954909 Z-0.125000 I-460.930883 J110054.762563
G02 X1098.241800 Y1141.329463 Z-0.125000 I-777.455866 J429479.431864
G03 X71.216925 Y1139.973115 Z-0.125000 I431.718577 J-715727.911306
G03 X71.179240 Y1139.236177 Z-0.125000 I0.000753 J-0.369471
G02 X83.823124 Y1136.541621 Z-0.125000 I-6.371221 J-60.908434
G02 X85.187645 Y1134.660441 Z-0.125000 I-0.614473 J-1.881180
G02 X83.732537 Y1131.776302 Z-0.125000 I-3.585848 J-0.000000
G02 X78.669311 Y1129.124450 Z-0.125000 I-11.083735 J15.002783
G02 X73.306431 Y1128.293908 Z-0.125000 I-5.030133 J14.750441
G02 X71.159321 Y1129.876561 Z-0.125000 I0.049435 J2.314835
G03 X69.412427 Y1131.321286 Z-0.125000 I-2.030660 J-0.676885
G03 X59.667092 Y1131.726303 Z-0.125000 I-7.081519 J-52.945828
G03 X49.817643 Y1130.671147 Z-0.125000 I4.348284 J-87.087324
G03 X40.360748 Y1128.338783 Z-0.125000 I10.144153 J-61.469210
G03 X37.074357 Y1126.318086 Z-0.125000 I2.648227 J-7.989768
G03 X36.736736 Y1124.971548 Z-0.125000 I0.947717 J-0.953219
G03 X37.787349 Y1123.523025 Z-0.125000 I2.636012 J0.806632
G03 X41.670559 Y1121.432885 Z-0.125000 I10.684731 J15.198531
G03 X50.841221 Y1118.956042 Z-0.125000 I15.694185 J39.892782
G03 X66.251101 Y1118.153282 Z-0.125000 I11.676538 J75.837928
G02 X83.989467 Y1117.816464 Z-0.125000 I6.383918 J-131.053633
G02 X85.190282 Y1116.508169 Z-0.125000 I-0.113760 J-1.309644
G03 X86.301161 Y1114.987580 Z-0.125000 I1.598467 J0.001698
G03 X94.975026 Y1113.374141 Z-0.125000 I10.702241 J33.413246
G03 X103.036977 Y1115.173921 Z-0.125000 I0.871644 J15.051831
G03 X106.547220 Y1119.652988 Z-0.125000 I-3.412508 J6.289403
G02 X109.469884 Y1125.484582 Z-0.125000 I15.221578 J-3.980529
G02 X113.628240 Y1128.528629 Z-0.125000 I7.676637 J-6.124452
G02 X116.667594 Y1127.138633 Z-0.125000 I0.838366 J-2.184747
G02 X117.297886 Y1120.814617 Z-0.125000 I-12.215577 J-4.410901
G02 X114.952667 Y1112.849185 Z-0.125000 I-29.746212 J4.430056
G02 X110.535670 Y1107.763158 Z-0.125000 I-10.721405 J4.850082
G03 X108.350721 Y1105.988997 Z-0.125000 I6.480062 J-10.212957
G03 X108.270999 Y1105.385187 Z-0.125000 I0.364867 J-0.355342
G03 X108.861156 Y1104.967098 Z-0.125000 I0.733640 J0.410010
G03 X112.270560 Y1104.658880 Z-0.125000 I3.593586 J20.740098
G02 X117.333397 Y1103.140126 Z-0.125000 I-0.082682 J-9.473600
G02 X118.807820 Y1100.430419 Z-0.125000 I-1.752749 J-2.709707
G02 X117.232890 Y1098.298898 Z-0.125000 I-2.229873 J0.000000
G02 X111.474020 Y1098.176990 Z-0.125000 I-3.093874 J10.069050
G03 X99.348939 Y1095.231021 Z-0.125000 I-3.328200 J-12.727043
G03 X100.009487 Y1087.866037 Z-0.125000 I3.089393 J-3.435033
G02 X102.242309 Y1084.995603 Z-0.125000 I-2.741889 J-4.436469
G02 X101.864648 Y1081.972895 Z-0.125000 I-3.490574 J-1.098830
G03 X102.331841 Y1080.683709 Z-0.125000 I0.743805 J-0.459697
G03 X105.517830 Y1080.754661 Z-0.125000 I1.494011 J4.480165
G03 X108.933376 Y1083.767489 Z-0.125000 I-2.338170 J6.093170
G03 X108.834630 Y1086.950056 Z-0.125000 I-2.812210 J1.505560
G02 X109.358431 Y1088.457980 Z-0.125000 I0.875216 J0.540917
G02 X112.897180 Y1088.426411 Z-0.125000 I1.727118 J-4.752598
G03 X119.556026 Y1086.637637 Z-0.125000 I11.900482 J31.012031
G03 X129.386170 Y1085.791434 Z-0.125000 I10.733364 J67.166620
G01 X139.353480 Y1085.659060 Z-0.125000
G01 X130.014540 Y1080.375011 Z-0.125000
G01 X120.675610 Y1075.090958 Z-0.125000
G01 X132.705680 Y1072.591395 Z-0.125000
G02 X143.070845 Y1068.246947 Z-0.125000 I-5.989655 J-28.827416
G02 X146.965810 Y1063.065519 Z-0.125000 I-5.440525 J-8.144400
G03 X150.467940 Y1057.777533 Z-0.125000 I11.028643 J3.500365
G03 X155.170100 Y1056.039206 Z-0.125000 I4.702160 J5.490489
G02 X158.585637 Y1054.979361 Z-0.125000 I-0.000000 J-6.033506
G02 X158.712010 Y1053.606887 Z-0.125000 I-0.507331 J-0.738768
G03 X158.377114 Y1051.305204 Z-0.125000 I1.375322 J-1.375315
G03 X162.758890 Y1046.135737 Z-0.125000 I14.517564 J7.863679
G02 X166.731544 Y1042.635141 Z-0.125000 I-26.519965 J-34.100684
G02 X167.370287 Y1041.096906 Z-0.125000 I-1.532833 J-1.538235
G02 X166.731544 Y1039.558671 Z-0.125000 I-2.171574 J0.000000
G02 X162.758890 Y1036.058080 Z-0.125000 I-30.492546 J30.600049
G03 X158.377112 Y1030.888605 Z-0.125000 I10.135819 J-13.033168
G03 X158.712010 Y1028.586930 Z-0.125000 I1.710210 J-0.926363
G02 X158.334646 Y1027.318416 Z-0.125000 I-0.532097 J-0.532097
G02 X147.135930 Y1026.154610 Z-0.125000 I-11.198716 J53.297902
G03 X135.945229 Y1024.124909 Z-0.125000 I-0.000000 J-31.864662
G03 X134.686890 Y1021.485140 Z-0.125000 I0.739850 J-1.972476
G03 X138.674156 Y1018.092040 Z-0.125000 I4.802048 J1.603646
G03 X175.797040 Y1014.781620 Z-0.125000 I41.288839 J253.208690
G02 X184.992220 Y1014.220361 Z-0.125000 I-1.673118 J-103.014482
G02 X187.455118 Y1013.133295 Z-0.125000 I-0.465504 J-4.388214
G02 X188.379031 Y1010.888929 Z-0.125000 I-1.833847 J-2.067271
G02 X187.412160 Y1004.477990 Z-0.125000 I-37.857058 J2.431063
G02 X184.552803 Y994.530529 Z-0.125000 I-112.742823 J27.022773
G02 X183.635339 Y993.220225 Z-0.125000 I-2.684184 J0.903092
G02 X182.934063 Y993.474505 Z-0.125000 I-0.272809 J0.341783
G02 X182.198990 Y1000.316880 Z-0.125000 I35.752293 J7.301521
G03 X181.894223 Y1005.994310 Z-0.125000 I-69.274679 J-0.871798
G03 X181.456721 Y1006.702382 Z-0.125000 I-0.935511 J-0.088834
G03 X180.809452 Y1006.584645 Z-0.125000 I-0.258965 J-0.414392
G03 X178.261240 Y1002.777680 Z-0.125000 I29.129694 J-22.254424
G03 X175.851865 Y996.229406 Z-0.125000 I17.338443 J-10.096906
G03 X176.485590 Y992.896280 Z-0.125000 I4.669234 J-0.839049
G02 X176.421114 Y990.294652 Z-0.125000 I-2.024851 J-1.251431
G02 X172.646670 Y987.322500 Z-0.125000 I-6.680623 J4.601239
G02 X166.436911 Y985.285190 Z-0.125000 I-23.712817 J61.794721
G02 X164.956615 Y985.304559 Z-0.125000 I-0.706559 J2.576757
G02 X164.486501 Y986.136156 Z-0.125000 I0.200253 J0.661886
G02 X165.859220 Y989.376040 Z-0.125000 I11.204712 J-2.836619
G03 X166.772912 Y991.363670 Z-0.125000 I-7.602499 J4.698607
G03 X166.653672 Y991.824000 Z-0.125000 I-0.425398 J0.135418
G03 X166.178766 Y991.929675 Z-0.125000 I-0.326255 J-0.346240
G03 X164.150960 Y990.985700 Z-0.125000 I2.971062 J-9.032317
G03 X161.608475 Y987.850325 Z-0.125000 I3.219482 J-5.209230
G03 X161.926460 Y984.805160 Z-0.125000 I3.314750 J-1.193049
G02 X161.405715 Y982.816289 Z-0.125000 I-1.207699 J-0.746398
G02 X155.636910 Y981.327710 Z-0.125000 I-5.768805 J10.433862
G03 X151.071848 Y980.977833 Z-0.125000 I0.000000 J-29.956531
G03 X149.954511 Y980.393815 Z-0.125000 I0.297629 J-1.930266
G03 X149.802948 Y979.417151 Z-0.125000 I0.628058 J-0.597557
G03 X151.522550 Y977.003340 Z-0.125000 I8.045880 J3.912466
G03 X155.960511 Y975.128434 Z-0.125000 I4.527951 J4.527951
G03 X160.898690 Y976.871550 Z-0.125000 I0.106326 J7.565173
G02 X166.394620 Y978.844234 Z-0.125000 I5.465995 J-6.586133
G02 X179.826980 Y976.805350 Z-0.125000 I-0.162055 J-46.333908
G03 X193.128210 Y974.859178 Z-0.125000 I12.982013 J42.299244
G03 X198.094100 Y976.937140 Z-0.125000 I-0.051188 J7.095025
G03 X199.657243 Y979.326535 Z-0.125000 I-4.933537 J4.933522
G03 X199.348708 Y980.393846 Z-0.125000 I-0.849518 J0.332675
G03 X197.860311 Y980.983753 Z-0.125000 I-1.864710 J-2.532215
G03 X192.131810 Y981.327740 Z-0.125000 I-5.728501 J-47.527080
G02 X185.499761 Y981.631393 Z-0.125000 I-0.000000 J72.576682
G02 X184.359879 Y982.261633 Z-0.125000 I0.148087 J1.613780
G02 X184.348952 Y983.348562 Z-0.125000 I0.721245 J0.550770
G02 X187.649120 Y987.197930 Z-0.125000 I26.706073 J-19.556494
G03 X192.626271 Y993.438019 Z-0.125000 I-25.222839 J25.222917
G03 X193.519310 Y996.536870 Z-0.125000 I-4.929996 J3.098851
G02 X194.572613 Y998.952309 Z-0.125000 I3.296201 J-0.000000
G02 X197.254890 Y1000.005610 Z-0.125000 I2.682277 J-2.888619
G02 X199.699427 Y998.714587 Z-0.125000 I0.000000 J-2.959862
G02 X200.990460 Y994.533680 Z-0.125000 I-6.124247 J-4.180907
G03 X206.389067 Y985.896126 Z-0.125000 I9.609173 J0.000000
G03 X226.649450 Y982.025650 Z-0.125000 I17.266509 J35.420510
G02 X235.620993 Y981.233171 Z-0.125000 I2.093666 J-27.476907
G02 X242.662450 Y978.306468 Z-0.125000 I-6.740337 J-26.150808
G02 X247.415893 Y973.655888 Z-0.125000 I-7.171195 J-12.084391
G02 X247.423560 Y969.697750 Z-0.125000 I-3.184548 J-1.985245
G03 X247.578544 Y967.596370 Z-0.125000 I1.527061 J-0.943779
G03 X250.266370 Y966.328240 Z-0.125000 I2.729598 J2.302921
G02 X252.572679 Y966.023201 Z-0.125000 I-0.113849 J-9.731969
G02 X252.973267 Y965.623239 Z-0.125000 I-0.138439 J-0.539245
G02 X252.827657 Y965.062339 Z-0.125000 I-0.577899 J-0.149327
G02 X250.990310 Y963.526560 Z-0.125000 I-7.642680 J7.276452
G03 X247.716134 Y960.110450 Z-0.125000 I5.857322 J-8.891084
G03 X244.084280 Y952.008260 Z-0.125000 I32.152248 J-19.277529
G03 X242.768992 Y946.468564 Z-0.125000 I39.081669 J-12.205141
G03 X243.206774 Y945.107467 Z-0.125000 I1.543144 J-0.254617
G03 X244.567407 Y944.673618 Z-0.125000 I1.100857 J1.101971
G03 X250.088760 Y946.009840 Z-0.125000 I-6.783782 J40.106423
G02 X255.394127 Y947.422257 Z-0.125000 I17.622055 J-55.522233
G02 X256.364990 Y947.267940 Z-0.125000 I0.286898 J-1.326202
G02 X256.550408 Y946.599538 Z-0.125000 I-0.250646 J-0.429450
G02 X254.428030 Y943.477250 Z-0.125000 I-17.321083 J9.491536
G02 X249.256336 Y939.640306 Z-0.125000 I-10.433277 J8.658826
G02 X239.815770 Y937.324490 Z-0.125000 I-11.988585 J28.471776
G03 X230.293385 Y935.755070 Z-0.125000 I4.932941 J-59.603434
G03 X228.019362 Y934.658908 Z-0.125000 I1.498231 J-6.014972
G03 X228.145449 Y933.807580 Z-0.125000 I0.299577 J-0.390632
G03 X233.870800 Y932.765270 Z-0.125000 I5.725351 J15.203366
G02 X238.899935 Y930.739359 Z-0.125000 I0.000000 J-7.255136
G02 X239.697090 Y927.161910 Z-0.125000 I-2.298206 J-2.389643
G03 X239.643086 Y922.999403 Z-0.125000 I5.614425 J-2.154445
G03 X241.682120 Y921.558540 Z-0.125000 I2.039034 J0.722335
G03 X244.704810 Y922.671088 Z-0.125000 I-0.000000 J4.662460
G03 X245.817360 Y925.079630 Z-0.125000 I-2.050833 J2.408542
G02 X247.334821 Y926.916619 Z-0.125000 I1.870630 J0.000000
G02 X253.546645 Y927.014730 Z-0.125000 I3.384755 J-17.605625
G02 X260.309489 Y925.194103 Z-0.125000 I-5.287547 J-33.111792
G02 X266.004650 Y921.855970 Z-0.125000 I-7.329094 J-19.031406
G03 X270.854932 Y919.791228 Z-0.125000 I5.881327 J7.086548
G03 X279.080390 Y920.382770 Z-0.125000 I2.523334 J22.396473
G02 X286.806340 Y920.428850 Z-0.125000 I3.953277 J-15.117338
G02 X290.969420 Y917.424750 Z-0.125000 I-1.665724 J-6.695006
G02 X293.804660 Y911.386106 Z-0.125000 I-22.509435 J-14.253459
G02 X293.279709 Y909.166790 Z-0.125000 I-2.089930 J-0.677396
G02 X290.860469 Y907.972741 Z-0.125000 I-2.928293 J2.885147
G02 X281.056280 Y907.363360 Z-0.125000 I-9.804189 J78.563933
G03 X268.116659 Y906.436483 Z-0.125000 I-0.000000 J-90.784945
G03 X265.491390 Y905.122010 Z-0.125000 I0.662764 J-4.602506
G03 X265.831381 Y903.949898 Z-0.125000 I0.492503 J-0.492507
G03 X275.479030 Y902.880670 Z-0.125000 I9.647649 J42.990756
G02 X282.400727 Y902.466229 Z-0.125000 I-0.000000 J-58.007883
G02 X284.742724 Y901.667451 Z-0.125000 I-0.711247 J-5.918084
G02 X285.819900 Y899.997156 Z-0.125000 I-1.146066 J-1.921584
G02 X285.430460 Y896.945470 Z-0.125000 I-6.443967 J-0.728347
G03 X285.314193 Y891.337024 Z-0.125000 I7.728352 J-2.965642
G03 X290.634160 Y881.499390 Z-0.125000 I31.180978 J10.504681
G02 X297.051386 Y871.620195 Z-0.125000 I-51.258050 J-40.319495
G02 X298.115410 Y867.324620 Z-0.125000 I-8.138832 J-4.295575
G03 X299.673283 Y863.863585 Z-0.125000 I4.623524 J-0.000000
G03 X305.586560 Y860.706970 Z-0.125000 I9.561649 J10.794836
G02 X311.171842 Y857.297101 Z-0.125000 I-2.872420 J-10.984166
G02 X313.057710 Y852.364450 Z-0.125000 I-5.507956 J-4.932651
G02 X310.921945 Y848.741774 Z-0.125000 I-4.140268 J0.000000
G02 X305.217060 Y848.026050 Z-0.125000 I-3.746897 J6.771651
G03 X299.584051 Y848.810698 Z-0.125000 I-6.143633 J-23.493236
G03 X299.302400 Y848.150450 Z-0.125000 I-0.008134 J-0.386728
G02 X299.556917 Y846.224453 Z-0.125000 I-1.129024 J-1.129014
G02 X294.068540 Y839.064610 Z-0.125000 I-29.833951 J17.185731
G03 X288.121681 Y831.420290 Z-0.125000 I27.630039 J-27.629969
G03 X287.027480 Y827.235280 Z-0.125000 I6.698012 J-3.986792
G03 X288.377389 Y826.394994 Z-0.125000 I0.951572 J0.024239
G03 X292.630850 Y829.817050 Z-0.125000 I-4.695434 J10.190669
G02 X297.240250 Y834.460465 Z-0.125000 I19.506097 J-14.753681
G02 X298.115410 Y834.029110 Z-0.125000 I0.331275 J-0.431355
G03 X299.160615 Y833.215663 Z-0.125000 I0.839141 J0.000000
G03 X303.386200 Y835.364320 Z-0.125000 I-2.639854 J10.420965
G02 X308.273266 Y837.394446 Z-0.125000 I5.736543 J-6.912111
G02 X310.918280 Y836.079840 Z-0.125000 I0.264636 J-2.785761
G02 X311.413712 Y832.837859 Z-0.125000 I-3.565740 J-2.203754
G02 X309.383070 Y830.074620 Z-0.125000 I-4.439945 J1.135059
G03 X306.049067 Y826.425521 Z-0.125000 I4.752540 J-7.689770
G03 X305.707709 Y823.787062 Z-0.125000 I3.622225 J-1.809948
G03 X307.094788 Y822.086518 Z-0.125000 I2.334131 J0.487905
G03 X311.070290 Y822.003000 Z-0.125000 I2.090093 J4.829792
G02 X316.031326 Y822.558143 Z-0.125000 I3.545463 J-9.239306
G02 X318.519980 Y820.926310 Z-0.125000 I-0.503077 J-3.480822
G02 X316.605222 Y816.168793 Z-0.125000 I-2.708537 J-1.673970
G02 X298.074550 Y815.663170 Z-0.125000 I-10.371573 J40.289842
G03 X289.095511 Y815.228846 Z-0.125000 I-3.623632 J-18.118162
G03 X286.908680 Y812.281670 Z-0.125000 I0.892528 J-2.947176
G02 X285.416987 Y807.443444 Z-0.125000 I-8.592109 J0.000000
G02 X279.590590 Y801.541890 Z-0.125000 I-19.050514 J12.981028
G03 X275.187973 Y795.280984 Z-0.125000 I6.455627 J-9.217938
G03 X274.921120 Y784.395530 Z-0.125000 I21.975979 J-5.984732
G03 X279.101847 Y776.008625 Z-0.125000 I18.822188 J4.147071
G03 X282.558270 Y775.474260 Z-0.125000 I2.039432 J1.745877
G03 X286.650697 Y778.997027 Z-0.125000 I-9.247159 J14.880986
G03 X287.227740 Y780.958240 Z-0.125000 I-1.912099 J1.628089
G02 X287.403629 Y782.788867 Z-0.125000 I4.017893 J0.537720
G02 X288.271965 Y783.439040 Z-0.125000 I0.905819 J-0.304825
G02 X289.859894 Y783.224456 Z-0.125000 I0.181962 J-4.636133
G02 X295.409070 Y781.279350 Z-0.125000 I-30.443450 J-95.739996
G02 X298.811748 Y779.496364 Z-0.125000 I-5.932484 J-15.460002
G02 X299.771789 Y778.189245 Z-0.125000 I-1.377045 J-2.017519
G02 X299.663906 Y776.602401 Z-0.125000 I-2.142978 J-0.651398
G02 X297.753350 Y773.567100 Z-0.125000 I-12.479954 J5.736504
G02 X292.904956 Y769.592623 Z-0.125000 I-12.679616 J10.523165
G02 X288.187640 Y768.399980 Z-0.125000 I-4.717316 J8.732987
G03 X285.818536 Y766.625358 Z-0.125000 I0.000000 J-2.468677
G03 X286.272470 Y761.862720 Z-0.125000 I6.188829 J-1.813085
G02 X288.390128 Y755.243617 Z-0.125000 I-18.768151 J-9.652823
G02 X287.918530 Y750.530410 Z-0.125000 I-9.702752 J-1.409350
G03 X287.749117 Y746.008058 Z-0.125000 I7.066256 J-2.529060
G03 X290.748490 Y740.257580 Z-0.125000 I14.861346 J4.094025
G02 X293.077003 Y736.952195 Z-0.125000 I-19.709758 J-16.357610
G02 X293.246068 Y735.863475 Z-0.125000 I-1.275816 J-0.755605
G02 X292.574817 Y735.173781 Z-0.125000 I-0.904118 J0.208443
G02 X289.485600 Y734.779810 Z-0.125000 I-3.089217 J11.914654
G03 X284.915042 Y732.826299 Z-0.125000 I0.000000 J-6.323541
G03 X281.433525 Y727.203324 Z-0.125000 I11.542062 J-11.035667
G03 X280.361950 Y720.477098 Z-0.125000 I17.159400 J-6.182185
G03 X282.355290 Y714.988770 Z-0.125000 I9.317859 J0.278059
G02 X284.855444 Y710.029501 Z-0.125000 I-10.983501 J-8.647040
G02 X285.679261 Y704.142779 Z-0.125000 I-22.470310 J-6.145615
G02 X284.702754 Y698.884582 Z-0.125000 I-13.818187 J-0.153576
G02 X282.550510 Y697.424060 Z-0.125000 I-2.152244 J0.855526
G03 X280.604130 Y696.257457 Z-0.125000 I0.000000 J-2.206988
G03 X279.437530 Y691.600220 Z-0.125000 I8.712882 J-4.657237
G03 X280.861692 Y688.330804 Z-0.125000 I4.464843 J0.000000
G03 X283.199490 Y688.101450 Z-0.125000 I1.319321 J1.418566
G02 X286.174390 Y688.093726 Z-0.125000 I1.481237 J-2.396770
G02 X289.322710 Y684.273120 Z-0.125000 I-4.136443 J-6.616049
G03 X290.930190 Y681.039715 Z-0.125000 I17.778175 J6.822096
G03 X291.818649 Y680.399980 Z-0.125000 I1.221462 J0.759547
G03 X292.789706 Y680.658948 Z-0.125000 I0.245239 J1.030500
G03 X294.696570 Y682.994240 Z-0.125000 I-7.897059 J8.394444
G02 X297.960768 Y685.708014 Z-0.125000 I5.677218 J-3.508686
G02 X300.379770 Y685.198160 Z-0.125000 I0.818413 J-2.110444
G02 X300.974627 Y682.475831 Z-0.125000 I-1.824919 J-1.824919
G02 X296.847310 Y675.673260 Z-0.125000 I-19.729037 J7.316811
G03 X291.897084 Y668.336245 Z-0.125000 I23.180757 J-20.978318
G03 X290.644260 Y662.881380 Z-0.125000 I11.248977 J-5.454865
G03 X294.055779 Y648.495290 Z-0.125000 I32.038227 J0.000000
G03 X298.506840 Y647.235710 Z-0.125000 I2.802264 J1.408252
G02 X302.447864 Y644.729962 Z-0.125000 I1.363938 J-2.206889
G02 X296.881330 Y633.218870 Z-0.125000 I-19.317846 J2.240245
G03 X294.214922 Y623.771703 Z-0.125000 I7.105320 J-7.105308
G03 X300.294490 Y618.976990 Z-0.125000 I6.079568 J1.457008
G02 X304.224064 Y617.614510 Z-0.125000 I0.000000 J-6.347948
G02 X305.586560 Y614.805730 Z-0.125000 I-2.213896 J-2.808780
G02 X304.003577 Y612.684649 Z-0.125000 I-2.212538 J0.000000
G02 X298.115410 Y612.588220 Z-0.125000 I-3.116848 J10.501193
G03 X291.995889 Y612.791437 Z-0.125000 I-3.508689 J-13.417049
G03 X290.644260 Y611.156110 Z-0.125000 I0.313472 J-1.635327
G03 X291.865426 Y608.991425 Z-0.125000 I2.529184 J0.000000
G03 X296.247620 Y607.770260 Z-0.125000 I4.382194 J7.252247
G02 X299.983194 Y605.902472 Z-0.125000 I0.000000 J-4.669466
G02 X301.850980 Y600.299110 Z-0.125000 I-7.471155 J-5.603362
G02 X300.424117 Y594.254820 Z-0.125000 I-13.515449 J0.000000
G02 X298.115410 Y592.827960 Z-0.125000 I-2.308707 J1.154353
G03 X295.654810 Y591.552987 Z-0.125000 I0.000000 J-3.011871
G03 X294.379830 Y587.535890 Z-0.125000 I5.690872 J-4.017097
G02 X293.080154 Y583.180599 Z-0.125000 I-7.947255 J-0.000000
G02 X289.943840 Y580.765160 Z-0.125000 I-5.042764 J3.303865
G03 X288.851612 Y578.497140 Z-0.125000 I0.554710 J-1.664142
G03 X293.368120 Y571.426220 Z-0.125000 I18.295947 J6.708519
G02 X299.345750 Y563.565985 Z-0.125000 I-25.899052 J-25.899052
G02 X299.049300 Y561.386860 Z-0.125000 I-1.580955 J-0.894653
G03 X299.435187 Y560.215877 Z-0.125000 I0.488188 J-0.488196
G03 X318.972360 Y558.401800 Z-0.125000 I25.909428 J172.925984
G02 X322.166525 Y558.102600 Z-0.125000 I-1.027177 J-28.165387
G02 X322.173896 Y557.931356 Z-0.125000 I-0.013080 J-0.086344
G02 X320.908252 Y557.723510 Z-0.125000 I-2.042053 J8.477329
G02 X314.552309 Y557.246308 Z-0.125000 I-19.957583 J223.252194
G02 X301.706244 Y556.598718 Z-0.125000 I-37.701984 J620.148925
G02 X272.888300 Y555.600120 Z-0.125000 I-107.227091 J2678.082617
G03 X209.891566 Y551.827345 Z-0.125000 I30.215072 J-1032.359918
G03 X205.591677 Y550.173048 Z-0.125000 I0.760496 J-8.392036
G03 X206.022103 Y548.728185 Z-0.125000 I0.482729 J-0.642738
G03 X261.704930 Y547.200830 Z-0.125000 I48.093176 J737.555641
G02 X309.960875 Y545.996779 Z-0.125000 I7.039701 J-685.465851
G02 X310.251860 Y544.276660 Z-0.125000 I-0.053836 J-0.893779
G02 X301.787741 Y542.177231 Z-0.125000 I-11.076201 J26.543329
G02 X295.309560 Y542.914000 Z-0.125000 I-1.460089 J16.010595
G03 X294.315890 Y542.723289 Z-0.125000 I-0.325177 J-0.989754
G03 X294.288395 Y542.118488 Z-0.125000 I0.263540 J-0.315007
G03 X295.977621 Y540.661326 Z-0.125000 I10.443432 J10.398926
G03 X301.007380 Y537.191810 Z-0.125000 I56.417838 J76.408389
G03 X313.518986 Y530.256766 Z-0.125000 I59.079877 J91.833091
G03 X317.817460 Y529.266000 Z-0.125000 I4.428167 J9.391840
G02 X320.374444 Y528.659946 Z-0.125000 I-0.075195 J-6.014324
G02 X320.568029 Y528.065215 Z-0.125000 I-0.190190 J-0.390778
G02 X319.758067 Y527.194235 Z-0.125000 I-2.037860 J1.082997
G02 X316.562385 Y525.498678 Z-0.125000 I-13.152820 J20.930328
G02 X309.119929 Y522.865820 Z-0.125000 I-21.346975 J48.507336
G02 X299.983190 Y521.417480 Z-0.125000 I-11.231232 J41.307963
G03 X292.109794 Y520.916318 Z-0.125000 I13.200419 J-269.479776
G03 X291.958732 Y520.617916 Z-0.125000 I0.015292 J-0.195178
G03 X292.454756 Y520.270890 Z-0.125000 I0.652795 J0.405066
G03 X301.850980 Y518.407400 Z-0.125000 I100.535052 J482.304194
G02 X307.967482 Y516.697153 Z-0.125000 I-6.793284 J-36.088013
G02 X307.969525 Y515.874389 Z-0.125000 I-0.154630 J-0.411769
G02 X305.004870 Y515.122849 Z-0.125000 I-4.709179 J12.353439
G02 X287.850580 Y513.070380 Z-0.125000 I-85.968478 J645.801111
G02 X261.087761 Y511.565155 Z-0.125000 I-28.530472 J268.596963
G02 X256.454910 Y512.864920 Z-0.125000 I-0.056959 J8.703472
G03 X254.469650 Y513.780075 Z-0.125000 I-4.736160 J-7.663318
G03 X254.002351 Y513.667908 Z-0.125000 I-0.141325 J-0.440712
G03 X253.888393 Y513.202534 Z-0.125000 I0.323245 J-0.325794
G03 X254.799580 Y511.222540 Z-0.125000 I8.511780 J2.717433
G02 X253.966563 Y508.860254 Z-0.125000 I-1.368164 J-0.845559
G02 X242.576150 Y506.909740 Z-0.125000 I-11.390413 J32.283026
G03 X229.591000 Y504.444634 Z-0.125000 I0.000000 J-35.432723
G03 X225.978940 Y500.372490 Z-0.125000 I2.202405 J-5.591621
G02 X224.714423 Y495.896981 Z-0.125000 I-113.899205 J29.764863
G02 X224.452724 Y495.703013 Z-0.125000 I-0.261699 J0.079555
G02 X224.229143 Y495.903511 Z-0.125000 I0.000000 J0.224909
G02 X223.837240 Y500.372490 Z-0.125000 I104.790767 J11.441208
G03 X222.107043 Y505.524059 Z-0.125000 I-10.632895 J-0.704810
G03 X219.536900 Y506.909740 Z-0.125000 I-2.570143 J-1.690693
G03 X218.118719 Y505.442845 Z-0.125000 I0.000000 J-1.418990
G03 X219.797420 Y499.197390 Z-0.125000 I14.247713 J0.481275
G03 X224.566748 Y494.582156 Z-0.125000 I9.578217 J5.126115
G03 X228.333900 Y494.983290 Z-0.125000 I1.566943 J3.174150
G02 X233.992161 Y497.509827 Z-0.125000 I7.760586 J-9.780885
G02 X259.670940 Y500.966760 Z-0.125000 I61.691158 J-361.152079
G02 X285.586477 Y502.588876 Z-0.125000 I35.515240 J-359.575703
G02 X290.879610 Y501.160920 Z-0.125000 I0.254623 J-9.580414
G02 X292.027819 Y498.294457 Z-0.125000 I-1.366088 J-2.210407
G02 X288.360950 Y491.508310 Z-0.125000 I-15.689012 J4.093735
G02 X282.132249 Y487.353955 Z-0.125000 I-11.351493 J10.272920
G02 X279.382820 Y488.320400 Z-0.125000 I-0.776186 J2.185968
G03 X276.713495 Y489.497597 Z-0.125000 I-2.191568 J-1.354456
G03 X272.514270 Y487.024230 Z-0.125000 I1.333244 J-7.064906
G03 X271.123931 Y481.709250 Z-0.125000 I4.995872 J-4.146202
G03 X275.050450 Y473.166520 Z-0.125000 I18.703636 J3.423061
G03 X279.196293 Y468.674548 Z-0.125000 I36.743607 J29.753150
G03 X281.159661 Y467.456034 Z-0.125000 I3.907349 J4.104810
G03 X283.043440 Y467.614536 Z-0.125000 I0.770930 J2.111085
G03 X285.022840 Y469.524780 Z-0.125000 I-2.757116 J4.837582
G03 X286.226491 Y471.918293 Z-0.125000 I-13.021023 J8.047424
G03 X286.220634 Y472.515776 Z-0.125000 I-0.733582 J0.291578
G03 X285.826076 Y472.711666 Z-0.125000 I-0.310763 J-0.130632
G03 X284.008410 Y471.938040 Z-0.125000 I1.630240 J-6.352467
G02 X280.359762 Y471.151953 Z-0.125000 I-2.930621 J4.741867
G02 X277.915960 Y472.729380 Z-0.125000 I0.436082 J3.357316
G02 X279.674194 Y480.348824 Z-0.125000 I4.727418 J2.921703
G02 X305.501610 Y490.164730 Z-0.125000 I37.069309 J-58.649784
G02 X316.595162 Y491.726297 Z-0.125000 I39.630858 J-241.356437
G02 X318.849116 Y491.515693 Z-0.125000 I0.633193 J-5.389925
G02 X319.360697 Y490.358837 Z-0.125000 I-0.251160 J-0.802610
G02 X316.969290 Y486.576150 Z-0.125000 I-15.780029 J7.328839
G02 X310.984842 Y482.461128 Z-0.125000 I-10.264992 J8.519225
G02 X303.979730 Y482.175230 Z-0.125000 I-3.988897 J11.773436
G03 X299.168136 Y483.109323 Z-0.125000 I-11.153802 J-44.594696
G03 X298.782162 Y482.698550 Z-0.125000 I-0.047636 J-0.341962
G03 X299.280932 Y481.824742 Z-0.125000 I1.576533 J0.320633
G03 X305.066510 Y476.831570 Z-0.125000 I115.951735 J128.504563
G03 X314.398670 Y470.982412 Z-0.125000 I27.025261 J32.748837
G03 X320.942700 Y469.554000 Z-0.125000 I6.544030 J14.275985
G02 X326.526265 Y468.745311 Z-0.125000 I-0.000000 J-19.680109
G02 X327.601017 Y467.354313 Z-0.125000 I-0.426019 J-1.439865
G02 X326.942255 Y465.191743 Z-0.125000 I-3.504411 J-0.114106
G02 X321.308380 Y458.323400 Z-0.125000 I-57.214391 J41.186262
G02 X316.882252 Y454.301180 Z-0.125000 I-26.344912 J24.544038
G02 X314.060330 Y453.159360 Z-0.125000 I-3.473872 J4.527419
G02 X310.961250 Y453.532425 Z-0.125000 I-0.768027 J6.678620
G02 X304.498290 Y456.390280 Z-0.125000 I19.697434 J53.282038
G03 X294.383002 Y458.829296 Z-0.125000 I-9.998777 J-19.272768
G03 X284.107010 Y456.280830 Z-0.125000 I0.120624 J-22.478183
G02 X273.660949 Y451.620166 Z-0.125000 I-43.277560 J82.962226
G02 X269.743680 Y450.898980 Z-0.125000 I-3.981168 J10.625207
G03 X264.978644 Y449.260796 Z-0.125000 I0.045699 J-7.882121
G03 X258.948229 Y443.286410 Z-0.125000 I20.900708 J-27.127398
G03 X254.788907 Y436.122611 Z-0.125000 I23.380310 J-18.364030
G03 X255.111960 Y432.269860 Z-0.125000 I3.954622 J-1.608325
G02 X255.787793 Y428.266240 Z-0.125000 I-4.583075 J-2.832500
G02 X252.916430 Y422.410820 Z-0.125000 I-13.567228 J3.021321
G03 X250.503954 Y418.923964 Z-0.125000 I18.674701 J-15.498593
G03 X250.075367 Y417.198090 Z-0.125000 I2.851460 J-1.624257
G03 X250.703370 Y415.646403 Z-0.125000 I2.415909 J0.074846
G03 X253.189980 Y413.581120 Z-0.125000 I8.596351 J7.820458
G03 X258.332300 Y411.732226 Z-0.125000 I6.942344 J11.233104
G03 X262.844760 Y412.252710 Z-0.125000 I1.243687 J9.038720
G02 X266.919648 Y412.383315 Z-0.125000 I2.225412 J-5.799334
G02 X269.941230 Y410.039310 Z-0.125000 I-1.627110 J-5.216972
G02 X267.610801 Y405.935139 Z-0.125000 I-2.288410 J-1.414313
G02 X247.860940 Y410.384100 Z-0.125000 I0.773149 J49.493515
G02 X239.999772 Y415.783340 Z-0.125000 I11.404918 J25.027756
G02 X238.346210 Y419.723370 Z-0.125000 I3.867280 J3.940030
G03 X237.055669 Y423.436552 Z-0.125000 I-5.987107 J0.000000
G03 X234.390170 Y424.727100 Z-0.125000 I-2.665499 J-2.107387
G03 X232.457336 Y423.599084 Z-0.125000 I-0.000000 J-2.219945
G03 X232.500930 Y421.382940 Z-0.125000 I1.896145 J-1.071201
G02 X232.442003 Y418.756054 Z-0.125000 I-2.051756 J-1.268078
G02 X228.680290 Y415.779580 Z-0.125000 I-6.641780 J4.528689
G02 X222.769702 Y413.825476 Z-0.125000 I-23.680800 J61.711474
G02 X221.052144 Y413.896915 Z-0.125000 I-0.748696 J2.682362
G02 X220.083152 Y415.027347 Z-0.125000 I0.533574 J1.437893
G02 X219.668340 Y419.123740 Z-0.125000 I20.019164 J4.096393
G03 X218.180506 Y423.247095 Z-0.125000 I-6.457609 J-0.000000
G03 X214.998870 Y424.751720 Z-0.125000 I-3.203565 J-2.657955
G02 X214.427670 Y425.994622 Z-0.125000 I0.004379 J0.754716
G02 X220.967280 Y431.789880 Z-0.125000 I23.503274 J-19.934657
G03 X227.367099 Y438.321565 Z-0.125000 I-11.921318 J18.081790
G03 X226.570640 Y440.678080 Z-0.125000 I-1.355682 J0.854656
G02 X225.988152 Y442.644917 Z-0.125000 I0.447673 J1.202252
G02 X230.875060 Y446.477630 Z-0.125000 I9.443297 J-7.008807
G03 X237.008630 Y449.238352 Z-0.125000 I-51.968553 J123.653839
G03 X237.530379 Y449.829993 Z-0.125000 I-0.438657 J0.912714
G03 X237.255938 Y450.263973 Z-0.125000 I-0.314233 J0.105051
G03 X232.266360 Y450.639330 Z-0.125000 I-6.634636 J-54.842914
G02 X225.036344 Y452.346972 Z-0.125000 I0.551024 J18.492465
G02 X219.668340 Y456.479490 Z-0.125000 I6.470329 J13.957430
G03 X214.196154 Y460.332849 Z-0.125000 I-9.848254 J-8.173357
G03 X204.268640 Y462.082850 Z-0.125000 I-9.927514 J-27.283712
G02 X196.463804 Y463.359635 Z-0.125000 I-0.000000 J24.493404
G02 X193.921447 Y465.179790 Z-0.125000 I1.702069 J5.063052
G02 X193.856469 Y467.306925 Z-0.125000 I1.451364 J1.108895
G02 X197.916280 Y470.397040 Z-0.125000 I6.557667 J-4.403541
G03 X200.040164 Y472.686624 Z-0.125000 I-1.027786 J3.083284
G03 X199.451490 Y476.493130 Z-0.125000 I-4.794216 J1.207350
G03 X196.144861 Y478.405475 Z-0.125000 I-3.433577 J-2.122073
G03 X191.318960 Y476.749010 Z-0.125000 I-0.226499 J-7.198179
G02 X187.370350 Y475.190243 Z-0.125000 I-4.352251 J5.244339
G02 X186.048160 Y476.436310 Z-0.125000 I-0.073932 J1.246067
G02 X187.913914 Y480.861454 Z-0.125000 I6.180594 J-0.000000
G02 X193.298230 Y484.506808 Z-0.125000 I12.844866 J-13.173231
G02 X199.110819 Y485.658598 Z-0.125000 I5.458970 J-12.306351
G02 X202.045480 Y483.532560 Z-0.125000 I-0.084204 J-3.204668
G03 X204.749371 Y480.914700 Z-0.125000 I4.004495 J1.430790
G03 X206.400525 Y481.569865 Z-0.125000 I0.427510 J1.330795
G03 X207.431831 Y485.036415 Z-0.125000 I-7.409121 J4.090913
G03 X206.633630 Y491.842040 Z-0.125000 I-18.036434 J1.334208
G03 X202.681983 Y496.968835 Z-0.125000 I-9.012762 J-2.860556
G03 X197.479870 Y497.642230 Z-0.125000 I-3.323623 J-5.245276
G02 X183.403309 Y498.238042 Z-0.125000 I-6.221238 J19.601221
G02 X178.577010 Y505.455150 Z-0.125000 I2.982978 J7.217108
G03 X177.639907 Y510.437083 Z-0.125000 I-13.711307 J-0.000000
G03 X171.105860 Y524.611960 Z-0.125000 I-121.101812 J-47.229649
G02 X164.591739 Y538.791773 Z-0.125000 I112.129669 J60.097875
G02 X163.634720 Y543.916030 Z-0.125000 I13.240133 J5.124257
G03 X162.460781 Y548.828243 Z-0.125000 I-10.864268 J0.000000
G03 X157.452380 Y556.111970 Z-0.125000 I-29.684035 J-15.047404
G02 X154.396567 Y559.938667 Z-0.125000 I29.438957 J26.641966
G02 X153.782587 Y561.393674 Z-0.125000 I3.059307 J2.148005
G02 X154.215413 Y562.383381 Z-0.125000 I0.941709 J0.177662
G02 X156.163570 Y562.943370 Z-0.125000 I1.948157 J-3.108745
G03 X158.111721 Y563.503357 Z-0.125000 I-0.000000 J3.668723
G03 X158.544544 Y564.493061 Z-0.125000 I-0.508882 J0.812041
G03 X157.930563 Y565.948064 Z-0.125000 I-3.673286 J-0.693004
G03 X154.874750 Y569.774760 Z-0.125000 I-32.494920 J-22.815406
G02 X150.095210 Y577.145526 Z-0.125000 I20.406120 J18.467275
G02 X148.702790 Y583.783170 Z-0.125000 I15.011645 J6.613957
G03 X147.561787 Y590.231332 Z-0.125000 I-18.636638 J0.027277
G03 X140.706211 Y606.752971 Z-0.125000 I-201.959543 J-74.118994
G03 X132.455620 Y622.692506 Z-0.125000 I-190.511088 J-88.506892
G03 X128.657960 Y626.929840 Z-0.125000 I-11.821616 J-6.774510
G02 X128.102007 Y628.944813 Z-0.125000 I0.988790 J1.357001
G02 X130.525740 Y631.314920 Z-0.125000 I4.063023 J-1.730613
G03 X133.189846 Y632.772307 Z-0.125000 I-4.696975 J11.749769
G03 X133.624216 Y633.679955 Z-0.125000 I-0.606494 J0.848010
G03 X133.157815 Y634.693599 Z-0.125000 I-1.524538 J-0.087352
G03 X130.192900 Y637.124000 Z-0.125000 I-16.852222 J-17.534815
G03 X124.732103 Y639.576586 Z-0.125000 I-9.260808 J-13.313965
G03 X121.897380 Y639.123390 Z-0.125000 I-0.873904 J-3.625900
G02 X119.949406 Y639.566617 Z-0.125000 I-0.748753 J1.211510
G02 X117.272942 Y645.790530 Z-0.125000 I17.507321 J11.216093
G02 X115.969242 Y653.513685 Z-0.125000 I50.573162 J12.508573
G02 X115.793000 Y663.803880 Z-0.125000 I68.513118 J6.320041
G03 X113.500460 Y679.720288 Z-0.125000 I-40.247251 J2.326245
G03 X106.095620 Y690.886800 Z-0.125000 I-26.349786 J-9.434874
G02 X101.731091 Y696.380771 Z-0.125000 I15.291629 J16.628624
G02 X102.360048 Y697.481250 Z-0.125000 I0.641452 J0.363364
G03 X102.873994 Y698.341355 Z-0.125000 I-0.009497 J0.589279
G03 X100.669824 Y700.746930 Z-0.125000 I-5.547007 J-2.869986
G02 X98.461082 Y702.937182 Z-0.125000 I3.877036 J6.118586
G02 X97.917381 Y705.373591 Z-0.125000 I3.028076 J1.954605
G02 X98.790682 Y708.133068 Z-0.125000 I8.359469 J-1.127625
G02 X102.527481 Y714.518380 Z-0.125000 I64.960322 J-33.729864
G03 X106.283574 Y720.729217 Z-0.125000 I-84.048216 J55.070557
G03 X106.885716 Y722.481089 Z-0.125000 I-4.603663 J2.561761
G03 X106.300901 Y723.245261 Z-0.125000 I-0.657927 J0.102357
G03 X103.835730 Y722.927500 Z-0.125000 I-0.578298 J-5.234808
G02 X98.667144 Y722.701257 Z-0.125000 I-2.922628 J7.616238
G02 X93.425749 Y725.908940 Z-0.125000 I3.168303 J11.063143
G02 X90.887971 Y730.062901 Z-0.125000 I8.824316 J8.243219
G02 X91.577622 Y731.043970 Z-0.125000 I0.689584 J0.248184
G03 X93.636193 Y732.799337 Z-0.125000 I0.000195 J2.084528
G03 X94.093757 Y742.663530 Z-0.125000 I-43.537916 J6.962276
G03 X92.501847 Y753.016849 Z-0.125000 I-60.354283 J-3.980934
G03 X89.812959 Y757.797740 Z-0.125000 I-9.879781 J-2.410033
G02 X87.360097 Y762.176978 Z-0.125000 I6.539337 J6.539316
G02 X87.659957 Y766.760510 Z-0.125000 I7.530392 J1.808927
G03 X87.318116 Y770.935092 Z-0.125000 I-4.512885 J1.731743
G03 X82.026605 Y776.379240 Z-0.125000 I-13.703576 J-8.025720
G02 X77.231320 Y781.867754 Z-0.125000 I6.651217 J10.650196
G02 X77.291873 Y786.878960 Z-0.125000 I5.412190 J2.440571
G03 X78.532244 Y797.075548 Z-0.125000 I-14.423575 J6.928302
G03 X73.047027 Y807.223270 Z-0.125000 I-19.754767 J-4.121837
G02 X68.225400 Y813.037762 Z-0.125000 I28.733267 J28.733255
G02 X66.833140 Y816.378755 Z-0.125000 I7.362262 J5.028594
G02 X67.324809 Y819.541922 Z-0.125000 I4.651846 J0.896732
G02 X70.106054 Y822.479730 Z-0.125000 I6.930370 J-3.775616
G03 X71.269488 Y825.330650 Z-0.125000 I-1.374322 J2.223701
G03 X66.298950 Y837.883460 Z-0.125000 I-48.788662 J-12.058356
G02 X60.573551 Y851.029494 Z-0.125000 I61.991346 J34.818439
G02 X60.993825 Y854.459640 Z-0.125000 I3.933446 J1.258880
G03 X61.063468 Y857.538642 Z-0.125000 I-2.586921 J1.598801
G03 X55.461995 Y864.387800 Z-0.125000 I-21.926579 J-12.217181
G02 X49.023966 Y871.469544 Z-0.125000 I24.988191 J29.184102
G02 X47.831897 Y875.236650 Z-0.125000 I5.356256 J3.767106
G03 X46.749308 Y879.044030 Z-0.125000 I-7.236419 J-0.000000
G03 X42.343624 Y884.107280 Z-0.125000 I-17.692424 J-10.946318
G02 X38.901941 Y889.482146 Z-0.125000 I6.711594 J8.086966
G02 X38.152067 Y899.799200 Z-0.125000 I26.671314 J7.124329
G03 X37.392499 Y909.691774 Z-0.125000 I-25.750883 J2.998253
G03 X34.562430 Y912.811320 Z-0.125000 I-4.503935 J-1.242495
G02 X30.678211 Y916.040493 Z-0.125000 I2.815644 J7.337463
G02 X25.998874 Y925.477353 Z-0.125000 I50.101774 J30.721908
G02 X23.691387 Y934.613299 Z-0.125000 I35.737292 J13.885626
G02 X25.357932 Y936.500840 Z-0.125000 I1.666545 J0.208059
G03 X27.046555 Y937.901644 Z-0.125000 I0.000000 J1.718192
G03 X27.288778 Y946.773670 Z-0.125000 I-27.632695 J5.193743
G02 X25.971067 Y957.050815 Z-0.125000 I1396.945209 J184.335965
G02 X25.675829 Y959.730940 Z-0.125000 I94.690797 J11.787317
G03 X24.475330 Y960.892212 Z-0.125000 I-1.280691 J-0.122790
G03 X19.438074 Y960.120500 Z-0.125000 I-0.746497 J-11.953221
G02 X14.090220 Y959.922902 Z-0.125000 I-2.962864 J7.721078
G02 X9.746752 Y963.039420 Z-0.125000 I2.379932 J7.901880
G03 X7.603533 Y965.709917 Z-0.125000 I-24.176839 J-17.207963
G03 X7.286408 Y965.711044 Z-0.125000 I-0.159075 J-0.143515
G03 X7.176054 Y965.289252 Z-0.125000 I0.344789 J-0.315539
G03 X8.255977 Y961.410450 Z-0.125000 I46.471470 J10.848696
G02 X10.072654 Y954.501128 Z-0.125000 I-60.033921 J-19.478283
G02 X10.533352 Y950.203730 Z-0.125000 I-22.636934 J-4.600161
G03 X11.624396 Y949.430828 Z-0.125000 I0.826965 J0.010840
G03 X14.211724 Y951.443140 Z-0.125000 I-1.587010 J4.709980
G02 X16.579010 Y954.667137 Z-0.125000 I28.187900 J-18.216433
G02 X17.193071 Y954.866951 Z-0.125000 I0.465249 J-0.386325
G02 X17.611986 Y954.397071 Z-0.125000 I-0.138380 J-0.545050
G02 X17.890097 Y950.509250 Z-0.125000 I-30.842406 J-4.160132
G02 X16.163344 Y945.740405 Z-0.125000 I-7.272788 J-0.063636
G02 X12.343937 Y943.971990 Z-0.125000 I-3.819407 J3.240352
G03 X10.775093 Y942.505463 Z-0.125000 I-0.000000 J-1.572413
G03 X7.685591 Y864.627774 Z-0.125000 I1401.770550 J-94.610052
G03 X7.033844 Y770.738833 Z-0.125000 I9448.568372 J-112.535661
G03 X6.740575 Y473.510050 Z-0.125000 I150620.515758 J-297.229577
G02 X6.426325 Y240.178368 Z-0.125000 I-86624.981321 J-0.000138
G02 X5.794645 Y121.217416 Z-0.125000 I-22734.468011 J61.237445
G02 X3.946743 Y2.396764 Z-0.125000 I-7792.808361 J61.769224
G02 X2.993128 Y0.732000 Z-0.125000 I-2.011318 J0.046621
G02 X2.046778 Y1.248396 Z-0.125000 I-0.326130 J0.527674
G02 X0.417448 Y142.449193 Z-0.125000 I10627.183055 J193.237861
G02 X0.030096 Y285.389034 Z-0.125000 I32695.368093 J160.071624
G02 X0.191447 Y572.988370 Z-0.125000 I132533.838476 J69.444207
G01 X0.191447 Y572.988370 Z-0.125000
G00 Z5.000000

(End cutting path id: path3922)


(Start cutting path id: path3883)
(Change tool to Default tool)

G00 Z5.000000
G00 X0.191447 Y572.988370

G01 Z-0.125000 F100.0(Penetrate)
G01 X1.137213 Y1147.560787 Z-0.125000 F400.000000
G01 X1072.537700 Y1148.501115 Z-0.125000
G02 X1608.559871 Y1148.659860 Z-0.125000 I404.478069 J-460890.030224
G02 X1875.703587 Y1148.271703 Z-0.125000 I-32.639771 J-114395.488690
G02 X2141.107048 Y1146.639999 Z-0.125000 I-98.592834 J-37621.850691
G02 X2141.625500 Y1145.699433 Z-0.125000 I-0.005965 J-0.616460
G02 X2139.955193 Y1144.755858 Z-0.125000 I-1.692635 J1.046116
G02 X1878.308312 Y1142.739879 Z-0.125000 I-417.462594 J37200.889364
G02 X1616.579688 Y1141.954909 Z-0.125000 I-460.930883 J110054.762563
G02 X1098.241800 Y1141.329463 Z-0.125000 I-777.455866 J429479.431864
G03 X71.216925 Y1139.973115 Z-0.125000 I431.718577 J-715727.911306
G03 X71.179240 Y1139.236177 Z-0.125000 I0.000753 J-0.369471
G02 X83.823124 Y1136.541621 Z-0.125000 I-6.371221 J-60.908434
G02 X85.187645 Y1134.660441 Z-0.125000 I-0.614473 J-1.881180
G02 X83.732537 Y1131.776302 Z-0.125000 I-3.585848 J-0.000000
G02 X78.669311 Y1129.124450 Z-0.125000 I-11.083735 J15.002783
G02 X73.306431 Y1128.293908 Z-0.125000 I-5.030133 J14.750441
G02 X71.159321 Y1129.876561 Z-0.125000 I0.049435 J2.314835
G03 X69.412427 Y1131.321286 Z-0.125000 I-2.030660 J-0.676885
G03 X59.667092 Y1131.726303 Z-0.125000 I-7.081519 J-52.945828
G03 X49.817643 Y1130.671147 Z-0.125000 I4.348284 J-87.087324
G03 X40.360748 Y1128.338783 Z-0.125000 I10.144153 J-61.469210
G03 X37.074357 Y1126.318086 Z-0.125000 I2.648227 J-7.989768
G03 X36.736736 Y1124.971548 Z-0.125000 I0.947717 J-0.953219
G03 X37.787349 Y1123.523025 Z-0.125000 I2.636012 J0.806632
G03 X41.670559 Y1121.432885 Z-0.125000 I10.684731 J15.198531
G03 X50.841221 Y1118.956042 Z-0.125000 I15.694185 J39.892782
G03 X66.251101 Y1118.153282 Z-0.125000 I11.676538 J75.837928
G02 X83.989467 Y1117.816464 Z-0.125000 I6.383918 J-131.053633
G02 X85.190282 Y1116.508169 Z-0.125000 I-0.113760 J-1.309644
G03 X86.301161 Y1114.987580 Z-0.125000 I1.598467 J0.001698
G03 X94.975026 Y1113.374141 Z-0.125000 I10.702241 J33.413246
G03 X103.036977 Y1115.173921 Z-0.125000 I0.871644 J15.051831
G03 X106.547220 Y1119.652988 Z-0.125000 I-3.412508 J6.289403
G02 X109.469884 Y1125.484582 Z-0.125000 I15.221578 J-3.980529
G02 X113.628240 Y1128.528629 Z-0.125000 I7.676637 J-6.124452
G02 X116.667594 Y1127.138633 Z-0.125000 I0.838366 J-2.184747
G02 X117.297886 Y1120.814617 Z-0.125000 I-12.215577 J-4.410901
G02 X114.952667 Y1112.849185 Z-0.125000 I-29.746212 J4.430056
G02 X110.535670 Y1107.763158 Z-0.125000 I-10.721405 J4.850082
G03 X108.350721 Y1105.988997 Z-0.125000 I6.480062 J-10.212957
G03 X108.270999 Y1105.385187 Z-0.125000 I0.364867 J-0.355342
G03 X108.861156 Y1104.967098 Z-0.125000 I0.733640 J0.410010
G03 X112.270560 Y1104.658880 Z-0.125000 I3.593586 J20.740098
G02 X117.333397 Y1103.140126 Z-0.125000 I-0.082682 J-9.473600
G02 X118.807820 Y1100.430419 Z-0.125000 I-1.752749 J-2.709707
G02 X117.232890 Y1098.298898 Z-0.125000 I-2.229873 J0.000000
G02 X111.474020 Y1098.176990 Z-0.125000 I-3.093874 J10.069050
G03 X99.348939 Y1095.231021 Z-0.125000 I-3.328200 J-12.727043
G03 X100.009487 Y1087.866037 Z-0.125000 I3.089393 J-3.435033
G02 X102.242309 Y1084.995603 Z-0.125000 I-2.741889 J-4.436469
G02 X101.864648 Y1081.972895 Z-0.125000 I-3.490574 J-1.098830
G03 X102.331841 Y1080.683709 Z-0.125000 I0.743805 J-0.459697
G03 X105.517830 Y1080.754661 Z-0.125000 I1.494011 J4.480165
G03 X108.933376 Y1083.767489 Z-0.125000 I-2.338170 J6.093170
G03 X108.834630 Y1086.950056 Z-0.125000 I-2.812210 J1.505560
G02 X109.358431 Y1088.457980 Z-0.125000 I0.875216 J0.540917
G02 X112.897180 Y1088.426411 Z-0.125000 I1.727118 J-4.752598
G03 X119.556026 Y1086.637637 Z-0.125000 I11.900482 J31.012031
G03 X129.386170 Y1085.791434 Z-0.125000 I10.733364 J67.166620
G01 X139.353480 Y1085.659060 Z-0.125000
G01 X130.014540 Y1080.375011 Z-0.125000
G01 X120.675610 Y1075.090958 Z-0.125000
G01 X132.705680 Y1072.591395 Z-0.125000
G02 X143.070845 Y1068.246947 Z-0.125000 I-5.989655 J-28.827416
G02 X146.965810 Y1063.065519 Z-0.125000 I-5.440525 J-8.144400
G03 X150.467940 Y1057.777533 Z-0.125000 I11.028643 J3.500365
G03 X155.170100 Y1056.039206 Z-0.125000 I4.702160 J5.490489
G02 X158.585637 Y1054.979361 Z-0.125000 I-0.000000 J-6.033506
G02 X158.712010 Y1053.606887 Z-0.125000 I-0.507331 J-0.738768
G03 X158.377114 Y1051.305204 Z-0.125000 I1.375322 J-1.375315
G03 X162.758890 Y1046.135737 Z-0.125000 I14.517564 J7.863679
G02 X166.731544 Y1042.635141 Z-0.125000 I-26.519965 J-34.100684
G02 X167.370287 Y1041.096906 Z-0.125000 I-1.532833 J-1.538235
G02 X166.731544 Y1039.558671 Z-0.125000 I-2.171574 J0.000000
G02 X162.758890 Y1036.058080 Z-0.125000 I-30.492546 J30.600049
G03 X158.377112 Y1030.888605 Z-0.125000 I10.135819 J-13.033168
G03 X158.712010 Y1028.586930 Z-0.125000 I1.710210 J-0.926363
G02 X158.334646 Y1027.318416 Z-0.125000 I-0.532097 J-0.532097
G02 X147.135930 Y1026.154610 Z-0.125000 I-11.198716 J53.297902
G03 X135.945229 Y1024.124909 Z-0.125000 I-0.000000 J-31.864662
G03 X134.686890 Y1021.485140 Z-0.125000 I0.739850 J-1.972476
G03 X138.674156 Y1018.092040 Z-0.125000 I4.802048 J1.603646
G03 X175.797040 Y1014.781620 Z-0.125000 I41.288839 J253.208690
G02 X184.992220 Y1014.220361 Z-0.125000 I-1.673118 J-103.014482
G02 X187.455118 Y1013.133295 Z-0.125000 I-0.465504 J-4.388214
G02 X188.379031 Y1010.888929 Z-0.125000 I-1.833847 J-2.067271
G02 X187.412160 Y1004.477990 Z-0.125000 I-37.857058 J2.431063
G02 X184.552803 Y994.530529 Z-0.125000 I-112.742823 J27.022773
G02 X183.635339 Y993.220225 Z-0.125000 I-2.684184 J0.903092
G02 X182.934063 Y993.474505 Z-0.125000 I-0.272809 J0.341783
G02 X182.198990 Y1000.316880 Z-0.125000 I35.752293 J7.301521
G03 X181.894223 Y1005.994310 Z-0.125000 I-69.274679 J-0.871798
G03 X181.456721 Y1006.702382 Z-0.125000 I-0.935511 J-0.088834
G03 X180.809452 Y1006.584645 Z-0.125000 I-0.258965 J-0.414392
G03 X178.261240 Y1002.777680 Z-0.125000 I29.129694 J-22.254424
G03 X175.851865 Y996.229406 Z-0.125000 I17.338443 J-10.096906
G03 X176.485590 Y992.896280 Z-0.125000 I4.669234 J-0.839049
G02 X176.421114 Y990.294652 Z-0.125000 I-2.024851 J-1.251431
G02 X172.646670 Y987.322500 Z-0.125000 I-6.680623 J4.601239
G02 X166.436911 Y985.285190 Z-0.125000 I-23.712817 J61.794721
G02 X164.956615 Y985.304559 Z-0.125000 I-0.706559 J2.576757
G02 X164.486501 Y986.136156 Z-0.125000 I0.200253 J0.661886
G02 X165.859220 Y989.376040 Z-0.125000 I11.204712 J-2.836619
G03 X166.772912 Y991.363670 Z-0.125000 I-7.602499 J4.698607
G03 X166.653672 Y991.824000 Z-0.125000 I-0.425398 J0.135418
G03 X166.178766 Y991.929675 Z-0.125000 I-0.326255 J-0.346240
G03 X164.150960 Y990.985700 Z-0.125000 I2.971062 J-9.032317
G03 X161.608475 Y987.850325 Z-0.125000 I3.219482 J-5.209230
G03 X161.926460 Y984.805160 Z-0.125000 I3.314750 J-1.193049
G02 X161.405715 Y982.816289 Z-0.125000 I-1.207699 J-0.746398
G02 X155.636910 Y981.327710 Z-0.125000 I-5.768805 J10.433862
G03 X151.071848 Y980.977833 Z-0.125000 I0.000000 J-29.956531
G03 X149.954511 Y980.393815 Z-0.125000 I0.297629 J-1.930266
G03 X149.802948 Y979.417151 Z-0.125000 I0.628058 J-0.597557
G03 X151.522550 Y977.003340 Z-0.125000 I8.045880 J3.912466
G03 X155.960511 Y975.128434 Z-0.125000 I4.527951 J4.527951
G03 X160.898690 Y976.871550 Z-0.125000 I0.106326 J7.565173
G02 X166.394620 Y978.844234 Z-0.125000 I5.465995 J-6.586133
G02 X179.826980 Y976.805350 Z-0.125000 I-0.162055 J-46.333908
G03 X193.128210 Y974.859178 Z-0.125000 I12.982013 J42.299244
G03 X198.094100 Y976.937140 Z-0.125000 I-0.051188 J7.095025
G03 X199.657243 Y979.326535 Z-0.125000 I-4.933537 J4.933522
G03 X199.348708 Y980.393846 Z-0.125000 I-0.849518 J0.332675
G03 X197.860311 Y980.983753 Z-0.125000 I-1.864710 J-2.532215
G03 X192.131810 Y981.327740 Z-0.125000 I-5.728501 J-47.527080
G02 X185.499761 Y981.631393 Z-0.125000 I-0.000000 J72.576682
G02 X184.359879 Y982.261633 Z-0.125000 I0.148087 J1.613780
G02 X184.348952 Y983.348562 Z-0.125000 I0.721245 J0.550770
G02 X187.649120 Y987.197930 Z-0.125000 I26.706073 J-19.556494
G03 X192.626271 Y993.438019 Z-0.125000 I-25.222839 J25.222917
G03 X193.519310 Y996.536870 Z-0.125000 I-4.929996 J3.098851
G02 X194.572613 Y998.952309 Z-0.125000 I3.296201 J-0.000000
G02 X197.254890 Y1000.005610 Z-0.125000 I2.682277 J-2.888619
G02 X199.699427 Y998.714587 Z-0.125000 I0.000000 J-2.959862
G02 X200.990460 Y994.533680 Z-0.125000 I-6.124247 J-4.180907
G03 X206.389067 Y985.896126 Z-0.125000 I9.609173 J0.000000
G03 X226.649450 Y982.025650 Z-0.125000 I17.266509 J35.420510
G02 X235.620993 Y981.233171 Z-0.125000 I2.093666 J-27.476907
G02 X242.662450 Y978.306468 Z-0.125000 I-6.740337 J-26.150808
G02 X247.415893 Y973.655888 Z-0.125000 I-7.171195 J-12.084391
G02 X247.423560 Y969.697750 Z-0.125000 I-3.184548 J-1.985245
G03 X247.578544 Y967.596370 Z-0.125000 I1.527061 J-0.943779
G03 X250.266370 Y966.328240 Z-0.125000 I2.729598 J2.302921
G02 X252.572679 Y966.023201 Z-0.125000 I-0.113849 J-9.731969
G02 X252.973267 Y965.623239 Z-0.125000 I-0.138439 J-0.539245
G02 X252.827657 Y965.062339 Z-0.125000 I-0.577899 J-0.149327
G02 X250.990310 Y963.526560 Z-0.125000 I-7.642680 J7.276452
G03 X247.716134 Y960.110450 Z-0.125000 I5.857322 J-8.891084
G03 X244.084280 Y952.008260 Z-0.125000 I32.152248 J-19.277529
G03 X242.768992 Y946.468564 Z-0.125000 I39.081669 J-12.205141
G03 X243.206774 Y945.107467 Z-0.125000 I1.543144 J-0.254617
G03 X244.567407 Y944.673618 Z-0.125000 I1.100857 J1.101971
G03 X250.088760 Y946.009840 Z-0.125000 I-6.783782 J40.106423
G02 X255.394127 Y947.422257 Z-0.125000 I17.622055 J-55.522233
G02 X256.364990 Y947.267940 Z-0.125000 I0.286898 J-1.326202
G02 X256.550408 Y946.599538 Z-0.125000 I-0.250646 J-0.429450
G02 X254.428030 Y943.477250 Z-0.125000 I-17.321083 J9.491536
G02 X249.256336 Y939.640306 Z-0.125000 I-10.433277 J8.658826
G02 X239.815770 Y937.324490 Z-0.125000 I-11.988585 J28.471776
G03 X230.293385 Y935.755070 Z-0.125000 I4.932941 J-59.603434
G03 X228.019362 Y934.658908 Z-0.125000 I1.498231 J-6.014972
G03 X228.145449 Y933.807580 Z-0.125000 I0.299577 J-0.390632
G03 X233.870800 Y932.765270 Z-0.125000 I5.725351 J15.203366
G02 X238.899935 Y930.739359 Z-0.125000 I0.000000 J-7.255136
G02 X239.697090 Y927.161910 Z-0.125000 I-2.298206 J-2.389643
G03 X239.643086 Y922.999403 Z-0.125000 I5.614425 J-2.154445
G03 X241.682120 Y921.558540 Z-0.125000 I2.039034 J0.722335
G03 X244.704810 Y922.671088 Z-0.125000 I-0.000000 J4.662460
G03 X245.817360 Y925.079630 Z-0.125000 I-2.050833 J2.408542
G02 X247.334821 Y926.916619 Z-0.125000 I1.870630 J0.000000
G02 X253.546645 Y927.014730 Z-0.125000 I3.384755 J-17.605625
G02 X260.309489 Y925.194103 Z-0.125000 I-5.287547 J-33.111792
G02 X266.004650 Y921.855970 Z-0.125000 I-7.329094 J-19.031406
G03 X270.854932 Y919.791228 Z-0.125000 I5.881327 J7.086548
G03 X279.080390 Y920.382770 Z-0.125000 I2.523334 J22.396473
G02 X286.806340 Y920.428850 Z-0.125000 I3.953277 J-15.117338
G02 X290.969420 Y917.424750 Z-0.125000 I-1.665724 J-6.695006
G02 X293.804660 Y911.386106 Z-0.125000 I-22.509435 J-14.253459
G02 X293.279709 Y909.166790 Z-0.125000 I-2.089930 J-0.677396
G02 X290.860469 Y907.972741 Z-0.125000 I-2.928293 J2.885147
G02 X281.056280 Y907.363360 Z-0.125000 I-9.804189 J78.563933
G03 X268.116659 Y906.436483 Z-0.125000 I-0.000000 J-90.784945
G03 X265.491390 Y905.122010 Z-0.125000 I0.662764 J-4.602506
G03 X265.831381 Y903.949898 Z-0.125000 I0.492503 J-0.492507
G03 X275.479030 Y902.880670 Z-0.125000 I9.647649 J42.990756
G02 X282.400727 Y902.466229 Z-0.125000 I-0.000000 J-58.007883
G02 X284.742724 Y901.667451 Z-0.125000 I-0.711247 J-5.918084
G02 X285.819900 Y899.997156 Z-0.125000 I-1.146066 J-1.921584
G02 X285.430460 Y896.945470 Z-0.125000 I-6.443967 J-0.728347
G03 X285.314193 Y891.337024 Z-0.125000 I7.728352 J-2.965642
G03 X290.634160 Y881.499390 Z-0.125000 I31.180978 J10.504681
G02 X297.051386 Y871.620195 Z-0.125000 I-51.258050 J-40.319495
G02 X298.115410 Y867.324620 Z-0.125000 I-8.138832 J-4.295575
G03 X299.673283 Y863.863585 Z-0.125000 I4.623524 J-0.000000
G03 X305.586560 Y860.706970 Z-0.125000 I9.561649 J10.794836
G02 X311.171842 Y857.297101 Z-0.125000 I-2.872420 J-10.984166
G02 X313.057710 Y852.364450 Z-0.125000 I-5.507956 J-4.932651
G02 X310.921945 Y848.741774 Z-0.125000 I-4.140268 J0.000000
G02 X305.217060 Y848.026050 Z-0.125000 I-3.746897 J6.771651
G03 X299.584051 Y848.810698 Z-0.125000 I-6.143633 J-23.493236
G03 X299.302400 Y848.150450 Z-0.125000 I-0.008134 J-0.386728
G02 X299.556917 Y846.224453 Z-0.125000 I-1.129024 J-1.129014
G02 X294.068540 Y839.064610 Z-0.125000 I-29.833951 J17.185731
G03 X288.121681 Y831.420290 Z-0.125000 I27.630039 J-27.629969
G03 X287.027480 Y827.235280 Z-0.125000 I6.698012 J-3.986792
G03 X288.377389 Y826.394994 Z-0.125000 I0.951572 J0.024239
G03 X292.630850 Y829.817050 Z-0.125000 I-4.695434 J10.190669
G02 X297.240250 Y834.460465 Z-0.125000 I19.506097 J-14.753681
G02 X298.115410 Y834.029110 Z-0.125000 I0.331275 J-0.431355
G03 X299.160615 Y833.215663 Z-0.125000 I0.839141 J0.000000
G03 X303.386200 Y835.364320 Z-0.125000 I-2.639854 J10.420965
G02 X308.273266 Y837.394446 Z-0.125000 I5.736543 J-6.912111
G02 X310.918280 Y836.079840 Z-0.125000 I0.264636 J-2.785761
G02 X311.413712 Y832.837859 Z-0.125000 I-3.565740 J-2.203754
G02 X309.383070 Y830.074620 Z-0.125000 I-4.439945 J1.135059
G03 X306.049067 Y826.425521 Z-0.125000 I4.752540 J-7.689770
G03 X305.707709 Y823.787062 Z-0.125000 I3.622225 J-1.809948
G03 X307.094788 Y822.086518 Z-0.125000 I2.334131 J0.487905
G03 X311.070290 Y822.003000 Z-0.125000 I2.090093 J4.829792
G02 X316.031326 Y822.558143 Z-0.125000 I3.545463 J-9.239306
G02 X318.519980 Y820.926310 Z-0.125000 I-0.503077 J-3.480822
G02 X316.605222 Y816.168793 Z-0.125000 I-2.708537 J-1.673970
G02 X298.074550 Y815.663170 Z-0.125000 I-10.371573 J40.289842
G03 X289.095511 Y815.228846 Z-0.125000 I-3.623632 J-18.118162
G03 X286.908680 Y812.281670 Z-0.125000 I0.892528 J-2.947176
G02 X285.416987 Y807.443444 Z-0.125000 I-8.592109 J0.000000
G02 X279.590590 Y801.541890 Z-0.125000 I-19.050514 J12.981028
G03 X275.187973 Y795.280984 Z-0.125000 I6.455627 J-9.217938
G03 X274.921120 Y784.395530 Z-0.125000 I21.975979 J-5.984732
G03 X279.101847 Y776.008625 Z-0.125000 I18.822188 J4.147071
G03 X282.558270 Y775.474260 Z-0.125000 I2.039432 J1.745877
G03 X286.650697 Y778.997027 Z-0.125000 I-9.247159 J14.880986
G03 X287.227740 Y780.958240 Z-0.125000 I-1.912099 J1.628089
G02 X287.403629 Y782.788867 Z-0.125000 I4.017893 J0.537720
G02 X288.271965 Y783.439040 Z-0.125000 I0.905819 J-0.304825
G02 X289.859894 Y783.224456 Z-0.125000 I0.181962 J-4.636133
G02 X295.409070 Y781.279350 Z-0.125000 I-30.443450 J-95.739996
G02 X298.811748 Y779.496364 Z-0.125000 I-5.932484 J-15.460002
G02 X299.771789 Y778.189245 Z-0.125000 I-1.377045 J-2.017519
G02 X299.663906 Y776.602401 Z-0.125000 I-2.142978 J-0.651398
G02 X297.753350 Y773.567100 Z-0.125000 I-12.479954 J5.736504
G02 X292.904956 Y769.592623 Z-0.125000 I-12.679616 J10.523165
G02 X288.187640 Y768.399980 Z-0.125000 I-4.717316 J8.732987
G03 X285.818536 Y766.625358 Z-0.125000 I0.000000 J-2.468677
G03 X286.272470 Y761.862720 Z-0.125000 I6.188829 J-1.813085
G02 X288.390128 Y755.243617 Z-0.125000 I-18.768151 J-9.652823
G02 X287.918530 Y750.530410 Z-0.125000 I-9.702752 J-1.409350
G03 X287.749117 Y746.008058 Z-0.125000 I7.066256 J-2.529060
G03 X290.748490 Y740.257580 Z-0.125000 I14.861346 J4.094025
G02 X293.077003 Y736.952195 Z-0.125000 I-19.709758 J-16.357610
G02 X293.246068 Y735.863475 Z-0.125000 I-1.275816 J-0.755605
G02 X292.574817 Y735.173781 Z-0.125000 I-0.904118 J0.208443
G02 X289.485600 Y734.779810 Z-0.125000 I-3.089217 J11.914654
G03 X284.915042 Y732.826299 Z-0.125000 I0.000000 J-6.323541
G03 X281.433525 Y727.203324 Z-0.125000 I11.542062 J-11.035667
G03 X280.361950 Y720.477098 Z-0.125000 I17.159400 J-6.182185
G03 X282.355290 Y714.988770 Z-0.125000 I9.317859 J0.278059
G02 X284.855444 Y710.029501 Z-0.125000 I-10.983501 J-8.647040
G02 X285.679261 Y704.142779 Z-0.125000 I-22.470310 J-6.145615
G02 X284.702754 Y698.884582 Z-0.125000 I-13.818187 J-0.153576
G02 X282.550510 Y697.424060 Z-0.125000 I-2.152244 J0.855526
G03 X280.604130 Y696.257457 Z-0.125000 I0.000000 J-2.206988
G03 X279.437530 Y691.600220 Z-0.125000 I8.712882 J-4.657237
G03 X280.861692 Y688.330804 Z-0.125000 I4.464843 J0.000000
G03 X283.199490 Y688.101450 Z-0.125000 I1.319321 J1.418566
G02 X286.174390 Y688.093726 Z-0.125000 I1.481237 J-2.396770
G02 X289.322710 Y684.273120 Z-0.125000 I-4.136443 J-6.616049
G03 X290.930190 Y681.039715 Z-0.125000 I17.778175 J6.822096
G03 X291.818649 Y680.399980 Z-0.125000 I1.221462 J0.759547
G03 X292.789706 Y680.658948 Z-0.125000 I0.245239 J1.030500
G03 X294.696570 Y682.994240 Z-0.125000 I-7.897059 J8.394444
G02 X297.960768 Y685.708014 Z-0.125000 I5.677218 J-3.508686
G02 X300.379770 Y685.198160 Z-0.125000 I0.818413 J-2.110444
G02 X300.974627 Y682.475831 Z-0.125000 I-1.824919 J-1.824919
G02 X296.847310 Y675.673260 Z-0.125000 I-19.729037 J7.316811
G03 X291.897084 Y668.336245 Z-0.125000 I23.180757 J-20.978318
G03 X290.644260 Y662.881380 Z-0.125000 I11.248977 J-5.454865
G03 X294.055779 Y648.495290 Z-0.125000 I32.038227 J0.000000
G03 X298.506840 Y647.235710 Z-0.125000 I2.802264 J1.408252
G02 X302.447864 Y644.729962 Z-0.125000 I1.363938 J-2.206889
G02 X296.881330 Y633.218870 Z-0.125000 I-19.317846 J2.240245
G03 X294.214922 Y623.771703 Z-0.125000 I7.105320 J-7.105308
G03 X300.294490 Y618.976990 Z-0.125000 I6.079568 J1.457008
G02 X304.224064 Y617.614510 Z-0.125000 I0.000000 J-6.347948
G02 X305.586560 Y614.805730 Z-0.125000 I-2.213896 J-2.808780
G02 X304.003577 Y612.684649 Z-0.125000 I-2.212538 J0.000000
G02 X298.115410 Y612.588220 Z-0.125000 I-3.116848 J10.501193
G03 X291.995889 Y612.791437 Z-0.125000 I-3.508689 J-13.417049
G03 X290.644260 Y611.156110 Z-0.125000 I0.313472 J-1.635327
G03 X291.865426 Y608.991425 Z-0.125000 I2.529184 J0.000000
G03 X296.247620 Y607.770260 Z-0.125000 I4.382194 J7.252247
G02 X299.983194 Y605.902472 Z-0.125000 I0.000000 J-4.669466
G02 X301.850980 Y600.299110 Z-0.125000 I-7.471155 J-5.603362
G02 X300.424117 Y594.254820 Z-0.125000 I-13.515449 J0.000000
G02 X298.115410 Y592.827960 Z-0.125000 I-2.308707 J1.154353
G03 X295.654810 Y591.552987 Z-0.125000 I0.000000 J-3.011871
G03 X294.379830 Y587.535890 Z-0.125000 I5.690872 J-4.017097
G02 X293.080154 Y583.180599 Z-0.125000 I-7.947255 J-0.000000
G02 X289.943840 Y580.765160 Z-0.125000 I-5.042764 J3.303865
G03 X288.851612 Y578.497140 Z-0.125000 I0.554710 J-1.664142
G03 X293.368120 Y571.426220 Z-0.125000 I18.295947 J6.708519
G02 X299.345750 Y563.565985 Z-0.125000 I-25.899052 J-25.899052
G02 X299.049300 Y561.386860 Z-0.125000 I-1.580955 J-0.894653
G03 X299.435187 Y560.215877 Z-0.125000 I0.488188 J-0.488196
G03 X318.972360 Y558.401800 Z-0.125000 I25.909428 J172.925984
G02 X322.166525 Y558.102600 Z-0.125000 I-1.027177 J-28.165387
G02 X322.173896 Y557.931356 Z-0.125000 I-0.013080 J-0.086344
G02 X320.908252 Y557.723510 Z-0.125000 I-2.042053 J8.477329
G02 X314.552309 Y557.246308 Z-0.125000 I-19.957583 J223.252194
G02 X301.706244 Y556.598718 Z-0.125000 I-37.701984 J620.148925
G02 X272.888300 Y555.600120 Z-0.125000 I-107.227091 J2678.082617
G03 X209.891566 Y551.827345 Z-0.125000 I30.215072 J-1032.359918
G03 X205.591677 Y550.173048 Z-0.125000 I0.760496 J-8.392036
G03 X206.022103 Y548.728185 Z-0.125000 I0.482729 J-0.642738
G03 X261.704930 Y547.200830 Z-0.125000 I48.093176 J737.555641
G02 X309.960875 Y545.996779 Z-0.125000 I7.039701 J-685.465851
G02 X310.251860 Y544.276660 Z-0.125000 I-0.053836 J-0.893779
G02 X301.787741 Y542.177231 Z-0.125000 I-11.076201 J26.543329
G02 X295.309560 Y542.914000 Z-0.125000 I-1.460089 J16.010595
G03 X294.315890 Y542.723289 Z-0.125000 I-0.325177 J-0.989754
G03 X294.288395 Y542.118488 Z-0.125000 I0.263540 J-0.315007
G03 X295.977621 Y540.661326 Z-0.125000 I10.443432 J10.398926
G03 X301.007380 Y537.191810 Z-0.125000 I56.417838 J76.408389
G03 X313.518986 Y530.256766 Z-0.125000 I59.079877 J91.833091
G03 X317.817460 Y529.266000 Z-0.125000 I4.428167 J9.391840
G02 X320.374444 Y528.659946 Z-0.125000 I-0.075195 J-6.014324
G02 X320.568029 Y528.065215 Z-0.125000 I-0.190190 J-0.390778
G02 X319.758067 Y527.194235 Z-0.125000 I-2.037860 J1.082997
G02 X316.562385 Y525.498678 Z-0.125000 I-13.152820 J20.930328
G02 X309.119929 Y522.865820 Z-0.125000 I-21.346975 J48.507336
G02 X299.983190 Y521.417480 Z-0.125000 I-11.231232 J41.307963
G03 X292.109794 Y520.916318 Z-0.125000 I13.200419 J-269.479776
G03 X291.958732 Y520.617916 Z-0.125000 I0.015292 J-0.195178
G03 X292.454756 Y520.270890 Z-0.125000 I0.652795 J0.405066
G03 X301.850980 Y518.407400 Z-0.125000 I100.535052 J482.304194
G02 X307.967482 Y516.697153 Z-0.125000 I-6.793284 J-36.088013
G02 X307.969525 Y515.874389 Z-0.125000 I-0.154630 J-0.411769
G02 X305.004870 Y515.122849 Z-0.125000 I-4.709179 J12.353439
G02 X287.850580 Y513.070380 Z-0.125000 I-85.968478 J645.801111
G02 X261.087761 Y511.565155 Z-0.125000 I-28.530472 J268.596963
G02 X256.454910 Y512.864920 Z-0.125000 I-0.056959 J8.703472
G03 X254.469650 Y513.780075 Z-0.125000 I-4.736160 J-7.663318
G03 X254.002351 Y513.667908 Z-0.125000 I-0.141325 J-0.440712
G03 X253.888393 Y513.202534 Z-0.125000 I0.323245 J-0.325794
G03 X254.799580 Y511.222540 Z-0.125000 I8.511780 J2.717433
G02 X253.966563 Y508.860254 Z-0.125000 I-1.368164 J-0.845559
G02 X242.576150 Y506.909740 Z-0.125000 I-11.390413 J32.283026
G03 X229.591000 Y504.444634 Z-0.125000 I0.000000 J-35.432723
G03 X225.978940 Y500.372490 Z-0.125000 I2.202405 J-5.591621
G02 X224.714423 Y495.896981 Z-0.125000 I-113.899205 J29.764863
G02 X224.452724 Y495.703013 Z-0.125000 I-0.261699 J0.079555
G02 X224.229143 Y495.903511 Z-0.125000 I0.000000 J0.224909
G02 X223.837240 Y500.372490 Z-0.125000 I104.790767 J11.441208
G03 X222.107043 Y505.524059 Z-0.125000 I-10.632895 J-0.704810
G03 X219.536900 Y506.909740 Z-0.125000 I-2.570143 J-1.690693
G03 X218.118719 Y505.442845 Z-0.125000 I0.000000 J-1.418990
G03 X219.797420 Y499.197390 Z-0.125000 I14.247713 J0.481275
G03 X224.566748 Y494.582156 Z-0.125000 I9.578217 J5.126115
G03 X228.333900 Y494.983290 Z-0.125000 I1.566943 J3.174150
G02 X233.992161 Y497.509827 Z-0.125000 I7.760586 J-9.780885
G02 X259.670940 Y500.966760 Z-0.125000 I61.691158 J-361.152079
G02 X285.586477 Y502.588876 Z-0.125000 I35.515240 J-359.575703
G02 X290.879610 Y501.160920 Z-0.125000 I0.254623 J-9.580414
G02 X292.027819 Y498.294457 Z-0.125000 I-1.366088 J-2.210407
G02 X288.360950 Y491.508310 Z-0.125000 I-15.689012 J4.093735
G02 X282.132249 Y487.353955 Z-0.125000 I-11.351493 J10.272920
G02 X279.382820 Y488.320400 Z-0.125000 I-0.776186 J2.185968
G03 X276.713495 Y489.497597 Z-0.125000 I-2.191568 J-1.354456
G03 X272.514270 Y487.024230 Z-0.125000 I1.333244 J-7.064906
G03 X271.123931 Y481.709250 Z-0.125000 I4.995872 J-4.146202
G03 X275.050450 Y473.166520 Z-0.125000 I18.703636 J3.423061
G03 X279.196293 Y468.674548 Z-0.125000 I36.743607 J29.753150
G03 X281.159661 Y467.456034 Z-0.125000 I3.907349 J4.104810
G03 X283.043440 Y467.614536 Z-0.125000 I0.770930 J2.111085
G03 X285.022840 Y469.524780 Z-0.125000 I-2.757116 J4.837582
G03 X286.226491 Y471.918293 Z-0.125000 I-13.021023 J8.047424
G03 X286.220634 Y472.515776 Z-0.125000 I-0.733582 J0.291578
G03 X285.826076 Y472.711666 Z-0.125000 I-0.310763 J-0.130632
G03 X284.008410 Y471.938040 Z-0.125000 I1.630240 J-6.352467
G02 X280.359762 Y471.151953 Z-0.125000 I-2.930621 J4.741867
G02 X277.915960 Y472.729380 Z-0.125000 I0.436082 J3.357316
G02 X279.674194 Y480.348824 Z-0.125000 I4.727418 J2.921703
G02 X305.501610 Y490.164730 Z-0.125000 I37.069309 J-58.649784
G02 X316.595162 Y491.726297 Z-0.125000 I39.630858 J-241.356437
G02 X318.849116 Y491.515693 Z-0.125000 I0.633193 J-5.389925
G02 X319.360697 Y490.358837 Z-0.125000 I-0.251160 J-0.802610
G02 X316.969290 Y486.576150 Z-0.125000 I-15.780029 J7.328839
G02 X310.984842 Y482.461128 Z-0.125000 I-10.264992 J8.519225
G02 X303.979730 Y482.175230 Z-0.125000 I-3.988897 J11.773436
G03 X299.168136 Y483.109323 Z-0.125000 I-11.153802 J-44.594696
G03 X298.782162 Y482.698550 Z-0.125000 I-0.047636 J-0.341962
G03 X299.280932 Y481.824742 Z-0.125000 I1.576533 J0.320633
G03 X305.066510 Y476.831570 Z-0.125000 I115.951735 J128.504563
G03 X314.398670 Y470.982412 Z-0.125000 I27.025261 J32.748837
G03 X320.942700 Y469.554000 Z-0.125000 I6.544030 J14.275985
G02 X326.526265 Y468.745311 Z-0.125000 I-0.000000 J-19.680109
G02 X327.601017 Y467.354313 Z-0.125000 I-0.426019 J-1.439865
G02 X326.942255 Y465.191743 Z-0.125000 I-3.504411 J-0.114106
G02 X321.308380 Y458.323400 Z-0.125000 I-57.214391 J41.186262
G02 X316.882252 Y454.301180 Z-0.125000 I-26.344912 J24.544038
G02 X314.060330 Y453.159360 Z-0.125000 I-3.473872 J4.527419
G02 X310.961250 Y453.532425 Z-0.125000 I-0.768027 J6.678620
G02 X304.498290 Y456.390280 Z-0.125000 I19.697434 J53.282038
G03 X294.383002 Y458.829296 Z-0.125000 I-9.998777 J-19.272768
G03 X284.107010 Y456.280830 Z-0.125000 I0.120624 J-22.478183
G02 X273.660949 Y451.620166 Z-0.125000 I-43.277560 J82.962226
G02 X269.743680 Y450.898980 Z-0.125000 I-3.981168 J10.625207
G03 X264.978644 Y449.260796 Z-0.125000 I0.045699 J-7.882121
G03 X258.948229 Y443.286410 Z-0.125000 I20.900708 J-27.127398
G03 X254.788907 Y436.122611 Z-0.125000 I23.380310 J-18.364030
G03 X255.111960 Y432.269860 Z-0.125000 I3.954622 J-1.608325
G02 X255.787793 Y428.266240 Z-0.125000 I-4.583075 J-2.832500
G02 X252.916430 Y422.410820 Z-0.125000 I-13.567228 J3.021321
G03 X250.503954 Y418.923964 Z-0.125000 I18.674701 J-15.498593
G03 X250.075367 Y417.198090 Z-0.125000 I2.851460 J-1.624257
G03 X250.703370 Y415.646403 Z-0.125000 I2.415909 J0.074846
G03 X253.189980 Y413.581120 Z-0.125000 I8.596351 J7.820458
G03 X258.332300 Y411.732226 Z-0.125000 I6.942344 J11.233104
G03 X262.844760 Y412.252710 Z-0.125000 I1.243687 J9.038720
G02 X266.919648 Y412.383315 Z-0.125000 I2.225412 J-5.799334
G02 X269.941230 Y410.039310 Z-0.125000 I-1.627110 J-5.216972
G02 X267.610801 Y405.935139 Z-0.125000 I-2.288410 J-1.414313
G02 X247.860940 Y410.384100 Z-0.125000 I0.773149 J49.493515
G02 X239.999772 Y415.783340 Z-0.125000 I11.404918 J25.027756
G02 X238.346210 Y419.723370 Z-0.125000 I3.867280 J3.940030
G03 X237.055669 Y423.436552 Z-0.125000 I-5.987107 J0.000000
G03 X234.390170 Y424.727100 Z-0.125000 I-2.665499 J-2.107387
G03 X232.457336 Y423.599084 Z-0.125000 I-0.000000 J-2.219945
G03 X232.500930 Y421.382940 Z-0.125000 I1.896145 J-1.071201
G02 X232.442003 Y418.756054 Z-0.125000 I-2.051756 J-1.268078
G02 X228.680290 Y415.779580 Z-0.125000 I-6.641780 J4.528689
G02 X222.769702 Y413.825476 Z-0.125000 I-23.680800 J61.711474
G02 X221.052144 Y413.896915 Z-0.125000 I-0.748696 J2.682362
G02 X220.083152 Y415.027347 Z-0.125000 I0.533574 J1.437893
G02 X219.668340 Y419.123740 Z-0.125000 I20.019164 J4.096393
G03 X218.180506 Y423.247095 Z-0.125000 I-6.457609 J-0.000000
G03 X214.998870 Y424.751720 Z-0.125000 I-3.203565 J-2.657955
G02 X214.427670 Y425.994622 Z-0.125000 I0.004379 J0.754716
G02 X220.967280 Y431.789880 Z-0.125000 I23.503274 J-19.934657
G03 X227.367099 Y438.321565 Z-0.125000 I-11.921318 J18.081790
G03 X226.570640 Y440.678080 Z-0.125000 I-1.355682 J0.854656
G02 X225.988152 Y442.644917 Z-0.125000 I0.447673 J1.202252
G02 X230.875060 Y446.477630 Z-0.125000 I9.443297 J-7.008807
G03 X237.008630 Y449.238352 Z-0.125000 I-51.968553 J123.653839
G03 X237.530379 Y449.829993 Z-0.125000 I-0.438657 J0.912714
G03 X237.255938 Y450.263973 Z-0.125000 I-0.314233 J0.105051
G03 X232.266360 Y450.639330 Z-0.125000 I-6.634636 J-54.842914
G02 X225.036344 Y452.346972 Z-0.125000 I0.551024 J18.492465
G02 X219.668340 Y456.479490 Z-0.125000 I6.470329 J13.957430
G03 X214.196154 Y460.332849 Z-0.125000 I-9.848254 J-8.173357
G03 X204.268640 Y462.082850 Z-0.125000 I-9.927514 J-27.283712
