%
(JUICEGROOVE_CENTER.NGC)
(T1  D=12.7 CR=6.35 - ZMIN=-5. - BALL END MILL)
N10 G90 G94 G17 G91.1
N15 G21
(WHEN USING FUSION 360 FOR PERSONAL USE, THE FEEDRATE OF)
(RAPID MOVES IS REDUCED TO MATCH THE FEEDRATE OF CUTTING)
(MOVES, WHICH CAN INCREASE MACHINING TIME. UNRESTRICTED RAPID)
(MOVES ARE AVAILABLE WITH A FUSION 360 SUBSCRIPTION.)
N20 G53 G0 Z0.
(2D CONTOUR1)
N25 T1 M6
N30 S10000 M3
N35 G54
N40 G0 X-164.251 Y-114.859
N45 G43 Z15. H1
N50 G1 Z5. F1800.
N55 Z3. F333.33
N60 Z2.5
N65 S5000
N70 G3 X-151.9 Y-124.6 Z1.908 I12.351 J2.959
N75 G1 X-40. Z-2.
N80 S10000
N85 X151.9 F1800.
N90 G3 X164.6 Y-111.9 I0. J12.7
N95 G1 Y111.9
N100 G3 X151.9 Y124.6 I-12.7 J0.
N105 G1 X-151.9
N110 G3 X-164.6 Y111.9 I0. J-12.7
N115 G1 Y-111.9
N120 G3 X-151.9 Y-124.6 I12.7 J0.
N125 G1 X-40.
N130 S5000
N135 X79.16 Z-4. F333.33
N140 S10000
N145 X151.9 F1800.
N150 G3 X164.6 Y-111.9 I0. J12.7
N155 G1 Y111.9
N160 G3 X151.9 Y124.6 I-12.7 J0.
N165 G1 X-151.9
N170 G3 X-164.6 Y111.9 I0. J-12.7
N175 G1 Y-111.9
N180 G3 X-151.9 Y-124.6 I12.7 J0.
N185 G1 X79.16
N190 S5000
N195 X138.74 Z-5. F333.33
N200 S10000
N205 X151.9 F1800.
N210 G3 X164.6 Y-111.9 I0. J12.7
N215 G1 Y111.9
N220 G3 X151.9 Y124.6 I-12.7 J0.
N225 G1 X-151.9
N230 G3 X-164.6 Y111.9 I0. J-12.7
N235 G1 Y-111.9
N240 G3 X-151.9 Y-124.6 I12.7 J0.
N245 G1 X79.16
N250 X138.74
N255 Z15.
N260 G53 G0 Z0.
N265 M30
%
