%
(KBSHELF_CUT)
(T1  D=6.35 CR=0. - ZMIN=0. - FLAT END MILL)
N10 G90 G94 G17 G91.1
N15 G21
(WHEN USING FUSION 360 FOR PERSONAL USE, THE FEEDRATE OF)
(RAPID MOVES IS REDUCED TO MATCH THE FEEDRATE OF CUTTING)
(MOVES, WHICH CAN INCREASE MACHINING TIME. UNRESTRICTED RAPID)
(MOVES ARE AVAILABLE WITH A FUSION 360 SUBSCRIPTION.)
N20 G53 G0 Z0.
(2D CONTOUR3)
N25 T1 M6
N30 S10000 M3
N35 G54
N40 M8
N45 G0 X32.673 Y38.348
N50 G43 Z33.7 H1
N55 G1 Z23.7 F2500.
N60 Z12.985 F833.33
N65 X32.666 Y38.352 Z12.886 F2500.
N70 X32.645 Y38.362 Z12.789
N75 X32.611 Y38.379 Z12.697
N80 X32.564 Y38.403 Z12.612
N85 X32.507 Y38.432 Z12.536
N90 X32.439 Y38.466 Z12.471
N95 X32.363 Y38.504 Z12.419
N100 X32.281 Y38.545 Z12.381
N105 X32.194 Y38.588 Z12.358
N110 X32.105 Y38.632 Z12.35
N115 X31.537 Y38.916
N120 G3 X30.685 Y38.632 I-0.284 J-0.568
N125 X31.218 Y37.035 I1.065 J-0.532
N130 X32.815 Y37.568 I0.532 J1.065
N135 G1 X39.165 Y50.268
N140 G3 X38.632 Y51.865 I-1.065 J0.532
N145 X37.035 Y51.332 I-0.532 J-1.065
N150 G1 X30.685 Y38.632
N155 G3 X30.969 Y37.781 I0.568 J-0.284
N160 G1 X31.537 Y37.497
N165 X31.626 Y37.452 Z12.358
N170 X31.713 Y37.409 Z12.381
N175 X31.795 Y37.368 Z12.419
N180 X31.871 Y37.33 Z12.471
N185 X31.939 Y37.296 Z12.536
N190 X31.997 Y37.267 Z12.612
N195 X32.043 Y37.244 Z12.697
N200 X32.077 Y37.226 Z12.789
N205 X32.098 Y37.216 Z12.886
N210 X32.105 Y37.213 Z12.985
N215 Z23.7
N220 X32.673 Y38.348
N225 Z17.35 F833.33
N230 Z6.635
N235 X32.666 Y38.352 Z6.536 F2500.
N240 X32.645 Y38.362 Z6.439
N245 X32.611 Y38.379 Z6.347
N250 X32.564 Y38.403 Z6.262
N255 X32.507 Y38.432 Z6.186
N260 X32.439 Y38.466 Z6.121
N265 X32.363 Y38.504 Z6.069
N270 X32.281 Y38.545 Z6.031
N275 X32.194 Y38.588 Z6.008
N280 X32.105 Y38.632 Z6.
N285 X31.537 Y38.916
N290 G3 X30.685 Y38.632 I-0.284 J-0.568
N295 X31.218 Y37.035 I1.065 J-0.532
N300 X32.815 Y37.568 I0.532 J1.065
N305 G1 X39.165 Y50.268
N310 G3 X38.632 Y51.865 I-1.065 J0.532
N315 X37.035 Y51.332 I-0.532 J-1.065
N320 G1 X30.685 Y38.632
N325 G3 X30.969 Y37.781 I0.568 J-0.284
N330 G1 X31.537 Y37.497
N335 X31.626 Y37.452 Z6.008
N340 X31.713 Y37.409 Z6.031
N345 X31.795 Y37.368 Z6.069
N350 X31.871 Y37.33 Z6.121
N355 X31.939 Y37.296 Z6.186
N360 X31.997 Y37.267 Z6.262
N365 X32.043 Y37.244 Z6.347
N370 X32.077 Y37.226 Z6.439
N375 X32.098 Y37.216 Z6.536
N380 X32.105 Y37.213 Z6.635
N385 Z23.7
N390 X32.673 Y38.348
N395 Z11. F833.33
N400 Z0.635
N405 X32.666 Y38.352 Z0.536 F2500.
N410 X32.645 Y38.362 Z0.439
N415 X32.611 Y38.379 Z0.347
N420 X32.564 Y38.403 Z0.262
N425 X32.507 Y38.432 Z0.186
N430 X32.439 Y38.466 Z0.121
N435 X32.363 Y38.504 Z0.069
N440 X32.281 Y38.545 Z0.031
N445 X32.194 Y38.588 Z0.008
N450 X32.105 Y38.632 Z0.
N455 X31.537 Y38.916
N460 G3 X30.685 Y38.632 I-0.284 J-0.568
N465 X31.218 Y37.035 I1.065 J-0.532
N470 X32.815 Y37.568 I0.532 J1.065
N475 G1 X39.165 Y50.268
N480 G3 X38.632 Y51.865 I-1.065 J0.532
N485 X37.035 Y51.332 I-0.532 J-1.065
N490 G1 X30.685 Y38.632
N495 G3 X30.969 Y37.781 I0.568 J-0.284
N500 G1 X31.537 Y37.497
N505 X31.626 Y37.452 Z0.008
N510 X31.713 Y37.409 Z0.031
N515 X31.795 Y37.368 Z0.069
N520 X31.871 Y37.33 Z0.121
N525 X31.939 Y37.296 Z0.186
N530 X31.997 Y37.267 Z0.262
N535 X32.043 Y37.244 Z0.347
N540 X32.077 Y37.226 Z0.439
N545 X32.098 Y37.216 Z0.536
N550 X32.105 Y37.213 Z0.635
N555 Z23.7
N560 X24.765 Y68.58
N565 Z12.985 F833.33
N570 G19 G2 Y67.945 Z12.35 J-0.635 K0. F2500.
N575 G1 Y67.31
N580 G17 G3 X25.4 Y66.675 I0.635 J0.
N585 G1 X184.15
N590 G2 X187.325 Y63.5 I0. J-3.175
N595 G1 Y56.586
N600 G2 X172.171 Y40.727 I-15.875 J0.
N605 G1 X49.648 Y35.158
N610 G3 X46.785 Y33.005 I0.144 J-3.172
N615 G2 X31.75 Y22.225 I-15.035 J5.095
N620 G1 X28.575
N625 G2 X22.225 Y28.575 I0. J6.35
N630 G1 Y63.5
N635 G2 X25.4 Y66.675 I3.175 J0.
N640 G3 X26.035 Y67.31 I0. J0.635
N645 G1 Y67.945
N650 G19 G3 Y68.58 Z12.985 J0. K0.635
N655 G1 Z23.7
N660 X153.035 Y71.12
N665 Z12.985 F833.33
N670 G3 Y71.755 Z12.35 J0.635 K0. F2500.
N675 G1 Y72.39
N680 G17 G3 X152.4 Y73.025 I-0.635 J0.
N685 G1 X25.4
N690 G2 X22.225 Y76.2 I0. J3.175
N695 G1 Y101.6
N700 G2 X25.4 Y104.775 I3.175 J0.
N705 G1 X152.4
N710 G2 X155.575 Y101.6 I0. J-3.175
N715 G1 Y76.2
N720 G2 X152.4 Y73.025 I-3.175 J0.
N725 G3 X151.765 Y72.39 I0. J-0.635
N730 G1 Y71.755
N735 G19 G2 Y71.12 Z12.985 J0. K0.635
N740 G1 Z23.7
N745 X153.035
N750 Z17.35 F833.33
N755 Z6.635
N760 G3 Y71.755 Z6. J0.635 K0. F2500.
N765 G1 Y72.39
N770 G17 G3 X152.4 Y73.025 I-0.635 J0.
N775 G1 X25.4
N780 G2 X22.225 Y76.2 I0. J3.175
N785 G1 Y101.6
N790 G2 X25.4 Y104.775 I3.175 J0.
N795 G1 X152.4
N800 G2 X155.575 Y101.6 I0. J-3.175
N805 G1 Y76.2
N810 G2 X152.4 Y73.025 I-3.175 J0.
N815 G3 X151.765 Y72.39 I0. J-0.635
N820 G1 Y71.755
N825 G19 G2 Y71.12 Z6.635 J0. K0.635
N830 G1 Z23.7
N835 X24.765 Y68.58
N840 Z17.35 F833.33
N845 Z6.635
N850 G2 Y67.945 Z6. J-0.635 K0. F2500.
N855 G1 Y67.31
N860 G17 G3 X25.4 Y66.675 I0.635 J0.
N865 G1 X184.15
N870 G2 X187.325 Y63.5 I0. J-3.175
N875 G1 Y56.586
N880 G2 X172.171 Y40.727 I-15.875 J0.
N885 G1 X49.648 Y35.158
N890 G3 X46.785 Y33.005 I0.144 J-3.172
N895 G2 X31.75 Y22.225 I-15.035 J5.095
N900 G1 X28.575
N905 G2 X22.225 Y28.575 I0. J6.35
N910 G1 Y63.5
N915 G2 X25.4 Y66.675 I3.175 J0.
N920 G3 X26.035 Y67.31 I0. J0.635
N925 G1 Y67.945
N930 G19 G3 Y68.58 Z6.635 J0. K0.635
N935 G1 Z23.7
N940 X24.765
N945 Z11. F833.33
N950 Z0.635
N955 G2 Y67.945 Z0. J-0.635 K0. F2500.
N960 G1 Y67.31
N965 G17 G3 X25.4 Y66.675 I0.635 J0.
N970 G1 X40.642
N975 Z2.
N980 X53.342
N985 Z0. F833.33
N990 X64.347 F2500.
N995 Z2.
N1000 X77.047
N1005 Z0. F833.33
N1010 X94.473 F2500.
N1015 Z2.
N1020 X107.173
N1025 Z0. F833.33
N1030 X123.724 F2500.
N1035 Z2.
N1040 X136.424
N1045 Z0. F833.33
N1050 X154.833 F2500.
N1055 Z2.
N1060 X167.533
N1065 Z0. F833.33
N1070 X184.15 F2500.
N1075 G2 X187.325 Y63.5 I0. J-3.175
N1080 G1 Y56.586
N1085 G2 X172.171 Y40.727 I-15.875 J0.
N1090 G1 X156. Y39.992
N1095 Z2.
N1100 X143.313 Y39.415
N1105 Z0. F833.33
N1110 X115.302 Y38.142 F2500.
N1115 Z2.
N1120 X102.615 Y37.566
N1125 Z0. F833.33
N1130 X76.2 Y36.365 F2500.
N1135 Z2.
N1140 X63.513 Y35.788
N1145 Z0. F833.33
N1150 X49.648 Y35.158 F2500.
N1155 G3 X46.785 Y33.005 I0.144 J-3.172
N1160 G2 X31.75 Y22.225 I-15.035 J5.095
N1165 G1 X28.575
N1170 G2 X22.225 Y28.575 I0. J6.35
N1175 G1 Y63.5
N1180 G2 X25.4 Y66.675 I3.175 J0.
N1185 G3 X26.035 Y67.31 I0. J0.635
N1190 G1 Y67.945
N1195 G19 G3 Y68.58 Z0.635 J0. K0.635
N1200 G1 Z23.7
N1205 X153.035 Y71.12
N1210 Z11. F833.33
N1215 Z0.635
N1220 G3 Y71.755 Z0. J0.635 K0. F2500.
N1225 G1 Y72.39
N1230 G17 G3 X152.4 Y73.025 I-0.635 J0.
N1235 G1 X135.48
N1240 Z2.
N1245 X122.78
N1250 Z0. F833.33
N1255 X105.111 F2500.
N1260 Z2.
N1265 X92.411
N1270 Z0. F833.33
N1275 X74.63 F2500.
N1280 Z2.
N1285 X61.93
N1290 Z0. F833.33
N1295 X50.923 F2500.
N1300 Z2.
N1305 X38.223
N1310 Z0. F833.33
N1315 X25.4 F2500.
N1320 G2 X22.225 Y76.2 I0. J3.175
N1325 G1 Y82.728
N1330 Z2.
N1335 Y95.428
N1340 Z0. F833.33
N1345 Y101.6 F2500.
N1350 G2 X25.4 Y104.775 I3.175 J0.
N1355 G1 X33.627
N1360 Z2.
N1365 X46.327
N1370 Z0. F833.33
N1375 X59.792 F2500.
N1380 Z2.
N1385 X72.492
N1390 Z0. F833.33
N1395 X88.934 F2500.
N1400 Z2.
N1405 X101.633
N1410 Z0. F833.33
N1415 X120.015 F2500.
N1420 Z2.
N1425 X132.715
N1430 Z0. F833.33
N1435 X152.4 F2500.
N1440 G2 X155.575 Y101.6 I0. J-3.175
N1445 G1 Y95.149
N1450 Z2.
N1455 Y82.449
N1460 Z0. F833.33
N1465 Y76.2 F2500.
N1470 G2 X152.4 Y73.025 I-3.175 J0.
N1475 G3 X151.765 Y72.39 I0. J-0.635
N1480 G1 Y71.755
N1485 G19 G2 Y71.12 Z0.635 J0. K0.635
N1490 G1 Z33.7
N1495 G17
N1500 M9
N1505 G53 G0 Z0.
N1510 M30
%
