%
(KBSHELF_CUT)
(T1  D=3.175 CR=0. - ZMIN=0. - FLAT END MILL)
N10 G90 G94 G17 G91.1
N15 G21
(WHEN USING FUSION 360 FOR PERSONAL USE, THE FEEDRATE OF)
(RAPID MOVES IS REDUCED TO MATCH THE FEEDRATE OF CUTTING)
(MOVES, WHICH CAN INCREASE MACHINING TIME. UNRESTRICTED RAPID)
(MOVES ARE AVAILABLE WITH A FUSION 360 SUBSCRIPTION.)
N20 G53 G0 Z0.
(2D CONTOUR3)
N25 T1 M6
N30 S5000 M3
N35 G54
N40 G0 X25.083 Y66.04
N45 G43 Z33.7 H1
N50 G1 Z23.7 F3100.
N55 Z12.667 F1033.33
N60 G19 G2 Y65.723 Z12.35 J-0.317 K0. F3100.
N65 G1 Y65.405
N70 G17 G3 X25.4 Y65.088 I0.317 J0.
N75 G1 X184.15
N80 G2 X185.738 Y63.5 I0. J-1.588
N85 G1 Y56.586
N90 G2 X172.099 Y42.313 I-14.288 J0.
N95 G1 X49.576 Y36.744
N100 G3 X45.282 Y33.515 I0.216 J-4.758
N105 G2 X31.75 Y23.813 I-13.532 J4.585
N110 G1 X28.575
N115 G2 X23.813 Y28.575 I0. J4.763
N120 G1 Y63.5
N125 G2 X25.4 Y65.088 I1.587 J0.
N130 G3 X25.718 Y65.405 I0. J0.317
N135 G1 Y65.723
N140 G19 G3 Y66.04 Z12.667 J0. K0.317
N145 G1 Z23.7
N150 X25.083
N155 Z17.35 F1033.33
N160 Z6.317
N165 G2 Y65.723 Z6. J-0.317 K0. F3100.
N170 G1 Y65.405
N175 G17 G3 X25.4 Y65.088 I0.317 J0.
N180 G1 X184.15
N185 G2 X185.738 Y63.5 I0. J-1.588
N190 G1 Y56.586
N195 G2 X172.099 Y42.313 I-14.288 J0.
N200 G1 X49.576 Y36.744
N205 G3 X45.282 Y33.515 I0.216 J-4.758
N210 G2 X31.75 Y23.813 I-13.532 J4.585
N215 G1 X28.575
N220 G2 X23.813 Y28.575 I0. J4.763
N225 G1 Y63.5
N230 G2 X25.4 Y65.088 I1.587 J0.
N235 G3 X25.718 Y65.405 I0. J0.317
N240 G1 Y65.723
N245 G19 G3 Y66.04 Z6.317 J0. K0.318
N250 G1 Z23.7
N255 X25.083
N260 Z11. F1033.33
N265 Z0.317
N270 G2 Y65.723 Z0. J-0.317 K0. F3100.
N275 G1 Y65.405
N280 G17 G3 X25.4 Y65.088 I0.317 J0.
N285 G1 X43.817
N290 Z2.
N295 X50.167
N300 Z0. F1033.33
N305 X67.522 F3100.
N310 Z2.
N315 X73.872
N320 Z0. F1033.33
N325 X97.648 F3100.
N330 Z2.
N335 X103.998
N340 Z0. F1033.33
N345 X126.899 F3100.
N350 Z2.
N355 X133.249
N360 Z0. F1033.33
N365 X158.008 F3100.
N370 Z2.
N375 X164.358
N380 Z0. F1033.33
N385 X184.15 F3100.
N390 G2 X185.738 Y63.5 I0. J-1.588
N395 G1 Y56.586
N400 G2 X172.099 Y42.313 I-14.288 J0.
N405 G1 X152.756 Y41.434
N410 Z2.
N415 X146.412 Y41.145
N420 Z0. F1033.33
N425 X112.058 Y39.584 F3100.
N430 Z2.
N435 X105.714 Y39.296
N440 Z0. F1033.33
N445 X72.956 Y37.807 F3100.
N450 Z2.
N455 X66.612 Y37.518
N460 Z0. F1033.33
N465 X49.576 Y36.744 F3100.
N470 G3 X45.282 Y33.515 I0.216 J-4.758
N475 G2 X31.75 Y23.813 I-13.532 J4.585
N480 G1 X28.575
N485 G2 X23.813 Y28.575 I0. J4.763
N490 G1 Y63.5
N495 G2 X25.4 Y65.088 I1.587 J0.
N500 G3 X25.718 Y65.405 I0. J0.317
N505 G1 Y65.723
N510 G19 G3 Y66.04 Z0.317 J0. K0.317
N515 G1 Z23.7
N520 X23.85 Y74.163
N525 Z12.667 F1033.33
N530 X23.856 Y74.168 Z12.597 F3100.
N535 X23.872 Y74.185 Z12.53
N540 X23.899 Y74.212 Z12.47
N545 X23.934 Y74.248 Z12.419
N550 X23.976 Y74.291 Z12.381
N555 X24.023 Y74.339 Z12.358
N560 X24.073 Y74.389 Z12.35
N565 X24.295 Y74.616
N570 G17 G3 X24.29 Y75.065 I-0.227 J0.222
N575 G2 X23.813 Y76.2 I1.11 J1.135
N580 G1 Y101.6
N585 G2 X25.4 Y103.188 I1.587 J0.
N590 G1 X152.4
N595 G2 X153.988 Y101.6 I0. J-1.588
N600 G1 Y76.2
N605 G2 X152.4 Y74.613 I-1.588 J0.
N610 G1 X25.4
N615 G2 X24.29 Y75.065 I0. J1.587
N620 G3 X23.841 Y75.06 I-0.222 J-0.227
N625 G1 X23.619 Y74.834
N630 X23.569 Y74.783 Z12.358
N635 X23.522 Y74.735 Z12.381
N640 X23.48 Y74.692 Z12.419
N645 X23.445 Y74.656 Z12.47
N650 X23.419 Y74.629 Z12.53
N655 X23.402 Y74.612 Z12.597
N660 X23.397 Y74.607 Z12.667
N665 Z23.7
N670 X23.85 Y74.163
N675 Z17.35 F1033.33
N680 Z6.317
N685 X23.856 Y74.168 Z6.247 F3100.
N690 X23.872 Y74.185 Z6.18
N695 X23.899 Y74.212 Z6.12
N700 X23.934 Y74.248 Z6.069
N705 X23.976 Y74.291 Z6.031
N710 X24.023 Y74.339 Z6.008
N715 X24.073 Y74.389 Z6.
N720 X24.295 Y74.616
N725 G3 X24.29 Y75.065 I-0.227 J0.222
N730 G2 X23.813 Y76.2 I1.11 J1.135
N735 G1 Y101.6
N740 G2 X25.4 Y103.188 I1.587 J0.
N745 G1 X152.4
N750 G2 X153.988 Y101.6 I0. J-1.588
N755 G1 Y76.2
N760 G2 X152.4 Y74.613 I-1.588 J0.
N765 G1 X25.4
N770 G2 X24.29 Y75.065 I0. J1.587
N775 G3 X23.841 Y75.06 I-0.222 J-0.227
N780 G1 X23.619 Y74.834
N785 X23.569 Y74.783 Z6.008
N790 X23.522 Y74.735 Z6.031
N795 X23.48 Y74.692 Z6.069
N800 X23.445 Y74.656 Z6.12
N805 X23.419 Y74.629 Z6.18
N810 X23.402 Y74.612 Z6.247
N815 X23.397 Y74.607 Z6.317
N820 Z23.7
N825 X23.85 Y74.163
N830 Z11. F1033.33
N835 Z0.317
N840 X23.856 Y74.168 Z0.247 F3100.
N845 X23.872 Y74.185 Z0.18
N850 X23.899 Y74.212 Z0.12
N855 X23.934 Y74.248 Z0.069
N860 X23.976 Y74.291 Z0.031
N865 X24.023 Y74.339 Z0.008
N870 X24.073 Y74.389 Z0.
N875 X24.295 Y74.616
N880 G3 X24.29 Y75.065 I-0.227 J0.222
N885 G2 X23.813 Y76.2 I1.11 J1.135
N890 G1 Y85.903
N895 Z2.
N900 Y92.253
N905 Z0. F1033.33
N910 Y101.6 F3100.
N915 G2 X25.4 Y103.188 I1.587 J0.
N920 G1 X36.802
N925 Z2.
N930 X43.152
N935 Z0. F1033.33
N940 X62.967 F3100.
N945 Z2.
N950 X69.317
N955 Z0. F1033.33
N960 X92.108 F3100.
N965 Z2.
N970 X98.459
N975 Z0. F1033.33
N980 X123.19 F3100.
N985 Z2.
N990 X129.54
N995 Z0. F1033.33
N1000 X152.4 F3100.
N1005 G2 X153.988 Y101.6 I0. J-1.588
N1010 G1 Y91.974
N1015 Z2.
N1020 Y85.624
N1025 Z0. F1033.33
N1030 Y76.2 F3100.
N1035 G2 X152.4 Y74.613 I-1.588 J0.
N1040 G1 X132.305
N1045 Z2.
N1050 X125.955
N1055 Z0. F1033.33
N1060 X101.936 F3100.
N1065 Z2.
N1070 X95.586
N1075 Z0. F1033.33
N1080 X71.455 F3100.
N1085 Z2.
N1090 X65.105
N1095 Z0. F1033.33
N1100 X47.748 F3100.
N1105 Z2.
N1110 X41.398
N1115 Z0. F1033.33
N1120 X25.4 F3100.
N1125 G2 X24.29 Y75.065 I0. J1.587
N1130 G3 X23.841 Y75.06 I-0.222 J-0.227
N1135 G1 X23.619 Y74.834
N1140 X23.569 Y74.783 Z0.008
N1145 X23.522 Y74.735 Z0.031
N1150 X23.48 Y74.692 Z0.069
N1155 X23.445 Y74.656 Z0.12
N1160 X23.419 Y74.629 Z0.18
N1165 X23.402 Y74.612 Z0.247
N1170 X23.397 Y74.607 Z0.317
N1175 Z23.7
N1180 X37.034 Y52.315
N1185 Z12.667 F1033.33
N1190 X37.028 Y52.321 Z12.597 F3100.
N1195 X37.011 Y52.338 Z12.53
N1200 X36.985 Y52.364 Z12.47
N1205 X36.949 Y52.4 Z12.419
N1210 X36.907 Y52.443 Z12.381
N1215 X36.859 Y52.49 Z12.358
N1220 X36.809 Y52.54 Z12.35
N1225 X36.585 Y52.764
N1230 G3 X36.136 I-0.225 J-0.225
N1235 X35.615 Y52.042 I1.964 J-1.964
N1240 G1 X29.265 Y39.342
N1245 G3 X30.508 Y35.615 I2.485 J-1.242
N1250 X34.235 Y36.858 I1.242 J2.485
N1255 G1 X40.585 Y49.558
N1260 G3 X36.136 Y52.764 I-2.485 J1.242
N1265 Y52.315 I0.225 J-0.225
N1270 G1 X36.36 Y52.091
N1275 X36.41 Y52.041 Z12.358
N1280 X36.457 Y51.993 Z12.381
N1285 X36.5 Y51.951 Z12.419
N1290 X36.536 Y51.915 Z12.47
N1295 X36.562 Y51.889 Z12.53
N1300 X36.579 Y51.872 Z12.597
N1305 X36.585 Y51.866 Z12.667
N1310 Z23.7
N1315 X37.034 Y52.315
N1320 Z17.35 F1033.33
N1325 Z6.317
N1330 X37.028 Y52.321 Z6.247 F3100.
N1335 X37.011 Y52.338 Z6.18
N1340 X36.985 Y52.364 Z6.12
N1345 X36.949 Y52.4 Z6.069
N1350 X36.907 Y52.443 Z6.031
N1355 X36.859 Y52.49 Z6.008
N1360 X36.809 Y52.54 Z6.
N1365 X36.585 Y52.764
N1370 G3 X36.136 I-0.225 J-0.225
N1375 X35.615 Y52.042 I1.964 J-1.964
N1380 G1 X29.265 Y39.342
N1385 G3 X30.508 Y35.615 I2.485 J-1.242
N1390 X34.235 Y36.858 I1.242 J2.485
N1395 G1 X40.585 Y49.558
N1400 G3 X36.136 Y52.764 I-2.485 J1.242
N1405 Y52.315 I0.225 J-0.225
N1410 G1 X36.36 Y52.091
N1415 X36.41 Y52.041 Z6.008
N1420 X36.457 Y51.993 Z6.031
N1425 X36.5 Y51.951 Z6.069
N1430 X36.536 Y51.915 Z6.12
N1435 X36.562 Y51.889 Z6.18
N1440 X36.579 Y51.872 Z6.247
N1445 X36.585 Y51.866 Z6.317
N1450 Z23.7
N1455 X37.034 Y52.315
N1460 Z11. F1033.33
N1465 Z0.317
N1470 X37.028 Y52.321 Z0.247 F3100.
N1475 X37.011 Y52.338 Z0.18
N1480 X36.985 Y52.364 Z0.12
N1485 X36.949 Y52.4 Z0.069
N1490 X36.907 Y52.443 Z0.031
N1495 X36.859 Y52.49 Z0.008
N1500 X36.809 Y52.54 Z0.
N1505 X36.585 Y52.764
N1510 G3 X36.136 I-0.225 J-0.225
N1515 X35.615 Y52.042 I1.964 J-1.964
N1520 G1 X29.265 Y39.342
N1525 G3 X30.508 Y35.615 I2.485 J-1.242
N1530 X34.235 Y36.858 I1.242 J2.485
N1535 G1 X40.585 Y49.558
N1540 G3 X36.136 Y52.764 I-2.485 J1.242
N1545 Y52.315 I0.225 J-0.225
N1550 G1 X36.36 Y52.091
N1555 X36.41 Y52.041 Z0.008
N1560 X36.457 Y51.993 Z0.031
N1565 X36.5 Y51.951 Z0.069
N1570 X36.536 Y51.915 Z0.12
N1575 X36.562 Y51.889 Z0.18
N1580 X36.579 Y51.872 Z0.247
N1585 X36.585 Y51.866 Z0.317
N1590 Z33.7
N1595 G53 G0 Z0.
N1600 M30
%
