%
(KBSHELF_DRILL_3175ENDMILL)
(T1  D=3.175 CR=0. - ZMIN=0. - FLAT END MILL)
N10 G90 G94 G17 G91.1
N15 G21
(WHEN USING FUSION 360 FOR PERSONAL USE, THE FEEDRATE OF)
(RAPID MOVES IS REDUCED TO MATCH THE FEEDRATE OF CUTTING)
(MOVES, WHICH CAN INCREASE MACHINING TIME. UNRESTRICTED RAPID)
(MOVES ARE AVAILABLE WITH A FUSION 360 SUBSCRIPTION.)
N20 G53 G0 Z0.
(BORE1)
N25 T1 M6
N30 S10000 M3
N35 G54

N40 G0 X38.417 Y90.091
N45 G43 Z33.7 H1
N50 G1 Z20.7 F3100.
N55 Z19.017
N60 G19 G3 Y90.408 Z18.7 J0.318 K0.
N65 G1 Y90.567
N70 G17 G3 X38.1 Y90.884 I-0.318 J0.
N75 Y86.916 Z18.2 I0. J-1.984
N80 Y90.884 Z17.7 I0. J1.984
N85 Y86.916 Z17.2 I0. J-1.984
N90 Y90.884 Z16.7 I0. J1.984
N95 Y86.916 Z16.2 I0. J-1.984
N100 Y90.884 Z15.7 I0. J1.984
N105 Y86.916 Z15.2 I0. J-1.984
N110 Y90.884 Z14.7 I0. J1.984
N115 Y86.916 Z14.2 I0. J-1.984
N120 Y90.884 Z13.7 I0. J1.984
N125 Y86.916 Z13.2 I0. J-1.984
N130 Y90.884 Z12.7 I0. J1.984
N135 Y86.916 Z12.2 I0. J-1.984
N140 Y90.884 Z11.7 I0. J1.984
N145 Y86.916 Z11.2 I0. J-1.984
N150 Y90.884 Z10.7 I0. J1.984
N155 Y86.916 Z10.2 I0. J-1.984
N160 Y90.884 Z9.7 I0. J1.984
N165 Y86.916 Z9.2 I0. J-1.984
N170 Y90.884 Z8.7 I0. J1.984
N175 Y86.916 Z8.2 I0. J-1.984
N180 Y90.884 Z7.7 I0. J1.984
N185 Y86.916 Z7.2 I0. J-1.984
N190 Y90.884 Z6.7 I0. J1.984
N195 Y86.916 Z6.2 I0. J-1.984
N200 Y90.884 Z5.7 I0. J1.984
N205 Y86.916 Z5.2 I0. J-1.984
N210 Y90.884 Z4.7 I0. J1.984
N215 Y86.916 Z4.2 I0. J-1.984
N220 Y90.884 Z3.7 I0. J1.984
N225 Y86.916 Z3.2 I0. J-1.984
N230 Y90.884 Z2.7 I0. J1.984
N235 Y86.916 Z2.2 I0. J-1.984
N240 Y90.884 Z1.7 I0. J1.984
N245 Y86.916 Z1.2 I0. J-1.984
N250 Y90.884 Z0.7 I0. J1.984
N255 Y86.916 Z0.2 I0. J-1.984
N260 X39.987 Y88.287 Z0. I0. J1.984
N265 X36.213 Y89.513 I-1.887 J0.613
N270 X39.987 Y88.287 I1.887 J-0.613
N275 X39.783 Y88.687 I-0.302 J0.098
N280 G1 X39.632 Y88.736
N285 X39.565 Y88.758 Z0.008
N290 X39.501 Y88.778 Z0.031
N295 X39.444 Y88.797 Z0.069
N300 X39.396 Y88.813 Z0.12
N305 X39.36 Y88.824 Z0.18
N310 X39.338 Y88.832 Z0.247
N315 X39.33 Y88.834 Z0.317
N320 Z33.7
N325 G53 G0 Z0.
N330 M30
%
