%
(KBSHELF_REMAKE )
(T1  D=6.35 CR=0. - ZMIN=0. - FLAT END MILL)
N10 G90 G94 G17 G91.1
N15 G21
(WHEN USING FUSION 360 FOR PERSONAL USE, THE FEEDRATE OF)
(RAPID MOVES IS REDUCED TO MATCH THE FEEDRATE OF CUTTING)
(MOVES, WHICH CAN INCREASE MACHINING TIME. UNRESTRICTED RAPID)
(MOVES ARE AVAILABLE WITH A FUSION 360 SUBSCRIPTION.)
N20 G53 G0 Z0.
(2D CONTOUR3)
N25 T1 M6
N30 S10000 M3
N35 G54
N40 M8
N45 G0 X17.159 Y23.209
N50 G43 Z33.7 H1
N55 G1 Z23.7 F2500.
N60 Z12.985 F833.33
N65 X17.151 Y23.21 Z12.886 F2500.
N70 X17.128 Y23.214 Z12.789
N75 X17.091 Y23.22 Z12.697
N80 X17.039 Y23.229 Z12.612
N85 X16.976 Y23.239 Z12.536
N90 X16.901 Y23.252 Z12.471
N95 X16.817 Y23.266 Z12.419
N100 X16.726 Y23.281 Z12.381
N105 X16.631 Y23.297 Z12.358
N110 X16.533 Y23.313 Z12.35
N115 X15.906 Y23.418
N120 G3 X15.176 Y22.896 I-0.104 J-0.626
N125 X17.524 Y22.504 I1.174 J-0.196
N130 G1 X23.874 Y60.604
N135 G3 X22.896 Y61.974 I-1.174 J0.196
N140 X21.526 Y60.996 I-0.196 J-1.174
N145 G1 X15.176 Y22.896
N150 G3 X15.698 Y22.165 I0.626 J-0.104
N155 G1 X16.324 Y22.061
N160 X16.422 Y22.044 Z12.358
N165 X16.517 Y22.028 Z12.381
N170 X16.608 Y22.013 Z12.419
N175 X16.692 Y21.999 Z12.471
N180 X16.767 Y21.987 Z12.536
N185 X16.831 Y21.976 Z12.612
N190 X16.882 Y21.968 Z12.697
N195 X16.92 Y21.961 Z12.789
N200 X16.943 Y21.957 Z12.886
N205 X16.95 Y21.956 Z12.985
N210 Z23.7
N215 X17.159 Y23.209
N220 Z17.35 F833.33
N225 Z6.635
N230 X17.151 Y23.21 Z6.536 F2500.
N235 X17.128 Y23.214 Z6.439
N240 X17.091 Y23.22 Z6.347
N245 X17.039 Y23.229 Z6.262
N250 X16.976 Y23.239 Z6.186
N255 X16.901 Y23.252 Z6.121
N260 X16.817 Y23.266 Z6.069
N265 X16.726 Y23.281 Z6.031
N270 X16.631 Y23.297 Z6.008
N275 X16.533 Y23.313 Z6.
N280 X15.906 Y23.418
N285 G3 X15.176 Y22.896 I-0.104 J-0.626
N290 X17.524 Y22.504 I1.174 J-0.196
N295 G1 X23.874 Y60.604
N300 G3 X22.896 Y61.974 I-1.174 J0.196
N305 X21.526 Y60.996 I-0.196 J-1.174
N310 G1 X15.176 Y22.896
N315 G3 X15.698 Y22.165 I0.626 J-0.104
N320 G1 X16.324 Y22.061
N325 X16.422 Y22.044 Z6.008
N330 X16.517 Y22.028 Z6.031
N335 X16.608 Y22.013 Z6.069
N340 X16.692 Y21.999 Z6.121
N345 X16.767 Y21.987 Z6.186
N350 X16.831 Y21.976 Z6.262
N355 X16.882 Y21.968 Z6.347
N360 X16.92 Y21.961 Z6.439
N365 X16.943 Y21.957 Z6.536
N370 X16.95 Y21.956 Z6.635
N375 Z23.7
N380 X17.159 Y23.209
N385 Z11. F833.33
N390 Z0.635
N395 X17.151 Y23.21 Z0.536 F2500.
N400 X17.128 Y23.214 Z0.439
N405 X17.091 Y23.22 Z0.347
N410 X17.039 Y23.229 Z0.262
N415 X16.976 Y23.239 Z0.186
N420 X16.901 Y23.252 Z0.121
N425 X16.817 Y23.266 Z0.069
N430 X16.726 Y23.281 Z0.031
N435 X16.631 Y23.297 Z0.008
N440 X16.533 Y23.313 Z0.
N445 X15.906 Y23.418
N450 G3 X15.176 Y22.896 I-0.104 J-0.626
N455 X17.524 Y22.504 I1.174 J-0.196
N460 G1 X23.874 Y60.604
N465 G3 X22.896 Y61.974 I-1.174 J0.196
N470 X21.526 Y60.996 I-0.196 J-1.174
N475 G1 X15.176 Y22.896
N480 G3 X15.698 Y22.165 I0.626 J-0.104
N485 G1 X16.324 Y22.061
N490 X16.422 Y22.044 Z0.008
N495 X16.517 Y22.028 Z0.031
N500 X16.608 Y22.013 Z0.069
N505 X16.692 Y21.999 Z0.121
N510 X16.767 Y21.987 Z0.186
N515 X16.831 Y21.976 Z0.262
N520 X16.882 Y21.968 Z0.347
N525 X16.92 Y21.961 Z0.439
N530 X16.943 Y21.957 Z0.536
N535 X16.95 Y21.956 Z0.635
N540 Z23.7
N545 X9.365 Y78.58
N550 Z12.985 F833.33
N555 G19 G2 Y77.945 Z12.35 J-0.635 K0. F2500.
N560 G1 Y77.31
N565 G17 G3 X10. Y76.675 I0.635 J0.
N570 G1 X168.75
N575 G2 X171.925 Y73.5 I0. J-3.175
N580 G1 Y70.972
N585 G2 X152.843 Y48.97 I-22.225 J0.
N590 G1 X52.205 Y34.594
N595 G3 X38.609 Y19.913 I2.245 J-15.716
N600 G1 X38.573 Y18.779
N605 G2 X38.344 Y17.689 I-3.173 J0.099
N610 X25.24 Y6.825 I-13.104 J2.471
N615 G1 X10.
N620 G2 X6.825 Y10. I0. J3.175
N625 G1 Y73.5
N630 G2 X10. Y76.675 I3.175 J0.
N635 G3 X10.635 Y77.31 I0. J0.635
N640 G1 Y77.945
N645 G19 G3 Y78.58 Z12.985 J0. K0.635
N650 G1 Z23.7
N655 X9.365
N660 Z17.35 F833.33
N665 Z6.635
N670 G2 Y77.945 Z6. J-0.635 K0. F2500.
N675 G1 Y77.31
N680 G17 G3 X10. Y76.675 I0.635 J0.
N685 G1 X168.75
N690 G2 X171.925 Y73.5 I0. J-3.175
N695 G1 Y70.972
N700 G2 X152.843 Y48.97 I-22.225 J0.
N705 G1 X52.205 Y34.594
N710 G3 X38.609 Y19.913 I2.245 J-15.716
N715 G1 X38.573 Y18.779
N720 G2 X38.344 Y17.689 I-3.173 J0.099
N725 X25.24 Y6.825 I-13.104 J2.471
N730 G1 X10.
N735 G2 X6.825 Y10. I0. J3.175
N740 G1 Y73.5
N745 G2 X10. Y76.675 I3.175 J0.
N750 G3 X10.635 Y77.31 I0. J0.635
N755 G1 Y77.945
N760 G19 G3 Y78.58 Z6.635 J0. K0.635
N765 G1 Z23.7
N770 X9.365
N775 Z11. F833.33
N780 Z0.635
N785 G2 Y77.945 Z0. J-0.635 K0. F2500.
N790 G1 Y77.31
N795 G17 G3 X10. Y76.675 I0.635 J0.
N800 G1 X28.2
N805 Z2.
N810 X40.9
N815 Z0. F833.33
N820 X55.923 F2500.
N825 Z2.
N830 X68.623
N835 Z0. F833.33
N840 X89.846 F2500.
N845 Z2.
N850 X102.546
N855 Z0. F833.33
N860 X121.44 F2500.
N865 Z2.
N870 X134.14
N875 Z0. F833.33
N880 X168.75 F2500.
N885 G2 X171.925 Y73.5 I0. J-3.175
N890 G1 Y70.972
N895 G2 X152.843 Y48.97 I-22.225 J0.
N900 G1 X132.719 Y46.095
N905 Z2.
N910 X120.147 Y44.299
N915 Z0. F833.33
N920 X98.16 Y41.159 F2500.
N925 Z2.
N930 X85.588 Y39.362
N935 Z0. F833.33
N940 X66.864 Y36.688 F2500.
N945 Z2.
N950 X54.292 Y34.892
N955 Z0. F833.33
N960 X52.205 Y34.594 F2500.
N965 G3 X38.609 Y19.913 I2.245 J-15.716
N970 G1 X38.573 Y18.779
N975 G2 X38.344 Y17.689 I-3.173 J0.099
N980 X25.24 Y6.825 I-13.104 J2.471
N985 G1 X10.
N990 G2 X6.825 Y10. I0. J3.175
N995 G1 Y40.746
N1000 Z2.
N1005 Y53.446
N1010 Z0. F833.33
N1015 Y73.5 F2500.
N1020 G2 X10. Y76.675 I3.175 J0.
N1025 G3 X10.635 Y77.31 I0. J0.635
N1030 G1 Y77.945
N1035 G19 G3 Y78.58 Z0.635 J0. K0.635
N1040 G1 Z33.7
N1045 G17
N1050 M9
N1055 G53 G0 Z0.
N1060 M30
%
