%
(KIDGIFTXMAS)
(T1  D=3.175 CR=0. - ZMIN=-3.124 - FLAT END MILL)
N10 G90 G94 G17 G91.1
N15 G21
(WHEN USING FUSION 360 FOR PERSONAL USE, THE FEEDRATE OF)
(RAPID MOVES IS REDUCED TO MATCH THE FEEDRATE OF CUTTING)
(MOVES, WHICH CAN INCREASE MACHINING TIME. UNRESTRICTED RAPID)
(MOVES ARE AVAILABLE WITH A FUSION 360 SUBSCRIPTION.)
N20 G53 G0 Z0.
(2D POCKET1)
N25 T1 M6
N30 S5000 M3
N35 G54
N40 G0 X439.579 Y-31.75
N45 G43 Z15. H1
N50 G1 Z5. F1000.
N55 Z2.5
N60 Z-3.124 F333.33
N65 X439.587 Y-31.784 F1000.
N70 X439.609 Y-31.812
N75 X439.64 Y-31.827
N80 X439.676
N85 X439.708 Y-31.812
N90 X439.73 Y-31.784
N95 X439.737 Y-31.75
N100 G3 X436.563 I-1.587 J0.
N105 X439.737 I1.587 J0.
N110 G1 Z5.
N115 X439.579 Y31.75
N120 Z2.5 F333.33
N125 Z-3.124
N130 X439.587 Y31.716 F1000.
N135 X439.609 Y31.688
N140 X439.64 Y31.673
N145 X439.676
N150 X439.708 Y31.688
N155 X439.73 Y31.716
N160 X439.737 Y31.75
N165 G3 X436.563 I-1.587 J0.
N170 X439.737 I1.587 J0.
N175 G1 Z5.
N180 X585.629
N185 Z2.5 F333.33
N190 Z-3.124
N195 X585.637 Y31.716 F1000.
N200 X585.659 Y31.688
N205 X585.69 Y31.673
N210 X585.726
N215 X585.758 Y31.688
N220 X585.78 Y31.716
N225 X585.787 Y31.75
N230 G3 X582.613 I-1.587 J0.
N235 X585.787 I1.587 J0.
N240 G1 Z5.
N245 X585.629 Y-31.75
N250 Z2.5 F333.33
N255 Z-3.124
N260 X585.637 Y-31.784 F1000.
N265 X585.659 Y-31.812
N270 X585.69 Y-31.827
N275 X585.726
N280 X585.758 Y-31.812
N285 X585.78 Y-31.784
N290 X585.787 Y-31.75
N295 G3 X582.613 I-1.587 J0.
N300 X585.787 I1.587 J0.
N305 G1 Z5.
N310 X731.679
N315 Z2.5 F333.33
N320 Z-3.124
N325 X731.687 Y-31.784 F1000.
N330 X731.709 Y-31.812
N335 X731.74 Y-31.827
N340 X731.776
N345 X731.808 Y-31.812
N350 X731.83 Y-31.784
N355 X731.838 Y-31.75
N360 G3 X728.662 I-1.588 J0.
N365 X731.838 I1.588 J0.
N370 G1 Z5.
N375 X731.679 Y31.75
N380 Z2.5 F333.33
N385 Z-3.124
N390 X731.687 Y31.716 F1000.
N395 X731.709 Y31.688
N400 X731.74 Y31.673
N405 X731.776
N410 X731.808 Y31.688
N415 X731.83 Y31.716
N420 X731.838 Y31.75
N425 G3 X728.662 I-1.588 J0.
N430 X731.838 I1.588 J0.
N435 G1 Z5.
N440 X293.529
N445 Z2.5 F333.33
N450 Z-3.124
N455 X293.537 Y31.716 F1000.
N460 X293.559 Y31.688
N465 X293.59 Y31.673
N470 X293.626
N475 X293.658 Y31.688
N480 X293.68 Y31.716
N485 X293.688 Y31.75
N490 G3 X290.513 I-1.587 J0.
N495 X293.688 I1.587 J0.
N500 G1 Z5.
N505 X293.529 Y-31.75
N510 Z2.5 F333.33
N515 Z-3.124
N520 X293.537 Y-31.784 F1000.
N525 X293.559 Y-31.812
N530 X293.59 Y-31.827
N535 X293.626
N540 X293.658 Y-31.812
N545 X293.68 Y-31.784
N550 X293.688 Y-31.75
N555 G3 X290.513 I-1.587 J0.
N560 X293.688 I1.587 J0.
N565 G1 Z5.
N570 X147.479
N575 Z2.5 F333.33
N580 Z-3.124
N585 X147.487 Y-31.784 F1000.
N590 X147.509 Y-31.812
N595 X147.54 Y-31.827
N600 X147.576
N605 X147.608 Y-31.812
N610 X147.63 Y-31.784
N615 X147.637 Y-31.75
N620 G3 X144.463 I-1.587 J0.
N625 X147.637 I1.587 J0.
N630 G1 Z5.
N635 X147.479 Y31.75
N640 Z2.5 F333.33
N645 Z-3.124
N650 X147.487 Y31.716 F1000.
N655 X147.509 Y31.688
N660 X147.54 Y31.673
N665 X147.576
N670 X147.608 Y31.688
N675 X147.63 Y31.716
N680 X147.637 Y31.75
N685 G3 X144.463 I-1.587 J0.
N690 X147.637 I1.587 J0.
N695 G1 Z15.
(WHEN USING FUSION 360 FOR PERSONAL USE, THE FEEDRATE OF)
(RAPID MOVES IS REDUCED TO MATCH THE FEEDRATE OF CUTTING)
(MOVES, WHICH CAN INCREASE MACHINING TIME. UNRESTRICTED RAPID)
(MOVES ARE AVAILABLE WITH A FUSION 360 SUBSCRIPTION.)
(2D CONTOUR1)
N700 G0 X315.913 Y-38.1
N705 G1 Z15. F1000.
N710 Z5.
N715 Z1. F333.33
N720 Z-3.124
N725 Y-12.366 F1000.
N730 Z-1.624
N735 Y0.809
N740 Z-3.124 F333.33
N745 Y38.1 F1000.
N750 G2 X330.2 Y52.388 I14.288 J0.
N755 G1 X377.612
N760 Z-1.624
N765 X390.786
N770 Z-3.124 F333.33
N775 X444.5 F1000.
N780 G2 X458.788 Y38.1 I0. J-14.288
N785 G1 Y20.868
N790 Z-1.624
N795 Y7.693
N800 Z-3.124 F333.33
N805 Y-38.1 F1000.
N810 G2 X444.5 Y-52.388 I-14.288 J0.
N815 G1 X396.462
N820 Z-1.624
N825 X383.288
N830 Z-3.124 F333.33
N835 X330.2 F1000.
N840 G2 X315.913 Y-38.1 I0. J14.288
N845 G1 Z5.
N850 X312.737
N855 Z1. F333.33
N860 Z-3.124
N865 G2 X298.45 Y-52.388 I-14.287 J0. F1000.
N870 G1 X245.439
N875 Z-1.624
N880 X232.264
N885 Z-3.124 F333.33
N890 X184.15 F1000.
N895 G2 X169.863 Y-38.1 I0. J14.288
N900 G1 Y-11.92
N905 Z-1.624
N910 Y1.255
N915 Z-3.124 F333.33
N920 Y38.1 F1000.
N925 G2 X184.15 Y52.388 I14.287 J0.
N930 G1 X240.031
N935 Z-1.624
N940 X253.206
N945 Z-3.124 F333.33
N950 X298.45 F1000.
N955 G2 X312.737 Y38.1 I0. J-14.288
N960 G1 Y21.54
N965 Z-1.624
N970 Y8.365
N975 Z-3.124 F333.33
N980 Y-38.1 F1000.
N985 Z5.
N990 X166.688
N995 Z1. F333.33
N1000 Z-3.124
N1005 G2 X152.4 Y-52.388 I-14.288 J0. F1000.
N1010 G1 X103.368
N1015 Z-1.624
N1020 X90.193
N1025 Z-3.124 F333.33
N1030 X38.1 F1000.
N1035 G2 X23.813 Y-38.1 I0. J14.288
N1040 G1 Y2.191
N1045 Z-1.624
N1050 Y15.366
N1055 Z-3.124 F333.33
N1060 Y38.1 F1000.
N1065 G2 X38.1 Y52.388 I14.287 J0.
N1070 G1 X93.735
N1075 Z-1.624
N1080 X106.91
N1085 Z-3.124 F333.33
N1090 X152.4 F1000.
N1095 G2 X166.688 Y38.1 I0. J-14.288
N1100 G1 Y21.354
N1105 Z-1.624
N1110 Y8.179
N1115 Z-3.124 F333.33
N1120 Y-38.1 F1000.
N1125 Z5.
N1130 X461.962
N1135 Z1. F333.33
N1140 Z-3.124
N1145 Y-13.852 F1000.
N1150 Z-1.624
N1155 Y-0.677
N1160 Z-3.124 F333.33
N1165 Y38.1 F1000.
N1170 G2 X476.25 Y52.388 I14.288 J0.
N1175 G1 X528.864
N1180 Z-1.624
N1185 X542.039
N1190 Z-3.124 F333.33
N1195 X590.55 F1000.
N1200 G2 X604.838 Y38.1 I0. J-14.288
N1205 G1 Y20.219
N1210 Z-1.624
N1215 Y7.044
N1220 Z-3.124 F333.33
N1225 Y-38.1 F1000.
N1230 G2 X590.55 Y-52.388 I-14.288 J0.
N1235 G1 X542.466
N1240 Z-1.624
N1245 X529.292
N1250 Z-3.124 F333.33
N1255 X476.25 F1000.
N1260 G2 X461.962 Y-38.1 I0. J14.288
N1265 G1 Z5.
N1270 X608.013
N1275 Z1. F333.33
N1280 Z-3.124
N1285 Y-13.955 F1000.
N1290 Z-1.624
N1295 Y-0.78
N1300 Z-3.124 F333.33
N1305 Y38.1 F1000.
N1310 G2 X622.3 Y52.388 I14.287 J0.
N1315 G1 X678.631
N1320 Z-1.624
N1325 X691.807
N1330 Z-3.124 F333.33
N1335 X736.6 F1000.
N1340 G2 X750.888 Y38.1 I0. J-14.288
N1345 G1 Y4.46
N1350 Z-1.624
N1355 Y-8.715
N1360 Z-3.124 F333.33
N1365 Y-38.1 F1000.
N1370 G2 X736.6 Y-52.388 I-14.288 J0.
N1375 G1 X689.805
N1380 Z-1.624
N1385 X676.63
N1390 Z-3.124 F333.33
N1395 X622.3 F1000.
N1400 G2 X608.013 Y-38.1 I0. J14.288
N1405 G1 Z15.
N1410 G53 G0 Z0.
N1415 M30
%
