%
(KNOB_1_8)
(T1  D=3.175 CR=0. - ZMIN=-18.26 - FLAT END MILL)
N10 G90 G94 G17 G91.1
N15 G21
(WHEN USING FUSION 360 FOR PERSONAL USE, THE FEEDRATE OF)
(RAPID MOVES IS REDUCED TO MATCH THE FEEDRATE OF CUTTING)
(MOVES, WHICH CAN INCREASE MACHINING TIME. UNRESTRICTED RAPID)
(MOVES ARE AVAILABLE WITH A FUSION 360 SUBSCRIPTION.)
N20 G53 G0 Z0.
(2D CONTOUR3)
N25 T1 M6
N30 S5000 M3
N35 G54
N40 M8
N45 G0 X0.873 Y-1.89
N50 G43 Z15. H1
N55 G1 Z5. F3100.
N60 Z-2.858 F1033.33
N65 G18 G2 X1.191 Z-3.175 I0.317 K0. F3100.
N70 G1 X1.508
N75 G17 G3 X1.826 Y-1.573 I0. J0.317
N80 X-1.746 I-1.786 J0.
N85 X1.826 I1.786 J0.
N90 X1.508 Y-1.255 I-0.317 J0.
N95 G1 X1.191
N100 G18 G3 X0.873 Z-2.858 I0. K0.317
N105 G1 Z5.
N110 Y-1.89
N115 Z1.825 F1033.33
N120 Z-6.033
N125 G2 X1.191 Z-6.35 I0.317 K0. F3100.
N130 G1 X1.508
N135 G17 G3 X1.826 Y-1.573 I0. J0.317
N140 X-1.746 I-1.786 J0.
N145 X1.826 I1.786 J0.
N150 X1.508 Y-1.255 I-0.317 J0.
N155 G1 X1.191
N160 G18 G3 X0.873 Z-6.033 I0. K0.318
N165 G1 Z5.
N170 Y-1.89
N175 Z-1.35 F1033.33
N180 Z-9.208
N185 G2 X1.191 Z-9.525 I0.317 K0. F3100.
N190 G1 X1.508
N195 G17 G3 X1.826 Y-1.573 I0. J0.317
N200 X-1.746 I-1.786 J0.
N205 X1.826 I1.786 J0.
N210 X1.508 Y-1.255 I-0.317 J0.
N215 G1 X1.191
N220 G18 G3 X0.873 Z-9.208 I0. K0.317
N225 G1 Z5.
N230 Y-1.89
N235 Z-4.525 F1033.33
N240 Z-12.383
N245 G2 X1.191 Z-12.7 I0.317 K0. F3100.
N250 G1 X1.508
N255 G17 G3 X1.826 Y-1.573 I0. J0.317
N260 X-1.746 I-1.786 J0.
N265 X1.826 I1.786 J0.
N270 X1.508 Y-1.255 I-0.317 J0.
N275 G1 X1.191
N280 G18 G3 X0.873 Z-12.383 I0. K0.318
N285 G1 Z5.
N290 Y-1.89
N295 Z-7.7 F1033.33
N300 Z-15.558
N305 G2 X1.191 Z-15.875 I0.317 K0. F3100.
N310 G1 X1.508
N315 G17 G3 X1.826 Y-1.573 I0. J0.317
N320 X-1.746 I-1.786 J0.
N325 X1.826 I1.786 J0.
N330 X1.508 Y-1.255 I-0.317 J0.
N335 G1 X1.191
N340 G18 G3 X0.873 Z-15.558 I0. K0.318
N345 G1 Z5.
N350 Y-1.89
N355 Z-10.875 F1033.33
N360 Z-17.943
N365 G2 X1.191 Z-18.26 I0.317 K0. F3100.
N370 G1 X1.508
N375 G17 G3 X1.826 Y-1.573 I0. J0.317
N380 X-1.746 I-1.786 J0.
N385 X1.826 I1.786 J0.
N390 X1.508 Y-1.255 I-0.317 J0.
N395 G1 X1.191
N400 G18 G3 X0.873 Z-17.943 I0. K0.318
N405 G1 Z5.
N410 X30.449 Y3.567
N415 Z-2.858 F1033.33
N420 X30.441 Z-2.928 F3100.
N425 X30.417 Y3.568 Z-2.995
N430 X30.379 Y3.569 Z-3.055
N435 X30.329 Y3.571 Z-3.106
N440 X30.269 Y3.574 Z-3.144
N445 X30.202 Y3.576 Z-3.167
N450 X30.131 Y3.579 Z-3.175
N455 X29.814 Y3.591
N460 G17 G3 X29.485 Y3.286 I-0.012 J-0.317
N465 G1 X29.483 Y3.26
N470 X29.464 Y2.901
N475 X29.457 Y2.816
N480 X29.418 Y2.461
N485 X29.405 Y2.367
N490 X29.345 Y2.016
N495 X29.324 Y1.913
N500 X29.241 Y1.567
N505 X29.21 Y1.456
N510 X29.103 Y1.118
N515 X29.06 Y0.999
N520 X28.925 Y0.67
N525 X28.868 Y0.545
N530 X28.706 Y0.229
N535 X28.634 Y0.103
N540 X28.446 Y-0.194
N545 X28.361 Y-0.316
N550 X28.146 Y-0.593
N555 X28.049 Y-0.707
N560 X27.809 Y-0.963
N565 X27.703 Y-1.066
N570 X27.437 Y-1.302
N575 X27.327 Y-1.391
N580 X27.041 Y-1.602
N585 X26.932 Y-1.675
N590 X26.63 Y-1.861
N595 X26.526 Y-1.92
N600 X26.211 Y-2.083
N605 X26.115 Y-2.129
N610 X25.788 Y-2.271
N615 X25.701 Y-2.306
N620 X25.364 Y-2.429
N625 X25.286 Y-2.455
N630 X24.936 Y-2.563
N635 X24.867 Y-2.583
N640 X24.507 Y-2.676
N645 X24.446 Y-2.691
N650 X24.076 Y-2.771
N655 X24.024 Y-2.782
N660 X23.645 Y-2.851
N665 X23.601 Y-2.859
N670 X23.214 Y-2.918
N675 X23.178 Y-2.923
N680 X22.784 Y-2.975
N685 X22.743 Y-2.979
N690 X21.935 Y-3.063
N695 X21.902 Y-3.066
N700 X21.068 Y-3.135
N705 X21.058 Y-3.136
N710 X20.213 Y-3.2
N715 X19.376 Y-3.27
N720 X18.562 Y-3.354
N725 X17.769 Y-3.464
N730 X17.401 Y-3.528
N735 X17.037 Y-3.602
N740 X16.686 Y-3.685
N745 X16.35 Y-3.778
N750 X16.029 Y-3.882
N755 X15.725 Y-3.996
N760 X15.437 Y-4.121
N765 X15.167 Y-4.258
N770 X14.916 Y-4.406
N775 X14.684 Y-4.565
N780 X14.472 Y-4.735
N785 X14.278 Y-4.918
N790 X14.107 Y-5.11
N795 X13.958 Y-5.312
N800 X13.829 Y-5.523
N805 X13.721 Y-5.745
N810 X13.633 Y-5.978
N815 X13.567 Y-6.218
N820 X13.523 Y-6.466
N825 X13.5 Y-6.721
N830 Y-6.983
N835 X13.522 Y-7.247
N840 X13.567 Y-7.514
N845 X13.633 Y-7.785
N850 X13.722 Y-8.057
N855 X13.832 Y-8.331
N860 X13.962 Y-8.603
N865 X14.112 Y-8.875
N870 X14.281 Y-9.144
N875 X14.467 Y-9.411
N880 X14.67 Y-9.676
N885 X14.887 Y-9.937
N890 X15.119 Y-10.195
N895 X15.364 Y-10.45
N900 X15.62 Y-10.701
N905 X15.882 Y-10.945
N910 X16.45 Y-11.441
N915 X17.035 Y-11.919
N920 X17.634 Y-12.39
N925 X18.233 Y-12.856
N930 X18.242 Y-12.863
N935 X18.826 Y-13.324
N940 X18.854 Y-13.346
N945 X19.41 Y-13.806
N950 X19.443 Y-13.834
N955 X19.707 Y-14.064
N960 X19.735 Y-14.09
N965 X19.99 Y-14.322
N970 X20.023 Y-14.354
N975 X20.265 Y-14.589
N980 X20.303 Y-14.627
N985 X20.533 Y-14.865
N990 X20.575 Y-14.911
N995 X20.792 Y-15.154
N1000 X20.838 Y-15.209
N1005 X21.04 Y-15.457
N1010 X21.091 Y-15.523
N1015 X21.276 Y-15.778
N1020 X21.329 Y-15.856
N1025 X21.497 Y-16.117
N1030 X21.55 Y-16.207
N1035 X21.699 Y-16.476
N1040 X21.751 Y-16.579
N1045 X21.878 Y-16.856
N1050 X21.926 Y-16.971
N1055 X22.03 Y-17.254
N1060 X22.07 Y-17.378
N1065 X22.15 Y-17.666
N1070 X22.181 Y-17.797
N1075 X22.236 Y-18.09
N1080 X22.255 Y-18.227
N1085 X22.285 Y-18.526
N1090 X22.293 Y-18.662
N1095 X22.297 Y-18.966
N1100 X22.293 Y-19.098
N1105 X22.272 Y-19.4
N1110 X22.258 Y-19.523
N1115 X22.213 Y-19.821
N1120 X22.192 Y-19.935
N1125 X22.125 Y-20.23
N1130 X22.099 Y-20.333
N1135 X22.012 Y-20.624
N1140 X21.981 Y-20.716
N1145 X21.877 Y-21.003
N1150 X21.844 Y-21.086
N1155 X21.723 Y-21.367
N1160 X21.689 Y-21.441
N1165 X21.553 Y-21.717
N1170 X21.519 Y-21.782
N1175 X21.37 Y-22.053
N1180 X21.336 Y-22.111
N1185 X21.176 Y-22.375
N1190 X21.143 Y-22.426
N1195 X20.973 Y-22.683
N1200 X20.942 Y-22.729
N1205 X20.765 Y-22.979
N1210 X20.721 Y-23.038
N1215 X20.343 Y-23.519
N1220 X20.287 Y-23.586
N1225 X19.877 Y-24.054
N1230 X19.825 Y-24.112
N1235 X19.388 Y-24.564
N1240 X19.337 Y-24.613
N1245 X18.88 Y-25.046
N1250 X18.831 Y-25.091
N1255 X18.359 Y-25.502
N1260 X18.311 Y-25.542
N1265 X17.83 Y-25.928
N1270 X17.769 Y-25.975
N1275 G2 X16.088 Y-27.111 I-17.729 J24.402
N1280 G1 X16.009 Y-27.158
N1285 X15.426 Y-27.478
N1290 X15.368 Y-27.509
N1295 X15.065 Y-27.659
N1300 X15.021 Y-27.68
N1305 X14.713 Y-27.821
N1310 X14.664 Y-27.843
N1315 X14.351 Y-27.974
N1320 X14.296 Y-27.996
N1325 X13.979 Y-28.115
N1330 X13.918 Y-28.136
N1335 X13.599 Y-28.241
N1340 X13.531 Y-28.262
N1345 X13.21 Y-28.352
N1350 X13.133 Y-28.372
N1355 X12.811 Y-28.445
N1360 X12.726 Y-28.462
N1365 X12.403 Y-28.518
N1370 X12.308 Y-28.531
N1375 X11.982 Y-28.567
N1380 X11.876 Y-28.575
N1385 X11.549 Y-28.589
N1390 X11.431
N1395 X11.104 Y-28.578
N1400 X10.976 Y-28.569
N1405 X10.651 Y-28.532
N1410 X10.513 Y-28.51
N1415 X10.193 Y-28.445
N1420 X10.051 Y-28.409
N1425 X9.742 Y-28.315
N1430 X9.6 Y-28.265
N1435 X9.302 Y-28.143
N1440 X9.166 Y-28.08
N1445 X8.879 Y-27.929
N1450 X8.752 Y-27.855
N1455 X8.478 Y-27.677
N1460 X8.363 Y-27.595
N1465 X8.106 Y-27.394
N1470 X8.008 Y-27.31
N1475 X7.768 Y-27.089
N1480 X7.686 Y-27.007
N1485 X7.462 Y-26.769
N1490 X7.394 Y-26.691
N1495 X7.186 Y-26.437
N1500 X7.131 Y-26.365
N1505 X6.935 Y-26.097
N1510 X6.89 Y-26.031
N1515 X6.705 Y-25.749
N1520 X6.668 Y-25.689
N1525 X6.492 Y-25.393
N1530 X6.462 Y-25.34
N1535 X6.295 Y-25.031
N1540 X6.271 Y-24.986
N1545 X6.111 Y-24.667
N1550 X6.084 Y-24.61
N1555 X5.783 Y-23.944
N1560 X5.759 Y-23.89
N1565 X5.473 Y-23.19
N1570 X5.46 Y-23.157
N1575 X5.181 Y-22.429
N1580 X5.176 Y-22.416
N1585 X4.898 Y-21.671
N1590 X4.617 Y-20.929
N1595 X4.329 Y-20.204
N1600 X4.03 Y-19.507
N1605 X3.709 Y-18.835
N1610 X3.548 Y-18.53
N1615 X3.377 Y-18.23
N1620 X3.201 Y-17.943
N1625 X3.02 Y-17.671
N1630 X2.832 Y-17.415
N1635 X2.637 Y-17.174
N1640 X2.436 Y-16.951
N1645 X2.229 Y-16.746
N1650 X2.016 Y-16.561
N1655 X1.798 Y-16.397
N1660 X1.575 Y-16.254
N1665 X1.35 Y-16.133
N1670 X1.123 Y-16.035
N1675 X0.892 Y-15.959
N1680 X0.657 Y-15.904
N1685 X0.42 Y-15.87
N1690 X0.181 Y-15.859
N1695 X-0.057 Y-15.87
N1700 X-0.297 Y-15.903
N1705 X-0.538 Y-15.958
N1710 X-0.775 Y-16.035
N1715 X-1.009 Y-16.133
N1720 X-1.242 Y-16.253
N1725 X-1.472 Y-16.395
N1730 X-1.699 Y-16.557
N1735 X-1.919 Y-16.74
N1740 X-2.135 Y-16.941
N1745 X-2.345 Y-17.16
N1750 X-2.548 Y-17.397
N1755 X-2.746 Y-17.648
N1760 X-2.938 Y-17.916
N1765 X-3.125 Y-18.197
N1770 X-3.306 Y-18.491
N1775 X-3.478 Y-18.789
N1780 X-3.82 Y-19.44
N1785 X-4.137 Y-20.107
N1790 X-4.44 Y-20.79
N1795 X-4.736 Y-21.486
N1800 X-5.03 Y-22.185
N1805 X-5.035 Y-22.197
N1810 X-5.33 Y-22.882
N1815 X-5.343 Y-22.912
N1820 X-5.645 Y-23.575
N1825 X-5.669 Y-23.625
N1830 X-5.984 Y-24.257
N1835 X-6.01 Y-24.308
N1840 X-6.174 Y-24.611
N1845 X-6.197 Y-24.652
N1850 X-6.368 Y-24.945
N1855 X-6.396 Y-24.991
N1860 X-6.573 Y-25.273
N1865 X-6.607 Y-25.324
N1870 X-6.792 Y-25.594
N1875 X-6.832 Y-25.651
N1880 X-7.027 Y-25.91
N1885 X-7.076 Y-25.973
N1890 X-7.282 Y-26.221
N1895 X-7.341 Y-26.288
N1900 X-7.561 Y-26.524
N1905 X-7.631 Y-26.594
N1910 X-7.865 Y-26.815
N1915 X-7.947 Y-26.888
N1920 X-8.196 Y-27.093
N1925 X-8.291 Y-27.165
N1930 X-8.555 Y-27.351
N1935 X-8.662 Y-27.42
N1940 X-8.939 Y-27.584
N1945 X-9.054 Y-27.646
N1950 X-9.341 Y-27.785
N1955 X-9.462 Y-27.837
N1960 X-9.758 Y-27.951
N1965 X-9.883 Y-27.993
N1970 X-10.189 Y-28.083
N1975 X-10.315 Y-28.115
N1980 X-10.631 Y-28.18
N1985 X-10.753 Y-28.2
N1990 X-11.073 Y-28.24
N1995 X-11.188 Y-28.251
N2000 X-11.51 Y-28.268
N2005 X-11.618 Y-28.27
N2010 X-11.94 Y-28.265
N2015 X-12.04 Y-28.26
N2020 X-12.362 Y-28.235
N2025 X-12.452 Y-28.225
N2030 X-12.773 Y-28.181
N2035 X-12.855 Y-28.168
N2040 X-13.175 Y-28.107
N2045 X-13.249 Y-28.091
N2050 X-13.566 Y-28.015
N2055 X-13.635 Y-27.997
N2060 X-13.95 Y-27.906
N2065 X-14.011 Y-27.887
N2070 X-14.322 Y-27.783
N2075 X-14.378 Y-27.763
N2080 X-14.685 Y-27.648
N2085 X-14.736 Y-27.628
N2090 X-15.037 Y-27.503
N2095 X-15.105 Y-27.473
N2100 X-15.693 Y-27.197
N2105 X-15.774 Y-27.156
N2110 X-16.35 Y-26.843
N2115 X-16.423 Y-26.801
N2120 X-16.983 Y-26.458
N2125 X-17.05 Y-26.415
N2130 X-17.588 Y-26.047
N2135 X-17.621 Y-26.024
N2140 X-17.688 Y-25.975
N2145 X-17.713 Y-25.957
N2150 X-18.07 Y-25.687
N2155 X-18.113 Y-25.654
N2160 X-18.466 Y-25.368
N2165 X-18.509 Y-25.332
N2170 X-18.855 Y-25.031
N2175 X-18.899 Y-24.991
N2180 X-19.235 Y-24.675
N2185 X-19.281 Y-24.631
N2190 X-19.604 Y-24.302
N2195 X-19.651 Y-24.253
N2200 X-19.958 Y-23.912
N2205 X-20.007 Y-23.855
N2210 X-20.296 Y-23.504
N2215 X-20.346 Y-23.439
N2220 X-20.613 Y-23.077
N2225 X-20.664 Y-23.003
N2230 X-20.907 Y-22.632
N2235 X-20.96 Y-22.545
N2240 X-21.178 Y-22.159
N2245 X-21.23 Y-22.059
N2250 X-21.42 Y-21.659
N2255 X-21.471 Y-21.541
N2260 X-21.627 Y-21.127
N2265 X-21.661 Y-21.028
N2270 X-21.726 Y-20.816
N2275 X-21.746 Y-20.744
N2280 X-21.801 Y-20.53
N2285 X-21.818 Y-20.453
N2290 X-21.862 Y-20.236
N2295 X-21.876 Y-20.155
N2300 X-21.908 Y-19.938
N2305 X-21.919 Y-19.854
N2310 X-21.939 Y-19.636
N2315 X-21.945 Y-19.551
N2320 X-21.954 Y-19.333
N2325 X-21.955 Y-19.246
N2330 X-21.952 Y-19.028
N2335 X-21.948 Y-18.94
N2340 X-21.933 Y-18.722
N2345 X-21.924 Y-18.635
N2350 X-21.896 Y-18.418
N2355 X-21.883 Y-18.33
N2360 X-21.843 Y-18.113
N2365 X-21.825 Y-18.028
N2370 X-21.773 Y-17.814
N2375 X-21.751 Y-17.732
N2380 X-21.689 Y-17.521
N2385 X-21.664 Y-17.446
N2390 X-21.591 Y-17.239
N2395 X-21.563 Y-17.166
N2400 X-21.48 Y-16.963
N2405 X-21.437 Y-16.866
N2410 X-21.243 Y-16.471
N2415 X-21.182 Y-16.358
N2420 X-20.956 Y-15.977
N2425 X-20.896 Y-15.884
N2430 X-20.639 Y-15.513
N2435 X-20.583 Y-15.436
N2440 X-20.299 Y-15.074
N2445 X-20.248 Y-15.013
N2450 X-19.941 Y-14.659
N2455 X-19.896 Y-14.609
N2460 X-19.568 Y-14.262
N2465 X-19.53 Y-14.224
N2470 X-19.185 Y-13.883
N2475 X-19.155 Y-13.854
N2480 X-18.795 Y-13.516
N2485 X-18.771 Y-13.495
N2490 X-18.398 Y-13.159
N2495 X-18.377 Y-13.14
N2500 X-17.605 Y-12.47
N2505 X-17.598 Y-12.464
N2510 X-16.82 Y-11.796
N2515 X-16.065 Y-11.127
N2520 X-15.715 Y-10.8
N2525 X-15.378 Y-10.47
N2530 X-15.06 Y-10.14
N2535 X-14.765 Y-9.809
N2540 X-14.495 Y-9.478
N2545 X-14.249 Y-9.145
N2550 X-14.032 Y-8.81
N2555 X-13.837 Y-8.461
N2560 X-13.761 Y-8.306
N2565 X-13.688 Y-8.138
N2570 X-13.623 Y-7.971
N2575 X-13.567 Y-7.803
N2580 X-13.521 Y-7.641
N2585 X-13.485 Y-7.486
N2590 X-13.457 Y-7.338
N2595 X-13.437 Y-7.197
N2600 X-13.425 Y-7.062
N2605 X-13.418 Y-6.933
N2610 X-13.417 Y-6.81
N2615 X-13.421 Y-6.706
N2620 X-13.443 Y-6.468
N2625 X-13.481 Y-6.249
N2630 X-13.536 Y-6.035
N2635 X-13.606 Y-5.824
N2640 X-13.694 Y-5.619
N2645 X-13.797 Y-5.419
N2650 X-13.916 Y-5.227
N2655 X-14.049 Y-5.043
N2660 X-14.196 Y-4.867
N2665 X-14.359 Y-4.7
N2670 X-14.537 Y-4.54
N2675 X-14.728 Y-4.389
N2680 X-14.931 Y-4.249
N2685 X-15.148 Y-4.118
N2690 X-15.376 Y-3.997
N2695 X-15.617 Y-3.886
N2700 X-15.869 Y-3.783
N2705 X-16.133 Y-3.69
N2710 X-16.406 Y-3.606
N2715 X-16.688 Y-3.532
N2720 X-16.978 Y-3.466
N2725 X-17.266 Y-3.41
N2730 X-17.894 Y-3.315
N2735 X-18.527 Y-3.25
N2740 X-19.175 Y-3.206
N2745 X-19.836 Y-3.179
N2750 X-20.508 Y-3.162
N2755 X-21.185 Y-3.15
N2760 X-21.19 Y-3.149
N2765 X-21.86 Y-3.135
N2770 X-21.882 Y-3.134
N2775 X-22.536 Y-3.111
N2780 X-22.576 Y-3.109
N2785 X-23.212 Y-3.071
N2790 X-23.271 Y-3.066
N2795 X-23.884 Y-3.006
N2800 X-23.943 Y-2.999
N2805 X-24.24 Y-2.959
N2810 X-24.287 Y-2.952
N2815 X-24.577 Y-2.903
N2820 X-24.631 Y-2.893
N2825 X-24.914 Y-2.836
N2830 X-24.974 Y-2.823
N2835 X-25.249 Y-2.756
N2840 X-25.316 Y-2.738
N2845 X-25.582 Y-2.661
N2850 X-25.656 Y-2.637
N2855 X-25.914 Y-2.549
N2860 X-25.994 Y-2.519
N2865 X-26.242 Y-2.418
N2870 X-26.328 Y-2.38
N2875 X-26.567 Y-2.266
N2880 X-26.658 Y-2.219
N2885 X-26.886 Y-2.092
N2890 X-26.979 Y-2.036
N2895 X-27.197 Y-1.894
N2900 X-27.291 Y-1.827
N2905 X-27.497 Y-1.671
N2910 X-27.59 Y-1.594
N2915 X-27.784 Y-1.422
N2920 X-27.874 Y-1.335
N2925 X-28.055 Y-1.147
N2930 X-28.139 Y-1.052
N2935 X-28.304 Y-0.849
N2940 X-28.379 Y-0.75
N2945 X-28.528 Y-0.536
N2950 X-28.592 Y-0.436
N2955 X-28.724 Y-0.212
N2960 X-28.778 Y-0.112
N2965 X-28.893 Y0.121
N2970 X-28.938 Y0.218
N2975 X-29.038 Y0.46
N2980 X-29.073 Y0.553
N2985 X-29.158 Y0.802
N2990 X-29.186 Y0.89
N2995 X-29.257 Y1.144
N3000 X-29.278 Y1.227
N3005 X-29.335 Y1.485
N3010 X-29.35 Y1.561
N3015 X-29.395 Y1.822
N3020 X-29.405 Y1.893
N3025 X-29.438 Y2.156
N3030 X-29.445 Y2.22
N3035 X-29.467 Y2.484
N3040 X-29.472 Y2.57
N3045 X-29.488 Y3.098
N3050 Y3.198
N3055 X-29.471 Y3.732
N3060 X-29.465 Y3.819
N3065 X-29.418 Y4.359
N3070 X-29.409 Y4.435
N3075 X-29.336 Y4.977
N3080 X-29.325 Y5.044
N3085 X-29.228 Y5.582
N3090 X-29.216 Y5.642
N3095 X-29.1 Y6.171
N3100 X-29.087 Y6.225
N3105 X-28.954 Y6.741
N3110 X-28.942 Y6.785
N3115 G2 X-28.647 Y7.748 I28.982 J-8.357
N3120 G1 X-28.632 Y7.791
N3125 X-28.442 Y8.323
N3130 X-28.423 Y8.374
N3135 X-28.213 Y8.905
N3140 X-28.191 Y8.958
N3145 X-27.96 Y9.484
N3150 X-27.935 Y9.539
N3155 X-27.685 Y10.056
N3160 X-27.655 Y10.114
N3165 X-27.386 Y10.616
N3170 X-27.351 Y10.679
N3175 X-27.063 Y11.161
N3180 X-27.02 Y11.23
N3185 X-26.715 Y11.687
N3190 X-26.662 Y11.761
N3195 X-26.34 Y12.189
N3200 X-26.273 Y12.272
N3205 X-25.924 Y12.676
N3210 X-25.862 Y12.744
N3215 X-25.675 Y12.936
N3220 X-25.626 Y12.985
N3225 X-25.431 Y13.169
N3230 X-25.374 Y13.22
N3235 X-25.171 Y13.394
N3240 X-25.107 Y13.446
N3245 X-24.896 Y13.609
N3250 X-24.822 Y13.662
N3255 X-24.603 Y13.813
N3260 X-24.519 Y13.866
N3265 X-24.292 Y14.001
N3270 X-24.2 Y14.052
N3275 X-23.965 Y14.172
N3280 X-23.864 Y14.219
N3285 X-23.623 Y14.321
N3290 X-23.513 Y14.363
N3295 X-23.265 Y14.447
N3300 X-23.148 Y14.481
N3305 X-22.894 Y14.546
N3310 X-22.771 Y14.572
N3315 X-22.51 Y14.617
N3320 X-22.384 Y14.633
N3325 X-22.121 Y14.657
N3330 X-21.999 Y14.663
N3335 X-21.737 Y14.667
N3340 X-21.619 Y14.664
N3345 X-21.358 Y14.647
N3350 X-21.247 Y14.637
N3355 X-20.986 Y14.602
N3360 X-20.885 Y14.585
N3365 X-20.625 Y14.534
N3370 X-20.532 Y14.512
N3375 X-20.272 Y14.444
N3380 X-20.19 Y14.42
N3385 X-19.932 Y14.337
N3390 X-19.858 Y14.311
N3395 X-19.6 Y14.214
N3400 X-19.536 Y14.188
N3405 X-19.279 Y14.079
N3410 X-19.223 Y14.053
N3415 X-18.966 Y13.932
N3420 X-18.918 Y13.908
N3425 X-18.662 Y13.776
N3430 X-18.602 Y13.744
N3435 X-18.09 Y13.451
N3440 X-18.031 Y13.415
N3445 X-17.515 Y13.089
N3450 X-17.474 Y13.063
N3455 X-16.953 Y12.711
N3460 X-16.929 Y12.695
N3465 X-16.401 Y12.325
N3470 X-16.391 Y12.318
N3475 X-15.856 Y11.937
N3480 X-15.32 Y11.557
N3485 X-14.784 Y11.188
N3490 X-14.244 Y10.834
N3495 X-13.701 Y10.502
N3500 X-13.146 Y10.195
N3505 X-12.882 Y10.063
N3510 X-12.611 Y9.937
N3515 X-12.341 Y9.822
N3520 X-12.073 Y9.719
N3525 X-11.806 Y9.629
N3530 X-11.537 Y9.551
N3535 X-11.252 Y9.483
N3540 X-10.954 Y9.429
N3545 X-10.646 Y9.394
N3550 X-10.312 Y9.381
N3555 X-10.166 Y9.384
N3560 X-10.003 Y9.394
N3565 X-9.84 Y9.411
N3570 X-9.68 Y9.435
N3575 X-9.523 Y9.466
N3580 X-9.37 Y9.505
N3585 X-9.22 Y9.55
N3590 X-9.073 Y9.601
N3595 X-8.929 Y9.66
N3600 X-8.789 Y9.726
N3605 X-8.652 Y9.799
N3610 X-8.52 Y9.878
N3615 X-8.392 Y9.963
N3620 X-8.269 Y10.054
N3625 X-8.152 Y10.151
N3630 X-8.04 Y10.254
N3635 X-7.933 Y10.362
N3640 X-7.831 Y10.477
N3645 X-7.735 Y10.596
N3650 X-7.646 Y10.72
N3655 X-7.563 Y10.849
N3660 X-7.485 Y10.982
N3665 X-7.414 Y11.121
N3670 X-7.349 Y11.265
N3675 X-7.289 Y11.414
N3680 X-7.241 Y11.553
N3685 X-7.146 Y11.895
N3690 X-7.081 Y12.236
N3695 X-7.039 Y12.594
N3700 X-7.02 Y12.968
N3705 X-7.023 Y13.354
N3710 X-7.047 Y13.753
N3715 X-7.089 Y14.165
N3720 X-7.15 Y14.588
N3725 X-7.226 Y15.021
N3730 X-7.316 Y15.461
N3735 X-7.416 Y15.904
N3740 X-7.648 Y16.821
N3745 X-7.898 Y17.742
N3750 X-7.899 Y17.745
N3755 X-8.146 Y18.664
N3760 X-8.151 Y18.684
N3765 X-8.267 Y19.136
N3770 X-8.273 Y19.16
N3775 X-8.379 Y19.607
N3780 X-8.387 Y19.639
N3785 X-8.482 Y20.08
N3790 X-8.491 Y20.122
N3795 X-8.572 Y20.556
N3800 X-8.581 Y20.608
N3805 X-8.647 Y21.035
N3810 X-8.655 Y21.099
N3815 X-8.703 Y21.517
N3820 X-8.709 Y21.594
N3825 X-8.736 Y22.005
N3830 X-8.739 Y22.095
N3835 X-8.741 Y22.498
N3840 X-8.739 Y22.605
N3845 X-8.714 Y23.006
N3850 X-8.702 Y23.129
N3855 X-8.647 Y23.527
N3860 X-8.621 Y23.666
N3865 X-8.53 Y24.057
N3870 X-8.499 Y24.171
N3875 X-8.44 Y24.363
N3880 X-8.413 Y24.442
N3885 X-8.343 Y24.63
N3890 X-8.31 Y24.711
N3895 X-8.231 Y24.894
N3900 X-8.194 Y24.973
N3905 X-8.105 Y25.15
N3910 X-8.063 Y25.229
N3915 X-7.964 Y25.401
N3920 X-7.918 Y25.477
N3925 X-7.81 Y25.642
N3930 X-7.759 Y25.715
N3935 X-7.642 Y25.875
N3940 X-7.588 Y25.945
N3945 X-7.461 Y26.099
N3950 X-7.404 Y26.164
N3955 X-7.268 Y26.313
N3960 X-7.21 Y26.373
N3965 X-7.066 Y26.514
N3970 X-6.978 Y26.594
N3975 X-6.671 Y26.852
N3980 X-6.555 Y26.94
N3985 X-6.226 Y27.169
N3990 X-6.116 Y27.24
N3995 X-5.768 Y27.441
N4000 X-5.665 Y27.496
N4005 X-5.302 Y27.672
N4010 X-5.207 Y27.714
N4015 X-4.831 Y27.868
N4020 X-4.746 Y27.9
N4025 X-4.359 Y28.032
N4030 X-4.282 Y28.056
N4035 X-3.89 Y28.169
N4040 X-3.821 Y28.187
N4045 X-3.426 Y28.281
N4050 X-3.364 Y28.295
N4055 X-2.97 Y28.372
N4060 X-2.914 Y28.382
N4065 X-2.525 Y28.444
N4070 X-2.474 Y28.451
N4075 X-2.094 Y28.499
N4080 X-2.048 Y28.504
N4085 X-1.68 Y28.54
N4090 X-1.614 Y28.545
N4095 G2 X0.04 Y28.59 I1.654 J-30.117
N4100 G1 X0.102 Y28.589
N4105 X0.536 Y28.572
N4110 X0.581 Y28.569
N4115 X1.02 Y28.539
N4120 X1.066 Y28.535
N4125 X1.507 Y28.492
N4130 X1.555 Y28.487
N4135 X1.995 Y28.43
N4140 X2.046 Y28.423
N4145 X2.484 Y28.352
N4150 X2.537 Y28.343
N4155 X2.97 Y28.257
N4160 X3.027 Y28.245
N4165 X3.453 Y28.145
N4170 X3.514 Y28.129
N4175 X3.93 Y28.013
N4180 X3.996 Y27.993
N4185 X4.4 Y27.862
N4190 X4.472 Y27.837
N4195 X4.861 Y27.689
N4200 X4.94 Y27.657
N4205 X5.319 Y27.489
N4210 X5.406 Y27.448
N4215 X5.776 Y27.257
N4220 X5.872 Y27.203
N4225 X6.227 Y26.987
N4230 X6.331 Y26.918
N4235 X6.668 Y26.676
N4240 X6.779 Y26.588
N4245 X7.092 Y26.317
N4250 X7.177 Y26.238
N4255 X7.322 Y26.092
N4260 X7.378 Y26.033
N4265 X7.515 Y25.881
N4270 X7.57 Y25.816
N4275 X7.698 Y25.658
N4280 X7.751 Y25.588
N4285 X7.87 Y25.423
N4290 X7.92 Y25.349
N4295 X8.029 Y25.178
N4300 X8.076 Y25.1
N4305 X8.176 Y24.921
N4310 X8.218 Y24.84
N4315 X8.308 Y24.655
N4320 X8.346 Y24.571
N4325 X8.425 Y24.38
N4330 X8.457 Y24.297
N4335 X8.525 Y24.104
N4340 X8.552 Y24.021
N4345 X8.609 Y23.825
N4350 X8.63 Y23.745
N4355 X8.677 Y23.546
N4360 X8.693 Y23.469
N4365 X8.73 Y23.268
N4370 X8.746 Y23.16
N4375 X8.793 Y22.75
N4380 X8.802 Y22.621
N4385 X8.815 Y22.202
N4390 Y22.091
N4395 X8.798 Y21.664
N4400 X8.792 Y21.57
N4405 X8.749 Y21.135
N4410 X8.74 Y21.058
N4415 X8.674 Y20.615
N4420 X8.664 Y20.553
N4425 X8.579 Y20.104
N4430 X8.569 Y20.056
N4435 X8.468 Y19.599
N4440 X8.46 Y19.563
N4445 X8.345 Y19.098
N4450 X8.339 Y19.072
N4455 X8.215 Y18.599
N4460 X8.209 Y18.581
N4465 X7.943 Y17.617
N4470 X7.679 Y16.648
N4475 X7.441 Y15.681
N4480 X7.342 Y15.218
N4485 X7.258 Y14.753
N4490 X7.19 Y14.292
N4495 X7.143 Y13.838
N4500 X7.118 Y13.394
N4505 X7.117 Y12.963
N4510 X7.143 Y12.547
N4515 X7.199 Y12.132
N4520 X7.231 Y11.963
N4525 X7.272 Y11.791
N4530 X7.316 Y11.631
N4535 X7.363 Y11.482
N4540 X7.414 Y11.343
N4545 X7.467 Y11.213
N4550 X7.523 Y11.092
N4555 X7.573 Y10.991
N4560 X7.699 Y10.774
N4565 X7.826 Y10.588
N4570 X7.964 Y10.416
N4575 X8.114 Y10.258
N4580 X8.275 Y10.113
N4585 X8.448 Y9.981
N4590 X8.63 Y9.865
N4595 X8.821 Y9.764
N4600 X9.021 Y9.677
N4605 X9.231 Y9.606
N4610 X9.452 Y9.55
N4615 X9.68 Y9.509
N4620 X9.915 Y9.485
N4625 X10.159 Y9.476
N4630 X10.409 Y9.483
N4635 X10.667 Y9.505
N4640 X10.931 Y9.543
N4645 X11.199 Y9.595
N4650 X11.472 Y9.661
N4655 X11.748 Y9.741
N4660 X12.027 Y9.834
N4665 X12.308 Y9.939
N4670 X12.589 Y10.054
N4675 X12.862 Y10.175
N4680 X13.44 Y10.458
N4685 X14.014 Y10.767
N4690 X14.592 Y11.102
N4695 X15.174 Y11.456
N4700 X15.76 Y11.821
N4705 X16.345 Y12.185
N4710 X16.357 Y12.193
N4715 X16.934 Y12.545
N4720 X16.961 Y12.561
N4725 X17.53 Y12.893
N4730 X17.575 Y12.918
N4735 X18.14 Y13.224
N4740 X18.206 Y13.258
N4745 X18.77 Y13.53
N4750 X18.834 Y13.559
N4755 X19.116 Y13.68
N4760 X19.168 Y13.701
N4765 X19.45 Y13.811
N4770 X19.51 Y13.832
N4775 X19.792 Y13.929
N4780 X19.859 Y13.95
N4785 X20.14 Y14.033
N4790 X20.216 Y14.053
N4795 X20.499 Y14.121
N4800 X20.583 Y14.139
N4805 X20.867 Y14.191
N4810 X20.96 Y14.205
N4815 X21.245 Y14.24
N4820 X21.347 Y14.249
N4825 X21.633 Y14.265
N4830 X21.743 Y14.268
N4835 X22.029 Y14.264
N4840 X22.145 Y14.259
N4845 X22.432 Y14.234
N4850 X22.552 Y14.219
N4855 X22.838 Y14.173
N4860 X22.956 Y14.149
N4865 X23.235 Y14.082
N4870 X23.35 Y14.049
N4875 X23.622 Y13.961
N4880 X23.731 Y13.921
N4885 X23.996 Y13.813
N4890 X24.098 Y13.768
N4895 X24.356 Y13.641
N4900 X24.451 Y13.59
N4905 X24.702 Y13.445
N4910 X24.788 Y13.391
N4915 X25.029 Y13.23
N4920 X25.105 Y13.176
N4925 X25.337 Y13.001
N4930 X25.405 Y12.947
N4935 X25.627 Y12.759
N4940 X25.686 Y12.706
N4945 X25.899 Y12.507
N4950 X25.951 Y12.455
N4955 X26.154 Y12.247
N4960 X26.2 Y12.198
N4965 X26.394 Y11.982
N4970 X26.434 Y11.935
N4975 X26.62 Y11.71
N4980 X26.656 Y11.664
N4985 X26.836 Y11.43
N4990 X26.883 Y11.366
N4995 X27.223 Y10.873
N5000 X27.274 Y10.794
N5005 X27.588 Y10.275
N5010 X27.631 Y10.201
N5015 X27.918 Y9.664
N5020 X27.953 Y9.595
N5025 X28.213 Y9.045
N5030 X28.242 Y8.98
N5035 X28.475 Y8.425
N5040 X28.5 Y8.362
N5045 X28.705 Y7.809
N5050 X28.726 Y7.748
N5055 G2 X29.053 Y6.673 I-28.686 J-9.322
N5060 G1 X29.067 Y6.621
N5065 X29.153 Y6.272
N5070 X29.164 Y6.228
N5075 X29.241 Y5.873
N5080 X29.25 Y5.826
N5085 X29.318 Y5.466
N5090 X29.327 Y5.415
N5095 X29.382 Y5.05
N5100 X29.39 Y4.996
N5105 X29.433 Y4.629
N5110 X29.439 Y4.57
N5115 X29.468 Y4.203
N5120 X29.472 Y4.138
N5125 X29.487 Y3.772
N5130 X29.488 Y3.702
N5135 X29.486 Y3.338
N5140 X29.485 Y3.286
N5145 G3 X29.79 Y2.957 I0.317 J-0.012
N5150 G1 X30.107 Y2.944
N5155 X30.178 Y2.942 Z-3.167
N5160 X30.245 Y2.939 Z-3.144
N5165 X30.305 Y2.937 Z-3.106
N5170 X30.355 Y2.935 Z-3.055
N5175 X30.393 Y2.933 Z-2.995
N5180 X30.416 Y2.932 Z-2.928
N5185 X30.424 Z-2.858
N5190 Z5.
N5195 X30.449 Y3.567
N5200 Z1.825 F1033.33
N5205 Z-6.033
N5210 X30.441 Z-6.103 F3100.
N5215 X30.417 Y3.568 Z-6.17
N5220 X30.379 Y3.569 Z-6.23
N5225 X30.329 Y3.571 Z-6.281
N5230 X30.269 Y3.574 Z-6.319
N5235 X30.202 Y3.576 Z-6.342
N5240 X30.131 Y3.579 Z-6.35
N5245 X29.814 Y3.591
N5250 G3 X29.485 Y3.286 I-0.012 J-0.317
N5255 G1 X29.483 Y3.26
N5260 X29.464 Y2.901
N5265 X29.457 Y2.816
N5270 X29.418 Y2.461
N5275 X29.405 Y2.367
N5280 X29.345 Y2.016
N5285 X29.324 Y1.913
N5290 X29.241 Y1.567
N5295 X29.21 Y1.456
N5300 X29.103 Y1.118
N5305 X29.06 Y0.999
N5310 X28.925 Y0.67
N5315 X28.868 Y0.545
N5320 X28.706 Y0.229
N5325 X28.634 Y0.103
N5330 X28.446 Y-0.194
N5335 X28.361 Y-0.316
N5340 X28.146 Y-0.593
N5345 X28.049 Y-0.707
N5350 X27.809 Y-0.963
N5355 X27.703 Y-1.066
N5360 X27.437 Y-1.302
N5365 X27.327 Y-1.391
N5370 X27.041 Y-1.602
N5375 X26.932 Y-1.675
N5380 X26.63 Y-1.861
N5385 X26.526 Y-1.92
N5390 X26.211 Y-2.083
N5395 X26.115 Y-2.129
N5400 X25.788 Y-2.271
N5405 X25.701 Y-2.306
N5410 X25.364 Y-2.429
N5415 X25.286 Y-2.455
N5420 X24.936 Y-2.563
N5425 X24.867 Y-2.583
N5430 X24.507 Y-2.676
N5435 X24.446 Y-2.691
N5440 X24.076 Y-2.771
N5445 X24.024 Y-2.782
N5450 X23.645 Y-2.851
N5455 X23.601 Y-2.859
N5460 X23.214 Y-2.918
N5465 X23.178 Y-2.923
N5470 X22.784 Y-2.975
N5475 X22.743 Y-2.979
N5480 X21.935 Y-3.063
N5485 X21.902 Y-3.066
N5490 X21.068 Y-3.135
N5495 X21.058 Y-3.136
N5500 X20.213 Y-3.2
N5505 X19.376 Y-3.27
N5510 X18.562 Y-3.354
N5515 X17.769 Y-3.464
N5520 X17.401 Y-3.528
N5525 X17.037 Y-3.602
N5530 X16.686 Y-3.685
N5535 X16.35 Y-3.778
N5540 X16.029 Y-3.882
N5545 X15.725 Y-3.996
N5550 X15.437 Y-4.121
N5555 X15.167 Y-4.258
N5560 X14.916 Y-4.406
N5565 X14.684 Y-4.565
N5570 X14.472 Y-4.735
N5575 X14.278 Y-4.918
N5580 X14.107 Y-5.11
N5585 X13.958 Y-5.312
N5590 X13.829 Y-5.523
N5595 X13.721 Y-5.745
N5600 X13.633 Y-5.978
N5605 X13.567 Y-6.218
N5610 X13.523 Y-6.466
N5615 X13.5 Y-6.721
N5620 Y-6.983
N5625 X13.522 Y-7.247
N5630 X13.567 Y-7.514
N5635 X13.633 Y-7.785
N5640 X13.722 Y-8.057
N5645 X13.832 Y-8.331
N5650 X13.962 Y-8.603
N5655 X14.112 Y-8.875
N5660 X14.281 Y-9.144
N5665 X14.467 Y-9.411
N5670 X14.67 Y-9.676
N5675 X14.887 Y-9.937
N5680 X15.119 Y-10.195
N5685 X15.364 Y-10.45
N5690 X15.62 Y-10.701
N5695 X15.882 Y-10.945
N5700 X16.45 Y-11.441
N5705 X17.035 Y-11.919
N5710 X17.634 Y-12.39
N5715 X18.233 Y-12.856
N5720 X18.242 Y-12.863
N5725 X18.826 Y-13.324
N5730 X18.854 Y-13.346
N5735 X19.41 Y-13.806
N5740 X19.443 Y-13.834
N5745 X19.707 Y-14.064
N5750 X19.735 Y-14.09
N5755 X19.99 Y-14.322
N5760 X20.023 Y-14.354
N5765 X20.265 Y-14.589
N5770 X20.303 Y-14.627
N5775 X20.533 Y-14.865
N5780 X20.575 Y-14.911
N5785 X20.792 Y-15.154
N5790 X20.838 Y-15.209
N5795 X21.04 Y-15.457
N5800 X21.091 Y-15.523
N5805 X21.276 Y-15.778
N5810 X21.329 Y-15.856
N5815 X21.497 Y-16.117
N5820 X21.55 Y-16.207
N5825 X21.699 Y-16.476
N5830 X21.751 Y-16.579
N5835 X21.878 Y-16.856
N5840 X21.926 Y-16.971
N5845 X22.03 Y-17.254
N5850 X22.07 Y-17.378
N5855 X22.15 Y-17.666
N5860 X22.181 Y-17.797
N5865 X22.236 Y-18.09
N5870 X22.255 Y-18.227
N5875 X22.285 Y-18.526
N5880 X22.293 Y-18.662
N5885 X22.297 Y-18.966
N5890 X22.293 Y-19.098
N5895 X22.272 Y-19.4
N5900 X22.258 Y-19.523
N5905 X22.213 Y-19.821
N5910 X22.192 Y-19.935
N5915 X22.125 Y-20.23
N5920 X22.099 Y-20.333
N5925 X22.012 Y-20.624
N5930 X21.981 Y-20.716
N5935 X21.877 Y-21.003
N5940 X21.844 Y-21.086
N5945 X21.723 Y-21.367
N5950 X21.689 Y-21.441
N5955 X21.553 Y-21.717
N5960 X21.519 Y-21.782
N5965 X21.37 Y-22.053
N5970 X21.336 Y-22.111
N5975 X21.176 Y-22.375
N5980 X21.143 Y-22.426
N5985 X20.973 Y-22.683
N5990 X20.942 Y-22.729
N5995 X20.765 Y-22.979
N6000 X20.721 Y-23.038
N6005 X20.343 Y-23.519
N6010 X20.287 Y-23.586
N6015 X19.877 Y-24.054
N6020 X19.825 Y-24.112
N6025 X19.388 Y-24.564
N6030 X19.337 Y-24.613
N6035 X18.88 Y-25.046
N6040 X18.831 Y-25.091
N6045 X18.359 Y-25.502
N6050 X18.311 Y-25.542
N6055 X17.83 Y-25.928
N6060 X17.769 Y-25.975
N6065 G2 X16.088 Y-27.111 I-17.729 J24.402
N6070 G1 X16.009 Y-27.158
N6075 X15.426 Y-27.478
N6080 X15.368 Y-27.509
N6085 X15.065 Y-27.659
N6090 X15.021 Y-27.68
N6095 X14.713 Y-27.821
N6100 X14.664 Y-27.843
N6105 X14.351 Y-27.974
N6110 X14.296 Y-27.996
N6115 X13.979 Y-28.115
N6120 X13.918 Y-28.136
N6125 X13.599 Y-28.241
N6130 X13.531 Y-28.262
N6135 X13.21 Y-28.352
N6140 X13.133 Y-28.372
N6145 X12.811 Y-28.445
N6150 X12.726 Y-28.462
N6155 X12.403 Y-28.518
N6160 X12.308 Y-28.531
N6165 X11.982 Y-28.567
N6170 X11.876 Y-28.575
N6175 X11.549 Y-28.589
N6180 X11.431
N6185 X11.104 Y-28.578
N6190 X10.976 Y-28.569
N6195 X10.651 Y-28.532
N6200 X10.513 Y-28.51
N6205 X10.193 Y-28.445
N6210 X10.051 Y-28.409
N6215 X9.742 Y-28.315
N6220 X9.6 Y-28.265
N6225 X9.302 Y-28.143
N6230 X9.166 Y-28.08
N6235 X8.879 Y-27.929
N6240 X8.752 Y-27.855
N6245 X8.478 Y-27.677
N6250 X8.363 Y-27.595
N6255 X8.106 Y-27.394
N6260 X8.008 Y-27.31
N6265 X7.768 Y-27.089
N6270 X7.686 Y-27.007
N6275 X7.462 Y-26.769
N6280 X7.394 Y-26.691
N6285 X7.186 Y-26.437
N6290 X7.131 Y-26.365
N6295 X6.935 Y-26.097
N6300 X6.89 Y-26.031
N6305 X6.705 Y-25.749
N6310 X6.668 Y-25.689
N6315 X6.492 Y-25.393
N6320 X6.462 Y-25.34
N6325 X6.295 Y-25.031
N6330 X6.271 Y-24.986
N6335 X6.111 Y-24.667
N6340 X6.084 Y-24.61
N6345 X5.783 Y-23.944
N6350 X5.759 Y-23.89
N6355 X5.473 Y-23.19
N6360 X5.46 Y-23.157
N6365 X5.181 Y-22.429
N6370 X5.176 Y-22.416
N6375 X4.898 Y-21.671
N6380 X4.617 Y-20.929
N6385 X4.329 Y-20.204
N6390 X4.03 Y-19.507
N6395 X3.709 Y-18.835
N6400 X3.548 Y-18.53
N6405 X3.377 Y-18.23
N6410 X3.201 Y-17.943
N6415 X3.02 Y-17.671
N6420 X2.832 Y-17.415
N6425 X2.637 Y-17.174
N6430 X2.436 Y-16.951
N6435 X2.229 Y-16.746
N6440 X2.016 Y-16.561
N6445 X1.798 Y-16.397
N6450 X1.575 Y-16.254
N6455 X1.35 Y-16.133
N6460 X1.123 Y-16.035
N6465 X0.892 Y-15.959
N6470 X0.657 Y-15.904
N6475 X0.42 Y-15.87
N6480 X0.181 Y-15.859
N6485 X-0.057 Y-15.87
N6490 X-0.297 Y-15.903
N6495 X-0.538 Y-15.958
N6500 X-0.775 Y-16.035
N6505 X-1.009 Y-16.133
N6510 X-1.242 Y-16.253
N6515 X-1.472 Y-16.395
N6520 X-1.699 Y-16.557
N6525 X-1.919 Y-16.74
N6530 X-2.135 Y-16.941
N6535 X-2.345 Y-17.16
N6540 X-2.548 Y-17.397
N6545 X-2.746 Y-17.648
N6550 X-2.938 Y-17.916
N6555 X-3.125 Y-18.197
N6560 X-3.306 Y-18.491
N6565 X-3.478 Y-18.789
N6570 X-3.82 Y-19.44
N6575 X-4.137 Y-20.107
N6580 X-4.44 Y-20.79
N6585 X-4.736 Y-21.486
N6590 X-5.03 Y-22.185
N6595 X-5.035 Y-22.197
N6600 X-5.33 Y-22.882
N6605 X-5.343 Y-22.912
N6610 X-5.645 Y-23.575
N6615 X-5.669 Y-23.625
N6620 X-5.984 Y-24.257
N6625 X-6.01 Y-24.308
N6630 X-6.174 Y-24.611
N6635 X-6.197 Y-24.652
N6640 X-6.368 Y-24.945
N6645 X-6.396 Y-24.991
N6650 X-6.573 Y-25.273
N6655 X-6.607 Y-25.324
N6660 X-6.792 Y-25.594
N6665 X-6.832 Y-25.651
N6670 X-7.027 Y-25.91
N6675 X-7.076 Y-25.973
N6680 X-7.282 Y-26.221
N6685 X-7.341 Y-26.288
N6690 X-7.561 Y-26.524
N6695 X-7.631 Y-26.594
N6700 X-7.865 Y-26.815
N6705 X-7.947 Y-26.888
N6710 X-8.196 Y-27.093
N6715 X-8.291 Y-27.165
N6720 X-8.555 Y-27.351
N6725 X-8.662 Y-27.42
N6730 X-8.939 Y-27.584
N6735 X-9.054 Y-27.646
N6740 X-9.341 Y-27.785
N6745 X-9.462 Y-27.837
N6750 X-9.758 Y-27.951
N6755 X-9.883 Y-27.993
N6760 X-10.189 Y-28.083
N6765 X-10.315 Y-28.115
N6770 X-10.631 Y-28.18
N6775 X-10.753 Y-28.2
N6780 X-11.073 Y-28.24
N6785 X-11.188 Y-28.251
N6790 X-11.51 Y-28.268
N6795 X-11.618 Y-28.27
N6800 X-11.94 Y-28.265
N6805 X-12.04 Y-28.26
N6810 X-12.362 Y-28.235
N6815 X-12.452 Y-28.225
N6820 X-12.773 Y-28.181
N6825 X-12.855 Y-28.168
N6830 X-13.175 Y-28.107
N6835 X-13.249 Y-28.091
N6840 X-13.566 Y-28.015
N6845 X-13.635 Y-27.997
N6850 X-13.95 Y-27.906
N6855 X-14.011 Y-27.887
N6860 X-14.322 Y-27.783
N6865 X-14.378 Y-27.763
N6870 X-14.685 Y-27.648
N6875 X-14.736 Y-27.628
N6880 X-15.037 Y-27.503
N6885 X-15.105 Y-27.473
N6890 X-15.693 Y-27.197
N6895 X-15.774 Y-27.156
N6900 X-16.35 Y-26.843
N6905 X-16.423 Y-26.801
N6910 X-16.983 Y-26.458
N6915 X-17.05 Y-26.415
N6920 X-17.588 Y-26.047
N6925 X-17.621 Y-26.024
N6930 X-17.688 Y-25.975
N6935 X-17.713 Y-25.957
N6940 X-18.07 Y-25.687
N6945 X-18.113 Y-25.654
N6950 X-18.466 Y-25.368
N6955 X-18.509 Y-25.332
N6960 X-18.855 Y-25.031
N6965 X-18.899 Y-24.991
N6970 X-19.235 Y-24.675
N6975 X-19.281 Y-24.631
N6980 X-19.604 Y-24.302
N6985 X-19.651 Y-24.253
N6990 X-19.958 Y-23.912
N6995 X-20.007 Y-23.855
N7000 X-20.296 Y-23.504
N7005 X-20.346 Y-23.439
N7010 X-20.613 Y-23.077
N7015 X-20.664 Y-23.003
N7020 X-20.907 Y-22.632
N7025 X-20.96 Y-22.545
N7030 X-21.178 Y-22.159
N7035 X-21.23 Y-22.059
N7040 X-21.42 Y-21.659
N7045 X-21.471 Y-21.541
N7050 X-21.627 Y-21.127
N7055 X-21.661 Y-21.028
N7060 X-21.726 Y-20.816
N7065 X-21.746 Y-20.744
N7070 X-21.801 Y-20.53
N7075 X-21.818 Y-20.453
N7080 X-21.862 Y-20.236
N7085 X-21.876 Y-20.155
N7090 X-21.908 Y-19.938
N7095 X-21.919 Y-19.854
N7100 X-21.939 Y-19.636
N7105 X-21.945 Y-19.551
N7110 X-21.954 Y-19.333
N7115 X-21.955 Y-19.246
N7120 X-21.952 Y-19.028
N7125 X-21.948 Y-18.94
N7130 X-21.933 Y-18.722
N7135 X-21.924 Y-18.635
N7140 X-21.896 Y-18.418
N7145 X-21.883 Y-18.33
N7150 X-21.843 Y-18.113
N7155 X-21.825 Y-18.028
N7160 X-21.773 Y-17.814
N7165 X-21.751 Y-17.732
N7170 X-21.689 Y-17.521
N7175 X-21.664 Y-17.446
N7180 X-21.591 Y-17.239
N7185 X-21.563 Y-17.166
N7190 X-21.48 Y-16.963
N7195 X-21.437 Y-16.866
N7200 X-21.243 Y-16.471
N7205 X-21.182 Y-16.358
N7210 X-20.956 Y-15.977
N7215 X-20.896 Y-15.884
N7220 X-20.639 Y-15.513
N7225 X-20.583 Y-15.436
N7230 X-20.299 Y-15.074
N7235 X-20.248 Y-15.013
N7240 X-19.941 Y-14.659
N7245 X-19.896 Y-14.609
N7250 X-19.568 Y-14.262
N7255 X-19.53 Y-14.224
N7260 X-19.185 Y-13.883
N7265 X-19.155 Y-13.854
N7270 X-18.795 Y-13.516
N7275 X-18.771 Y-13.495
N7280 X-18.398 Y-13.159
N7285 X-18.377 Y-13.14
N7290 X-17.605 Y-12.47
N7295 X-17.598 Y-12.464
N7300 X-16.82 Y-11.796
N7305 X-16.065 Y-11.127
N7310 X-15.715 Y-10.8
N7315 X-15.378 Y-10.47
N7320 X-15.06 Y-10.14
N7325 X-14.765 Y-9.809
N7330 X-14.495 Y-9.478
N7335 X-14.249 Y-9.145
N7340 X-14.032 Y-8.81
N7345 X-13.837 Y-8.461
N7350 X-13.761 Y-8.306
N7355 X-13.688 Y-8.138
N7360 X-13.623 Y-7.971
N7365 X-13.567 Y-7.803
N7370 X-13.521 Y-7.641
N7375 X-13.485 Y-7.486
N7380 X-13.457 Y-7.338
N7385 X-13.437 Y-7.197
N7390 X-13.425 Y-7.062
N7395 X-13.418 Y-6.933
N7400 X-13.417 Y-6.81
N7405 X-13.421 Y-6.706
N7410 X-13.443 Y-6.468
N7415 X-13.481 Y-6.249
N7420 X-13.536 Y-6.035
N7425 X-13.606 Y-5.824
N7430 X-13.694 Y-5.619
N7435 X-13.797 Y-5.419
N7440 X-13.916 Y-5.227
N7445 X-14.049 Y-5.043
N7450 X-14.196 Y-4.867
N7455 X-14.359 Y-4.7
N7460 X-14.537 Y-4.54
N7465 X-14.728 Y-4.389
N7470 X-14.931 Y-4.249
N7475 X-15.148 Y-4.118
N7480 X-15.376 Y-3.997
N7485 X-15.617 Y-3.886
N7490 X-15.869 Y-3.783
N7495 X-16.133 Y-3.69
N7500 X-16.406 Y-3.606
N7505 X-16.688 Y-3.532
N7510 X-16.978 Y-3.466
N7515 X-17.266 Y-3.41
N7520 X-17.894 Y-3.315
N7525 X-18.527 Y-3.25
N7530 X-19.175 Y-3.206
N7535 X-19.836 Y-3.179
N7540 X-20.508 Y-3.162
N7545 X-21.185 Y-3.15
N7550 X-21.19 Y-3.149
N7555 X-21.86 Y-3.135
N7560 X-21.882 Y-3.134
N7565 X-22.536 Y-3.111
N7570 X-22.576 Y-3.109
N7575 X-23.212 Y-3.071
N7580 X-23.271 Y-3.066
N7585 X-23.884 Y-3.006
N7590 X-23.943 Y-2.999
N7595 X-24.24 Y-2.959
N7600 X-24.287 Y-2.952
N7605 X-24.577 Y-2.903
N7610 X-24.631 Y-2.893
N7615 X-24.914 Y-2.836
N7620 X-24.974 Y-2.823
N7625 X-25.249 Y-2.756
N7630 X-25.316 Y-2.738
N7635 X-25.582 Y-2.661
N7640 X-25.656 Y-2.637
N7645 X-25.914 Y-2.549
N7650 X-25.994 Y-2.519
N7655 X-26.242 Y-2.418
N7660 X-26.328 Y-2.38
N7665 X-26.567 Y-2.266
N7670 X-26.658 Y-2.219
N7675 X-26.886 Y-2.092
N7680 X-26.979 Y-2.036
N7685 X-27.197 Y-1.894
N7690 X-27.291 Y-1.827
N7695 X-27.497 Y-1.671
N7700 X-27.59 Y-1.594
N7705 X-27.784 Y-1.422
N7710 X-27.874 Y-1.335
N7715 X-28.055 Y-1.147
N7720 X-28.139 Y-1.052
N7725 X-28.304 Y-0.849
N7730 X-28.379 Y-0.75
N7735 X-28.528 Y-0.536
N7740 X-28.592 Y-0.436
N7745 X-28.724 Y-0.212
N7750 X-28.778 Y-0.112
N7755 X-28.893 Y0.121
N7760 X-28.938 Y0.218
N7765 X-29.038 Y0.46
N7770 X-29.073 Y0.553
N7775 X-29.158 Y0.802
N7780 X-29.186 Y0.89
N7785 X-29.257 Y1.144
N7790 X-29.278 Y1.227
N7795 X-29.335 Y1.485
N7800 X-29.35 Y1.561
N7805 X-29.395 Y1.822
N7810 X-29.405 Y1.893
N7815 X-29.438 Y2.156
N7820 X-29.445 Y2.22
N7825 X-29.467 Y2.484
N7830 X-29.472 Y2.57
N7835 X-29.488 Y3.098
N7840 Y3.198
N7845 X-29.471 Y3.732
N7850 X-29.465 Y3.819
N7855 X-29.418 Y4.359
N7860 X-29.409 Y4.435
N7865 X-29.336 Y4.977
N7870 X-29.325 Y5.044
N7875 X-29.228 Y5.582
N7880 X-29.216 Y5.642
N7885 X-29.1 Y6.171
N7890 X-29.087 Y6.225
N7895 X-28.954 Y6.741
N7900 X-28.942 Y6.785
N7905 G2 X-28.647 Y7.748 I28.982 J-8.357
N7910 G1 X-28.632 Y7.791
N7915 X-28.442 Y8.323
N7920 X-28.423 Y8.374
N7925 X-28.213 Y8.905
N7930 X-28.191 Y8.958
N7935 X-27.96 Y9.484
N7940 X-27.935 Y9.539
N7945 X-27.685 Y10.056
N7950 X-27.655 Y10.114
N7955 X-27.386 Y10.616
N7960 X-27.351 Y10.679
N7965 X-27.063 Y11.161
N7970 X-27.02 Y11.23
N7975 X-26.715 Y11.687
N7980 X-26.662 Y11.761
N7985 X-26.34 Y12.189
N7990 X-26.273 Y12.272
N7995 X-25.924 Y12.676
N8000 X-25.862 Y12.744
N8005 X-25.675 Y12.936
N8010 X-25.626 Y12.985
N8015 X-25.431 Y13.169
N8020 X-25.374 Y13.22
N8025 X-25.171 Y13.394
N8030 X-25.107 Y13.446
N8035 X-24.896 Y13.609
N8040 X-24.822 Y13.662
N8045 X-24.603 Y13.813
N8050 X-24.519 Y13.866
N8055 X-24.292 Y14.001
N8060 X-24.2 Y14.052
N8065 X-23.965 Y14.172
N8070 X-23.864 Y14.219
N8075 X-23.623 Y14.321
N8080 X-23.513 Y14.363
N8085 X-23.265 Y14.447
N8090 X-23.148 Y14.481
N8095 X-22.894 Y14.546
N8100 X-22.771 Y14.572
N8105 X-22.51 Y14.617
N8110 X-22.384 Y14.633
N8115 X-22.121 Y14.657
N8120 X-21.999 Y14.663
N8125 X-21.737 Y14.667
N8130 X-21.619 Y14.664
N8135 X-21.358 Y14.647
N8140 X-21.247 Y14.637
N8145 X-20.986 Y14.602
N8150 X-20.885 Y14.585
N8155 X-20.625 Y14.534
N8160 X-20.532 Y14.512
N8165 X-20.272 Y14.444
N8170 X-20.19 Y14.42
N8175 X-19.932 Y14.337
N8180 X-19.858 Y14.311
N8185 X-19.6 Y14.214
N8190 X-19.536 Y14.188
N8195 X-19.279 Y14.079
N8200 X-19.223 Y14.053
N8205 X-18.966 Y13.932
N8210 X-18.918 Y13.908
N8215 X-18.662 Y13.776
N8220 X-18.602 Y13.744
N8225 X-18.09 Y13.451
N8230 X-18.031 Y13.415
N8235 X-17.515 Y13.089
N8240 X-17.474 Y13.063
N8245 X-16.953 Y12.711
N8250 X-16.929 Y12.695
N8255 X-16.401 Y12.325
N8260 X-16.391 Y12.318
N8265 X-15.856 Y11.937
N8270 X-15.32 Y11.557
N8275 X-14.784 Y11.188
N8280 X-14.244 Y10.834
N8285 X-13.701 Y10.502
N8290 X-13.146 Y10.195
N8295 X-12.882 Y10.063
N8300 X-12.611 Y9.937
N8305 X-12.341 Y9.822
N8310 X-12.073 Y9.719
N8315 X-11.806 Y9.629
N8320 X-11.537 Y9.551
N8325 X-11.252 Y9.483
N8330 X-10.954 Y9.429
N8335 X-10.646 Y9.394
N8340 X-10.312 Y9.381
N8345 X-10.166 Y9.384
N8350 X-10.003 Y9.394
N8355 X-9.84 Y9.411
N8360 X-9.68 Y9.435
N8365 X-9.523 Y9.466
N8370 X-9.37 Y9.505
N8375 X-9.22 Y9.55
N8380 X-9.073 Y9.601
N8385 X-8.929 Y9.66
N8390 X-8.789 Y9.726
N8395 X-8.652 Y9.799
N8400 X-8.52 Y9.878
N8405 X-8.392 Y9.963
N8410 X-8.269 Y10.054
N8415 X-8.152 Y10.151
N8420 X-8.04 Y10.254
N8425 X-7.933 Y10.362
N8430 X-7.831 Y10.477
N8435 X-7.735 Y10.596
N8440 X-7.646 Y10.72
N8445 X-7.563 Y10.849
N8450 X-7.485 Y10.982
N8455 X-7.414 Y11.121
N8460 X-7.349 Y11.265
N8465 X-7.289 Y11.414
N8470 X-7.241 Y11.553
N8475 X-7.146 Y11.895
N8480 X-7.081 Y12.236
N8485 X-7.039 Y12.594
N8490 X-7.02 Y12.968
N8495 X-7.023 Y13.354
N8500 X-7.047 Y13.753
N8505 X-7.089 Y14.165
N8510 X-7.15 Y14.588
N8515 X-7.226 Y15.021
N8520 X-7.316 Y15.461
N8525 X-7.416 Y15.904
N8530 X-7.648 Y16.821
N8535 X-7.898 Y17.742
N8540 X-7.899 Y17.745
N8545 X-8.146 Y18.664
N8550 X-8.151 Y18.684
N8555 X-8.267 Y19.136
N8560 X-8.273 Y19.16
N8565 X-8.379 Y19.607
N8570 X-8.387 Y19.639
N8575 X-8.482 Y20.08
N8580 X-8.491 Y20.122
N8585 X-8.572 Y20.556
N8590 X-8.581 Y20.608
N8595 X-8.647 Y21.035
N8600 X-8.655 Y21.099
N8605 X-8.703 Y21.517
N8610 X-8.709 Y21.594
N8615 X-8.736 Y22.005
N8620 X-8.739 Y22.095
N8625 X-8.741 Y22.498
N8630 X-8.739 Y22.605
N8635 X-8.714 Y23.006
N8640 X-8.702 Y23.129
N8645 X-8.647 Y23.527
N8650 X-8.621 Y23.666
N8655 X-8.53 Y24.057
N8660 X-8.499 Y24.171
N8665 X-8.44 Y24.363
N8670 X-8.413 Y24.442
N8675 X-8.343 Y24.63
N8680 X-8.31 Y24.711
N8685 X-8.231 Y24.894
N8690 X-8.194 Y24.973
N8695 X-8.105 Y25.15
N8700 X-8.063 Y25.229
N8705 X-7.964 Y25.401
N8710 X-7.918 Y25.477
N8715 X-7.81 Y25.642
N8720 X-7.759 Y25.715
N8725 X-7.642 Y25.875
N8730 X-7.588 Y25.945
N8735 X-7.461 Y26.099
N8740 X-7.404 Y26.164
N8745 X-7.268 Y26.313
N8750 X-7.21 Y26.373
N8755 X-7.066 Y26.514
N8760 X-6.978 Y26.594
N8765 X-6.671 Y26.852
N8770 X-6.555 Y26.94
N8775 X-6.226 Y27.169
N8780 X-6.116 Y27.24
N8785 X-5.768 Y27.441
N8790 X-5.665 Y27.496
N8795 X-5.302 Y27.672
N8800 X-5.207 Y27.714
N8805 X-4.831 Y27.868
N8810 X-4.746 Y27.9
N8815 X-4.359 Y28.032
N8820 X-4.282 Y28.056
N8825 X-3.89 Y28.169
N8830 X-3.821 Y28.187
N8835 X-3.426 Y28.281
N8840 X-3.364 Y28.295
N8845 X-2.97 Y28.372
N8850 X-2.914 Y28.382
N8855 X-2.525 Y28.444
N8860 X-2.474 Y28.451
N8865 X-2.094 Y28.499
N8870 X-2.048 Y28.504
N8875 X-1.68 Y28.54
N8880 X-1.614 Y28.545
N8885 G2 X0.04 Y28.59 I1.654 J-30.117
N8890 G1 X0.102 Y28.589
N8895 X0.536 Y28.572
N8900 X0.581 Y28.569
N8905 X1.02 Y28.539
N8910 X1.066 Y28.535
N8915 X1.507 Y28.492
N8920 X1.555 Y28.487
N8925 X1.995 Y28.43
N8930 X2.046 Y28.423
N8935 X2.484 Y28.352
N8940 X2.537 Y28.343
N8945 X2.97 Y28.257
N8950 X3.027 Y28.245
N8955 X3.453 Y28.145
N8960 X3.514 Y28.129
N8965 X3.93 Y28.013
N8970 X3.996 Y27.993
N8975 X4.4 Y27.862
N8980 X4.472 Y27.837
N8985 X4.861 Y27.689
N8990 X4.94 Y27.657
N8995 X5.319 Y27.489
N9000 X5.406 Y27.448
N9005 X5.776 Y27.257
N9010 X5.872 Y27.203
N9015 X6.227 Y26.987
N9020 X6.331 Y26.918
N9025 X6.668 Y26.676
N9030 X6.779 Y26.588
N9035 X7.092 Y26.317
N9040 X7.177 Y26.238
N9045 X7.322 Y26.092
N9050 X7.378 Y26.033
N9055 X7.515 Y25.881
N9060 X7.57 Y25.816
N9065 X7.698 Y25.658
N9070 X7.751 Y25.588
N9075 X7.87 Y25.423
N9080 X7.92 Y25.349
N9085 X8.029 Y25.178
N9090 X8.076 Y25.1
N9095 X8.176 Y24.921
N9100 X8.218 Y24.84
N9105 X8.308 Y24.655
N9110 X8.346 Y24.571
N9115 X8.425 Y24.38
N9120 X8.457 Y24.297
N9125 X8.525 Y24.104
N9130 X8.552 Y24.021
N9135 X8.609 Y23.825
N9140 X8.63 Y23.745
N9145 X8.677 Y23.546
N9150 X8.693 Y23.469
N9155 X8.73 Y23.268
N9160 X8.746 Y23.16
N9165 X8.793 Y22.75
N9170 X8.802 Y22.621
N9175 X8.815 Y22.202
N9180 Y22.091
N9185 X8.798 Y21.664
N9190 X8.792 Y21.57
N9195 X8.749 Y21.135
N9200 X8.74 Y21.058
N9205 X8.674 Y20.615
N9210 X8.664 Y20.553
N9215 X8.579 Y20.104
N9220 X8.569 Y20.056
N9225 X8.468 Y19.599
N9230 X8.46 Y19.563
N9235 X8.345 Y19.098
N9240 X8.339 Y19.072
N9245 X8.215 Y18.599
N9250 X8.209 Y18.581
N9255 X7.943 Y17.617
N9260 X7.679 Y16.648
N9265 X7.441 Y15.681
N9270 X7.342 Y15.218
N9275 X7.258 Y14.753
N9280 X7.19 Y14.292
N9285 X7.143 Y13.838
N9290 X7.118 Y13.394
N9295 X7.117 Y12.963
N9300 X7.143 Y12.547
N9305 X7.199 Y12.132
N9310 X7.231 Y11.963
N9315 X7.272 Y11.791
N9320 X7.316 Y11.631
N9325 X7.363 Y11.482
N9330 X7.414 Y11.343
N9335 X7.467 Y11.213
N9340 X7.523 Y11.092
N9345 X7.573 Y10.991
N9350 X7.699 Y10.774
N9355 X7.826 Y10.588
N9360 X7.964 Y10.416
N9365 X8.114 Y10.258
N9370 X8.275 Y10.113
N9375 X8.448 Y9.981
N9380 X8.63 Y9.865
N9385 X8.821 Y9.764
N9390 X9.021 Y9.677
N9395 X9.231 Y9.606
N9400 X9.452 Y9.55
N9405 X9.68 Y9.509
N9410 X9.915 Y9.485
N9415 X10.159 Y9.476
N9420 X10.409 Y9.483
N9425 X10.667 Y9.505
N9430 X10.931 Y9.543
N9435 X11.199 Y9.595
N9440 X11.472 Y9.661
N9445 X11.748 Y9.741
N9450 X12.027 Y9.834
N9455 X12.308 Y9.939
N9460 X12.589 Y10.054
N9465 X12.862 Y10.175
N9470 X13.44 Y10.458
N9475 X14.014 Y10.767
N9480 X14.592 Y11.102
N9485 X15.174 Y11.456
N9490 X15.76 Y11.821
N9495 X16.345 Y12.185
N9500 X16.357 Y12.193
N9505 X16.934 Y12.545
N9510 X16.961 Y12.561
N9515 X17.53 Y12.893
N9520 X17.575 Y12.918
N9525 X18.14 Y13.224
N9530 X18.206 Y13.258
N9535 X18.77 Y13.53
N9540 X18.834 Y13.559
N9545 X19.116 Y13.68
N9550 X19.168 Y13.701
N9555 X19.45 Y13.811
N9560 X19.51 Y13.832
N9565 X19.792 Y13.929
N9570 X19.859 Y13.95
N9575 X20.14 Y14.033
N9580 X20.216 Y14.053
N9585 X20.499 Y14.121
N9590 X20.583 Y14.139
N9595 X20.867 Y14.191
N9600 X20.96 Y14.205
N9605 X21.245 Y14.24
N9610 X21.347 Y14.249
N9615 X21.633 Y14.265
N9620 X21.743 Y14.268
N9625 X22.029 Y14.264
N9630 X22.145 Y14.259
N9635 X22.432 Y14.234
N9640 X22.552 Y14.219
N9645 X22.838 Y14.173
N9650 X22.956 Y14.149
N9655 X23.235 Y14.082
N9660 X23.35 Y14.049
N9665 X23.622 Y13.961
N9670 X23.731 Y13.921
N9675 X23.996 Y13.813
N9680 X24.098 Y13.768
N9685 X24.356 Y13.641
N9690 X24.451 Y13.59
N9695 X24.702 Y13.445
N9700 X24.788 Y13.391
N9705 X25.029 Y13.23
N9710 X25.105 Y13.176
N9715 X25.337 Y13.001
N9720 X25.405 Y12.947
N9725 X25.627 Y12.759
N9730 X25.686 Y12.706
N9735 X25.899 Y12.507
N9740 X25.951 Y12.455
N9745 X26.154 Y12.247
N9750 X26.2 Y12.198
N9755 X26.394 Y11.982
N9760 X26.434 Y11.935
N9765 X26.62 Y11.71
N9770 X26.656 Y11.664
N9775 X26.836 Y11.43
N9780 X26.883 Y11.366
N9785 X27.223 Y10.873
N9790 X27.274 Y10.794
N9795 X27.588 Y10.275
N9800 X27.631 Y10.201
N9805 X27.918 Y9.664
N9810 X27.953 Y9.595
N9815 X28.213 Y9.045
N9820 X28.242 Y8.98
N9825 X28.475 Y8.425
N9830 X28.5 Y8.362
N9835 X28.705 Y7.809
N9840 X28.726 Y7.748
N9845 G2 X29.053 Y6.673 I-28.686 J-9.322
N9850 G1 X29.067 Y6.621
N9855 X29.153 Y6.272
N9860 X29.164 Y6.228
N9865 X29.241 Y5.873
N9870 X29.25 Y5.826
N9875 X29.318 Y5.466
N9880 X29.327 Y5.415
N9885 X29.382 Y5.05
N9890 X29.39 Y4.996
N9895 X29.433 Y4.629
N9900 X29.439 Y4.57
N9905 X29.468 Y4.203
N9910 X29.472 Y4.138
N9915 X29.487 Y3.772
N9920 X29.488 Y3.702
N9925 X29.486 Y3.338
N9930 X29.485 Y3.286
N9935 G3 X29.79 Y2.957 I0.317 J-0.012
N9940 G1 X30.107 Y2.944
N9945 X30.178 Y2.942 Z-6.342
N9950 X30.245 Y2.939 Z-6.319
N9955 X30.305 Y2.937 Z-6.281
N9960 X30.355 Y2.935 Z-6.23
N9965 X30.393 Y2.933 Z-6.17
N9970 X30.416 Y2.932 Z-6.103
N9975 X30.424 Z-6.033
N9980 Z5.
N9985 X30.449 Y3.567
N9990 Z-1.35 F1033.33
N9995 Z-9.208
N10000 X30.441 Z-9.278 F3100.
N10005 X30.417 Y3.568 Z-9.345
N10010 X30.379 Y3.569 Z-9.405
N10015 X30.329 Y3.571 Z-9.456
N10020 X30.269 Y3.574 Z-9.494
N10025 X30.202 Y3.576 Z-9.517
N10030 X30.131 Y3.579 Z-9.525
N10035 X29.814 Y3.591
N10040 G3 X29.485 Y3.286 I-0.012 J-0.317
N10045 G1 X29.483 Y3.26
N10050 X29.464 Y2.901
N10055 X29.457 Y2.816
N10060 X29.418 Y2.461
N10065 X29.405 Y2.367
N10070 X29.345 Y2.016
N10075 X29.324 Y1.913
N10080 X29.241 Y1.567
N10085 X29.21 Y1.456
N10090 X29.103 Y1.118
N10095 X29.06 Y0.999
N10100 X28.925 Y0.67
N10105 X28.868 Y0.545
N10110 X28.706 Y0.229
N10115 X28.634 Y0.103
N10120 X28.446 Y-0.194
N10125 X28.361 Y-0.316
N10130 X28.146 Y-0.593
N10135 X28.049 Y-0.707
N10140 X27.809 Y-0.963
N10145 X27.703 Y-1.066
N10150 X27.437 Y-1.302
N10155 X27.327 Y-1.391
N10160 X27.041 Y-1.602
N10165 X26.932 Y-1.675
N10170 X26.63 Y-1.861
N10175 X26.526 Y-1.92
N10180 X26.211 Y-2.083
N10185 X26.115 Y-2.129
N10190 X25.788 Y-2.271
N10195 X25.701 Y-2.306
N10200 X25.364 Y-2.429
N10205 X25.286 Y-2.455
N10210 X24.936 Y-2.563
N10215 X24.867 Y-2.583
N10220 X24.507 Y-2.676
N10225 X24.446 Y-2.691
N10230 X24.076 Y-2.771
N10235 X24.024 Y-2.782
N10240 X23.645 Y-2.851
N10245 X23.601 Y-2.859
N10250 X23.214 Y-2.918
N10255 X23.178 Y-2.923
N10260 X22.784 Y-2.975
N10265 X22.743 Y-2.979
N10270 X21.935 Y-3.063
N10275 X21.902 Y-3.066
N10280 X21.068 Y-3.135
N10285 X21.058 Y-3.136
N10290 X20.213 Y-3.2
N10295 X19.376 Y-3.27
N10300 X18.562 Y-3.354
N10305 X17.769 Y-3.464
N10310 X17.401 Y-3.528
N10315 X17.037 Y-3.602
N10320 X16.686 Y-3.685
N10325 X16.35 Y-3.778
N10330 X16.029 Y-3.882
N10335 X15.725 Y-3.996
N10340 X15.437 Y-4.121
N10345 X15.167 Y-4.258
N10350 X14.916 Y-4.406
N10355 X14.684 Y-4.565
N10360 X14.472 Y-4.735
N10365 X14.278 Y-4.918
N10370 X14.107 Y-5.11
N10375 X13.958 Y-5.312
N10380 X13.829 Y-5.523
N10385 X13.721 Y-5.745
N10390 X13.633 Y-5.978
N10395 X13.567 Y-6.218
N10400 X13.523 Y-6.466
N10405 X13.5 Y-6.721
N10410 Y-6.983
N10415 X13.522 Y-7.247
N10420 X13.567 Y-7.514
N10425 X13.633 Y-7.785
N10430 X13.722 Y-8.057
N10435 X13.832 Y-8.331
N10440 X13.962 Y-8.603
N10445 X14.112 Y-8.875
N10450 X14.281 Y-9.144
N10455 X14.467 Y-9.411
N10460 X14.67 Y-9.676
N10465 X14.887 Y-9.937
N10470 X15.119 Y-10.195
N10475 X15.364 Y-10.45
N10480 X15.62 Y-10.701
N10485 X15.882 Y-10.945
N10490 X16.45 Y-11.441
N10495 X17.035 Y-11.919
N10500 X17.634 Y-12.39
N10505 X18.233 Y-12.856
N10510 X18.242 Y-12.863
N10515 X18.826 Y-13.324
N10520 X18.854 Y-13.346
N10525 X19.41 Y-13.806
N10530 X19.443 Y-13.834
N10535 X19.707 Y-14.064
N10540 X19.735 Y-14.09
N10545 X19.99 Y-14.322
N10550 X20.023 Y-14.354
N10555 X20.265 Y-14.589
N10560 X20.303 Y-14.627
N10565 X20.533 Y-14.865
N10570 X20.575 Y-14.911
N10575 X20.792 Y-15.154
N10580 X20.838 Y-15.209
N10585 X21.04 Y-15.457
N10590 X21.091 Y-15.523
N10595 X21.276 Y-15.778
N10600 X21.329 Y-15.856
N10605 X21.497 Y-16.117
N10610 X21.55 Y-16.207
N10615 X21.699 Y-16.476
N10620 X21.751 Y-16.579
N10625 X21.878 Y-16.856
N10630 X21.926 Y-16.971
N10635 X22.03 Y-17.254
N10640 X22.07 Y-17.378
N10645 X22.15 Y-17.666
N10650 X22.181 Y-17.797
N10655 X22.236 Y-18.09
N10660 X22.255 Y-18.227
N10665 X22.285 Y-18.526
N10670 X22.293 Y-18.662
N10675 X22.297 Y-18.966
N10680 X22.293 Y-19.098
N10685 X22.272 Y-19.4
N10690 X22.258 Y-19.523
N10695 X22.213 Y-19.821
N10700 X22.192 Y-19.935
N10705 X22.125 Y-20.23
N10710 X22.099 Y-20.333
N10715 X22.012 Y-20.624
N10720 X21.981 Y-20.716
N10725 X21.877 Y-21.003
N10730 X21.844 Y-21.086
N10735 X21.723 Y-21.367
N10740 X21.689 Y-21.441
N10745 X21.553 Y-21.717
N10750 X21.519 Y-21.782
N10755 X21.37 Y-22.053
N10760 X21.336 Y-22.111
N10765 X21.176 Y-22.375
N10770 X21.143 Y-22.426
N10775 X20.973 Y-22.683
N10780 X20.942 Y-22.729
N10785 X20.765 Y-22.979
N10790 X20.721 Y-23.038
N10795 X20.343 Y-23.519
N10800 X20.287 Y-23.586
N10805 X19.877 Y-24.054
N10810 X19.825 Y-24.112
N10815 X19.388 Y-24.564
N10820 X19.337 Y-24.613
N10825 X18.88 Y-25.046
N10830 X18.831 Y-25.091
N10835 X18.359 Y-25.502
N10840 X18.311 Y-25.542
N10845 X17.83 Y-25.928
N10850 X17.769 Y-25.975
N10855 G2 X16.088 Y-27.111 I-17.729 J24.402
N10860 G1 X16.009 Y-27.158
N10865 X15.426 Y-27.478
N10870 X15.368 Y-27.509
N10875 X15.065 Y-27.659
N10880 X15.021 Y-27.68
N10885 X14.713 Y-27.821
N10890 X14.664 Y-27.843
N10895 X14.351 Y-27.974
N10900 X14.296 Y-27.996
N10905 X13.979 Y-28.115
N10910 X13.918 Y-28.136
N10915 X13.599 Y-28.241
N10920 X13.531 Y-28.262
N10925 X13.21 Y-28.352
N10930 X13.133 Y-28.372
N10935 X12.811 Y-28.445
N10940 X12.726 Y-28.462
N10945 X12.403 Y-28.518
N10950 X12.308 Y-28.531
N10955 X11.982 Y-28.567
N10960 X11.876 Y-28.575
N10965 X11.549 Y-28.589
N10970 X11.431
N10975 X11.104 Y-28.578
N10980 X10.976 Y-28.569
N10985 X10.651 Y-28.532
N10990 X10.513 Y-28.51
N10995 X10.193 Y-28.445
N11000 X10.051 Y-28.409
N11005 X9.742 Y-28.315
N11010 X9.6 Y-28.265
N11015 X9.302 Y-28.143
N11020 X9.166 Y-28.08
N11025 X8.879 Y-27.929
N11030 X8.752 Y-27.855
N11035 X8.478 Y-27.677
N11040 X8.363 Y-27.595
N11045 X8.106 Y-27.394
N11050 X8.008 Y-27.31
N11055 X7.768 Y-27.089
N11060 X7.686 Y-27.007
N11065 X7.462 Y-26.769
N11070 X7.394 Y-26.691
N11075 X7.186 Y-26.437
N11080 X7.131 Y-26.365
N11085 X6.935 Y-26.097
N11090 X6.89 Y-26.031
N11095 X6.705 Y-25.749
N11100 X6.668 Y-25.689
N11105 X6.492 Y-25.393
N11110 X6.462 Y-25.34
N11115 X6.295 Y-25.031
N11120 X6.271 Y-24.986
N11125 X6.111 Y-24.667
N11130 X6.084 Y-24.61
N11135 X5.783 Y-23.944
N11140 X5.759 Y-23.89
N11145 X5.473 Y-23.19
N11150 X5.46 Y-23.157
N11155 X5.181 Y-22.429
N11160 X5.176 Y-22.416
N11165 X4.898 Y-21.671
N11170 X4.617 Y-20.929
N11175 X4.329 Y-20.204
N11180 X4.03 Y-19.507
N11185 X3.709 Y-18.835
N11190 X3.548 Y-18.53
N11195 X3.377 Y-18.23
N11200 X3.201 Y-17.943
N11205 X3.02 Y-17.671
N11210 X2.832 Y-17.415
N11215 X2.637 Y-17.174
N11220 X2.436 Y-16.951
N11225 X2.229 Y-16.746
N11230 X2.016 Y-16.561
N11235 X1.798 Y-16.397
N11240 X1.575 Y-16.254
N11245 X1.35 Y-16.133
N11250 X1.123 Y-16.035
N11255 X0.892 Y-15.959
N11260 X0.657 Y-15.904
N11265 X0.42 Y-15.87
N11270 X0.181 Y-15.859
N11275 X-0.057 Y-15.87
N11280 X-0.297 Y-15.903
N11285 X-0.538 Y-15.958
N11290 X-0.775 Y-16.035
N11295 X-1.009 Y-16.133
N11300 X-1.242 Y-16.253
N11305 X-1.472 Y-16.395
N11310 X-1.699 Y-16.557
N11315 X-1.919 Y-16.74
N11320 X-2.135 Y-16.941
N11325 X-2.345 Y-17.16
N11330 X-2.548 Y-17.397
N11335 X-2.746 Y-17.648
N11340 X-2.938 Y-17.916
N11345 X-3.125 Y-18.197
N11350 X-3.306 Y-18.491
N11355 X-3.478 Y-18.789
N11360 X-3.82 Y-19.44
N11365 X-4.137 Y-20.107
N11370 X-4.44 Y-20.79
N11375 X-4.736 Y-21.486
N11380 X-5.03 Y-22.185
N11385 X-5.035 Y-22.197
N11390 X-5.33 Y-22.882
N11395 X-5.343 Y-22.912
N11400 X-5.645 Y-23.575
N11405 X-5.669 Y-23.625
N11410 X-5.984 Y-24.257
N11415 X-6.01 Y-24.308
N11420 X-6.174 Y-24.611
N11425 X-6.197 Y-24.652
N11430 X-6.368 Y-24.945
N11435 X-6.396 Y-24.991
N11440 X-6.573 Y-25.273
N11445 X-6.607 Y-25.324
N11450 X-6.792 Y-25.594
N11455 X-6.832 Y-25.651
N11460 X-7.027 Y-25.91
N11465 X-7.076 Y-25.973
N11470 X-7.282 Y-26.221
N11475 X-7.341 Y-26.288
N11480 X-7.561 Y-26.524
N11485 X-7.631 Y-26.594
N11490 X-7.865 Y-26.815
N11495 X-7.947 Y-26.888
N11500 X-8.196 Y-27.093
N11505 X-8.291 Y-27.165
N11510 X-8.555 Y-27.351
N11515 X-8.662 Y-27.42
N11520 X-8.939 Y-27.584
N11525 X-9.054 Y-27.646
N11530 X-9.341 Y-27.785
N11535 X-9.462 Y-27.837
N11540 X-9.758 Y-27.951
N11545 X-9.883 Y-27.993
N11550 X-10.189 Y-28.083
N11555 X-10.315 Y-28.115
N11560 X-10.631 Y-28.18
N11565 X-10.753 Y-28.2
N11570 X-11.073 Y-28.24
N11575 X-11.188 Y-28.251
N11580 X-11.51 Y-28.268
N11585 X-11.618 Y-28.27
N11590 X-11.94 Y-28.265
N11595 X-12.04 Y-28.26
N11600 X-12.362 Y-28.235
N11605 X-12.452 Y-28.225
N11610 X-12.773 Y-28.181
N11615 X-12.855 Y-28.168
N11620 X-13.175 Y-28.107
N11625 X-13.249 Y-28.091
N11630 X-13.566 Y-28.015
N11635 X-13.635 Y-27.997
N11640 X-13.95 Y-27.906
N11645 X-14.011 Y-27.887
N11650 X-14.322 Y-27.783
N11655 X-14.378 Y-27.763
N11660 X-14.685 Y-27.648
N11665 X-14.736 Y-27.628
N11670 X-15.037 Y-27.503
N11675 X-15.105 Y-27.473
N11680 X-15.693 Y-27.197
N11685 X-15.774 Y-27.156
N11690 X-16.35 Y-26.843
N11695 X-16.423 Y-26.801
N11700 X-16.983 Y-26.458
N11705 X-17.05 Y-26.415
N11710 X-17.588 Y-26.047
N11715 X-17.621 Y-26.024
N11720 X-17.688 Y-25.975
N11725 X-17.713 Y-25.957
N11730 X-18.07 Y-25.687
N11735 X-18.113 Y-25.654
N11740 X-18.466 Y-25.368
N11745 X-18.509 Y-25.332
N11750 X-18.855 Y-25.031
N11755 X-18.899 Y-24.991
N11760 X-19.235 Y-24.675
N11765 X-19.281 Y-24.631
N11770 X-19.604 Y-24.302
N11775 X-19.651 Y-24.253
N11780 X-19.958 Y-23.912
N11785 X-20.007 Y-23.855
N11790 X-20.296 Y-23.504
N11795 X-20.346 Y-23.439
N11800 X-20.613 Y-23.077
N11805 X-20.664 Y-23.003
N11810 X-20.907 Y-22.632
N11815 X-20.96 Y-22.545
N11820 X-21.178 Y-22.159
N11825 X-21.23 Y-22.059
N11830 X-21.42 Y-21.659
N11835 X-21.471 Y-21.541
N11840 X-21.627 Y-21.127
N11845 X-21.661 Y-21.028
N11850 X-21.726 Y-20.816
N11855 X-21.746 Y-20.744
N11860 X-21.801 Y-20.53
N11865 X-21.818 Y-20.453
N11870 X-21.862 Y-20.236
N11875 X-21.876 Y-20.155
N11880 X-21.908 Y-19.938
N11885 X-21.919 Y-19.854
N11890 X-21.939 Y-19.636
N11895 X-21.945 Y-19.551
N11900 X-21.954 Y-19.333
N11905 X-21.955 Y-19.246
N11910 X-21.952 Y-19.028
N11915 X-21.948 Y-18.94
N11920 X-21.933 Y-18.722
N11925 X-21.924 Y-18.635
N11930 X-21.896 Y-18.418
N11935 X-21.883 Y-18.33
N11940 X-21.843 Y-18.113
N11945 X-21.825 Y-18.028
N11950 X-21.773 Y-17.814
N11955 X-21.751 Y-17.732
N11960 X-21.689 Y-17.521
N11965 X-21.664 Y-17.446
N11970 X-21.591 Y-17.239
N11975 X-21.563 Y-17.166
N11980 X-21.48 Y-16.963
N11985 X-21.437 Y-16.866
N11990 X-21.243 Y-16.471
N11995 X-21.182 Y-16.358
N12000 X-20.956 Y-15.977
N12005 X-20.896 Y-15.884
N12010 X-20.639 Y-15.513
N12015 X-20.583 Y-15.436
N12020 X-20.299 Y-15.074
N12025 X-20.248 Y-15.013
N12030 X-19.941 Y-14.659
N12035 X-19.896 Y-14.609
N12040 X-19.568 Y-14.262
N12045 X-19.53 Y-14.224
N12050 X-19.185 Y-13.883
N12055 X-19.155 Y-13.854
N12060 X-18.795 Y-13.516
N12065 X-18.771 Y-13.495
N12070 X-18.398 Y-13.159
N12075 X-18.377 Y-13.14
N12080 X-17.605 Y-12.47
N12085 X-17.598 Y-12.464
N12090 X-16.82 Y-11.796
N12095 X-16.065 Y-11.127
N12100 X-15.715 Y-10.8
N12105 X-15.378 Y-10.47
N12110 X-15.06 Y-10.14
N12115 X-14.765 Y-9.809
N12120 X-14.495 Y-9.478
N12125 X-14.249 Y-9.145
N12130 X-14.032 Y-8.81
N12135 X-13.837 Y-8.461
N12140 X-13.761 Y-8.306
N12145 X-13.688 Y-8.138
N12150 X-13.623 Y-7.971
N12155 X-13.567 Y-7.803
N12160 X-13.521 Y-7.641
N12165 X-13.485 Y-7.486
N12170 X-13.457 Y-7.338
N12175 X-13.437 Y-7.197
N12180 X-13.425 Y-7.062
N12185 X-13.418 Y-6.933
N12190 X-13.417 Y-6.81
N12195 X-13.421 Y-6.706
N12200 X-13.443 Y-6.468
N12205 X-13.481 Y-6.249
N12210 X-13.536 Y-6.035
N12215 X-13.606 Y-5.824
N12220 X-13.694 Y-5.619
N12225 X-13.797 Y-5.419
N12230 X-13.916 Y-5.227
N12235 X-14.049 Y-5.043
N12240 X-14.196 Y-4.867
N12245 X-14.359 Y-4.7
N12250 X-14.537 Y-4.54
N12255 X-14.728 Y-4.389
N12260 X-14.931 Y-4.249
N12265 X-15.148 Y-4.118
N12270 X-15.376 Y-3.997
N12275 X-15.617 Y-3.886
N12280 X-15.869 Y-3.783
N12285 X-16.133 Y-3.69
N12290 X-16.406 Y-3.606
N12295 X-16.688 Y-3.532
N12300 X-16.978 Y-3.466
N12305 X-17.266 Y-3.41
N12310 X-17.894 Y-3.315
N12315 X-18.527 Y-3.25
N12320 X-19.175 Y-3.206
N12325 X-19.836 Y-3.179
N12330 X-20.508 Y-3.162
N12335 X-21.185 Y-3.15
N12340 X-21.19 Y-3.149
N12345 X-21.86 Y-3.135
N12350 X-21.882 Y-3.134
N12355 X-22.536 Y-3.111
N12360 X-22.576 Y-3.109
N12365 X-23.212 Y-3.071
N12370 X-23.271 Y-3.066
N12375 X-23.884 Y-3.006
N12380 X-23.943 Y-2.999
N12385 X-24.24 Y-2.959
N12390 X-24.287 Y-2.952
N12395 X-24.577 Y-2.903
N12400 X-24.631 Y-2.893
N12405 X-24.914 Y-2.836
N12410 X-24.974 Y-2.823
N12415 X-25.249 Y-2.756
N12420 X-25.316 Y-2.738
N12425 X-25.582 Y-2.661
N12430 X-25.656 Y-2.637
N12435 X-25.914 Y-2.549
N12440 X-25.994 Y-2.519
N12445 X-26.242 Y-2.418
N12450 X-26.328 Y-2.38
N12455 X-26.567 Y-2.266
N12460 X-26.658 Y-2.219
N12465 X-26.886 Y-2.092
N12470 X-26.979 Y-2.036
N12475 X-27.197 Y-1.894
N12480 X-27.291 Y-1.827
N12485 X-27.497 Y-1.671
N12490 X-27.59 Y-1.594
N12495 X-27.784 Y-1.422
N12500 X-27.874 Y-1.335
N12505 X-28.055 Y-1.147
N12510 X-28.139 Y-1.052
N12515 X-28.304 Y-0.849
N12520 X-28.379 Y-0.75
N12525 X-28.528 Y-0.536
N12530 X-28.592 Y-0.436
N12535 X-28.724 Y-0.212
N12540 X-28.778 Y-0.112
N12545 X-28.893 Y0.121
N12550 X-28.938 Y0.218
N12555 X-29.038 Y0.46
N12560 X-29.073 Y0.553
N12565 X-29.158 Y0.802
N12570 X-29.186 Y0.89
N12575 X-29.257 Y1.144
N12580 X-29.278 Y1.227
N12585 X-29.335 Y1.485
N12590 X-29.35 Y1.561
N12595 X-29.395 Y1.822
N12600 X-29.405 Y1.893
N12605 X-29.438 Y2.156
N12610 X-29.445 Y2.22
N12615 X-29.467 Y2.484
N12620 X-29.472 Y2.57
N12625 X-29.488 Y3.098
N12630 Y3.198
N12635 X-29.471 Y3.732
N12640 X-29.465 Y3.819
N12645 X-29.418 Y4.359
N12650 X-29.409 Y4.435
N12655 X-29.336 Y4.977
N12660 X-29.325 Y5.044
N12665 X-29.228 Y5.582
N12670 X-29.216 Y5.642
N12675 X-29.1 Y6.171
N12680 X-29.087 Y6.225
N12685 X-28.954 Y6.741
N12690 X-28.942 Y6.785
N12695 G2 X-28.647 Y7.748 I28.982 J-8.357
N12700 G1 X-28.632 Y7.791
N12705 X-28.442 Y8.323
N12710 X-28.423 Y8.374
N12715 X-28.213 Y8.905
N12720 X-28.191 Y8.958
N12725 X-27.96 Y9.484
N12730 X-27.935 Y9.539
N12735 X-27.685 Y10.056
N12740 X-27.655 Y10.114
N12745 X-27.386 Y10.616
N12750 X-27.351 Y10.679
N12755 X-27.063 Y11.161
N12760 X-27.02 Y11.23
N12765 X-26.715 Y11.687
N12770 X-26.662 Y11.761
N12775 X-26.34 Y12.189
N12780 X-26.273 Y12.272
N12785 X-25.924 Y12.676
N12790 X-25.862 Y12.744
N12795 X-25.675 Y12.936
N12800 X-25.626 Y12.985
N12805 X-25.431 Y13.169
N12810 X-25.374 Y13.22
N12815 X-25.171 Y13.394
N12820 X-25.107 Y13.446
N12825 X-24.896 Y13.609
N12830 X-24.822 Y13.662
N12835 X-24.603 Y13.813
N12840 X-24.519 Y13.866
N12845 X-24.292 Y14.001
N12850 X-24.2 Y14.052
N12855 X-23.965 Y14.172
N12860 X-23.864 Y14.219
N12865 X-23.623 Y14.321
N12870 X-23.513 Y14.363
N12875 X-23.265 Y14.447
N12880 X-23.148 Y14.481
N12885 X-22.894 Y14.546
N12890 X-22.771 Y14.572
N12895 X-22.51 Y14.617
N12900 X-22.384 Y14.633
N12905 X-22.121 Y14.657
N12910 X-21.999 Y14.663
N12915 X-21.737 Y14.667
N12920 X-21.619 Y14.664
N12925 X-21.358 Y14.647
N12930 X-21.247 Y14.637
N12935 X-20.986 Y14.602
N12940 X-20.885 Y14.585
N12945 X-20.625 Y14.534
N12950 X-20.532 Y14.512
N12955 X-20.272 Y14.444
N12960 X-20.19 Y14.42
N12965 X-19.932 Y14.337
N12970 X-19.858 Y14.311
N12975 X-19.6 Y14.214
N12980 X-19.536 Y14.188
N12985 X-19.279 Y14.079
N12990 X-19.223 Y14.053
N12995 X-18.966 Y13.932
N13000 X-18.918 Y13.908
N13005 X-18.662 Y13.776
N13010 X-18.602 Y13.744
N13015 X-18.09 Y13.451
N13020 X-18.031 Y13.415
N13025 X-17.515 Y13.089
N13030 X-17.474 Y13.063
N13035 X-16.953 Y12.711
N13040 X-16.929 Y12.695
N13045 X-16.401 Y12.325
N13050 X-16.391 Y12.318
N13055 X-15.856 Y11.937
N13060 X-15.32 Y11.557
N13065 X-14.784 Y11.188
N13070 X-14.244 Y10.834
N13075 X-13.701 Y10.502
N13080 X-13.146 Y10.195
N13085 X-12.882 Y10.063
N13090 X-12.611 Y9.937
N13095 X-12.341 Y9.822
N13100 X-12.073 Y9.719
N13105 X-11.806 Y9.629
N13110 X-11.537 Y9.551
N13115 X-11.252 Y9.483
N13120 X-10.954 Y9.429
N13125 X-10.646 Y9.394
N13130 X-10.312 Y9.381
N13135 X-10.166 Y9.384
N13140 X-10.003 Y9.394
N13145 X-9.84 Y9.411
N13150 X-9.68 Y9.435
N13155 X-9.523 Y9.466
N13160 X-9.37 Y9.505
N13165 X-9.22 Y9.55
N13170 X-9.073 Y9.601
N13175 X-8.929 Y9.66
N13180 X-8.789 Y9.726
N13185 X-8.652 Y9.799
N13190 X-8.52 Y9.878
N13195 X-8.392 Y9.963
N13200 X-8.269 Y10.054
N13205 X-8.152 Y10.151
N13210 X-8.04 Y10.254
N13215 X-7.933 Y10.362
N13220 X-7.831 Y10.477
N13225 X-7.735 Y10.596
N13230 X-7.646 Y10.72
N13235 X-7.563 Y10.849
N13240 X-7.485 Y10.982
N13245 X-7.414 Y11.121
N13250 X-7.349 Y11.265
N13255 X-7.289 Y11.414
N13260 X-7.241 Y11.553
N13265 X-7.146 Y11.895
N13270 X-7.081 Y12.236
N13275 X-7.039 Y12.594
N13280 X-7.02 Y12.968
N13285 X-7.023 Y13.354
N13290 X-7.047 Y13.753
N13295 X-7.089 Y14.165
N13300 X-7.15 Y14.588
N13305 X-7.226 Y15.021
N13310 X-7.316 Y15.461
N13315 X-7.416 Y15.904
N13320 X-7.648 Y16.821
N13325 X-7.898 Y17.742
N13330 X-7.899 Y17.745
N13335 X-8.146 Y18.664
N13340 X-8.151 Y18.684
N13345 X-8.267 Y19.136
N13350 X-8.273 Y19.16
N13355 X-8.379 Y19.607
N13360 X-8.387 Y19.639
N13365 X-8.482 Y20.08
N13370 X-8.491 Y20.122
N13375 X-8.572 Y20.556
N13380 X-8.581 Y20.608
N13385 X-8.647 Y21.035
N13390 X-8.655 Y21.099
N13395 X-8.703 Y21.517
N13400 X-8.709 Y21.594
N13405 X-8.736 Y22.005
N13410 X-8.739 Y22.095
N13415 X-8.741 Y22.498
N13420 X-8.739 Y22.605
N13425 X-8.714 Y23.006
N13430 X-8.702 Y23.129
N13435 X-8.647 Y23.527
N13440 X-8.621 Y23.666
N13445 X-8.53 Y24.057
N13450 X-8.499 Y24.171
N13455 X-8.44 Y24.363
N13460 X-8.413 Y24.442
N13465 X-8.343 Y24.63
N13470 X-8.31 Y24.711
N13475 X-8.231 Y24.894
N13480 X-8.194 Y24.973
N13485 X-8.105 Y25.15
N13490 X-8.063 Y25.229
N13495 X-7.964 Y25.401
N13500 X-7.918 Y25.477
N13505 X-7.81 Y25.642
N13510 X-7.759 Y25.715
N13515 X-7.642 Y25.875
N13520 X-7.588 Y25.945
N13525 X-7.461 Y26.099
N13530 X-7.404 Y26.164
N13535 X-7.268 Y26.313
N13540 X-7.21 Y26.373
N13545 X-7.066 Y26.514
N13550 X-6.978 Y26.594
N13555 X-6.671 Y26.852
N13560 X-6.555 Y26.94
N13565 X-6.226 Y27.169
N13570 X-6.116 Y27.24
N13575 X-5.768 Y27.441
N13580 X-5.665 Y27.496
N13585 X-5.302 Y27.672
N13590 X-5.207 Y27.714
N13595 X-4.831 Y27.868
N13600 X-4.746 Y27.9
N13605 X-4.359 Y28.032
N13610 X-4.282 Y28.056
N13615 X-3.89 Y28.169
N13620 X-3.821 Y28.187
N13625 X-3.426 Y28.281
N13630 X-3.364 Y28.295
N13635 X-2.97 Y28.372
N13640 X-2.914 Y28.382
N13645 X-2.525 Y28.444
N13650 X-2.474 Y28.451
N13655 X-2.094 Y28.499
N13660 X-2.048 Y28.504
N13665 X-1.68 Y28.54
N13670 X-1.614 Y28.545
N13675 G2 X0.04 Y28.59 I1.654 J-30.117
N13680 G1 X0.102 Y28.589
N13685 X0.536 Y28.572
N13690 X0.581 Y28.569
N13695 X1.02 Y28.539
N13700 X1.066 Y28.535
N13705 X1.507 Y28.492
N13710 X1.555 Y28.487
N13715 X1.995 Y28.43
N13720 X2.046 Y28.423
N13725 X2.484 Y28.352
N13730 X2.537 Y28.343
N13735 X2.97 Y28.257
N13740 X3.027 Y28.245
N13745 X3.453 Y28.145
N13750 X3.514 Y28.129
N13755 X3.93 Y28.013
N13760 X3.996 Y27.993
N13765 X4.4 Y27.862
N13770 X4.472 Y27.837
N13775 X4.861 Y27.689
N13780 X4.94 Y27.657
N13785 X5.319 Y27.489
N13790 X5.406 Y27.448
N13795 X5.776 Y27.257
N13800 X5.872 Y27.203
N13805 X6.227 Y26.987
N13810 X6.331 Y26.918
N13815 X6.668 Y26.676
N13820 X6.779 Y26.588
N13825 X7.092 Y26.317
N13830 X7.177 Y26.238
N13835 X7.322 Y26.092
N13840 X7.378 Y26.033
N13845 X7.515 Y25.881
N13850 X7.57 Y25.816
N13855 X7.698 Y25.658
N13860 X7.751 Y25.588
N13865 X7.87 Y25.423
N13870 X7.92 Y25.349
N13875 X8.029 Y25.178
N13880 X8.076 Y25.1
N13885 X8.176 Y24.921
N13890 X8.218 Y24.84
N13895 X8.308 Y24.655
N13900 X8.346 Y24.571
N13905 X8.425 Y24.38
N13910 X8.457 Y24.297
N13915 X8.525 Y24.104
N13920 X8.552 Y24.021
N13925 X8.609 Y23.825
N13930 X8.63 Y23.745
N13935 X8.677 Y23.546
N13940 X8.693 Y23.469
N13945 X8.73 Y23.268
N13950 X8.746 Y23.16
N13955 X8.793 Y22.75
N13960 X8.802 Y22.621
N13965 X8.815 Y22.202
N13970 Y22.091
N13975 X8.798 Y21.664
N13980 X8.792 Y21.57
N13985 X8.749 Y21.135
N13990 X8.74 Y21.058
N13995 X8.674 Y20.615
N14000 X8.664 Y20.553
N14005 X8.579 Y20.104
N14010 X8.569 Y20.056
N14015 X8.468 Y19.599
N14020 X8.46 Y19.563
N14025 X8.345 Y19.098
N14030 X8.339 Y19.072
N14035 X8.215 Y18.599
N14040 X8.209 Y18.581
N14045 X7.943 Y17.617
N14050 X7.679 Y16.648
N14055 X7.441 Y15.681
N14060 X7.342 Y15.218
N14065 X7.258 Y14.753
N14070 X7.19 Y14.292
N14075 X7.143 Y13.838
N14080 X7.118 Y13.394
N14085 X7.117 Y12.963
N14090 X7.143 Y12.547
N14095 X7.199 Y12.132
N14100 X7.231 Y11.963
N14105 X7.272 Y11.791
N14110 X7.316 Y11.631
N14115 X7.363 Y11.482
N14120 X7.414 Y11.343
N14125 X7.467 Y11.213
N14130 X7.523 Y11.092
N14135 X7.573 Y10.991
N14140 X7.699 Y10.774
N14145 X7.826 Y10.588
N14150 X7.964 Y10.416
N14155 X8.114 Y10.258
N14160 X8.275 Y10.113
N14165 X8.448 Y9.981
N14170 X8.63 Y9.865
N14175 X8.821 Y9.764
N14180 X9.021 Y9.677
N14185 X9.231 Y9.606
N14190 X9.452 Y9.55
N14195 X9.68 Y9.509
N14200 X9.915 Y9.485
N14205 X10.159 Y9.476
N14210 X10.409 Y9.483
N14215 X10.667 Y9.505
N14220 X10.931 Y9.543
N14225 X11.199 Y9.595
N14230 X11.472 Y9.661
N14235 X11.748 Y9.741
N14240 X12.027 Y9.834
N14245 X12.308 Y9.939
N14250 X12.589 Y10.054
N14255 X12.862 Y10.175
N14260 X13.44 Y10.458
N14265 X14.014 Y10.767
N14270 X14.592 Y11.102
N14275 X15.174 Y11.456
N14280 X15.76 Y11.821
N14285 X16.345 Y12.185
N14290 X16.357 Y12.193
N14295 X16.934 Y12.545
N14300 X16.961 Y12.561
N14305 X17.53 Y12.893
N14310 X17.575 Y12.918
N14315 X18.14 Y13.224
N14320 X18.206 Y13.258
N14325 X18.77 Y13.53
N14330 X18.834 Y13.559
N14335 X19.116 Y13.68
N14340 X19.168 Y13.701
N14345 X19.45 Y13.811
N14350 X19.51 Y13.832
N14355 X19.792 Y13.929
N14360 X19.859 Y13.95
N14365 X20.14 Y14.033
N14370 X20.216 Y14.053
N14375 X20.499 Y14.121
N14380 X20.583 Y14.139
N14385 X20.867 Y14.191
N14390 X20.96 Y14.205
N14395 X21.245 Y14.24
N14400 X21.347 Y14.249
N14405 X21.633 Y14.265
N14410 X21.743 Y14.268
N14415 X22.029 Y14.264
N14420 X22.145 Y14.259
N14425 X22.432 Y14.234
N14430 X22.552 Y14.219
N14435 X22.838 Y14.173
N14440 X22.956 Y14.149
N14445 X23.235 Y14.082
N14450 X23.35 Y14.049
N14455 X23.622 Y13.961
N14460 X23.731 Y13.921
N14465 X23.996 Y13.813
N14470 X24.098 Y13.768
N14475 X24.356 Y13.641
N14480 X24.451 Y13.59
N14485 X24.702 Y13.445
N14490 X24.788 Y13.391
N14495 X25.029 Y13.23
N14500 X25.105 Y13.176
N14505 X25.337 Y13.001
N14510 X25.405 Y12.947
N14515 X25.627 Y12.759
N14520 X25.686 Y12.706
N14525 X25.899 Y12.507
N14530 X25.951 Y12.455
N14535 X26.154 Y12.247
N14540 X26.2 Y12.198
N14545 X26.394 Y11.982
N14550 X26.434 Y11.935
N14555 X26.62 Y11.71
N14560 X26.656 Y11.664
N14565 X26.836 Y11.43
N14570 X26.883 Y11.366
N14575 X27.223 Y10.873
N14580 X27.274 Y10.794
N14585 X27.588 Y10.275
N14590 X27.631 Y10.201
N14595 X27.918 Y9.664
N14600 X27.953 Y9.595
N14605 X28.213 Y9.045
N14610 X28.242 Y8.98
N14615 X28.475 Y8.425
N14620 X28.5 Y8.362
N14625 X28.705 Y7.809
N14630 X28.726 Y7.748
N14635 G2 X29.053 Y6.673 I-28.686 J-9.322
N14640 G1 X29.067 Y6.621
N14645 X29.153 Y6.272
N14650 X29.164 Y6.228
N14655 X29.241 Y5.873
N14660 X29.25 Y5.826
N14665 X29.318 Y5.466
N14670 X29.327 Y5.415
N14675 X29.382 Y5.05
N14680 X29.39 Y4.996
N14685 X29.433 Y4.629
N14690 X29.439 Y4.57
N14695 X29.468 Y4.203
N14700 X29.472 Y4.138
N14705 X29.487 Y3.772
N14710 X29.488 Y3.702
N14715 X29.486 Y3.338
N14720 X29.485 Y3.286
N14725 G3 X29.79 Y2.957 I0.317 J-0.012
N14730 G1 X30.107 Y2.944
N14735 X30.178 Y2.942 Z-9.517
N14740 X30.245 Y2.939 Z-9.494
N14745 X30.305 Y2.937 Z-9.456
N14750 X30.355 Y2.935 Z-9.405
N14755 X30.393 Y2.933 Z-9.345
N14760 X30.416 Y2.932 Z-9.278
N14765 X30.424 Z-9.208
N14770 Z5.
N14775 X30.449 Y3.567
N14780 Z-4.525 F1033.33
N14785 Z-12.383
N14790 X30.441 Z-12.453 F3100.
N14795 X30.417 Y3.568 Z-12.52
N14800 X30.379 Y3.569 Z-12.58
N14805 X30.329 Y3.571 Z-12.631
N14810 X30.269 Y3.574 Z-12.669
N14815 X30.202 Y3.576 Z-12.692
N14820 X30.131 Y3.579 Z-12.7
N14825 X29.814 Y3.591
N14830 G3 X29.485 Y3.286 I-0.012 J-0.317
N14835 G1 X29.483 Y3.26
N14840 X29.464 Y2.901
N14845 X29.457 Y2.816
N14850 X29.418 Y2.461
N14855 X29.405 Y2.367
N14860 X29.345 Y2.016
N14865 X29.324 Y1.913
N14870 X29.241 Y1.567
N14875 X29.21 Y1.456
N14880 X29.103 Y1.118
N14885 X29.06 Y0.999
N14890 X28.925 Y0.67
N14895 X28.868 Y0.545
N14900 X28.706 Y0.229
N14905 X28.634 Y0.103
N14910 X28.446 Y-0.194
N14915 X28.361 Y-0.316
N14920 X28.146 Y-0.593
N14925 X28.049 Y-0.707
N14930 X27.809 Y-0.963
N14935 X27.703 Y-1.066
N14940 X27.437 Y-1.302
N14945 X27.327 Y-1.391
N14950 X27.041 Y-1.602
N14955 X26.932 Y-1.675
N14960 X26.63 Y-1.861
N14965 X26.526 Y-1.92
N14970 X26.211 Y-2.083
N14975 X26.115 Y-2.129
N14980 X25.788 Y-2.271
N14985 X25.701 Y-2.306
N14990 X25.364 Y-2.429
N14995 X25.286 Y-2.455
N15000 X24.936 Y-2.563
N15005 X24.867 Y-2.583
N15010 X24.507 Y-2.676
N15015 X24.446 Y-2.691
N15020 X24.076 Y-2.771
N15025 X24.024 Y-2.782
N15030 X23.645 Y-2.851
N15035 X23.601 Y-2.859
N15040 X23.214 Y-2.918
N15045 X23.178 Y-2.923
N15050 X22.784 Y-2.975
N15055 X22.743 Y-2.979
N15060 X21.935 Y-3.063
N15065 X21.902 Y-3.066
N15070 X21.068 Y-3.135
N15075 X21.058 Y-3.136
N15080 X20.213 Y-3.2
N15085 X19.376 Y-3.27
N15090 X18.562 Y-3.354
N15095 X17.769 Y-3.464
N15100 X17.401 Y-3.528
N15105 X17.037 Y-3.602
N15110 X16.686 Y-3.685
N15115 X16.35 Y-3.778
N15120 X16.029 Y-3.882
N15125 X15.725 Y-3.996
N15130 X15.437 Y-4.121
N15135 X15.167 Y-4.258
N15140 X14.916 Y-4.406
N15145 X14.684 Y-4.565
N15150 X14.472 Y-4.735
N15155 X14.278 Y-4.918
N15160 X14.107 Y-5.11
N15165 X13.958 Y-5.312
N15170 X13.829 Y-5.523
N15175 X13.721 Y-5.745
N15180 X13.633 Y-5.978
N15185 X13.567 Y-6.218
N15190 X13.523 Y-6.466
N15195 X13.5 Y-6.721
N15200 Y-6.983
N15205 X13.522 Y-7.247
N15210 X13.567 Y-7.514
N15215 X13.633 Y-7.785
N15220 X13.722 Y-8.057
N15225 X13.832 Y-8.331
N15230 X13.962 Y-8.603
N15235 X14.112 Y-8.875
N15240 X14.281 Y-9.144
N15245 X14.467 Y-9.411
N15250 X14.67 Y-9.676
N15255 X14.887 Y-9.937
N15260 X15.119 Y-10.195
N15265 X15.364 Y-10.45
N15270 X15.62 Y-10.701
N15275 X15.882 Y-10.945
N15280 X16.45 Y-11.441
N15285 X17.035 Y-11.919
N15290 X17.634 Y-12.39
N15295 X18.233 Y-12.856
N15300 X18.242 Y-12.863
N15305 X18.826 Y-13.324
N15310 X18.854 Y-13.346
N15315 X19.41 Y-13.806
N15320 X19.443 Y-13.834
N15325 X19.707 Y-14.064
N15330 X19.735 Y-14.09
N15335 X19.99 Y-14.322
N15340 X20.023 Y-14.354
N15345 X20.265 Y-14.589
N15350 X20.303 Y-14.627
N15355 X20.533 Y-14.865
N15360 X20.575 Y-14.911
N15365 X20.792 Y-15.154
N15370 X20.838 Y-15.209
N15375 X21.04 Y-15.457
N15380 X21.091 Y-15.523
N15385 X21.276 Y-15.778
N15390 X21.329 Y-15.856
N15395 X21.497 Y-16.117
N15400 X21.55 Y-16.207
N15405 X21.699 Y-16.476
N15410 X21.751 Y-16.579
N15415 X21.878 Y-16.856
N15420 X21.926 Y-16.971
N15425 X22.03 Y-17.254
N15430 X22.07 Y-17.378
N15435 X22.15 Y-17.666
N15440 X22.181 Y-17.797
N15445 X22.236 Y-18.09
N15450 X22.255 Y-18.227
N15455 X22.285 Y-18.526
N15460 X22.293 Y-18.662
N15465 X22.297 Y-18.966
N15470 X22.293 Y-19.098
N15475 X22.272 Y-19.4
N15480 X22.258 Y-19.523
N15485 X22.213 Y-19.821
N15490 X22.192 Y-19.935
N15495 X22.125 Y-20.23
N15500 X22.099 Y-20.333
N15505 X22.012 Y-20.624
N15510 X21.981 Y-20.716
N15515 X21.877 Y-21.003
N15520 X21.844 Y-21.086
N15525 X21.723 Y-21.367
N15530 X21.689 Y-21.441
N15535 X21.553 Y-21.717
N15540 X21.519 Y-21.782
N15545 X21.37 Y-22.053
N15550 X21.336 Y-22.111
N15555 X21.176 Y-22.375
N15560 X21.143 Y-22.426
N15565 X20.973 Y-22.683
N15570 X20.942 Y-22.729
N15575 X20.765 Y-22.979
N15580 X20.721 Y-23.038
N15585 X20.343 Y-23.519
N15590 X20.287 Y-23.586
N15595 X19.877 Y-24.054
N15600 X19.825 Y-24.112
N15605 X19.388 Y-24.564
N15610 X19.337 Y-24.613
N15615 X18.88 Y-25.046
N15620 X18.831 Y-25.091
N15625 X18.359 Y-25.502
N15630 X18.311 Y-25.542
N15635 X17.83 Y-25.928
N15640 X17.769 Y-25.975
N15645 G2 X16.088 Y-27.111 I-17.729 J24.402
N15650 G1 X16.009 Y-27.158
N15655 X15.426 Y-27.478
N15660 X15.368 Y-27.509
N15665 X15.065 Y-27.659
N15670 X15.021 Y-27.68
N15675 X14.713 Y-27.821
N15680 X14.664 Y-27.843
N15685 X14.351 Y-27.974
N15690 X14.296 Y-27.996
N15695 X13.979 Y-28.115
N15700 X13.918 Y-28.136
N15705 X13.599 Y-28.241
N15710 X13.531 Y-28.262
N15715 X13.21 Y-28.352
N15720 X13.133 Y-28.372
N15725 X12.811 Y-28.445
N15730 X12.726 Y-28.462
N15735 X12.403 Y-28.518
N15740 X12.308 Y-28.531
N15745 X11.982 Y-28.567
N15750 X11.876 Y-28.575
N15755 X11.549 Y-28.589
N15760 X11.431
N15765 X11.104 Y-28.578
N15770 X10.976 Y-28.569
N15775 X10.651 Y-28.532
N15780 X10.513 Y-28.51
N15785 X10.193 Y-28.445
N15790 X10.051 Y-28.409
N15795 X9.742 Y-28.315
N15800 X9.6 Y-28.265
N15805 X9.302 Y-28.143
N15810 X9.166 Y-28.08
N15815 X8.879 Y-27.929
N15820 X8.752 Y-27.855
N15825 X8.478 Y-27.677
N15830 X8.363 Y-27.595
N15835 X8.106 Y-27.394
N15840 X8.008 Y-27.31
N15845 X7.768 Y-27.089
N15850 X7.686 Y-27.007
N15855 X7.462 Y-26.769
N15860 X7.394 Y-26.691
N15865 X7.186 Y-26.437
N15870 X7.131 Y-26.365
N15875 X6.935 Y-26.097
N15880 X6.89 Y-26.031
N15885 X6.705 Y-25.749
N15890 X6.668 Y-25.689
N15895 X6.492 Y-25.393
N15900 X6.462 Y-25.34
N15905 X6.295 Y-25.031
N15910 X6.271 Y-24.986
N15915 X6.111 Y-24.667
N15920 X6.084 Y-24.61
N15925 X5.783 Y-23.944
N15930 X5.759 Y-23.89
N15935 X5.473 Y-23.19
N15940 X5.46 Y-23.157
N15945 X5.181 Y-22.429
N15950 X5.176 Y-22.416
N15955 X4.898 Y-21.671
N15960 X4.617 Y-20.929
N15965 X4.329 Y-20.204
N15970 X4.03 Y-19.507
N15975 X3.709 Y-18.835
N15980 X3.548 Y-18.53
N15985 X3.377 Y-18.23
N15990 X3.201 Y-17.943
N15995 X3.02 Y-17.671
N16000 X2.832 Y-17.415
N16005 X2.637 Y-17.174
N16010 X2.436 Y-16.951
N16015 X2.229 Y-16.746
N16020 X2.016 Y-16.561
N16025 X1.798 Y-16.397
N16030 X1.575 Y-16.254
N16035 X1.35 Y-16.133
N16040 X1.123 Y-16.035
N16045 X0.892 Y-15.959
N16050 X0.657 Y-15.904
N16055 X0.42 Y-15.87
N16060 X0.181 Y-15.859
N16065 X-0.057 Y-15.87
N16070 X-0.297 Y-15.903
N16075 X-0.538 Y-15.958
N16080 X-0.775 Y-16.035
N16085 X-1.009 Y-16.133
N16090 X-1.242 Y-16.253
N16095 X-1.472 Y-16.395
N16100 X-1.699 Y-16.557
N16105 X-1.919 Y-16.74
N16110 X-2.135 Y-16.941
N16115 X-2.345 Y-17.16
N16120 X-2.548 Y-17.397
N16125 X-2.746 Y-17.648
N16130 X-2.938 Y-17.916
N16135 X-3.125 Y-18.197
N16140 X-3.306 Y-18.491
N16145 X-3.478 Y-18.789
N16150 X-3.82 Y-19.44
N16155 X-4.137 Y-20.107
N16160 X-4.44 Y-20.79
N16165 X-4.736 Y-21.486
N16170 X-5.03 Y-22.185
N16175 X-5.035 Y-22.197
N16180 X-5.33 Y-22.882
N16185 X-5.343 Y-22.912
N16190 X-5.645 Y-23.575
N16195 X-5.669 Y-23.625
N16200 X-5.984 Y-24.257
N16205 X-6.01 Y-24.308
N16210 X-6.174 Y-24.611
N16215 X-6.197 Y-24.652
N16220 X-6.368 Y-24.945
N16225 X-6.396 Y-24.991
N16230 X-6.573 Y-25.273
N16235 X-6.607 Y-25.324
N16240 X-6.792 Y-25.594
N16245 X-6.832 Y-25.651
N16250 X-7.027 Y-25.91
N16255 X-7.076 Y-25.973
N16260 X-7.282 Y-26.221
N16265 X-7.341 Y-26.288
N16270 X-7.561 Y-26.524
N16275 X-7.631 Y-26.594
N16280 X-7.865 Y-26.815
N16285 X-7.947 Y-26.888
N16290 X-8.196 Y-27.093
N16295 X-8.291 Y-27.165
N16300 X-8.555 Y-27.351
N16305 X-8.662 Y-27.42
N16310 X-8.939 Y-27.584
N16315 X-9.054 Y-27.646
N16320 X-9.341 Y-27.785
N16325 X-9.462 Y-27.837
N16330 X-9.758 Y-27.951
N16335 X-9.883 Y-27.993
N16340 X-10.189 Y-28.083
N16345 X-10.315 Y-28.115
N16350 X-10.631 Y-28.18
N16355 X-10.753 Y-28.2
N16360 X-11.073 Y-28.24
N16365 X-11.188 Y-28.251
N16370 X-11.51 Y-28.268
N16375 X-11.618 Y-28.27
N16380 X-11.94 Y-28.265
N16385 X-12.04 Y-28.26
N16390 X-12.362 Y-28.235
N16395 X-12.452 Y-28.225
N16400 X-12.773 Y-28.181
N16405 X-12.855 Y-28.168
N16410 X-13.175 Y-28.107
N16415 X-13.249 Y-28.091
N16420 X-13.566 Y-28.015
N16425 X-13.635 Y-27.997
N16430 X-13.95 Y-27.906
N16435 X-14.011 Y-27.887
N16440 X-14.322 Y-27.783
N16445 X-14.378 Y-27.763
N16450 X-14.685 Y-27.648
N16455 X-14.736 Y-27.628
N16460 X-15.037 Y-27.503
N16465 X-15.105 Y-27.473
N16470 X-15.693 Y-27.197
N16475 X-15.774 Y-27.156
N16480 X-16.35 Y-26.843
N16485 X-16.423 Y-26.801
N16490 X-16.983 Y-26.458
N16495 X-17.05 Y-26.415
N16500 X-17.588 Y-26.047
N16505 X-17.621 Y-26.024
N16510 X-17.688 Y-25.975
N16515 X-17.713 Y-25.957
N16520 X-18.07 Y-25.687
N16525 X-18.113 Y-25.654
N16530 X-18.466 Y-25.368
N16535 X-18.509 Y-25.332
N16540 X-18.855 Y-25.031
N16545 X-18.899 Y-24.991
N16550 X-19.235 Y-24.675
N16555 X-19.281 Y-24.631
N16560 X-19.604 Y-24.302
N16565 X-19.651 Y-24.253
N16570 X-19.958 Y-23.912
N16575 X-20.007 Y-23.855
N16580 X-20.296 Y-23.504
N16585 X-20.346 Y-23.439
N16590 X-20.613 Y-23.077
N16595 X-20.664 Y-23.003
N16600 X-20.907 Y-22.632
N16605 X-20.96 Y-22.545
N16610 X-21.178 Y-22.159
N16615 X-21.23 Y-22.059
N16620 X-21.42 Y-21.659
N16625 X-21.471 Y-21.541
N16630 X-21.627 Y-21.127
N16635 X-21.661 Y-21.028
N16640 X-21.726 Y-20.816
N16645 X-21.746 Y-20.744
N16650 X-21.801 Y-20.53
N16655 X-21.818 Y-20.453
N16660 X-21.862 Y-20.236
N16665 X-21.876 Y-20.155
N16670 X-21.908 Y-19.938
N16675 X-21.919 Y-19.854
N16680 X-21.939 Y-19.636
N16685 X-21.945 Y-19.551
N16690 X-21.954 Y-19.333
N16695 X-21.955 Y-19.246
N16700 X-21.952 Y-19.028
N16705 X-21.948 Y-18.94
N16710 X-21.933 Y-18.722
N16715 X-21.924 Y-18.635
N16720 X-21.896 Y-18.418
N16725 X-21.883 Y-18.33
N16730 X-21.843 Y-18.113
N16735 X-21.825 Y-18.028
N16740 X-21.773 Y-17.814
N16745 X-21.751 Y-17.732
N16750 X-21.689 Y-17.521
N16755 X-21.664 Y-17.446
N16760 X-21.591 Y-17.239
N16765 X-21.563 Y-17.166
N16770 X-21.48 Y-16.963
N16775 X-21.437 Y-16.866
N16780 X-21.243 Y-16.471
N16785 X-21.182 Y-16.358
N16790 X-20.956 Y-15.977
N16795 X-20.896 Y-15.884
N16800 X-20.639 Y-15.513
N16805 X-20.583 Y-15.436
N16810 X-20.299 Y-15.074
N16815 X-20.248 Y-15.013
N16820 X-19.941 Y-14.659
N16825 X-19.896 Y-14.609
N16830 X-19.568 Y-14.262
N16835 X-19.53 Y-14.224
N16840 X-19.185 Y-13.883
N16845 X-19.155 Y-13.854
N16850 X-18.795 Y-13.516
N16855 X-18.771 Y-13.495
N16860 X-18.398 Y-13.159
N16865 X-18.377 Y-13.14
N16870 X-17.605 Y-12.47
N16875 X-17.598 Y-12.464
N16880 X-16.82 Y-11.796
N16885 X-16.065 Y-11.127
N16890 X-15.715 Y-10.8
N16895 X-15.378 Y-10.47
N16900 X-15.06 Y-10.14
N16905 X-14.765 Y-9.809
N16910 X-14.495 Y-9.478
N16915 X-14.249 Y-9.145
N16920 X-14.032 Y-8.81
N16925 X-13.837 Y-8.461
N16930 X-13.761 Y-8.306
N16935 X-13.688 Y-8.138
N16940 X-13.623 Y-7.971
N16945 X-13.567 Y-7.803
N16950 X-13.521 Y-7.641
N16955 X-13.485 Y-7.486
N16960 X-13.457 Y-7.338
N16965 X-13.437 Y-7.197
N16970 X-13.425 Y-7.062
N16975 X-13.418 Y-6.933
N16980 X-13.417 Y-6.81
N16985 X-13.421 Y-6.706
N16990 X-13.443 Y-6.468
N16995 X-13.481 Y-6.249
N17000 X-13.536 Y-6.035
N17005 X-13.606 Y-5.824
N17010 X-13.694 Y-5.619
N17015 X-13.797 Y-5.419
N17020 X-13.916 Y-5.227
N17025 X-14.049 Y-5.043
N17030 X-14.196 Y-4.867
N17035 X-14.359 Y-4.7
N17040 X-14.537 Y-4.54
N17045 X-14.728 Y-4.389
N17050 X-14.931 Y-4.249
N17055 X-15.148 Y-4.118
N17060 X-15.376 Y-3.997
N17065 X-15.617 Y-3.886
N17070 X-15.869 Y-3.783
N17075 X-16.133 Y-3.69
N17080 X-16.406 Y-3.606
N17085 X-16.688 Y-3.532
N17090 X-16.978 Y-3.466
N17095 X-17.266 Y-3.41
N17100 X-17.894 Y-3.315
N17105 X-18.527 Y-3.25
N17110 X-19.175 Y-3.206
N17115 X-19.836 Y-3.179
N17120 X-20.508 Y-3.162
N17125 X-21.185 Y-3.15
N17130 X-21.19 Y-3.149
N17135 X-21.86 Y-3.135
N17140 X-21.882 Y-3.134
N17145 X-22.536 Y-3.111
N17150 X-22.576 Y-3.109
N17155 X-23.212 Y-3.071
N17160 X-23.271 Y-3.066
N17165 X-23.884 Y-3.006
N17170 X-23.943 Y-2.999
N17175 X-24.24 Y-2.959
N17180 X-24.287 Y-2.952
N17185 X-24.577 Y-2.903
N17190 X-24.631 Y-2.893
N17195 X-24.914 Y-2.836
N17200 X-24.974 Y-2.823
N17205 X-25.249 Y-2.756
N17210 X-25.316 Y-2.738
N17215 X-25.582 Y-2.661
N17220 X-25.656 Y-2.637
N17225 X-25.914 Y-2.549
N17230 X-25.994 Y-2.519
N17235 X-26.242 Y-2.418
N17240 X-26.328 Y-2.38
N17245 X-26.567 Y-2.266
N17250 X-26.658 Y-2.219
N17255 X-26.886 Y-2.092
N17260 X-26.979 Y-2.036
N17265 X-27.197 Y-1.894
N17270 X-27.291 Y-1.827
N17275 X-27.497 Y-1.671
N17280 X-27.59 Y-1.594
N17285 X-27.784 Y-1.422
N17290 X-27.874 Y-1.335
N17295 X-28.055 Y-1.147
N17300 X-28.139 Y-1.052
N17305 X-28.304 Y-0.849
N17310 X-28.379 Y-0.75
N17315 X-28.528 Y-0.536
N17320 X-28.592 Y-0.436
N17325 X-28.724 Y-0.212
N17330 X-28.778 Y-0.112
N17335 X-28.893 Y0.121
N17340 X-28.938 Y0.218
N17345 X-29.038 Y0.46
N17350 X-29.073 Y0.553
N17355 X-29.158 Y0.802
N17360 X-29.186 Y0.89
N17365 X-29.257 Y1.144
N17370 X-29.278 Y1.227
N17375 X-29.335 Y1.485
N17380 X-29.35 Y1.561
N17385 X-29.395 Y1.822
N17390 X-29.405 Y1.893
N17395 X-29.438 Y2.156
N17400 X-29.445 Y2.22
N17405 X-29.467 Y2.484
N17410 X-29.472 Y2.57
N17415 X-29.488 Y3.098
N17420 Y3.198
N17425 X-29.471 Y3.732
N17430 X-29.465 Y3.819
N17435 X-29.418 Y4.359
N17440 X-29.409 Y4.435
N17445 X-29.336 Y4.977
N17450 X-29.325 Y5.044
N17455 X-29.228 Y5.582
N17460 X-29.216 Y5.642
N17465 X-29.1 Y6.171
N17470 X-29.087 Y6.225
N17475 X-28.954 Y6.741
N17480 X-28.942 Y6.785
N17485 G2 X-28.647 Y7.748 I28.982 J-8.357
N17490 G1 X-28.632 Y7.791
N17495 X-28.442 Y8.323
N17500 X-28.423 Y8.374
N17505 X-28.213 Y8.905
N17510 X-28.191 Y8.958
N17515 X-27.96 Y9.484
N17520 X-27.935 Y9.539
N17525 X-27.685 Y10.056
N17530 X-27.655 Y10.114
N17535 X-27.386 Y10.616
N17540 X-27.351 Y10.679
N17545 X-27.063 Y11.161
N17550 X-27.02 Y11.23
N17555 X-26.715 Y11.687
N17560 X-26.662 Y11.761
N17565 X-26.34 Y12.189
N17570 X-26.273 Y12.272
N17575 X-25.924 Y12.676
N17580 X-25.862 Y12.744
N17585 X-25.675 Y12.936
N17590 X-25.626 Y12.985
N17595 X-25.431 Y13.169
N17600 X-25.374 Y13.22
N17605 X-25.171 Y13.394
N17610 X-25.107 Y13.446
N17615 X-24.896 Y13.609
N17620 X-24.822 Y13.662
N17625 X-24.603 Y13.813
N17630 X-24.519 Y13.866
N17635 X-24.292 Y14.001
N17640 X-24.2 Y14.052
N17645 X-23.965 Y14.172
N17650 X-23.864 Y14.219
N17655 X-23.623 Y14.321
N17660 X-23.513 Y14.363
N17665 X-23.265 Y14.447
N17670 X-23.148 Y14.481
N17675 X-22.894 Y14.546
N17680 X-22.771 Y14.572
N17685 X-22.51 Y14.617
N17690 X-22.384 Y14.633
N17695 X-22.121 Y14.657
N17700 X-21.999 Y14.663
N17705 X-21.737 Y14.667
N17710 X-21.619 Y14.664
N17715 X-21.358 Y14.647
N17720 X-21.247 Y14.637
N17725 X-20.986 Y14.602
N17730 X-20.885 Y14.585
N17735 X-20.625 Y14.534
N17740 X-20.532 Y14.512
N17745 X-20.272 Y14.444
N17750 X-20.19 Y14.42
N17755 X-19.932 Y14.337
N17760 X-19.858 Y14.311
N17765 X-19.6 Y14.214
N17770 X-19.536 Y14.188
N17775 X-19.279 Y14.079
N17780 X-19.223 Y14.053
N17785 X-18.966 Y13.932
N17790 X-18.918 Y13.908
N17795 X-18.662 Y13.776
N17800 X-18.602 Y13.744
N17805 X-18.09 Y13.451
N17810 X-18.031 Y13.415
N17815 X-17.515 Y13.089
N17820 X-17.474 Y13.063
N17825 X-16.953 Y12.711
N17830 X-16.929 Y12.695
N17835 X-16.401 Y12.325
N17840 X-16.391 Y12.318
N17845 X-15.856 Y11.937
N17850 X-15.32 Y11.557
N17855 X-14.784 Y11.188
N17860 X-14.244 Y10.834
N17865 X-13.701 Y10.502
N17870 X-13.146 Y10.195
N17875 X-12.882 Y10.063
N17880 X-12.611 Y9.937
N17885 X-12.341 Y9.822
N17890 X-12.073 Y9.719
N17895 X-11.806 Y9.629
N17900 X-11.537 Y9.551
N17905 X-11.252 Y9.483
N17910 X-10.954 Y9.429
N17915 X-10.646 Y9.394
N17920 X-10.312 Y9.381
N17925 X-10.166 Y9.384
N17930 X-10.003 Y9.394
N17935 X-9.84 Y9.411
N17940 X-9.68 Y9.435
N17945 X-9.523 Y9.466
N17950 X-9.37 Y9.505
N17955 X-9.22 Y9.55
N17960 X-9.073 Y9.601
N17965 X-8.929 Y9.66
N17970 X-8.789 Y9.726
N17975 X-8.652 Y9.799
N17980 X-8.52 Y9.878
N17985 X-8.392 Y9.963
N17990 X-8.269 Y10.054
N17995 X-8.152 Y10.151
N18000 X-8.04 Y10.254
N18005 X-7.933 Y10.362
N18010 X-7.831 Y10.477
N18015 X-7.735 Y10.596
N18020 X-7.646 Y10.72
N18025 X-7.563 Y10.849
N18030 X-7.485 Y10.982
N18035 X-7.414 Y11.121
N18040 X-7.349 Y11.265
N18045 X-7.289 Y11.414
N18050 X-7.241 Y11.553
N18055 X-7.146 Y11.895
N18060 X-7.081 Y12.236
N18065 X-7.039 Y12.594
N18070 X-7.02 Y12.968
N18075 X-7.023 Y13.354
N18080 X-7.047 Y13.753
N18085 X-7.089 Y14.165
N18090 X-7.15 Y14.588
N18095 X-7.226 Y15.021
N18100 X-7.316 Y15.461
N18105 X-7.416 Y15.904
N18110 X-7.648 Y16.821
N18115 X-7.898 Y17.742
N18120 X-7.899 Y17.745
N18125 X-8.146 Y18.664
N18130 X-8.151 Y18.684
N18135 X-8.267 Y19.136
N18140 X-8.273 Y19.16
N18145 X-8.379 Y19.607
N18150 X-8.387 Y19.639
N18155 X-8.482 Y20.08
N18160 X-8.491 Y20.122
N18165 X-8.572 Y20.556
N18170 X-8.581 Y20.608
N18175 X-8.647 Y21.035
N18180 X-8.655 Y21.099
N18185 X-8.703 Y21.517
N18190 X-8.709 Y21.594
N18195 X-8.736 Y22.005
N18200 X-8.739 Y22.095
N18205 X-8.741 Y22.498
N18210 X-8.739 Y22.605
N18215 X-8.714 Y23.006
N18220 X-8.702 Y23.129
N18225 X-8.647 Y23.527
N18230 X-8.621 Y23.666
N18235 X-8.53 Y24.057
N18240 X-8.499 Y24.171
N18245 X-8.44 Y24.363
N18250 X-8.413 Y24.442
N18255 X-8.343 Y24.63
N18260 X-8.31 Y24.711
N18265 X-8.231 Y24.894
N18270 X-8.194 Y24.973
N18275 X-8.105 Y25.15
N18280 X-8.063 Y25.229
N18285 X-7.964 Y25.401
N18290 X-7.918 Y25.477
N18295 X-7.81 Y25.642
N18300 X-7.759 Y25.715
N18305 X-7.642 Y25.875
N18310 X-7.588 Y25.945
N18315 X-7.461 Y26.099
N18320 X-7.404 Y26.164
N18325 X-7.268 Y26.313
N18330 X-7.21 Y26.373
N18335 X-7.066 Y26.514
N18340 X-6.978 Y26.594
N18345 X-6.671 Y26.852
N18350 X-6.555 Y26.94
N18355 X-6.226 Y27.169
N18360 X-6.116 Y27.24
N18365 X-5.768 Y27.441
N18370 X-5.665 Y27.496
N18375 X-5.302 Y27.672
N18380 X-5.207 Y27.714
N18385 X-4.831 Y27.868
N18390 X-4.746 Y27.9
N18395 X-4.359 Y28.032
N18400 X-4.282 Y28.056
N18405 X-3.89 Y28.169
N18410 X-3.821 Y28.187
N18415 X-3.426 Y28.281
N18420 X-3.364 Y28.295
N18425 X-2.97 Y28.372
N18430 X-2.914 Y28.382
N18435 X-2.525 Y28.444
N18440 X-2.474 Y28.451
N18445 X-2.094 Y28.499
N18450 X-2.048 Y28.504
N18455 X-1.68 Y28.54
N18460 X-1.614 Y28.545
N18465 G2 X0.04 Y28.59 I1.654 J-30.117
N18470 G1 X0.102 Y28.589
N18475 X0.536 Y28.572
N18480 X0.581 Y28.569
N18485 X1.02 Y28.539
N18490 X1.066 Y28.535
N18495 X1.507 Y28.492
N18500 X1.555 Y28.487
N18505 X1.995 Y28.43
N18510 X2.046 Y28.423
N18515 X2.484 Y28.352
N18520 X2.537 Y28.343
N18525 X2.97 Y28.257
N18530 X3.027 Y28.245
N18535 X3.453 Y28.145
N18540 X3.514 Y28.129
N18545 X3.93 Y28.013
N18550 X3.996 Y27.993
N18555 X4.4 Y27.862
N18560 X4.472 Y27.837
N18565 X4.861 Y27.689
N18570 X4.94 Y27.657
N18575 X5.319 Y27.489
N18580 X5.406 Y27.448
N18585 X5.776 Y27.257
N18590 X5.872 Y27.203
N18595 X6.227 Y26.987
N18600 X6.331 Y26.918
N18605 X6.668 Y26.676
N18610 X6.779 Y26.588
N18615 X7.092 Y26.317
N18620 X7.177 Y26.238
N18625 X7.322 Y26.092
N18630 X7.378 Y26.033
N18635 X7.515 Y25.881
N18640 X7.57 Y25.816
N18645 X7.698 Y25.658
N18650 X7.751 Y25.588
N18655 X7.87 Y25.423
N18660 X7.92 Y25.349
N18665 X8.029 Y25.178
N18670 X8.076 Y25.1
N18675 X8.176 Y24.921
N18680 X8.218 Y24.84
N18685 X8.308 Y24.655
N18690 X8.346 Y24.571
N18695 X8.425 Y24.38
N18700 X8.457 Y24.297
N18705 X8.525 Y24.104
N18710 X8.552 Y24.021
N18715 X8.609 Y23.825
N18720 X8.63 Y23.745
N18725 X8.677 Y23.546
N18730 X8.693 Y23.469
N18735 X8.73 Y23.268
N18740 X8.746 Y23.16
N18745 X8.793 Y22.75
N18750 X8.802 Y22.621
N18755 X8.815 Y22.202
N18760 Y22.091
N18765 X8.798 Y21.664
N18770 X8.792 Y21.57
N18775 X8.749 Y21.135
N18780 X8.74 Y21.058
N18785 X8.674 Y20.615
N18790 X8.664 Y20.553
N18795 X8.579 Y20.104
N18800 X8.569 Y20.056
N18805 X8.468 Y19.599
N18810 X8.46 Y19.563
N18815 X8.345 Y19.098
N18820 X8.339 Y19.072
N18825 X8.215 Y18.599
N18830 X8.209 Y18.581
N18835 X7.943 Y17.617
N18840 X7.679 Y16.648
N18845 X7.441 Y15.681
N18850 X7.342 Y15.218
N18855 X7.258 Y14.753
N18860 X7.19 Y14.292
N18865 X7.143 Y13.838
N18870 X7.118 Y13.394
N18875 X7.117 Y12.963
N18880 X7.143 Y12.547
N18885 X7.199 Y12.132
N18890 X7.231 Y11.963
N18895 X7.272 Y11.791
N18900 X7.316 Y11.631
N18905 X7.363 Y11.482
N18910 X7.414 Y11.343
N18915 X7.467 Y11.213
N18920 X7.523 Y11.092
N18925 X7.573 Y10.991
N18930 X7.699 Y10.774
N18935 X7.826 Y10.588
N18940 X7.964 Y10.416
N18945 X8.114 Y10.258
N18950 X8.275 Y10.113
N18955 X8.448 Y9.981
N18960 X8.63 Y9.865
N18965 X8.821 Y9.764
N18970 X9.021 Y9.677
N18975 X9.231 Y9.606
N18980 X9.452 Y9.55
N18985 X9.68 Y9.509
N18990 X9.915 Y9.485
N18995 X10.159 Y9.476
N19000 X10.409 Y9.483
N19005 X10.667 Y9.505
N19010 X10.931 Y9.543
N19015 X11.199 Y9.595
N19020 X11.472 Y9.661
N19025 X11.748 Y9.741
N19030 X12.027 Y9.834
N19035 X12.308 Y9.939
N19040 X12.589 Y10.054
N19045 X12.862 Y10.175
N19050 X13.44 Y10.458
N19055 X14.014 Y10.767
N19060 X14.592 Y11.102
N19065 X15.174 Y11.456
N19070 X15.76 Y11.821
N19075 X16.345 Y12.185
N19080 X16.357 Y12.193
N19085 X16.934 Y12.545
N19090 X16.961 Y12.561
N19095 X17.53 Y12.893
N19100 X17.575 Y12.918
N19105 X18.14 Y13.224
N19110 X18.206 Y13.258
N19115 X18.77 Y13.53
N19120 X18.834 Y13.559
N19125 X19.116 Y13.68
N19130 X19.168 Y13.701
N19135 X19.45 Y13.811
N19140 X19.51 Y13.832
N19145 X19.792 Y13.929
N19150 X19.859 Y13.95
N19155 X20.14 Y14.033
N19160 X20.216 Y14.053
N19165 X20.499 Y14.121
N19170 X20.583 Y14.139
N19175 X20.867 Y14.191
N19180 X20.96 Y14.205
N19185 X21.245 Y14.24
N19190 X21.347 Y14.249
N19195 X21.633 Y14.265
N19200 X21.743 Y14.268
N19205 X22.029 Y14.264
N19210 X22.145 Y14.259
N19215 X22.432 Y14.234
N19220 X22.552 Y14.219
N19225 X22.838 Y14.173
N19230 X22.956 Y14.149
N19235 X23.235 Y14.082
N19240 X23.35 Y14.049
N19245 X23.622 Y13.961
N19250 X23.731 Y13.921
N19255 X23.996 Y13.813
N19260 X24.098 Y13.768
N19265 X24.356 Y13.641
N19270 X24.451 Y13.59
N19275 X24.702 Y13.445
N19280 X24.788 Y13.391
N19285 X25.029 Y13.23
N19290 X25.105 Y13.176
N19295 X25.337 Y13.001
N19300 X25.405 Y12.947
N19305 X25.627 Y12.759
N19310 X25.686 Y12.706
N19315 X25.899 Y12.507
N19320 X25.951 Y12.455
N19325 X26.154 Y12.247
N19330 X26.2 Y12.198
N19335 X26.394 Y11.982
N19340 X26.434 Y11.935
N19345 X26.62 Y11.71
N19350 X26.656 Y11.664
N19355 X26.836 Y11.43
N19360 X26.883 Y11.366
N19365 X27.223 Y10.873
N19370 X27.274 Y10.794
N19375 X27.588 Y10.275
N19380 X27.631 Y10.201
N19385 X27.918 Y9.664
N19390 X27.953 Y9.595
N19395 X28.213 Y9.045
N19400 X28.242 Y8.98
N19405 X28.475 Y8.425
N19410 X28.5 Y8.362
N19415 X28.705 Y7.809
N19420 X28.726 Y7.748
N19425 G2 X29.053 Y6.673 I-28.686 J-9.322
N19430 G1 X29.067 Y6.621
N19435 X29.153 Y6.272
N19440 X29.164 Y6.228
N19445 X29.241 Y5.873
N19450 X29.25 Y5.826
N19455 X29.318 Y5.466
N19460 X29.327 Y5.415
N19465 X29.382 Y5.05
N19470 X29.39 Y4.996
N19475 X29.433 Y4.629
N19480 X29.439 Y4.57
N19485 X29.468 Y4.203
N19490 X29.472 Y4.138
N19495 X29.487 Y3.772
N19500 X29.488 Y3.702
N19505 X29.486 Y3.338
N19510 X29.485 Y3.286
N19515 G3 X29.79 Y2.957 I0.317 J-0.012
N19520 G1 X30.107 Y2.944
N19525 X30.178 Y2.942 Z-12.692
N19530 X30.245 Y2.939 Z-12.669
N19535 X30.305 Y2.937 Z-12.631
N19540 X30.355 Y2.935 Z-12.58
N19545 X30.393 Y2.933 Z-12.52
N19550 X30.416 Y2.932 Z-12.453
N19555 X30.424 Z-12.383
N19560 Z5.
N19565 X30.449 Y3.567
N19570 Z-7.7 F1033.33
N19575 Z-15.558
N19580 X30.441 Z-15.628 F3100.
N19585 X30.417 Y3.568 Z-15.695
N19590 X30.379 Y3.569 Z-15.755
N19595 X30.329 Y3.571 Z-15.806
N19600 X30.269 Y3.574 Z-15.844
N19605 X30.202 Y3.576 Z-15.867
N19610 X30.131 Y3.579 Z-15.875
N19615 X29.814 Y3.591
N19620 G3 X29.485 Y3.286 I-0.012 J-0.317
N19625 G1 X29.483 Y3.26
N19630 X29.464 Y2.901
N19635 X29.457 Y2.816
N19640 X29.418 Y2.461
N19645 X29.405 Y2.367
N19650 X29.345 Y2.016
N19655 X29.324 Y1.913
N19660 X29.241 Y1.567
N19665 X29.21 Y1.456
N19670 X29.103 Y1.118
N19675 X29.06 Y0.999
N19680 X28.925 Y0.67
N19685 X28.868 Y0.545
N19690 X28.706 Y0.229
N19695 X28.634 Y0.103
N19700 X28.446 Y-0.194
N19705 X28.361 Y-0.316
N19710 X28.146 Y-0.593
N19715 X28.049 Y-0.707
N19720 X27.809 Y-0.963
N19725 X27.703 Y-1.066
N19730 X27.437 Y-1.302
N19735 X27.327 Y-1.391
N19740 X27.041 Y-1.602
N19745 X26.932 Y-1.675
N19750 X26.63 Y-1.861
N19755 X26.526 Y-1.92
N19760 X26.211 Y-2.083
N19765 X26.115 Y-2.129
N19770 X25.788 Y-2.271
N19775 X25.701 Y-2.306
N19780 X25.364 Y-2.429
N19785 X25.286 Y-2.455
N19790 X24.936 Y-2.563
N19795 X24.867 Y-2.583
N19800 X24.507 Y-2.676
N19805 X24.446 Y-2.691
N19810 X24.076 Y-2.771
N19815 X24.024 Y-2.782
N19820 X23.645 Y-2.851
N19825 X23.601 Y-2.859
N19830 X23.214 Y-2.918
N19835 X23.178 Y-2.923
N19840 X22.784 Y-2.975
N19845 X22.743 Y-2.979
N19850 X21.935 Y-3.063
N19855 X21.902 Y-3.066
N19860 X21.068 Y-3.135
N19865 X21.058 Y-3.136
N19870 X20.213 Y-3.2
N19875 X19.376 Y-3.27
N19880 X18.562 Y-3.354
N19885 X17.769 Y-3.464
N19890 X17.401 Y-3.528
N19895 X17.037 Y-3.602
N19900 X16.686 Y-3.685
N19905 X16.35 Y-3.778
N19910 X16.029 Y-3.882
N19915 X15.725 Y-3.996
N19920 X15.437 Y-4.121
N19925 X15.167 Y-4.258
N19930 X14.916 Y-4.406
N19935 X14.684 Y-4.565
N19940 X14.472 Y-4.735
N19945 X14.278 Y-4.918
N19950 X14.107 Y-5.11
N19955 X13.958 Y-5.312
N19960 X13.829 Y-5.523
N19965 X13.721 Y-5.745
N19970 X13.633 Y-5.978
N19975 X13.567 Y-6.218
N19980 X13.523 Y-6.466
N19985 X13.5 Y-6.721
N19990 Y-6.983
N19995 X13.522 Y-7.247
N20000 X13.567 Y-7.514
N20005 X13.633 Y-7.785
N20010 X13.722 Y-8.057
N20015 X13.832 Y-8.331
N20020 X13.962 Y-8.603
N20025 X14.112 Y-8.875
N20030 X14.281 Y-9.144
N20035 X14.467 Y-9.411
N20040 X14.67 Y-9.676
N20045 X14.887 Y-9.937
N20050 X15.119 Y-10.195
N20055 X15.364 Y-10.45
N20060 X15.62 Y-10.701
N20065 X15.882 Y-10.945
N20070 X16.45 Y-11.441
N20075 X17.035 Y-11.919
N20080 X17.634 Y-12.39
N20085 X18.233 Y-12.856
N20090 X18.242 Y-12.863
N20095 X18.826 Y-13.324
N20100 X18.854 Y-13.346
N20105 X19.41 Y-13.806
N20110 X19.443 Y-13.834
N20115 X19.707 Y-14.064
N20120 X19.735 Y-14.09
N20125 X19.99 Y-14.322
N20130 X20.023 Y-14.354
N20135 X20.265 Y-14.589
N20140 X20.303 Y-14.627
N20145 X20.533 Y-14.865
N20150 X20.575 Y-14.911
N20155 X20.792 Y-15.154
N20160 X20.838 Y-15.209
N20165 X21.04 Y-15.457
N20170 X21.091 Y-15.523
N20175 X21.276 Y-15.778
N20180 X21.329 Y-15.856
N20185 X21.497 Y-16.117
N20190 X21.55 Y-16.207
N20195 X21.699 Y-16.476
N20200 X21.751 Y-16.579
N20205 X21.878 Y-16.856
N20210 X21.926 Y-16.971
N20215 X22.03 Y-17.254
N20220 X22.07 Y-17.378
N20225 X22.15 Y-17.666
N20230 X22.181 Y-17.797
N20235 X22.236 Y-18.09
N20240 X22.255 Y-18.227
N20245 X22.285 Y-18.526
N20250 X22.293 Y-18.662
N20255 X22.297 Y-18.966
N20260 X22.293 Y-19.098
N20265 X22.272 Y-19.4
N20270 X22.258 Y-19.523
N20275 X22.213 Y-19.821
N20280 X22.192 Y-19.935
N20285 X22.125 Y-20.23
N20290 X22.099 Y-20.333
N20295 X22.012 Y-20.624
N20300 X21.981 Y-20.716
N20305 X21.877 Y-21.003
N20310 X21.844 Y-21.086
N20315 X21.723 Y-21.367
N20320 X21.689 Y-21.441
N20325 X21.553 Y-21.717
N20330 X21.519 Y-21.782
N20335 X21.37 Y-22.053
N20340 X21.336 Y-22.111
N20345 X21.176 Y-22.375
N20350 X21.143 Y-22.426
N20355 X20.973 Y-22.683
N20360 X20.942 Y-22.729
N20365 X20.765 Y-22.979
N20370 X20.721 Y-23.038
N20375 X20.343 Y-23.519
N20380 X20.287 Y-23.586
N20385 X19.877 Y-24.054
N20390 X19.825 Y-24.112
N20395 X19.388 Y-24.564
N20400 X19.337 Y-24.613
N20405 X18.88 Y-25.046
N20410 X18.831 Y-25.091
N20415 X18.359 Y-25.502
N20420 X18.311 Y-25.542
N20425 X17.83 Y-25.928
N20430 X17.769 Y-25.975
N20435 G2 X16.088 Y-27.111 I-17.729 J24.402
N20440 G1 X16.009 Y-27.158
N20445 X15.426 Y-27.478
N20450 X15.368 Y-27.509
N20455 X15.065 Y-27.659
N20460 X15.021 Y-27.68
N20465 X14.713 Y-27.821
N20470 X14.664 Y-27.843
N20475 X14.351 Y-27.974
N20480 X14.296 Y-27.996
N20485 X13.979 Y-28.115
N20490 X13.918 Y-28.136
N20495 X13.599 Y-28.241
N20500 X13.531 Y-28.262
N20505 X13.21 Y-28.352
N20510 X13.133 Y-28.372
N20515 X12.811 Y-28.445
N20520 X12.726 Y-28.462
N20525 X12.403 Y-28.518
N20530 X12.308 Y-28.531
N20535 X11.982 Y-28.567
N20540 X11.876 Y-28.575
N20545 X11.549 Y-28.589
N20550 X11.431
N20555 X11.104 Y-28.578
N20560 X10.976 Y-28.569
N20565 X10.651 Y-28.532
N20570 X10.513 Y-28.51
N20575 X10.193 Y-28.445
N20580 X10.051 Y-28.409
N20585 X9.742 Y-28.315
N20590 X9.6 Y-28.265
N20595 X9.302 Y-28.143
N20600 X9.166 Y-28.08
N20605 X8.879 Y-27.929
N20610 X8.752 Y-27.855
N20615 X8.478 Y-27.677
N20620 X8.363 Y-27.595
N20625 X8.106 Y-27.394
N20630 X8.008 Y-27.31
N20635 X7.768 Y-27.089
N20640 X7.686 Y-27.007
N20645 X7.462 Y-26.769
N20650 X7.394 Y-26.691
N20655 X7.186 Y-26.437
N20660 X7.131 Y-26.365
N20665 X6.935 Y-26.097
N20670 X6.89 Y-26.031
N20675 X6.705 Y-25.749
N20680 X6.668 Y-25.689
N20685 X6.492 Y-25.393
N20690 X6.462 Y-25.34
N20695 X6.295 Y-25.031
N20700 X6.271 Y-24.986
N20705 X6.111 Y-24.667
N20710 X6.084 Y-24.61
N20715 X5.783 Y-23.944
N20720 X5.759 Y-23.89
N20725 X5.473 Y-23.19
N20730 X5.46 Y-23.157
N20735 X5.181 Y-22.429
N20740 X5.176 Y-22.416
N20745 X4.898 Y-21.671
N20750 X4.617 Y-20.929
N20755 X4.329 Y-20.204
N20760 X4.03 Y-19.507
N20765 X3.709 Y-18.835
N20770 X3.548 Y-18.53
N20775 X3.377 Y-18.23
N20780 X3.201 Y-17.943
N20785 X3.02 Y-17.671
N20790 X2.832 Y-17.415
N20795 X2.637 Y-17.174
N20800 X2.436 Y-16.951
N20805 X2.229 Y-16.746
N20810 X2.016 Y-16.561
N20815 X1.798 Y-16.397
N20820 X1.575 Y-16.254
N20825 X1.35 Y-16.133
N20830 X1.123 Y-16.035
N20835 X0.892 Y-15.959
N20840 X0.657 Y-15.904
N20845 X0.42 Y-15.87
N20850 X0.181 Y-15.859
N20855 X-0.057 Y-15.87
N20860 X-0.297 Y-15.903
N20865 X-0.538 Y-15.958
N20870 X-0.775 Y-16.035
N20875 X-1.009 Y-16.133
N20880 X-1.242 Y-16.253
N20885 X-1.472 Y-16.395
N20890 X-1.699 Y-16.557
N20895 X-1.919 Y-16.74
N20900 X-2.135 Y-16.941
