%
(KNOB_1_8)
(T1  D=3.175 CR=0. - ZMIN=-18.51 - FLAT END MILL)
N10 G90 G94 G17 G91.1
N15 G21
(WHEN USING FUSION 360 FOR PERSONAL USE, THE FEEDRATE OF)
(RAPID MOVES IS REDUCED TO MATCH THE FEEDRATE OF CUTTING)
(MOVES, WHICH CAN INCREASE MACHINING TIME. UNRESTRICTED RAPID)
(MOVES ARE AVAILABLE WITH A FUSION 360 SUBSCRIPTION.)
N20 G53 G0 Z0.
(2D CONTOUR3)
N25 T1 M6
N30 S5000 M3
N35 G54
N40 G0 X4.364 Y-1.784
N45 G43 Z15. H1
N50 G1 Z5. F3100.
N55 Z-2.465 F1033.33
N60 X4.372 Z-2.535 F3100.
N65 X4.396 Y-1.783 Z-2.602
N70 X4.433 Y-1.782 Z-2.662
N75 X4.484 Y-1.781 Z-2.713
N80 X4.544 Y-1.78 Z-2.751
N85 X4.611 Y-1.778 Z-2.774
N90 X4.681 Y-1.776 Z-2.782
N95 X4.999 Y-1.768
N100 G3 X5.309 Y-1.443 I-0.008 J0.317
N105 X-5.229 Y-1.702 I-5.269 J-0.129
N110 X5.309 Y-1.443 I5.269 J0.129
N115 X4.983 Y-1.134 I-0.317 J-0.008
N120 G1 X4.666 Y-1.141
N125 X4.595 Y-1.143 Z-2.774
N130 X4.528 Y-1.145 Z-2.751
N135 X4.468 Y-1.146 Z-2.713
N140 X4.418 Y-1.147 Z-2.662
N145 X4.38 Y-1.148 Z-2.602
N150 X4.356 Y-1.149 Z-2.535
N155 X4.349 Z-2.465
N160 Z15.
N165 X2.326 Y-1.89
N170 Z5.
N175 Z-2.858 F1033.33
N180 G18 G2 X2.643 Z-3.175 I0.318 K0. F3100.
N185 G1 X2.961
N190 G17 G3 X3.278 Y-1.573 I0. J0.317
N195 X-3.199 I-3.239 J0.
N200 X3.278 I3.239 J0.
N205 X2.961 Y-1.255 I-0.318 J0.
N210 G1 X2.643
N215 G18 G3 X2.326 Z-2.858 I0. K0.317
N220 G1 Z5.
N225 Y-1.89
N230 Z1.825 F1033.33
N235 Z-6.033
N240 G2 X2.643 Z-6.35 I0.318 K0. F3100.
N245 G1 X2.961
N250 G17 G3 X3.278 Y-1.573 I0. J0.317
N255 X-3.199 I-3.239 J0.
N260 X3.278 I3.239 J0.
N265 X2.961 Y-1.255 I-0.318 J0.
N270 G1 X2.643
N275 G18 G3 X2.326 Z-6.033 I0. K0.318
N280 G1 Z5.
N285 Y-1.89
N290 Z-1.35 F1033.33
N295 Z-9.208
N300 G2 X2.643 Z-9.525 I0.318 K0. F3100.
N305 G1 X2.961
N310 G17 G3 X3.278 Y-1.573 I0. J0.317
N315 X-3.199 I-3.239 J0.
N320 X3.278 I3.239 J0.
N325 X2.961 Y-1.255 I-0.318 J0.
N330 G1 X2.643
N335 G18 G3 X2.326 Z-9.208 I0. K0.317
N340 G1 Z5.
N345 Y-1.89
N350 Z-4.525 F1033.33
N355 Z-11.101
N360 G2 X2.643 Z-11.418 I0.318 K0. F3100.
N365 G1 X2.961
N370 G17 G3 X3.278 Y-1.573 I0. J0.317
N375 X-3.199 I-3.239 J0.
N380 X3.278 I3.239 J0.
N385 X2.961 Y-1.255 I-0.318 J0.
N390 G1 X2.643
N395 G18 G3 X2.326 Z-11.101 I0. K0.318
N400 G1 Z15.
N405 X0.873 Y-1.89
N410 Z5.
N415 Z-2.858 F1033.33
N420 G2 X1.191 Z-3.175 I0.317 K0. F3100.
N425 G1 X1.508
N430 G17 G3 X1.826 Y-1.573 I0. J0.317
N435 X-1.746 I-1.786 J0.
N440 X1.826 I1.786 J0.
N445 X1.508 Y-1.255 I-0.317 J0.
N450 G1 X1.191
N455 G18 G3 X0.873 Z-2.858 I0. K0.317
N460 G1 Z5.
N465 Y-1.89
N470 Z1.825 F1033.33
N475 Z-6.033
N480 G2 X1.191 Z-6.35 I0.317 K0. F3100.
N485 G1 X1.508
N490 G17 G3 X1.826 Y-1.573 I0. J0.317
N495 X-1.746 I-1.786 J0.
N500 X1.826 I1.786 J0.
N505 X1.508 Y-1.255 I-0.317 J0.
N510 G1 X1.191
N515 G18 G3 X0.873 Z-6.033 I0. K0.318
N520 G1 Z5.
N525 Y-1.89
N530 Z-1.35 F1033.33
N535 Z-9.208
N540 G2 X1.191 Z-9.525 I0.317 K0. F3100.
N545 G1 X1.508
N550 G17 G3 X1.826 Y-1.573 I0. J0.317
N555 X-1.746 I-1.786 J0.
N560 X1.826 I1.786 J0.
N565 X1.508 Y-1.255 I-0.317 J0.
N570 G1 X1.191
N575 G18 G3 X0.873 Z-9.208 I0. K0.317
N580 G1 Z5.
N585 Y-1.89
N590 Z-4.525 F1033.33
N595 Z-12.383
N600 G2 X1.191 Z-12.7 I0.317 K0. F3100.
N605 G1 X1.508
N610 G17 G3 X1.826 Y-1.573 I0. J0.317
N615 X-1.746 I-1.786 J0.
N620 X1.826 I1.786 J0.
N625 X1.508 Y-1.255 I-0.317 J0.
N630 G1 X1.191
N635 G18 G3 X0.873 Z-12.383 I0. K0.318
N640 G1 Z5.
N645 Y-1.89
N650 Z-7.7 F1033.33
N655 Z-15.558
N660 G2 X1.191 Z-15.875 I0.317 K0. F3100.
N665 G1 X1.508
N670 G17 G3 X1.826 Y-1.573 I0. J0.317
N675 X-1.746 I-1.786 J0.
N680 X1.826 I1.786 J0.
N685 X1.508 Y-1.255 I-0.317 J0.
N690 G1 X1.191
N695 G18 G3 X0.873 Z-15.558 I0. K0.318
N700 G1 Z5.
N705 Y-1.89
N710 Z-10.875 F1033.33
N715 Z-18.193
N720 G2 X1.191 Z-18.51 I0.317 K0. F3100.
N725 G1 X1.508
N730 G17 G3 X1.826 Y-1.573 I0. J0.317
N735 X-1.746 I-1.786 J0.
N740 X1.826 I1.786 J0.
N745 X1.508 Y-1.255 I-0.317 J0.
N750 G1 X1.191
N755 G18 G3 X0.873 Z-18.193 I0. K0.318
N760 G1 Z5.
N765 X30.449 Y3.567
N770 Z-2.858 F1033.33
N775 X30.441 Z-2.928 F3100.
N780 X30.417 Y3.568 Z-2.995
N785 X30.379 Y3.569 Z-3.055
N790 X30.329 Y3.571 Z-3.106
N795 X30.269 Y3.574 Z-3.144
N800 X30.202 Y3.576 Z-3.167
N805 X30.131 Y3.579 Z-3.175
N810 X29.814 Y3.591
N815 G17 G3 X29.485 Y3.286 I-0.012 J-0.317
N820 G1 X29.483 Y3.26
N825 X29.464 Y2.901
N830 X29.457 Y2.816
N835 X29.418 Y2.461
N840 X29.405 Y2.367
N845 X29.345 Y2.016
N850 X29.324 Y1.913
N855 X29.241 Y1.567
N860 X29.21 Y1.456
N865 X29.103 Y1.118
N870 X29.06 Y0.999
N875 X28.925 Y0.67
N880 X28.868 Y0.545
N885 X28.706 Y0.229
N890 X28.634 Y0.103
N895 X28.446 Y-0.194
N900 X28.361 Y-0.316
N905 X28.146 Y-0.593
N910 X28.049 Y-0.707
N915 X27.809 Y-0.963
N920 X27.703 Y-1.066
N925 X27.437 Y-1.302
N930 X27.327 Y-1.391
N935 X27.041 Y-1.602
N940 X26.932 Y-1.675
N945 X26.63 Y-1.861
N950 X26.526 Y-1.92
N955 X26.211 Y-2.083
N960 X26.115 Y-2.129
N965 X25.788 Y-2.271
N970 X25.701 Y-2.306
N975 X25.364 Y-2.429
N980 X25.286 Y-2.455
N985 X24.936 Y-2.563
N990 X24.867 Y-2.583
N995 X24.507 Y-2.676
N1000 X24.446 Y-2.691
N1005 X24.076 Y-2.771
N1010 X24.024 Y-2.782
N1015 X23.645 Y-2.851
N1020 X23.601 Y-2.859
N1025 X23.214 Y-2.918
N1030 X23.178 Y-2.923
N1035 X22.784 Y-2.975
N1040 X22.743 Y-2.979
N1045 X21.935 Y-3.063
N1050 X21.902 Y-3.066
N1055 X21.068 Y-3.135
N1060 X21.058 Y-3.136
N1065 X20.213 Y-3.2
N1070 X19.376 Y-3.27
N1075 X18.562 Y-3.354
N1080 X17.769 Y-3.464
N1085 X17.401 Y-3.528
N1090 X17.037 Y-3.602
N1095 X16.686 Y-3.685
N1100 X16.35 Y-3.778
N1105 X16.029 Y-3.882
N1110 X15.725 Y-3.996
N1115 X15.437 Y-4.121
N1120 X15.167 Y-4.258
N1125 X14.916 Y-4.406
N1130 X14.684 Y-4.565
N1135 X14.472 Y-4.735
N1140 X14.278 Y-4.918
N1145 X14.107 Y-5.11
N1150 X13.958 Y-5.312
N1155 X13.829 Y-5.523
N1160 X13.721 Y-5.745
N1165 X13.633 Y-5.978
N1170 X13.567 Y-6.218
N1175 X13.523 Y-6.466
N1180 X13.5 Y-6.721
N1185 Y-6.983
N1190 X13.522 Y-7.247
N1195 X13.567 Y-7.514
N1200 X13.633 Y-7.785
N1205 X13.722 Y-8.057
N1210 X13.832 Y-8.331
N1215 X13.962 Y-8.603
N1220 X14.112 Y-8.875
N1225 X14.281 Y-9.144
N1230 X14.467 Y-9.411
N1235 X14.67 Y-9.676
N1240 X14.887 Y-9.937
N1245 X15.119 Y-10.195
N1250 X15.364 Y-10.45
N1255 X15.62 Y-10.701
N1260 X15.882 Y-10.945
N1265 X16.45 Y-11.441
N1270 X17.035 Y-11.919
N1275 X17.634 Y-12.39
N1280 X18.233 Y-12.856
N1285 X18.242 Y-12.863
N1290 X18.826 Y-13.324
N1295 X18.854 Y-13.346
N1300 X19.41 Y-13.806
N1305 X19.443 Y-13.834
N1310 X19.707 Y-14.064
N1315 X19.735 Y-14.09
N1320 X19.99 Y-14.322
N1325 X20.023 Y-14.354
N1330 X20.265 Y-14.589
N1335 X20.303 Y-14.627
N1340 X20.533 Y-14.865
N1345 X20.575 Y-14.911
N1350 X20.792 Y-15.154
N1355 X20.838 Y-15.209
N1360 X21.04 Y-15.457
N1365 X21.091 Y-15.523
N1370 X21.276 Y-15.778
N1375 X21.329 Y-15.856
N1380 X21.497 Y-16.117
N1385 X21.55 Y-16.207
N1390 X21.699 Y-16.476
N1395 X21.751 Y-16.579
N1400 X21.878 Y-16.856
N1405 X21.926 Y-16.971
N1410 X22.03 Y-17.254
N1415 X22.07 Y-17.378
N1420 X22.15 Y-17.666
N1425 X22.181 Y-17.797
N1430 X22.236 Y-18.09
N1435 X22.255 Y-18.227
N1440 X22.285 Y-18.526
N1445 X22.293 Y-18.662
N1450 X22.297 Y-18.966
N1455 X22.293 Y-19.098
N1460 X22.272 Y-19.4
N1465 X22.258 Y-19.523
N1470 X22.213 Y-19.821
N1475 X22.192 Y-19.935
N1480 X22.125 Y-20.23
N1485 X22.099 Y-20.333
N1490 X22.012 Y-20.624
N1495 X21.981 Y-20.716
N1500 X21.877 Y-21.003
N1505 X21.844 Y-21.086
N1510 X21.723 Y-21.367
N1515 X21.689 Y-21.441
N1520 X21.553 Y-21.717
N1525 X21.519 Y-21.782
N1530 X21.37 Y-22.053
N1535 X21.336 Y-22.111
N1540 X21.176 Y-22.375
N1545 X21.143 Y-22.426
N1550 X20.973 Y-22.683
N1555 X20.942 Y-22.729
N1560 X20.765 Y-22.979
N1565 X20.721 Y-23.038
N1570 X20.343 Y-23.519
N1575 X20.287 Y-23.586
N1580 X19.877 Y-24.054
N1585 X19.825 Y-24.112
N1590 X19.388 Y-24.564
N1595 X19.337 Y-24.613
N1600 X18.88 Y-25.046
N1605 X18.831 Y-25.091
N1610 X18.359 Y-25.502
N1615 X18.311 Y-25.542
N1620 X17.83 Y-25.928
N1625 X17.769 Y-25.975
N1630 G2 X16.088 Y-27.111 I-17.729 J24.402
N1635 G1 X16.009 Y-27.158
N1640 X15.426 Y-27.478
N1645 X15.368 Y-27.509
N1650 X15.065 Y-27.659
N1655 X15.021 Y-27.68
N1660 X14.713 Y-27.821
N1665 X14.664 Y-27.843
N1670 X14.351 Y-27.974
N1675 X14.296 Y-27.996
N1680 X13.979 Y-28.115
N1685 X13.918 Y-28.136
N1690 X13.599 Y-28.241
N1695 X13.531 Y-28.262
N1700 X13.21 Y-28.352
N1705 X13.133 Y-28.372
N1710 X12.811 Y-28.445
N1715 X12.726 Y-28.462
N1720 X12.403 Y-28.518
N1725 X12.308 Y-28.531
N1730 X11.982 Y-28.567
N1735 X11.876 Y-28.575
N1740 X11.549 Y-28.589
N1745 X11.431
N1750 X11.104 Y-28.578
N1755 X10.976 Y-28.569
N1760 X10.651 Y-28.532
N1765 X10.513 Y-28.51
N1770 X10.193 Y-28.445
N1775 X10.051 Y-28.409
N1780 X9.742 Y-28.315
N1785 X9.6 Y-28.265
N1790 X9.302 Y-28.143
N1795 X9.166 Y-28.08
N1800 X8.879 Y-27.929
N1805 X8.752 Y-27.855
N1810 X8.478 Y-27.677
N1815 X8.363 Y-27.595
N1820 X8.106 Y-27.394
N1825 X8.008 Y-27.31
N1830 X7.768 Y-27.089
N1835 X7.686 Y-27.007
N1840 X7.462 Y-26.769
N1845 X7.394 Y-26.691
N1850 X7.186 Y-26.437
N1855 X7.131 Y-26.365
N1860 X6.935 Y-26.097
N1865 X6.89 Y-26.031
N1870 X6.705 Y-25.749
N1875 X6.668 Y-25.689
N1880 X6.492 Y-25.393
N1885 X6.462 Y-25.34
N1890 X6.295 Y-25.031
N1895 X6.271 Y-24.986
N1900 X6.111 Y-24.667
N1905 X6.084 Y-24.61
N1910 X5.783 Y-23.944
N1915 X5.759 Y-23.89
N1920 X5.473 Y-23.19
N1925 X5.46 Y-23.157
N1930 X5.181 Y-22.429
N1935 X5.176 Y-22.416
N1940 X4.898 Y-21.671
N1945 X4.617 Y-20.929
N1950 X4.329 Y-20.204
N1955 X4.03 Y-19.507
N1960 X3.709 Y-18.835
N1965 X3.548 Y-18.53
N1970 X3.377 Y-18.23
N1975 X3.201 Y-17.943
N1980 X3.02 Y-17.671
N1985 X2.832 Y-17.415
N1990 X2.637 Y-17.174
N1995 X2.436 Y-16.951
N2000 X2.229 Y-16.746
N2005 X2.016 Y-16.561
N2010 X1.798 Y-16.397
N2015 X1.575 Y-16.254
N2020 X1.35 Y-16.133
N2025 X1.123 Y-16.035
N2030 X0.892 Y-15.959
N2035 X0.657 Y-15.904
N2040 X0.42 Y-15.87
N2045 X0.181 Y-15.859
N2050 X-0.057 Y-15.87
N2055 X-0.297 Y-15.903
N2060 X-0.538 Y-15.958
N2065 X-0.775 Y-16.035
N2070 X-1.009 Y-16.133
N2075 X-1.242 Y-16.253
N2080 X-1.472 Y-16.395
N2085 X-1.699 Y-16.557
N2090 X-1.919 Y-16.74
N2095 X-2.135 Y-16.941
N2100 X-2.345 Y-17.16
N2105 X-2.548 Y-17.397
N2110 X-2.746 Y-17.648
N2115 X-2.938 Y-17.916
N2120 X-3.125 Y-18.197
N2125 X-3.306 Y-18.491
N2130 X-3.478 Y-18.789
N2135 X-3.82 Y-19.44
N2140 X-4.137 Y-20.107
N2145 X-4.44 Y-20.79
N2150 X-4.736 Y-21.486
N2155 X-5.03 Y-22.185
N2160 X-5.035 Y-22.197
N2165 X-5.33 Y-22.882
N2170 X-5.343 Y-22.912
N2175 X-5.645 Y-23.575
N2180 X-5.669 Y-23.625
N2185 X-5.984 Y-24.257
N2190 X-6.01 Y-24.308
N2195 X-6.174 Y-24.611
N2200 X-6.197 Y-24.652
N2205 X-6.368 Y-24.945
N2210 X-6.396 Y-24.991
N2215 X-6.573 Y-25.273
N2220 X-6.607 Y-25.324
N2225 X-6.792 Y-25.594
N2230 X-6.832 Y-25.651
N2235 X-7.027 Y-25.91
N2240 X-7.076 Y-25.973
N2245 X-7.282 Y-26.221
N2250 X-7.341 Y-26.288
N2255 X-7.561 Y-26.524
N2260 X-7.631 Y-26.594
N2265 X-7.865 Y-26.815
N2270 X-7.947 Y-26.888
N2275 X-8.196 Y-27.093
N2280 X-8.291 Y-27.165
N2285 X-8.555 Y-27.351
N2290 X-8.662 Y-27.42
N2295 X-8.939 Y-27.584
N2300 X-9.054 Y-27.646
N2305 X-9.341 Y-27.785
N2310 X-9.462 Y-27.837
N2315 X-9.758 Y-27.951
N2320 X-9.883 Y-27.993
N2325 X-10.189 Y-28.083
N2330 X-10.315 Y-28.115
N2335 X-10.631 Y-28.18
N2340 X-10.753 Y-28.2
N2345 X-11.073 Y-28.24
N2350 X-11.188 Y-28.251
N2355 X-11.51 Y-28.268
N2360 X-11.618 Y-28.27
N2365 X-11.94 Y-28.265
N2370 X-12.04 Y-28.26
N2375 X-12.362 Y-28.235
N2380 X-12.452 Y-28.225
N2385 X-12.773 Y-28.181
N2390 X-12.855 Y-28.168
N2395 X-13.175 Y-28.107
N2400 X-13.249 Y-28.091
N2405 X-13.566 Y-28.015
N2410 X-13.635 Y-27.997
N2415 X-13.95 Y-27.906
N2420 X-14.011 Y-27.887
N2425 X-14.322 Y-27.783
N2430 X-14.378 Y-27.763
N2435 X-14.685 Y-27.648
N2440 X-14.736 Y-27.628
N2445 X-15.037 Y-27.503
N2450 X-15.105 Y-27.473
N2455 X-15.693 Y-27.197
N2460 X-15.774 Y-27.156
N2465 X-16.35 Y-26.843
N2470 X-16.423 Y-26.801
N2475 X-16.983 Y-26.458
N2480 X-17.05 Y-26.415
N2485 X-17.588 Y-26.047
N2490 X-17.621 Y-26.024
N2495 X-17.688 Y-25.975
N2500 X-17.713 Y-25.957
N2505 X-18.07 Y-25.687
N2510 X-18.113 Y-25.654
N2515 X-18.466 Y-25.368
N2520 X-18.509 Y-25.332
N2525 X-18.855 Y-25.031
N2530 X-18.899 Y-24.991
N2535 X-19.235 Y-24.675
N2540 X-19.281 Y-24.631
N2545 X-19.604 Y-24.302
N2550 X-19.651 Y-24.253
N2555 X-19.958 Y-23.912
N2560 X-20.007 Y-23.855
N2565 X-20.296 Y-23.504
N2570 X-20.346 Y-23.439
N2575 X-20.613 Y-23.077
N2580 X-20.664 Y-23.003
N2585 X-20.907 Y-22.632
N2590 X-20.96 Y-22.545
N2595 X-21.178 Y-22.159
N2600 X-21.23 Y-22.059
N2605 X-21.42 Y-21.659
N2610 X-21.471 Y-21.541
N2615 X-21.627 Y-21.127
N2620 X-21.661 Y-21.028
N2625 X-21.726 Y-20.816
N2630 X-21.746 Y-20.744
N2635 X-21.801 Y-20.53
N2640 X-21.818 Y-20.453
N2645 X-21.862 Y-20.236
N2650 X-21.876 Y-20.155
N2655 X-21.908 Y-19.938
N2660 X-21.919 Y-19.854
N2665 X-21.939 Y-19.636
N2670 X-21.945 Y-19.551
N2675 X-21.954 Y-19.333
N2680 X-21.955 Y-19.246
N2685 X-21.952 Y-19.028
N2690 X-21.948 Y-18.94
N2695 X-21.933 Y-18.722
N2700 X-21.924 Y-18.635
N2705 X-21.896 Y-18.418
N2710 X-21.883 Y-18.33
N2715 X-21.843 Y-18.113
N2720 X-21.825 Y-18.028
N2725 X-21.773 Y-17.814
N2730 X-21.751 Y-17.732
N2735 X-21.689 Y-17.521
N2740 X-21.664 Y-17.446
N2745 X-21.591 Y-17.239
N2750 X-21.563 Y-17.166
N2755 X-21.48 Y-16.963
N2760 X-21.437 Y-16.866
N2765 X-21.243 Y-16.471
N2770 X-21.182 Y-16.358
N2775 X-20.956 Y-15.977
N2780 X-20.896 Y-15.884
N2785 X-20.639 Y-15.513
N2790 X-20.583 Y-15.436
N2795 X-20.299 Y-15.074
N2800 X-20.248 Y-15.013
N2805 X-19.941 Y-14.659
N2810 X-19.896 Y-14.609
N2815 X-19.568 Y-14.262
N2820 X-19.53 Y-14.224
N2825 X-19.185 Y-13.883
N2830 X-19.155 Y-13.854
N2835 X-18.795 Y-13.516
N2840 X-18.771 Y-13.495
N2845 X-18.398 Y-13.159
N2850 X-18.377 Y-13.14
N2855 X-17.605 Y-12.47
N2860 X-17.598 Y-12.464
N2865 X-16.82 Y-11.796
N2870 X-16.065 Y-11.127
N2875 X-15.715 Y-10.8
N2880 X-15.378 Y-10.47
N2885 X-15.06 Y-10.14
N2890 X-14.765 Y-9.809
N2895 X-14.495 Y-9.478
N2900 X-14.249 Y-9.145
N2905 X-14.032 Y-8.81
N2910 X-13.837 Y-8.461
N2915 X-13.761 Y-8.306
N2920 X-13.688 Y-8.138
N2925 X-13.623 Y-7.971
N2930 X-13.567 Y-7.803
N2935 X-13.521 Y-7.641
N2940 X-13.485 Y-7.486
N2945 X-13.457 Y-7.338
N2950 X-13.437 Y-7.197
N2955 X-13.425 Y-7.062
N2960 X-13.418 Y-6.933
N2965 X-13.417 Y-6.81
N2970 X-13.421 Y-6.706
N2975 X-13.443 Y-6.468
N2980 X-13.481 Y-6.249
N2985 X-13.536 Y-6.035
N2990 X-13.606 Y-5.824
N2995 X-13.694 Y-5.619
N3000 X-13.797 Y-5.419
N3005 X-13.916 Y-5.227
N3010 X-14.049 Y-5.043
N3015 X-14.196 Y-4.867
N3020 X-14.359 Y-4.7
N3025 X-14.537 Y-4.54
N3030 X-14.728 Y-4.389
N3035 X-14.931 Y-4.249
N3040 X-15.148 Y-4.118
N3045 X-15.376 Y-3.997
N3050 X-15.617 Y-3.886
N3055 X-15.869 Y-3.783
N3060 X-16.133 Y-3.69
N3065 X-16.406 Y-3.606
N3070 X-16.688 Y-3.532
N3075 X-16.978 Y-3.466
N3080 X-17.266 Y-3.41
N3085 X-17.894 Y-3.315
N3090 X-18.527 Y-3.25
N3095 X-19.175 Y-3.206
N3100 X-19.836 Y-3.179
N3105 X-20.508 Y-3.162
N3110 X-21.185 Y-3.15
N3115 X-21.19 Y-3.149
N3120 X-21.86 Y-3.135
N3125 X-21.882 Y-3.134
N3130 X-22.536 Y-3.111
N3135 X-22.576 Y-3.109
N3140 X-23.212 Y-3.071
N3145 X-23.271 Y-3.066
N3150 X-23.884 Y-3.006
N3155 X-23.943 Y-2.999
N3160 X-24.24 Y-2.959
N3165 X-24.287 Y-2.952
N3170 X-24.577 Y-2.903
N3175 X-24.631 Y-2.893
N3180 X-24.914 Y-2.836
N3185 X-24.974 Y-2.823
N3190 X-25.249 Y-2.756
N3195 X-25.316 Y-2.738
N3200 X-25.582 Y-2.661
N3205 X-25.656 Y-2.637
N3210 X-25.914 Y-2.549
N3215 X-25.994 Y-2.519
N3220 X-26.242 Y-2.418
N3225 X-26.328 Y-2.38
N3230 X-26.567 Y-2.266
N3235 X-26.658 Y-2.219
N3240 X-26.886 Y-2.092
N3245 X-26.979 Y-2.036
N3250 X-27.197 Y-1.894
N3255 X-27.291 Y-1.827
N3260 X-27.497 Y-1.671
N3265 X-27.59 Y-1.594
N3270 X-27.784 Y-1.422
N3275 X-27.874 Y-1.335
N3280 X-28.055 Y-1.147
N3285 X-28.139 Y-1.052
N3290 X-28.304 Y-0.849
N3295 X-28.379 Y-0.75
N3300 X-28.528 Y-0.536
N3305 X-28.592 Y-0.436
N3310 X-28.724 Y-0.212
N3315 X-28.778 Y-0.112
N3320 X-28.893 Y0.121
N3325 X-28.938 Y0.218
N3330 X-29.038 Y0.46
N3335 X-29.073 Y0.553
N3340 X-29.158 Y0.802
N3345 X-29.186 Y0.89
N3350 X-29.257 Y1.144
N3355 X-29.278 Y1.227
N3360 X-29.335 Y1.485
N3365 X-29.35 Y1.561
N3370 X-29.395 Y1.822
N3375 X-29.405 Y1.893
N3380 X-29.438 Y2.156
N3385 X-29.445 Y2.22
N3390 X-29.467 Y2.484
N3395 X-29.472 Y2.57
N3400 X-29.488 Y3.098
N3405 Y3.198
N3410 X-29.471 Y3.732
N3415 X-29.465 Y3.819
N3420 X-29.418 Y4.359
N3425 X-29.409 Y4.435
N3430 X-29.336 Y4.977
N3435 X-29.325 Y5.044
N3440 X-29.228 Y5.582
N3445 X-29.216 Y5.642
N3450 X-29.1 Y6.171
N3455 X-29.087 Y6.225
N3460 X-28.954 Y6.741
N3465 X-28.942 Y6.785
N3470 G2 X-28.647 Y7.748 I28.982 J-8.357
N3475 G1 X-28.632 Y7.791
N3480 X-28.442 Y8.323
N3485 X-28.423 Y8.374
N3490 X-28.213 Y8.905
N3495 X-28.191 Y8.958
N3500 X-27.96 Y9.484
N3505 X-27.935 Y9.539
N3510 X-27.685 Y10.056
N3515 X-27.655 Y10.114
N3520 X-27.386 Y10.616
N3525 X-27.351 Y10.679
N3530 X-27.063 Y11.161
N3535 X-27.02 Y11.23
N3540 X-26.715 Y11.687
N3545 X-26.662 Y11.761
N3550 X-26.34 Y12.189
N3555 X-26.273 Y12.272
N3560 X-25.924 Y12.676
N3565 X-25.862 Y12.744
N3570 X-25.675 Y12.936
N3575 X-25.626 Y12.985
N3580 X-25.431 Y13.169
N3585 X-25.374 Y13.22
N3590 X-25.171 Y13.394
N3595 X-25.107 Y13.446
N3600 X-24.896 Y13.609
N3605 X-24.822 Y13.662
N3610 X-24.603 Y13.813
N3615 X-24.519 Y13.866
N3620 X-24.292 Y14.001
N3625 X-24.2 Y14.052
N3630 X-23.965 Y14.172
N3635 X-23.864 Y14.219
N3640 X-23.623 Y14.321
N3645 X-23.513 Y14.363
N3650 X-23.265 Y14.447
N3655 X-23.148 Y14.481
N3660 X-22.894 Y14.546
N3665 X-22.771 Y14.572
N3670 X-22.51 Y14.617
N3675 X-22.384 Y14.633
N3680 X-22.121 Y14.657
N3685 X-21.999 Y14.663
N3690 X-21.737 Y14.667
N3695 X-21.619 Y14.664
N3700 X-21.358 Y14.647
N3705 X-21.247 Y14.637
N3710 X-20.986 Y14.602
N3715 X-20.885 Y14.585
N3720 X-20.625 Y14.534
N3725 X-20.532 Y14.512
N3730 X-20.272 Y14.444
N3735 X-20.19 Y14.42
N3740 X-19.932 Y14.337
N3745 X-19.858 Y14.311
N3750 X-19.6 Y14.214
N3755 X-19.536 Y14.188
N3760 X-19.279 Y14.079
N3765 X-19.223 Y14.053
N3770 X-18.966 Y13.932
N3775 X-18.918 Y13.908
N3780 X-18.662 Y13.776
N3785 X-18.602 Y13.744
N3790 X-18.09 Y13.451
N3795 X-18.031 Y13.415
N3800 X-17.515 Y13.089
N3805 X-17.474 Y13.063
N3810 X-16.953 Y12.711
N3815 X-16.929 Y12.695
N3820 X-16.401 Y12.325
N3825 X-16.391 Y12.318
N3830 X-15.856 Y11.937
N3835 X-15.32 Y11.557
N3840 X-14.784 Y11.188
N3845 X-14.244 Y10.834
N3850 X-13.701 Y10.502
N3855 X-13.146 Y10.195
N3860 X-12.882 Y10.063
N3865 X-12.611 Y9.937
N3870 X-12.341 Y9.822
N3875 X-12.073 Y9.719
N3880 X-11.806 Y9.629
N3885 X-11.537 Y9.551
N3890 X-11.252 Y9.483
N3895 X-10.954 Y9.429
N3900 X-10.646 Y9.394
N3905 X-10.312 Y9.381
N3910 X-10.166 Y9.384
N3915 X-10.003 Y9.394
N3920 X-9.84 Y9.411
N3925 X-9.68 Y9.435
N3930 X-9.523 Y9.466
N3935 X-9.37 Y9.505
N3940 X-9.22 Y9.55
N3945 X-9.073 Y9.601
N3950 X-8.929 Y9.66
N3955 X-8.789 Y9.726
N3960 X-8.652 Y9.799
N3965 X-8.52 Y9.878
N3970 X-8.392 Y9.963
N3975 X-8.269 Y10.054
N3980 X-8.152 Y10.151
N3985 X-8.04 Y10.254
N3990 X-7.933 Y10.362
N3995 X-7.831 Y10.477
N4000 X-7.735 Y10.596
N4005 X-7.646 Y10.72
N4010 X-7.563 Y10.849
N4015 X-7.485 Y10.982
N4020 X-7.414 Y11.121
N4025 X-7.349 Y11.265
N4030 X-7.289 Y11.414
N4035 X-7.241 Y11.553
N4040 X-7.146 Y11.895
N4045 X-7.081 Y12.236
N4050 X-7.039 Y12.594
N4055 X-7.02 Y12.968
N4060 X-7.023 Y13.354
N4065 X-7.047 Y13.753
N4070 X-7.089 Y14.165
N4075 X-7.15 Y14.588
N4080 X-7.226 Y15.021
N4085 X-7.316 Y15.461
N4090 X-7.416 Y15.904
N4095 X-7.648 Y16.821
N4100 X-7.898 Y17.742
N4105 X-7.899 Y17.745
N4110 X-8.146 Y18.664
N4115 X-8.151 Y18.684
N4120 X-8.267 Y19.136
N4125 X-8.273 Y19.16
N4130 X-8.379 Y19.607
N4135 X-8.387 Y19.639
N4140 X-8.482 Y20.08
N4145 X-8.491 Y20.122
N4150 X-8.572 Y20.556
N4155 X-8.581 Y20.608
N4160 X-8.647 Y21.035
N4165 X-8.655 Y21.099
N4170 X-8.703 Y21.517
N4175 X-8.709 Y21.594
N4180 X-8.736 Y22.005
N4185 X-8.739 Y22.095
N4190 X-8.741 Y22.498
N4195 X-8.739 Y22.605
N4200 X-8.714 Y23.006
N4205 X-8.702 Y23.129
N4210 X-8.647 Y23.527
N4215 X-8.621 Y23.666
N4220 X-8.53 Y24.057
N4225 X-8.499 Y24.171
N4230 X-8.44 Y24.363
N4235 X-8.413 Y24.442
N4240 X-8.343 Y24.63
N4245 X-8.31 Y24.711
N4250 X-8.231 Y24.894
N4255 X-8.194 Y24.973
N4260 X-8.105 Y25.15
N4265 X-8.063 Y25.229
N4270 X-7.964 Y25.401
N4275 X-7.918 Y25.477
N4280 X-7.81 Y25.642
N4285 X-7.759 Y25.715
N4290 X-7.642 Y25.875
N4295 X-7.588 Y25.945
N4300 X-7.461 Y26.099
N4305 X-7.404 Y26.164
N4310 X-7.268 Y26.313
N4315 X-7.21 Y26.373
N4320 X-7.066 Y26.514
N4325 X-6.978 Y26.594
N4330 X-6.671 Y26.852
N4335 X-6.555 Y26.94
N4340 X-6.226 Y27.169
N4345 X-6.116 Y27.24
N4350 X-5.768 Y27.441
N4355 X-5.665 Y27.496
N4360 X-5.302 Y27.672
N4365 X-5.207 Y27.714
N4370 X-4.831 Y27.868
N4375 X-4.746 Y27.9
N4380 X-4.359 Y28.032
N4385 X-4.282 Y28.056
N4390 X-3.89 Y28.169
N4395 X-3.821 Y28.187
N4400 X-3.426 Y28.281
N4405 X-3.364 Y28.295
N4410 X-2.97 Y28.372
N4415 X-2.914 Y28.382
N4420 X-2.525 Y28.444
N4425 X-2.474 Y28.451
N4430 X-2.094 Y28.499
N4435 X-2.048 Y28.504
N4440 X-1.68 Y28.54
N4445 X-1.614 Y28.545
N4450 G2 X0.04 Y28.59 I1.654 J-30.117
N4455 G1 X0.102 Y28.589
N4460 X0.536 Y28.572
N4465 X0.581 Y28.569
N4470 X1.02 Y28.539
N4475 X1.066 Y28.535
N4480 X1.507 Y28.492
N4485 X1.555 Y28.487
N4490 X1.995 Y28.43
N4495 X2.046 Y28.423
N4500 X2.484 Y28.352
N4505 X2.537 Y28.343
N4510 X2.97 Y28.257
N4515 X3.027 Y28.245
N4520 X3.453 Y28.145
N4525 X3.514 Y28.129
N4530 X3.93 Y28.013
N4535 X3.996 Y27.993
N4540 X4.4 Y27.862
N4545 X4.472 Y27.837
N4550 X4.861 Y27.689
N4555 X4.94 Y27.657
N4560 X5.319 Y27.489
N4565 X5.406 Y27.448
N4570 X5.776 Y27.257
N4575 X5.872 Y27.203
N4580 X6.227 Y26.987
N4585 X6.331 Y26.918
N4590 X6.668 Y26.676
N4595 X6.779 Y26.588
N4600 X7.092 Y26.317
N4605 X7.177 Y26.238
N4610 X7.322 Y26.092
N4615 X7.378 Y26.033
N4620 X7.515 Y25.881
N4625 X7.57 Y25.816
N4630 X7.698 Y25.658
N4635 X7.751 Y25.588
N4640 X7.87 Y25.423
N4645 X7.92 Y25.349
N4650 X8.029 Y25.178
N4655 X8.076 Y25.1
N4660 X8.176 Y24.921
N4665 X8.218 Y24.84
N4670 X8.308 Y24.655
N4675 X8.346 Y24.571
N4680 X8.425 Y24.38
N4685 X8.457 Y24.297
N4690 X8.525 Y24.104
N4695 X8.552 Y24.021
N4700 X8.609 Y23.825
N4705 X8.63 Y23.745
N4710 X8.677 Y23.546
N4715 X8.693 Y23.469
N4720 X8.73 Y23.268
N4725 X8.746 Y23.16
N4730 X8.793 Y22.75
N4735 X8.802 Y22.621
N4740 X8.815 Y22.202
N4745 Y22.091
N4750 X8.798 Y21.664
N4755 X8.792 Y21.57
N4760 X8.749 Y21.135
N4765 X8.74 Y21.058
N4770 X8.674 Y20.615
N4775 X8.664 Y20.553
N4780 X8.579 Y20.104
N4785 X8.569 Y20.056
N4790 X8.468 Y19.599
N4795 X8.46 Y19.563
N4800 X8.345 Y19.098
N4805 X8.339 Y19.072
N4810 X8.215 Y18.599
N4815 X8.209 Y18.581
N4820 X7.943 Y17.617
N4825 X7.679 Y16.648
N4830 X7.441 Y15.681
N4835 X7.342 Y15.218
N4840 X7.258 Y14.753
N4845 X7.19 Y14.292
N4850 X7.143 Y13.838
N4855 X7.118 Y13.394
N4860 X7.117 Y12.963
N4865 X7.143 Y12.547
N4870 X7.199 Y12.132
N4875 X7.231 Y11.963
N4880 X7.272 Y11.791
N4885 X7.316 Y11.631
N4890 X7.363 Y11.482
N4895 X7.414 Y11.343
N4900 X7.467 Y11.213
N4905 X7.523 Y11.092
N4910 X7.573 Y10.991
N4915 X7.699 Y10.774
N4920 X7.826 Y10.588
N4925 X7.964 Y10.416
N4930 X8.114 Y10.258
N4935 X8.275 Y10.113
N4940 X8.448 Y9.981
N4945 X8.63 Y9.865
N4950 X8.821 Y9.764
N4955 X9.021 Y9.677
N4960 X9.231 Y9.606
N4965 X9.452 Y9.55
N4970 X9.68 Y9.509
N4975 X9.915 Y9.485
N4980 X10.159 Y9.476
N4985 X10.409 Y9.483
N4990 X10.667 Y9.505
N4995 X10.931 Y9.543
N5000 X11.199 Y9.595
N5005 X11.472 Y9.661
N5010 X11.748 Y9.741
N5015 X12.027 Y9.834
N5020 X12.308 Y9.939
N5025 X12.589 Y10.054
N5030 X12.862 Y10.175
N5035 X13.44 Y10.458
N5040 X14.014 Y10.767
N5045 X14.592 Y11.102
N5050 X15.174 Y11.456
N5055 X15.76 Y11.821
N5060 X16.345 Y12.185
N5065 X16.357 Y12.193
N5070 X16.934 Y12.545
N5075 X16.961 Y12.561
N5080 X17.53 Y12.893
N5085 X17.575 Y12.918
N5090 X18.14 Y13.224
N5095 X18.206 Y13.258
N5100 X18.77 Y13.53
N5105 X18.834 Y13.559
N5110 X19.116 Y13.68
N5115 X19.168 Y13.701
N5120 X19.45 Y13.811
N5125 X19.51 Y13.832
N5130 X19.792 Y13.929
N5135 X19.859 Y13.95
N5140 X20.14 Y14.033
N5145 X20.216 Y14.053
N5150 X20.499 Y14.121
N5155 X20.583 Y14.139
N5160 X20.867 Y14.191
N5165 X20.96 Y14.205
N5170 X21.245 Y14.24
N5175 X21.347 Y14.249
N5180 X21.633 Y14.265
N5185 X21.743 Y14.268
N5190 X22.029 Y14.264
N5195 X22.145 Y14.259
N5200 X22.432 Y14.234
N5205 X22.552 Y14.219
N5210 X22.838 Y14.173
N5215 X22.956 Y14.149
N5220 X23.235 Y14.082
N5225 X23.35 Y14.049
N5230 X23.622 Y13.961
N5235 X23.731 Y13.921
N5240 X23.996 Y13.813
N5245 X24.098 Y13.768
N5250 X24.356 Y13.641
N5255 X24.451 Y13.59
N5260 X24.702 Y13.445
N5265 X24.788 Y13.391
N5270 X25.029 Y13.23
N5275 X25.105 Y13.176
N5280 X25.337 Y13.001
N5285 X25.405 Y12.947
N5290 X25.627 Y12.759
N5295 X25.686 Y12.706
N5300 X25.899 Y12.507
N5305 X25.951 Y12.455
N5310 X26.154 Y12.247
N5315 X26.2 Y12.198
N5320 X26.394 Y11.982
N5325 X26.434 Y11.935
N5330 X26.62 Y11.71
N5335 X26.656 Y11.664
N5340 X26.836 Y11.43
N5345 X26.883 Y11.366
N5350 X27.223 Y10.873
N5355 X27.274 Y10.794
N5360 X27.588 Y10.275
N5365 X27.631 Y10.201
N5370 X27.918 Y9.664
N5375 X27.953 Y9.595
N5380 X28.213 Y9.045
N5385 X28.242 Y8.98
N5390 X28.475 Y8.425
N5395 X28.5 Y8.362
N5400 X28.705 Y7.809
N5405 X28.726 Y7.748
N5410 G2 X29.053 Y6.673 I-28.686 J-9.322
N5415 G1 X29.067 Y6.621
N5420 X29.153 Y6.272
N5425 X29.164 Y6.228
N5430 X29.241 Y5.873
N5435 X29.25 Y5.826
N5440 X29.318 Y5.466
N5445 X29.327 Y5.415
N5450 X29.382 Y5.05
N5455 X29.39 Y4.996
N5460 X29.433 Y4.629
N5465 X29.439 Y4.57
N5470 X29.468 Y4.203
N5475 X29.472 Y4.138
N5480 X29.487 Y3.772
N5485 X29.488 Y3.702
N5490 X29.486 Y3.338
N5495 X29.485 Y3.286
N5500 G3 X29.79 Y2.957 I0.317 J-0.012
N5505 G1 X30.107 Y2.944
N5510 X30.178 Y2.942 Z-3.167
N5515 X30.245 Y2.939 Z-3.144
N5520 X30.305 Y2.937 Z-3.106
N5525 X30.355 Y2.935 Z-3.055
N5530 X30.393 Y2.933 Z-2.995
N5535 X30.416 Y2.932 Z-2.928
N5540 X30.424 Z-2.858
N5545 Z5.
N5550 X30.449 Y3.567
N5555 Z1.825 F1033.33
N5560 Z-6.033
N5565 X30.441 Z-6.103 F3100.
N5570 X30.417 Y3.568 Z-6.17
N5575 X30.379 Y3.569 Z-6.23
N5580 X30.329 Y3.571 Z-6.281
N5585 X30.269 Y3.574 Z-6.319
N5590 X30.202 Y3.576 Z-6.342
N5595 X30.131 Y3.579 Z-6.35
N5600 X29.814 Y3.591
N5605 G3 X29.485 Y3.286 I-0.012 J-0.317
N5610 G1 X29.483 Y3.26
N5615 X29.464 Y2.901
N5620 X29.457 Y2.816
N5625 X29.418 Y2.461
N5630 X29.405 Y2.367
N5635 X29.345 Y2.016
N5640 X29.324 Y1.913
N5645 X29.241 Y1.567
N5650 X29.21 Y1.456
N5655 X29.103 Y1.118
N5660 X29.06 Y0.999
N5665 X28.925 Y0.67
N5670 X28.868 Y0.545
N5675 X28.706 Y0.229
N5680 X28.634 Y0.103
N5685 X28.446 Y-0.194
N5690 X28.361 Y-0.316
N5695 X28.146 Y-0.593
N5700 X28.049 Y-0.707
N5705 X27.809 Y-0.963
N5710 X27.703 Y-1.066
N5715 X27.437 Y-1.302
N5720 X27.327 Y-1.391
N5725 X27.041 Y-1.602
N5730 X26.932 Y-1.675
N5735 X26.63 Y-1.861
N5740 X26.526 Y-1.92
N5745 X26.211 Y-2.083
N5750 X26.115 Y-2.129
N5755 X25.788 Y-2.271
N5760 X25.701 Y-2.306
N5765 X25.364 Y-2.429
N5770 X25.286 Y-2.455
N5775 X24.936 Y-2.563
N5780 X24.867 Y-2.583
N5785 X24.507 Y-2.676
N5790 X24.446 Y-2.691
N5795 X24.076 Y-2.771
N5800 X24.024 Y-2.782
N5805 X23.645 Y-2.851
N5810 X23.601 Y-2.859
N5815 X23.214 Y-2.918
N5820 X23.178 Y-2.923
N5825 X22.784 Y-2.975
N5830 X22.743 Y-2.979
N5835 X21.935 Y-3.063
N5840 X21.902 Y-3.066
N5845 X21.068 Y-3.135
N5850 X21.058 Y-3.136
N5855 X20.213 Y-3.2
N5860 X19.376 Y-3.27
N5865 X18.562 Y-3.354
N5870 X17.769 Y-3.464
N5875 X17.401 Y-3.528
N5880 X17.037 Y-3.602
N5885 X16.686 Y-3.685
N5890 X16.35 Y-3.778
N5895 X16.029 Y-3.882
N5900 X15.725 Y-3.996
N5905 X15.437 Y-4.121
N5910 X15.167 Y-4.258
N5915 X14.916 Y-4.406
N5920 X14.684 Y-4.565
N5925 X14.472 Y-4.735
N5930 X14.278 Y-4.918
N5935 X14.107 Y-5.11
N5940 X13.958 Y-5.312
N5945 X13.829 Y-5.523
N5950 X13.721 Y-5.745
N5955 X13.633 Y-5.978
N5960 X13.567 Y-6.218
N5965 X13.523 Y-6.466
N5970 X13.5 Y-6.721
N5975 Y-6.983
N5980 X13.522 Y-7.247
N5985 X13.567 Y-7.514
N5990 X13.633 Y-7.785
N5995 X13.722 Y-8.057
N6000 X13.832 Y-8.331
N6005 X13.962 Y-8.603
N6010 X14.112 Y-8.875
N6015 X14.281 Y-9.144
N6020 X14.467 Y-9.411
N6025 X14.67 Y-9.676
N6030 X14.887 Y-9.937
N6035 X15.119 Y-10.195
N6040 X15.364 Y-10.45
N6045 X15.62 Y-10.701
N6050 X15.882 Y-10.945
N6055 X16.45 Y-11.441
N6060 X17.035 Y-11.919
N6065 X17.634 Y-12.39
N6070 X18.233 Y-12.856
N6075 X18.242 Y-12.863
N6080 X18.826 Y-13.324
N6085 X18.854 Y-13.346
N6090 X19.41 Y-13.806
N6095 X19.443 Y-13.834
N6100 X19.707 Y-14.064
N6105 X19.735 Y-14.09
N6110 X19.99 Y-14.322
N6115 X20.023 Y-14.354
N6120 X20.265 Y-14.589
N6125 X20.303 Y-14.627
N6130 X20.533 Y-14.865
N6135 X20.575 Y-14.911
N6140 X20.792 Y-15.154
N6145 X20.838 Y-15.209
N6150 X21.04 Y-15.457
N6155 X21.091 Y-15.523
N6160 X21.276 Y-15.778
N6165 X21.329 Y-15.856
N6170 X21.497 Y-16.117
N6175 X21.55 Y-16.207
N6180 X21.699 Y-16.476
N6185 X21.751 Y-16.579
N6190 X21.878 Y-16.856
N6195 X21.926 Y-16.971
N6200 X22.03 Y-17.254
N6205 X22.07 Y-17.378
N6210 X22.15 Y-17.666
N6215 X22.181 Y-17.797
N6220 X22.236 Y-18.09
N6225 X22.255 Y-18.227
N6230 X22.285 Y-18.526
N6235 X22.293 Y-18.662
N6240 X22.297 Y-18.966
N6245 X22.293 Y-19.098
N6250 X22.272 Y-19.4
N6255 X22.258 Y-19.523
N6260 X22.213 Y-19.821
N6265 X22.192 Y-19.935
N6270 X22.125 Y-20.23
N6275 X22.099 Y-20.333
N6280 X22.012 Y-20.624
N6285 X21.981 Y-20.716
N6290 X21.877 Y-21.003
N6295 X21.844 Y-21.086
N6300 X21.723 Y-21.367
N6305 X21.689 Y-21.441
N6310 X21.553 Y-21.717
N6315 X21.519 Y-21.782
N6320 X21.37 Y-22.053
N6325 X21.336 Y-22.111
N6330 X21.176 Y-22.375
N6335 X21.143 Y-22.426
N6340 X20.973 Y-22.683
N6345 X20.942 Y-22.729
N6350 X20.765 Y-22.979
N6355 X20.721 Y-23.038
N6360 X20.343 Y-23.519
N6365 X20.287 Y-23.586
N6370 X19.877 Y-24.054
N6375 X19.825 Y-24.112
N6380 X19.388 Y-24.564
N6385 X19.337 Y-24.613
N6390 X18.88 Y-25.046
N6395 X18.831 Y-25.091
N6400 X18.359 Y-25.502
N6405 X18.311 Y-25.542
N6410 X17.83 Y-25.928
N6415 X17.769 Y-25.975
N6420 G2 X16.088 Y-27.111 I-17.729 J24.402
N6425 G1 X16.009 Y-27.158
N6430 X15.426 Y-27.478
N6435 X15.368 Y-27.509
N6440 X15.065 Y-27.659
N6445 X15.021 Y-27.68
N6450 X14.713 Y-27.821
N6455 X14.664 Y-27.843
N6460 X14.351 Y-27.974
N6465 X14.296 Y-27.996
N6470 X13.979 Y-28.115
N6475 X13.918 Y-28.136
N6480 X13.599 Y-28.241
N6485 X13.531 Y-28.262
N6490 X13.21 Y-28.352
N6495 X13.133 Y-28.372
N6500 X12.811 Y-28.445
N6505 X12.726 Y-28.462
N6510 X12.403 Y-28.518
N6515 X12.308 Y-28.531
N6520 X11.982 Y-28.567
N6525 X11.876 Y-28.575
N6530 X11.549 Y-28.589
N6535 X11.431
N6540 X11.104 Y-28.578
N6545 X10.976 Y-28.569
N6550 X10.651 Y-28.532
N6555 X10.513 Y-28.51
N6560 X10.193 Y-28.445
N6565 X10.051 Y-28.409
N6570 X9.742 Y-28.315
N6575 X9.6 Y-28.265
N6580 X9.302 Y-28.143
N6585 X9.166 Y-28.08
N6590 X8.879 Y-27.929
N6595 X8.752 Y-27.855
N6600 X8.478 Y-27.677
N6605 X8.363 Y-27.595
N6610 X8.106 Y-27.394
N6615 X8.008 Y-27.31
N6620 X7.768 Y-27.089
N6625 X7.686 Y-27.007
N6630 X7.462 Y-26.769
N6635 X7.394 Y-26.691
N6640 X7.186 Y-26.437
N6645 X7.131 Y-26.365
N6650 X6.935 Y-26.097
N6655 X6.89 Y-26.031
N6660 X6.705 Y-25.749
N6665 X6.668 Y-25.689
N6670 X6.492 Y-25.393
N6675 X6.462 Y-25.34
N6680 X6.295 Y-25.031
N6685 X6.271 Y-24.986
N6690 X6.111 Y-24.667
N6695 X6.084 Y-24.61
N6700 X5.783 Y-23.944
N6705 X5.759 Y-23.89
N6710 X5.473 Y-23.19
N6715 X5.46 Y-23.157
N6720 X5.181 Y-22.429
N6725 X5.176 Y-22.416
N6730 X4.898 Y-21.671
N6735 X4.617 Y-20.929
N6740 X4.329 Y-20.204
N6745 X4.03 Y-19.507
N6750 X3.709 Y-18.835
N6755 X3.548 Y-18.53
N6760 X3.377 Y-18.23
N6765 X3.201 Y-17.943
N6770 X3.02 Y-17.671
N6775 X2.832 Y-17.415
N6780 X2.637 Y-17.174
N6785 X2.436 Y-16.951
N6790 X2.229 Y-16.746
N6795 X2.016 Y-16.561
N6800 X1.798 Y-16.397
N6805 X1.575 Y-16.254
N6810 X1.35 Y-16.133
N6815 X1.123 Y-16.035
N6820 X0.892 Y-15.959
N6825 X0.657 Y-15.904
N6830 X0.42 Y-15.87
N6835 X0.181 Y-15.859
N6840 X-0.057 Y-15.87
N6845 X-0.297 Y-15.903
N6850 X-0.538 Y-15.958
N6855 X-0.775 Y-16.035
N6860 X-1.009 Y-16.133
N6865 X-1.242 Y-16.253
N6870 X-1.472 Y-16.395
N6875 X-1.699 Y-16.557
N6880 X-1.919 Y-16.74
N6885 X-2.135 Y-16.941
N6890 X-2.345 Y-17.16
N6895 X-2.548 Y-17.397
N6900 X-2.746 Y-17.648
N6905 X-2.938 Y-17.916
N6910 X-3.125 Y-18.197
N6915 X-3.306 Y-18.491
N6920 X-3.478 Y-18.789
N6925 X-3.82 Y-19.44
N6930 X-4.137 Y-20.107
N6935 X-4.44 Y-20.79
N6940 X-4.736 Y-21.486
N6945 X-5.03 Y-22.185
N6950 X-5.035 Y-22.197
N6955 X-5.33 Y-22.882
N6960 X-5.343 Y-22.912
N6965 X-5.645 Y-23.575
N6970 X-5.669 Y-23.625
N6975 X-5.984 Y-24.257
N6980 X-6.01 Y-24.308
N6985 X-6.174 Y-24.611
N6990 X-6.197 Y-24.652
N6995 X-6.368 Y-24.945
N7000 X-6.396 Y-24.991
N7005 X-6.573 Y-25.273
N7010 X-6.607 Y-25.324
N7015 X-6.792 Y-25.594
N7020 X-6.832 Y-25.651
N7025 X-7.027 Y-25.91
N7030 X-7.076 Y-25.973
N7035 X-7.282 Y-26.221
N7040 X-7.341 Y-26.288
N7045 X-7.561 Y-26.524
N7050 X-7.631 Y-26.594
N7055 X-7.865 Y-26.815
N7060 X-7.947 Y-26.888
N7065 X-8.196 Y-27.093
N7070 X-8.291 Y-27.165
N7075 X-8.555 Y-27.351
N7080 X-8.662 Y-27.42
N7085 X-8.939 Y-27.584
N7090 X-9.054 Y-27.646
N7095 X-9.341 Y-27.785
N7100 X-9.462 Y-27.837
N7105 X-9.758 Y-27.951
N7110 X-9.883 Y-27.993
N7115 X-10.189 Y-28.083
N7120 X-10.315 Y-28.115
N7125 X-10.631 Y-28.18
N7130 X-10.753 Y-28.2
N7135 X-11.073 Y-28.24
N7140 X-11.188 Y-28.251
N7145 X-11.51 Y-28.268
N7150 X-11.618 Y-28.27
N7155 X-11.94 Y-28.265
N7160 X-12.04 Y-28.26
N7165 X-12.362 Y-28.235
N7170 X-12.452 Y-28.225
N7175 X-12.773 Y-28.181
N7180 X-12.855 Y-28.168
N7185 X-13.175 Y-28.107
N7190 X-13.249 Y-28.091
N7195 X-13.566 Y-28.015
N7200 X-13.635 Y-27.997
N7205 X-13.95 Y-27.906
N7210 X-14.011 Y-27.887
N7215 X-14.322 Y-27.783
N7220 X-14.378 Y-27.763
N7225 X-14.685 Y-27.648
N7230 X-14.736 Y-27.628
N7235 X-15.037 Y-27.503
N7240 X-15.105 Y-27.473
N7245 X-15.693 Y-27.197
N7250 X-15.774 Y-27.156
N7255 X-16.35 Y-26.843
N7260 X-16.423 Y-26.801
N7265 X-16.983 Y-26.458
N7270 X-17.05 Y-26.415
N7275 X-17.588 Y-26.047
N7280 X-17.621 Y-26.024
N7285 X-17.688 Y-25.975
N7290 X-17.713 Y-25.957
N7295 X-18.07 Y-25.687
N7300 X-18.113 Y-25.654
N7305 X-18.466 Y-25.368
N7310 X-18.509 Y-25.332
N7315 X-18.855 Y-25.031
N7320 X-18.899 Y-24.991
N7325 X-19.235 Y-24.675
N7330 X-19.281 Y-24.631
N7335 X-19.604 Y-24.302
N7340 X-19.651 Y-24.253
N7345 X-19.958 Y-23.912
N7350 X-20.007 Y-23.855
N7355 X-20.296 Y-23.504
N7360 X-20.346 Y-23.439
N7365 X-20.613 Y-23.077
N7370 X-20.664 Y-23.003
N7375 X-20.907 Y-22.632
N7380 X-20.96 Y-22.545
N7385 X-21.178 Y-22.159
N7390 X-21.23 Y-22.059
N7395 X-21.42 Y-21.659
N7400 X-21.471 Y-21.541
N7405 X-21.627 Y-21.127
N7410 X-21.661 Y-21.028
N7415 X-21.726 Y-20.816
N7420 X-21.746 Y-20.744
N7425 X-21.801 Y-20.53
N7430 X-21.818 Y-20.453
N7435 X-21.862 Y-20.236
N7440 X-21.876 Y-20.155
N7445 X-21.908 Y-19.938
N7450 X-21.919 Y-19.854
N7455 X-21.939 Y-19.636
N7460 X-21.945 Y-19.551
N7465 X-21.954 Y-19.333
N7470 X-21.955 Y-19.246
N7475 X-21.952 Y-19.028
N7480 X-21.948 Y-18.94
N7485 X-21.933 Y-18.722
N7490 X-21.924 Y-18.635
N7495 X-21.896 Y-18.418
N7500 X-21.883 Y-18.33
N7505 X-21.843 Y-18.113
N7510 X-21.825 Y-18.028
N7515 X-21.773 Y-17.814
N7520 X-21.751 Y-17.732
N7525 X-21.689 Y-17.521
N7530 X-21.664 Y-17.446
N7535 X-21.591 Y-17.239
N7540 X-21.563 Y-17.166
N7545 X-21.48 Y-16.963
N7550 X-21.437 Y-16.866
N7555 X-21.243 Y-16.471
N7560 X-21.182 Y-16.358
N7565 X-20.956 Y-15.977
N7570 X-20.896 Y-15.884
N7575 X-20.639 Y-15.513
N7580 X-20.583 Y-15.436
N7585 X-20.299 Y-15.074
N7590 X-20.248 Y-15.013
N7595 X-19.941 Y-14.659
N7600 X-19.896 Y-14.609
N7605 X-19.568 Y-14.262
N7610 X-19.53 Y-14.224
N7615 X-19.185 Y-13.883
N7620 X-19.155 Y-13.854
N7625 X-18.795 Y-13.516
N7630 X-18.771 Y-13.495
N7635 X-18.398 Y-13.159
N7640 X-18.377 Y-13.14
N7645 X-17.605 Y-12.47
N7650 X-17.598 Y-12.464
N7655 X-16.82 Y-11.796
N7660 X-16.065 Y-11.127
N7665 X-15.715 Y-10.8
N7670 X-15.378 Y-10.47
N7675 X-15.06 Y-10.14
N7680 X-14.765 Y-9.809
N7685 X-14.495 Y-9.478
N7690 X-14.249 Y-9.145
N7695 X-14.032 Y-8.81
N7700 X-13.837 Y-8.461
N7705 X-13.761 Y-8.306
N7710 X-13.688 Y-8.138
N7715 X-13.623 Y-7.971
N7720 X-13.567 Y-7.803
N7725 X-13.521 Y-7.641
N7730 X-13.485 Y-7.486
N7735 X-13.457 Y-7.338
N7740 X-13.437 Y-7.197
N7745 X-13.425 Y-7.062
N7750 X-13.418 Y-6.933
N7755 X-13.417 Y-6.81
N7760 X-13.421 Y-6.706
N7765 X-13.443 Y-6.468
N7770 X-13.481 Y-6.249
N7775 X-13.536 Y-6.035
N7780 X-13.606 Y-5.824
N7785 X-13.694 Y-5.619
N7790 X-13.797 Y-5.419
N7795 X-13.916 Y-5.227
N7800 X-14.049 Y-5.043
N7805 X-14.196 Y-4.867
N7810 X-14.359 Y-4.7
N7815 X-14.537 Y-4.54
N7820 X-14.728 Y-4.389
N7825 X-14.931 Y-4.249
N7830 X-15.148 Y-4.118
N7835 X-15.376 Y-3.997
N7840 X-15.617 Y-3.886
N7845 X-15.869 Y-3.783
N7850 X-16.133 Y-3.69
N7855 X-16.406 Y-3.606
N7860 X-16.688 Y-3.532
N7865 X-16.978 Y-3.466
N7870 X-17.266 Y-3.41
N7875 X-17.894 Y-3.315
N7880 X-18.527 Y-3.25
N7885 X-19.175 Y-3.206
N7890 X-19.836 Y-3.179
N7895 X-20.508 Y-3.162
N7900 X-21.185 Y-3.15
N7905 X-21.19 Y-3.149
N7910 X-21.86 Y-3.135
N7915 X-21.882 Y-3.134
N7920 X-22.536 Y-3.111
N7925 X-22.576 Y-3.109
N7930 X-23.212 Y-3.071
N7935 X-23.271 Y-3.066
N7940 X-23.884 Y-3.006
N7945 X-23.943 Y-2.999
N7950 X-24.24 Y-2.959
N7955 X-24.287 Y-2.952
N7960 X-24.577 Y-2.903
N7965 X-24.631 Y-2.893
N7970 X-24.914 Y-2.836
N7975 X-24.974 Y-2.823
N7980 X-25.249 Y-2.756
N7985 X-25.316 Y-2.738
N7990 X-25.582 Y-2.661
N7995 X-25.656 Y-2.637
N8000 X-25.914 Y-2.549
N8005 X-25.994 Y-2.519
N8010 X-26.242 Y-2.418
N8015 X-26.328 Y-2.38
N8020 X-26.567 Y-2.266
N8025 X-26.658 Y-2.219
N8030 X-26.886 Y-2.092
N8035 X-26.979 Y-2.036
N8040 X-27.197 Y-1.894
N8045 X-27.291 Y-1.827
N8050 X-27.497 Y-1.671
N8055 X-27.59 Y-1.594
N8060 X-27.784 Y-1.422
N8065 X-27.874 Y-1.335
N8070 X-28.055 Y-1.147
N8075 X-28.139 Y-1.052
N8080 X-28.304 Y-0.849
N8085 X-28.379 Y-0.75
N8090 X-28.528 Y-0.536
N8095 X-28.592 Y-0.436
N8100 X-28.724 Y-0.212
N8105 X-28.778 Y-0.112
N8110 X-28.893 Y0.121
N8115 X-28.938 Y0.218
N8120 X-29.038 Y0.46
N8125 X-29.073 Y0.553
N8130 X-29.158 Y0.802
N8135 X-29.186 Y0.89
N8140 X-29.257 Y1.144
N8145 X-29.278 Y1.227
N8150 X-29.335 Y1.485
N8155 X-29.35 Y1.561
N8160 X-29.395 Y1.822
N8165 X-29.405 Y1.893
N8170 X-29.438 Y2.156
N8175 X-29.445 Y2.22
N8180 X-29.467 Y2.484
N8185 X-29.472 Y2.57
N8190 X-29.488 Y3.098
N8195 Y3.198
N8200 X-29.471 Y3.732
N8205 X-29.465 Y3.819
N8210 X-29.418 Y4.359
N8215 X-29.409 Y4.435
N8220 X-29.336 Y4.977
N8225 X-29.325 Y5.044
N8230 X-29.228 Y5.582
N8235 X-29.216 Y5.642
N8240 X-29.1 Y6.171
N8245 X-29.087 Y6.225
N8250 X-28.954 Y6.741
N8255 X-28.942 Y6.785
N8260 G2 X-28.647 Y7.748 I28.982 J-8.357
N8265 G1 X-28.632 Y7.791
N8270 X-28.442 Y8.323
N8275 X-28.423 Y8.374
N8280 X-28.213 Y8.905
N8285 X-28.191 Y8.958
N8290 X-27.96 Y9.484
N8295 X-27.935 Y9.539
N8300 X-27.685 Y10.056
N8305 X-27.655 Y10.114
N8310 X-27.386 Y10.616
N8315 X-27.351 Y10.679
N8320 X-27.063 Y11.161
N8325 X-27.02 Y11.23
N8330 X-26.715 Y11.687
N8335 X-26.662 Y11.761
N8340 X-26.34 Y12.189
N8345 X-26.273 Y12.272
N8350 X-25.924 Y12.676
N8355 X-25.862 Y12.744
N8360 X-25.675 Y12.936
N8365 X-25.626 Y12.985
N8370 X-25.431 Y13.169
N8375 X-25.374 Y13.22
N8380 X-25.171 Y13.394
N8385 X-25.107 Y13.446
N8390 X-24.896 Y13.609
N8395 X-24.822 Y13.662
N8400 X-24.603 Y13.813
N8405 X-24.519 Y13.866
N8410 X-24.292 Y14.001
N8415 X-24.2 Y14.052
N8420 X-23.965 Y14.172
N8425 X-23.864 Y14.219
N8430 X-23.623 Y14.321
N8435 X-23.513 Y14.363
N8440 X-23.265 Y14.447
N8445 X-23.148 Y14.481
N8450 X-22.894 Y14.546
N8455 X-22.771 Y14.572
N8460 X-22.51 Y14.617
N8465 X-22.384 Y14.633
N8470 X-22.121 Y14.657
N8475 X-21.999 Y14.663
N8480 X-21.737 Y14.667
N8485 X-21.619 Y14.664
N8490 X-21.358 Y14.647
N8495 X-21.247 Y14.637
N8500 X-20.986 Y14.602
N8505 X-20.885 Y14.585
N8510 X-20.625 Y14.534
N8515 X-20.532 Y14.512
N8520 X-20.272 Y14.444
N8525 X-20.19 Y14.42
N8530 X-19.932 Y14.337
N8535 X-19.858 Y14.311
N8540 X-19.6 Y14.214
N8545 X-19.536 Y14.188
N8550 X-19.279 Y14.079
N8555 X-19.223 Y14.053
N8560 X-18.966 Y13.932
N8565 X-18.918 Y13.908
N8570 X-18.662 Y13.776
N8575 X-18.602 Y13.744
N8580 X-18.09 Y13.451
N8585 X-18.031 Y13.415
N8590 X-17.515 Y13.089
N8595 X-17.474 Y13.063
N8600 X-16.953 Y12.711
N8605 X-16.929 Y12.695
N8610 X-16.401 Y12.325
N8615 X-16.391 Y12.318
N8620 X-15.856 Y11.937
N8625 X-15.32 Y11.557
N8630 X-14.784 Y11.188
N8635 X-14.244 Y10.834
N8640 X-13.701 Y10.502
N8645 X-13.146 Y10.195
N8650 X-12.882 Y10.063
N8655 X-12.611 Y9.937
N8660 X-12.341 Y9.822
N8665 X-12.073 Y9.719
N8670 X-11.806 Y9.629
N8675 X-11.537 Y9.551
N8680 X-11.252 Y9.483
N8685 X-10.954 Y9.429
N8690 X-10.646 Y9.394
N8695 X-10.312 Y9.381
N8700 X-10.166 Y9.384
N8705 X-10.003 Y9.394
N8710 X-9.84 Y9.411
N8715 X-9.68 Y9.435
N8720 X-9.523 Y9.466
N8725 X-9.37 Y9.505
N8730 X-9.22 Y9.55
N8735 X-9.073 Y9.601
N8740 X-8.929 Y9.66
N8745 X-8.789 Y9.726
N8750 X-8.652 Y9.799
N8755 X-8.52 Y9.878
N8760 X-8.392 Y9.963
N8765 X-8.269 Y10.054
N8770 X-8.152 Y10.151
N8775 X-8.04 Y10.254
N8780 X-7.933 Y10.362
N8785 X-7.831 Y10.477
N8790 X-7.735 Y10.596
N8795 X-7.646 Y10.72
N8800 X-7.563 Y10.849
N8805 X-7.485 Y10.982
N8810 X-7.414 Y11.121
N8815 X-7.349 Y11.265
N8820 X-7.289 Y11.414
N8825 X-7.241 Y11.553
N8830 X-7.146 Y11.895
N8835 X-7.081 Y12.236
N8840 X-7.039 Y12.594
N8845 X-7.02 Y12.968
N8850 X-7.023 Y13.354
N8855 X-7.047 Y13.753
N8860 X-7.089 Y14.165
N8865 X-7.15 Y14.588
N8870 X-7.226 Y15.021
N8875 X-7.316 Y15.461
N8880 X-7.416 Y15.904
N8885 X-7.648 Y16.821
N8890 X-7.898 Y17.742
N8895 X-7.899 Y17.745
N8900 X-8.146 Y18.664
N8905 X-8.151 Y18.684
N8910 X-8.267 Y19.136
N8915 X-8.273 Y19.16
N8920 X-8.379 Y19.607
N8925 X-8.387 Y19.639
N8930 X-8.482 Y20.08
N8935 X-8.491 Y20.122
N8940 X-8.572 Y20.556
N8945 X-8.581 Y20.608
N8950 X-8.647 Y21.035
N8955 X-8.655 Y21.099
N8960 X-8.703 Y21.517
N8965 X-8.709 Y21.594
N8970 X-8.736 Y22.005
N8975 X-8.739 Y22.095
N8980 X-8.741 Y22.498
N8985 X-8.739 Y22.605
N8990 X-8.714 Y23.006
N8995 X-8.702 Y23.129
N9000 X-8.647 Y23.527
N9005 X-8.621 Y23.666
N9010 X-8.53 Y24.057
N9015 X-8.499 Y24.171
N9020 X-8.44 Y24.363
N9025 X-8.413 Y24.442
N9030 X-8.343 Y24.63
N9035 X-8.31 Y24.711
N9040 X-8.231 Y24.894
N9045 X-8.194 Y24.973
N9050 X-8.105 Y25.15
N9055 X-8.063 Y25.229
N9060 X-7.964 Y25.401
N9065 X-7.918 Y25.477
N9070 X-7.81 Y25.642
N9075 X-7.759 Y25.715
N9080 X-7.642 Y25.875
N9085 X-7.588 Y25.945
N9090 X-7.461 Y26.099
N9095 X-7.404 Y26.164
N9100 X-7.268 Y26.313
N9105 X-7.21 Y26.373
N9110 X-7.066 Y26.514
N9115 X-6.978 Y26.594
N9120 X-6.671 Y26.852
N9125 X-6.555 Y26.94
N9130 X-6.226 Y27.169
N9135 X-6.116 Y27.24
N9140 X-5.768 Y27.441
N9145 X-5.665 Y27.496
N9150 X-5.302 Y27.672
N9155 X-5.207 Y27.714
N9160 X-4.831 Y27.868
N9165 X-4.746 Y27.9
N9170 X-4.359 Y28.032
N9175 X-4.282 Y28.056
N9180 X-3.89 Y28.169
N9185 X-3.821 Y28.187
N9190 X-3.426 Y28.281
N9195 X-3.364 Y28.295
N9200 X-2.97 Y28.372
N9205 X-2.914 Y28.382
N9210 X-2.525 Y28.444
N9215 X-2.474 Y28.451
N9220 X-2.094 Y28.499
N9225 X-2.048 Y28.504
N9230 X-1.68 Y28.54
N9235 X-1.614 Y28.545
N9240 G2 X0.04 Y28.59 I1.654 J-30.117
N9245 G1 X0.102 Y28.589
N9250 X0.536 Y28.572
N9255 X0.581 Y28.569
N9260 X1.02 Y28.539
N9265 X1.066 Y28.535
N9270 X1.507 Y28.492
N9275 X1.555 Y28.487
N9280 X1.995 Y28.43
N9285 X2.046 Y28.423
N9290 X2.484 Y28.352
N9295 X2.537 Y28.343
N9300 X2.97 Y28.257
N9305 X3.027 Y28.245
N9310 X3.453 Y28.145
N9315 X3.514 Y28.129
N9320 X3.93 Y28.013
N9325 X3.996 Y27.993
N9330 X4.4 Y27.862
N9335 X4.472 Y27.837
N9340 X4.861 Y27.689
N9345 X4.94 Y27.657
N9350 X5.319 Y27.489
N9355 X5.406 Y27.448
N9360 X5.776 Y27.257
N9365 X5.872 Y27.203
N9370 X6.227 Y26.987
N9375 X6.331 Y26.918
N9380 X6.668 Y26.676
N9385 X6.779 Y26.588
N9390 X7.092 Y26.317
N9395 X7.177 Y26.238
N9400 X7.322 Y26.092
N9405 X7.378 Y26.033
N9410 X7.515 Y25.881
N9415 X7.57 Y25.816
N9420 X7.698 Y25.658
N9425 X7.751 Y25.588
N9430 X7.87 Y25.423
N9435 X7.92 Y25.349
N9440 X8.029 Y25.178
N9445 X8.076 Y25.1
N9450 X8.176 Y24.921
N9455 X8.218 Y24.84
N9460 X8.308 Y24.655
N9465 X8.346 Y24.571
N9470 X8.425 Y24.38
N9475 X8.457 Y24.297
N9480 X8.525 Y24.104
N9485 X8.552 Y24.021
N9490 X8.609 Y23.825
N9495 X8.63 Y23.745
N9500 X8.677 Y23.546
N9505 X8.693 Y23.469
N9510 X8.73 Y23.268
N9515 X8.746 Y23.16
N9520 X8.793 Y22.75
N9525 X8.802 Y22.621
N9530 X8.815 Y22.202
N9535 Y22.091
N9540 X8.798 Y21.664
N9545 X8.792 Y21.57
N9550 X8.749 Y21.135
N9555 X8.74 Y21.058
N9560 X8.674 Y20.615
N9565 X8.664 Y20.553
N9570 X8.579 Y20.104
N9575 X8.569 Y20.056
N9580 X8.468 Y19.599
N9585 X8.46 Y19.563
N9590 X8.345 Y19.098
N9595 X8.339 Y19.072
N9600 X8.215 Y18.599
N9605 X8.209 Y18.581
N9610 X7.943 Y17.617
N9615 X7.679 Y16.648
N9620 X7.441 Y15.681
N9625 X7.342 Y15.218
N9630 X7.258 Y14.753
N9635 X7.19 Y14.292
N9640 X7.143 Y13.838
N9645 X7.118 Y13.394
N9650 X7.117 Y12.963
N9655 X7.143 Y12.547
N9660 X7.199 Y12.132
N9665 X7.231 Y11.963
N9670 X7.272 Y11.791
N9675 X7.316 Y11.631
N9680 X7.363 Y11.482
N9685 X7.414 Y11.343
N9690 X7.467 Y11.213
N9695 X7.523 Y11.092
N9700 X7.573 Y10.991
N9705 X7.699 Y10.774
N9710 X7.826 Y10.588
N9715 X7.964 Y10.416
N9720 X8.114 Y10.258
N9725 X8.275 Y10.113
N9730 X8.448 Y9.981
N9735 X8.63 Y9.865
N9740 X8.821 Y9.764
N9745 X9.021 Y9.677
N9750 X9.231 Y9.606
N9755 X9.452 Y9.55
N9760 X9.68 Y9.509
N9765 X9.915 Y9.485
N9770 X10.159 Y9.476
N9775 X10.409 Y9.483
N9780 X10.667 Y9.505
N9785 X10.931 Y9.543
N9790 X11.199 Y9.595
N9795 X11.472 Y9.661
N9800 X11.748 Y9.741
N9805 X12.027 Y9.834
N9810 X12.308 Y9.939
N9815 X12.589 Y10.054
N9820 X12.862 Y10.175
N9825 X13.44 Y10.458
N9830 X14.014 Y10.767
N9835 X14.592 Y11.102
N9840 X15.174 Y11.456
N9845 X15.76 Y11.821
N9850 X16.345 Y12.185
N9855 X16.357 Y12.193
N9860 X16.934 Y12.545
N9865 X16.961 Y12.561
N9870 X17.53 Y12.893
N9875 X17.575 Y12.918
N9880 X18.14 Y13.224
N9885 X18.206 Y13.258
N9890 X18.77 Y13.53
N9895 X18.834 Y13.559
N9900 X19.116 Y13.68
N9905 X19.168 Y13.701
N9910 X19.45 Y13.811
N9915 X19.51 Y13.832
N9920 X19.792 Y13.929
N9925 X19.859 Y13.95
N9930 X20.14 Y14.033
N9935 X20.216 Y14.053
N9940 X20.499 Y14.121
N9945 X20.583 Y14.139
N9950 X20.867 Y14.191
N9955 X20.96 Y14.205
N9960 X21.245 Y14.24
N9965 X21.347 Y14.249
N9970 X21.633 Y14.265
N9975 X21.743 Y14.268
N9980 X22.029 Y14.264
N9985 X22.145 Y14.259
N9990 X22.432 Y14.234
N9995 X22.552 Y14.219
N10000 X22.838 Y14.173
N10005 X22.956 Y14.149
N10010 X23.235 Y14.082
N10015 X23.35 Y14.049
N10020 X23.622 Y13.961
N10025 X23.731 Y13.921
N10030 X23.996 Y13.813
N10035 X24.098 Y13.768
N10040 X24.356 Y13.641
N10045 X24.451 Y13.59
N10050 X24.702 Y13.445
N10055 X24.788 Y13.391
N10060 X25.029 Y13.23
N10065 X25.105 Y13.176
N10070 X25.337 Y13.001
N10075 X25.405 Y12.947
N10080 X25.627 Y12.759
N10085 X25.686 Y12.706
N10090 X25.899 Y12.507
N10095 X25.951 Y12.455
N10100 X26.154 Y12.247
N10105 X26.2 Y12.198
N10110 X26.394 Y11.982
N10115 X26.434 Y11.935
N10120 X26.62 Y11.71
N10125 X26.656 Y11.664
N10130 X26.836 Y11.43
N10135 X26.883 Y11.366
N10140 X27.223 Y10.873
N10145 X27.274 Y10.794
N10150 X27.588 Y10.275
N10155 X27.631 Y10.201
N10160 X27.918 Y9.664
N10165 X27.953 Y9.595
N10170 X28.213 Y9.045
N10175 X28.242 Y8.98
N10180 X28.475 Y8.425
N10185 X28.5 Y8.362
N10190 X28.705 Y7.809
N10195 X28.726 Y7.748
N10200 G2 X29.053 Y6.673 I-28.686 J-9.322
N10205 G1 X29.067 Y6.621
N10210 X29.153 Y6.272
N10215 X29.164 Y6.228
N10220 X29.241 Y5.873
N10225 X29.25 Y5.826
N10230 X29.318 Y5.466
N10235 X29.327 Y5.415
N10240 X29.382 Y5.05
N10245 X29.39 Y4.996
N10250 X29.433 Y4.629
N10255 X29.439 Y4.57
N10260 X29.468 Y4.203
N10265 X29.472 Y4.138
N10270 X29.487 Y3.772
N10275 X29.488 Y3.702
N10280 X29.486 Y3.338
N10285 X29.485 Y3.286
N10290 G3 X29.79 Y2.957 I0.317 J-0.012
N10295 G1 X30.107 Y2.944
N10300 X30.178 Y2.942 Z-6.342
N10305 X30.245 Y2.939 Z-6.319
N10310 X30.305 Y2.937 Z-6.281
N10315 X30.355 Y2.935 Z-6.23
N10320 X30.393 Y2.933 Z-6.17
N10325 X30.416 Y2.932 Z-6.103
N10330 X30.424 Z-6.033
N10335 Z5.
N10340 X30.449 Y3.567
N10345 Z-1.35 F1033.33
N10350 Z-9.208
N10355 X30.441 Z-9.278 F3100.
N10360 X30.417 Y3.568 Z-9.345
N10365 X30.379 Y3.569 Z-9.405
N10370 X30.329 Y3.571 Z-9.456
N10375 X30.269 Y3.574 Z-9.494
N10380 X30.202 Y3.576 Z-9.517
N10385 X30.131 Y3.579 Z-9.525
N10390 X29.814 Y3.591
N10395 G3 X29.485 Y3.286 I-0.012 J-0.317
N10400 G1 X29.483 Y3.26
N10405 X29.464 Y2.901
N10410 X29.457 Y2.816
N10415 X29.418 Y2.461
N10420 X29.405 Y2.367
N10425 X29.345 Y2.016
N10430 X29.324 Y1.913
N10435 X29.241 Y1.567
N10440 X29.21 Y1.456
N10445 X29.103 Y1.118
N10450 X29.06 Y0.999
N10455 X28.925 Y0.67
N10460 X28.868 Y0.545
N10465 X28.706 Y0.229
N10470 X28.634 Y0.103
N10475 X28.446 Y-0.194
N10480 X28.361 Y-0.316
N10485 X28.146 Y-0.593
N10490 X28.049 Y-0.707
N10495 X27.809 Y-0.963
N10500 X27.703 Y-1.066
N10505 X27.437 Y-1.302
N10510 X27.327 Y-1.391
N10515 X27.041 Y-1.602
N10520 X26.932 Y-1.675
N10525 X26.63 Y-1.861
N10530 X26.526 Y-1.92
N10535 X26.211 Y-2.083
N10540 X26.115 Y-2.129
N10545 X25.788 Y-2.271
N10550 X25.701 Y-2.306
N10555 X25.364 Y-2.429
N10560 X25.286 Y-2.455
N10565 X24.936 Y-2.563
N10570 X24.867 Y-2.583
N10575 X24.507 Y-2.676
N10580 X24.446 Y-2.691
N10585 X24.076 Y-2.771
N10590 X24.024 Y-2.782
N10595 X23.645 Y-2.851
N10600 X23.601 Y-2.859
N10605 X23.214 Y-2.918
N10610 X23.178 Y-2.923
N10615 X22.784 Y-2.975
N10620 X22.743 Y-2.979
N10625 X21.935 Y-3.063
N10630 X21.902 Y-3.066
N10635 X21.068 Y-3.135
N10640 X21.058 Y-3.136
N10645 X20.213 Y-3.2
N10650 X19.376 Y-3.27
N10655 X18.562 Y-3.354
N10660 X17.769 Y-3.464
N10665 X17.401 Y-3.528
N10670 X17.037 Y-3.602
N10675 X16.686 Y-3.685
N10680 X16.35 Y-3.778
N10685 X16.029 Y-3.882
N10690 X15.725 Y-3.996
N10695 X15.437 Y-4.121
N10700 X15.167 Y-4.258
N10705 X14.916 Y-4.406
N10710 X14.684 Y-4.565
N10715 X14.472 Y-4.735
N10720 X14.278 Y-4.918
N10725 X14.107 Y-5.11
N10730 X13.958 Y-5.312
N10735 X13.829 Y-5.523
N10740 X13.721 Y-5.745
N10745 X13.633 Y-5.978
N10750 X13.567 Y-6.218
N10755 X13.523 Y-6.466
N10760 X13.5 Y-6.721
N10765 Y-6.983
N10770 X13.522 Y-7.247
N10775 X13.567 Y-7.514
N10780 X13.633 Y-7.785
N10785 X13.722 Y-8.057
N10790 X13.832 Y-8.331
N10795 X13.962 Y-8.603
N10800 X14.112 Y-8.875
N10805 X14.281 Y-9.144
N10810 X14.467 Y-9.411
N10815 X14.67 Y-9.676
N10820 X14.887 Y-9.937
N10825 X15.119 Y-10.195
N10830 X15.364 Y-10.45
N10835 X15.62 Y-10.701
N10840 X15.882 Y-10.945
N10845 X16.45 Y-11.441
N10850 X17.035 Y-11.919
N10855 X17.634 Y-12.39
N10860 X18.233 Y-12.856
N10865 X18.242 Y-12.863
N10870 X18.826 Y-13.324
N10875 X18.854 Y-13.346
N10880 X19.41 Y-13.806
N10885 X19.443 Y-13.834
N10890 X19.707 Y-14.064
N10895 X19.735 Y-14.09
N10900 X19.99 Y-14.322
N10905 X20.023 Y-14.354
N10910 X20.265 Y-14.589
N10915 X20.303 Y-14.627
N10920 X20.533 Y-14.865
N10925 X20.575 Y-14.911
N10930 X20.792 Y-15.154
N10935 X20.838 Y-15.209
N10940 X21.04 Y-15.457
N10945 X21.091 Y-15.523
N10950 X21.276 Y-15.778
N10955 X21.329 Y-15.856
N10960 X21.497 Y-16.117
N10965 X21.55 Y-16.207
N10970 X21.699 Y-16.476
N10975 X21.751 Y-16.579
N10980 X21.878 Y-16.856
N10985 X21.926 Y-16.971
N10990 X22.03 Y-17.254
N10995 X22.07 Y-17.378
N11000 X22.15 Y-17.666
N11005 X22.181 Y-17.797
N11010 X22.236 Y-18.09
N11015 X22.255 Y-18.227
N11020 X22.285 Y-18.526
N11025 X22.293 Y-18.662
N11030 X22.297 Y-18.966
N11035 X22.293 Y-19.098
N11040 X22.272 Y-19.4
N11045 X22.258 Y-19.523
N11050 X22.213 Y-19.821
N11055 X22.192 Y-19.935
N11060 X22.125 Y-20.23
N11065 X22.099 Y-20.333
N11070 X22.012 Y-20.624
N11075 X21.981 Y-20.716
N11080 X21.877 Y-21.003
N11085 X21.844 Y-21.086
N11090 X21.723 Y-21.367
N11095 X21.689 Y-21.441
N11100 X21.553 Y-21.717
N11105 X21.519 Y-21.782
N11110 X21.37 Y-22.053
N11115 X21.336 Y-22.111
N11120 X21.176 Y-22.375
N11125 X21.143 Y-22.426
N11130 X20.973 Y-22.683
N11135 X20.942 Y-22.729
N11140 X20.765 Y-22.979
N11145 X20.721 Y-23.038
N11150 X20.343 Y-23.519
N11155 X20.287 Y-23.586
N11160 X19.877 Y-24.054
N11165 X19.825 Y-24.112
N11170 X19.388 Y-24.564
N11175 X19.337 Y-24.613
N11180 X18.88 Y-25.046
N11185 X18.831 Y-25.091
N11190 X18.359 Y-25.502
N11195 X18.311 Y-25.542
N11200 X17.83 Y-25.928
N11205 X17.769 Y-25.975
N11210 G2 X16.088 Y-27.111 I-17.729 J24.402
N11215 G1 X16.009 Y-27.158
N11220 X15.426 Y-27.478
N11225 X15.368 Y-27.509
N11230 X15.065 Y-27.659
N11235 X15.021 Y-27.68
N11240 X14.713 Y-27.821
N11245 X14.664 Y-27.843
N11250 X14.351 Y-27.974
N11255 X14.296 Y-27.996
N11260 X13.979 Y-28.115
N11265 X13.918 Y-28.136
N11270 X13.599 Y-28.241
N11275 X13.531 Y-28.262
N11280 X13.21 Y-28.352
N11285 X13.133 Y-28.372
N11290 X12.811 Y-28.445
N11295 X12.726 Y-28.462
N11300 X12.403 Y-28.518
N11305 X12.308 Y-28.531
N11310 X11.982 Y-28.567
N11315 X11.876 Y-28.575
N11320 X11.549 Y-28.589
N11325 X11.431
N11330 X11.104 Y-28.578
N11335 X10.976 Y-28.569
N11340 X10.651 Y-28.532
N11345 X10.513 Y-28.51
N11350 X10.193 Y-28.445
N11355 X10.051 Y-28.409
N11360 X9.742 Y-28.315
N11365 X9.6 Y-28.265
N11370 X9.302 Y-28.143
N11375 X9.166 Y-28.08
N11380 X8.879 Y-27.929
N11385 X8.752 Y-27.855
N11390 X8.478 Y-27.677
N11395 X8.363 Y-27.595
N11400 X8.106 Y-27.394
N11405 X8.008 Y-27.31
N11410 X7.768 Y-27.089
N11415 X7.686 Y-27.007
N11420 X7.462 Y-26.769
N11425 X7.394 Y-26.691
N11430 X7.186 Y-26.437
N11435 X7.131 Y-26.365
N11440 X6.935 Y-26.097
N11445 X6.89 Y-26.031
N11450 X6.705 Y-25.749
N11455 X6.668 Y-25.689
N11460 X6.492 Y-25.393
N11465 X6.462 Y-25.34
N11470 X6.295 Y-25.031
N11475 X6.271 Y-24.986
N11480 X6.111 Y-24.667
N11485 X6.084 Y-24.61
N11490 X5.783 Y-23.944
N11495 X5.759 Y-23.89
N11500 X5.473 Y-23.19
N11505 X5.46 Y-23.157
N11510 X5.181 Y-22.429
N11515 X5.176 Y-22.416
N11520 X4.898 Y-21.671
N11525 X4.617 Y-20.929
N11530 X4.329 Y-20.204
N11535 X4.03 Y-19.507
N11540 X3.709 Y-18.835
N11545 X3.548 Y-18.53
N11550 X3.377 Y-18.23
N11555 X3.201 Y-17.943
N11560 X3.02 Y-17.671
N11565 X2.832 Y-17.415
N11570 X2.637 Y-17.174
N11575 X2.436 Y-16.951
N11580 X2.229 Y-16.746
N11585 X2.016 Y-16.561
N11590 X1.798 Y-16.397
N11595 X1.575 Y-16.254
N11600 X1.35 Y-16.133
N11605 X1.123 Y-16.035
N11610 X0.892 Y-15.959
N11615 X0.657 Y-15.904
N11620 X0.42 Y-15.87
N11625 X0.181 Y-15.859
N11630 X-0.057 Y-15.87
N11635 X-0.297 Y-15.903
N11640 X-0.538 Y-15.958
N11645 X-0.775 Y-16.035
N11650 X-1.009 Y-16.133
N11655 X-1.242 Y-16.253
N11660 X-1.472 Y-16.395
N11665 X-1.699 Y-16.557
N11670 X-1.919 Y-16.74
N11675 X-2.135 Y-16.941
N11680 X-2.345 Y-17.16
N11685 X-2.548 Y-17.397
N11690 X-2.746 Y-17.648
N11695 X-2.938 Y-17.916
N11700 X-3.125 Y-18.197
N11705 X-3.306 Y-18.491
N11710 X-3.478 Y-18.789
N11715 X-3.82 Y-19.44
N11720 X-4.137 Y-20.107
N11725 X-4.44 Y-20.79
N11730 X-4.736 Y-21.486
N11735 X-5.03 Y-22.185
N11740 X-5.035 Y-22.197
N11745 X-5.33 Y-22.882
N11750 X-5.343 Y-22.912
N11755 X-5.645 Y-23.575
N11760 X-5.669 Y-23.625
N11765 X-5.984 Y-24.257
N11770 X-6.01 Y-24.308
N11775 X-6.174 Y-24.611
N11780 X-6.197 Y-24.652
N11785 X-6.368 Y-24.945
N11790 X-6.396 Y-24.991
N11795 X-6.573 Y-25.273
N11800 X-6.607 Y-25.324
N11805 X-6.792 Y-25.594
N11810 X-6.832 Y-25.651
N11815 X-7.027 Y-25.91
N11820 X-7.076 Y-25.973
N11825 X-7.282 Y-26.221
N11830 X-7.341 Y-26.288
N11835 X-7.561 Y-26.524
N11840 X-7.631 Y-26.594
N11845 X-7.865 Y-26.815
N11850 X-7.947 Y-26.888
N11855 X-8.196 Y-27.093
N11860 X-8.291 Y-27.165
N11865 X-8.555 Y-27.351
N11870 X-8.662 Y-27.42
N11875 X-8.939 Y-27.584
N11880 X-9.054 Y-27.646
N11885 X-9.341 Y-27.785
N11890 X-9.462 Y-27.837
N11895 X-9.758 Y-27.951
N11900 X-9.883 Y-27.993
N11905 X-10.189 Y-28.083
N11910 X-10.315 Y-28.115
N11915 X-10.631 Y-28.18
N11920 X-10.753 Y-28.2
N11925 X-11.073 Y-28.24
N11930 X-11.188 Y-28.251
N11935 X-11.51 Y-28.268
N11940 X-11.618 Y-28.27
N11945 X-11.94 Y-28.265
N11950 X-12.04 Y-28.26
N11955 X-12.362 Y-28.235
N11960 X-12.452 Y-28.225
N11965 X-12.773 Y-28.181
N11970 X-12.855 Y-28.168
N11975 X-13.175 Y-28.107
N11980 X-13.249 Y-28.091
N11985 X-13.566 Y-28.015
N11990 X-13.635 Y-27.997
N11995 X-13.95 Y-27.906
N12000 X-14.011 Y-27.887
N12005 X-14.322 Y-27.783
N12010 X-14.378 Y-27.763
N12015 X-14.685 Y-27.648
N12020 X-14.736 Y-27.628
N12025 X-15.037 Y-27.503
N12030 X-15.105 Y-27.473
N12035 X-15.693 Y-27.197
N12040 X-15.774 Y-27.156
N12045 X-16.35 Y-26.843
N12050 X-16.423 Y-26.801
N12055 X-16.983 Y-26.458
N12060 X-17.05 Y-26.415
N12065 X-17.588 Y-26.047
N12070 X-17.621 Y-26.024
N12075 X-17.688 Y-25.975
N12080 X-17.713 Y-25.957
N12085 X-18.07 Y-25.687
N12090 X-18.113 Y-25.654
N12095 X-18.466 Y-25.368
N12100 X-18.509 Y-25.332
N12105 X-18.855 Y-25.031
N12110 X-18.899 Y-24.991
N12115 X-19.235 Y-24.675
N12120 X-19.281 Y-24.631
N12125 X-19.604 Y-24.302
N12130 X-19.651 Y-24.253
N12135 X-19.958 Y-23.912
N12140 X-20.007 Y-23.855
N12145 X-20.296 Y-23.504
N12150 X-20.346 Y-23.439
N12155 X-20.613 Y-23.077
N12160 X-20.664 Y-23.003
N12165 X-20.907 Y-22.632
N12170 X-20.96 Y-22.545
N12175 X-21.178 Y-22.159
N12180 X-21.23 Y-22.059
N12185 X-21.42 Y-21.659
N12190 X-21.471 Y-21.541
N12195 X-21.627 Y-21.127
N12200 X-21.661 Y-21.028
N12205 X-21.726 Y-20.816
N12210 X-21.746 Y-20.744
N12215 X-21.801 Y-20.53
N12220 X-21.818 Y-20.453
N12225 X-21.862 Y-20.236
N12230 X-21.876 Y-20.155
N12235 X-21.908 Y-19.938
N12240 X-21.919 Y-19.854
N12245 X-21.939 Y-19.636
N12250 X-21.945 Y-19.551
N12255 X-21.954 Y-19.333
N12260 X-21.955 Y-19.246
N12265 X-21.952 Y-19.028
N12270 X-21.948 Y-18.94
N12275 X-21.933 Y-18.722
N12280 X-21.924 Y-18.635
N12285 X-21.896 Y-18.418
N12290 X-21.883 Y-18.33
N12295 X-21.843 Y-18.113
N12300 X-21.825 Y-18.028
N12305 X-21.773 Y-17.814
N12310 X-21.751 Y-17.732
N12315 X-21.689 Y-17.521
N12320 X-21.664 Y-17.446
N12325 X-21.591 Y-17.239
N12330 X-21.563 Y-17.166
N12335 X-21.48 Y-16.963
N12340 X-21.437 Y-16.866
N12345 X-21.243 Y-16.471
N12350 X-21.182 Y-16.358
N12355 X-20.956 Y-15.977
N12360 X-20.896 Y-15.884
N12365 X-20.639 Y-15.513
N12370 X-20.583 Y-15.436
N12375 X-20.299 Y-15.074
N12380 X-20.248 Y-15.013
N12385 X-19.941 Y-14.659
N12390 X-19.896 Y-14.609
N12395 X-19.568 Y-14.262
N12400 X-19.53 Y-14.224
N12405 X-19.185 Y-13.883
N12410 X-19.155 Y-13.854
N12415 X-18.795 Y-13.516
N12420 X-18.771 Y-13.495
N12425 X-18.398 Y-13.159
N12430 X-18.377 Y-13.14
N12435 X-17.605 Y-12.47
N12440 X-17.598 Y-12.464
N12445 X-16.82 Y-11.796
N12450 X-16.065 Y-11.127
N12455 X-15.715 Y-10.8
N12460 X-15.378 Y-10.47
N12465 X-15.06 Y-10.14
N12470 X-14.765 Y-9.809
N12475 X-14.495 Y-9.478
N12480 X-14.249 Y-9.145
N12485 X-14.032 Y-8.81
N12490 X-13.837 Y-8.461
N12495 X-13.761 Y-8.306
N12500 X-13.688 Y-8.138
N12505 X-13.623 Y-7.971
N12510 X-13.567 Y-7.803
N12515 X-13.521 Y-7.641
N12520 X-13.485 Y-7.486
N12525 X-13.457 Y-7.338
N12530 X-13.437 Y-7.197
N12535 X-13.425 Y-7.062
N12540 X-13.418 Y-6.933
N12545 X-13.417 Y-6.81
N12550 X-13.421 Y-6.706
N12555 X-13.443 Y-6.468
N12560 X-13.481 Y-6.249
N12565 X-13.536 Y-6.035
N12570 X-13.606 Y-5.824
N12575 X-13.694 Y-5.619
N12580 X-13.797 Y-5.419
N12585 X-13.916 Y-5.227
N12590 X-14.049 Y-5.043
N12595 X-14.196 Y-4.867
N12600 X-14.359 Y-4.7
N12605 X-14.537 Y-4.54
N12610 X-14.728 Y-4.389
N12615 X-14.931 Y-4.249
N12620 X-15.148 Y-4.118
N12625 X-15.376 Y-3.997
N12630 X-15.617 Y-3.886
N12635 X-15.869 Y-3.783
N12640 X-16.133 Y-3.69
N12645 X-16.406 Y-3.606
N12650 X-16.688 Y-3.532
N12655 X-16.978 Y-3.466
N12660 X-17.266 Y-3.41
N12665 X-17.894 Y-3.315
N12670 X-18.527 Y-3.25
N12675 X-19.175 Y-3.206
N12680 X-19.836 Y-3.179
N12685 X-20.508 Y-3.162
N12690 X-21.185 Y-3.15
N12695 X-21.19 Y-3.149
N12700 X-21.86 Y-3.135
N12705 X-21.882 Y-3.134
N12710 X-22.536 Y-3.111
N12715 X-22.576 Y-3.109
N12720 X-23.212 Y-3.071
N12725 X-23.271 Y-3.066
N12730 X-23.884 Y-3.006
N12735 X-23.943 Y-2.999
N12740 X-24.24 Y-2.959
N12745 X-24.287 Y-2.952
N12750 X-24.577 Y-2.903
N12755 X-24.631 Y-2.893
N12760 X-24.914 Y-2.836
N12765 X-24.974 Y-2.823
N12770 X-25.249 Y-2.756
N12775 X-25.316 Y-2.738
N12780 X-25.582 Y-2.661
N12785 X-25.656 Y-2.637
N12790 X-25.914 Y-2.549
N12795 X-25.994 Y-2.519
N12800 X-26.242 Y-2.418
N12805 X-26.328 Y-2.38
N12810 X-26.567 Y-2.266
N12815 X-26.658 Y-2.219
N12820 X-26.886 Y-2.092
N12825 X-26.979 Y-2.036
N12830 X-27.197 Y-1.894
N12835 X-27.291 Y-1.827
N12840 X-27.497 Y-1.671
N12845 X-27.59 Y-1.594
N12850 X-27.784 Y-1.422
N12855 X-27.874 Y-1.335
N12860 X-28.055 Y-1.147
N12865 X-28.139 Y-1.052
N12870 X-28.304 Y-0.849
N12875 X-28.379 Y-0.75
N12880 X-28.528 Y-0.536
N12885 X-28.592 Y-0.436
N12890 X-28.724 Y-0.212
N12895 X-28.778 Y-0.112
N12900 X-28.893 Y0.121
N12905 X-28.938 Y0.218
N12910 X-29.038 Y0.46
N12915 X-29.073 Y0.553
N12920 X-29.158 Y0.802
N12925 X-29.186 Y0.89
N12930 X-29.257 Y1.144
N12935 X-29.278 Y1.227
N12940 X-29.335 Y1.485
N12945 X-29.35 Y1.561
N12950 X-29.395 Y1.822
N12955 X-29.405 Y1.893
N12960 X-29.438 Y2.156
N12965 X-29.445 Y2.22
N12970 X-29.467 Y2.484
N12975 X-29.472 Y2.57
N12980 X-29.488 Y3.098
N12985 Y3.198
N12990 X-29.471 Y3.732
N12995 X-29.465 Y3.819
N13000 X-29.418 Y4.359
N13005 X-29.409 Y4.435
N13010 X-29.336 Y4.977
N13015 X-29.325 Y5.044
N13020 X-29.228 Y5.582
N13025 X-29.216 Y5.642
N13030 X-29.1 Y6.171
N13035 X-29.087 Y6.225
N13040 X-28.954 Y6.741
N13045 X-28.942 Y6.785
N13050 G2 X-28.647 Y7.748 I28.982 J-8.357
N13055 G1 X-28.632 Y7.791
N13060 X-28.442 Y8.323
N13065 X-28.423 Y8.374
N13070 X-28.213 Y8.905
N13075 X-28.191 Y8.958
N13080 X-27.96 Y9.484
N13085 X-27.935 Y9.539
N13090 X-27.685 Y10.056
N13095 X-27.655 Y10.114
N13100 X-27.386 Y10.616
N13105 X-27.351 Y10.679
N13110 X-27.063 Y11.161
N13115 X-27.02 Y11.23
N13120 X-26.715 Y11.687
N13125 X-26.662 Y11.761
N13130 X-26.34 Y12.189
N13135 X-26.273 Y12.272
N13140 X-25.924 Y12.676
N13145 X-25.862 Y12.744
N13150 X-25.675 Y12.936
N13155 X-25.626 Y12.985
N13160 X-25.431 Y13.169
N13165 X-25.374 Y13.22
N13170 X-25.171 Y13.394
N13175 X-25.107 Y13.446
N13180 X-24.896 Y13.609
N13185 X-24.822 Y13.662
N13190 X-24.603 Y13.813
N13195 X-24.519 Y13.866
N13200 X-24.292 Y14.001
N13205 X-24.2 Y14.052
N13210 X-23.965 Y14.172
N13215 X-23.864 Y14.219
N13220 X-23.623 Y14.321
N13225 X-23.513 Y14.363
N13230 X-23.265 Y14.447
N13235 X-23.148 Y14.481
N13240 X-22.894 Y14.546
N13245 X-22.771 Y14.572
N13250 X-22.51 Y14.617
N13255 X-22.384 Y14.633
N13260 X-22.121 Y14.657
N13265 X-21.999 Y14.663
N13270 X-21.737 Y14.667
N13275 X-21.619 Y14.664
N13280 X-21.358 Y14.647
N13285 X-21.247 Y14.637
N13290 X-20.986 Y14.602
N13295 X-20.885 Y14.585
N13300 X-20.625 Y14.534
N13305 X-20.532 Y14.512
N13310 X-20.272 Y14.444
N13315 X-20.19 Y14.42
N13320 X-19.932 Y14.337
N13325 X-19.858 Y14.311
N13330 X-19.6 Y14.214
N13335 X-19.536 Y14.188
N13340 X-19.279 Y14.079
N13345 X-19.223 Y14.053
N13350 X-18.966 Y13.932
N13355 X-18.918 Y13.908
N13360 X-18.662 Y13.776
N13365 X-18.602 Y13.744
N13370 X-18.09 Y13.451
N13375 X-18.031 Y13.415
N13380 X-17.515 Y13.089
N13385 X-17.474 Y13.063
N13390 X-16.953 Y12.711
N13395 X-16.929 Y12.695
N13400 X-16.401 Y12.325
N13405 X-16.391 Y12.318
N13410 X-15.856 Y11.937
N13415 X-15.32 Y11.557
N13420 X-14.784 Y11.188
N13425 X-14.244 Y10.834
N13430 X-13.701 Y10.502
N13435 X-13.146 Y10.195
N13440 X-12.882 Y10.063
N13445 X-12.611 Y9.937
N13450 X-12.341 Y9.822
N13455 X-12.073 Y9.719
N13460 X-11.806 Y9.629
N13465 X-11.537 Y9.551
N13470 X-11.252 Y9.483
N13475 X-10.954 Y9.429
N13480 X-10.646 Y9.394
N13485 X-10.312 Y9.381
N13490 X-10.166 Y9.384
N13495 X-10.003 Y9.394
N13500 X-9.84 Y9.411
N13505 X-9.68 Y9.435
N13510 X-9.523 Y9.466
N13515 X-9.37 Y9.505
N13520 X-9.22 Y9.55
N13525 X-9.073 Y9.601
N13530 X-8.929 Y9.66
N13535 X-8.789 Y9.726
N13540 X-8.652 Y9.799
N13545 X-8.52 Y9.878
N13550 X-8.392 Y9.963
N13555 X-8.269 Y10.054
N13560 X-8.152 Y10.151
N13565 X-8.04 Y10.254
N13570 X-7.933 Y10.362
N13575 X-7.831 Y10.477
N13580 X-7.735 Y10.596
N13585 X-7.646 Y10.72
N13590 X-7.563 Y10.849
N13595 X-7.485 Y10.982
N13600 X-7.414 Y11.121
N13605 X-7.349 Y11.265
N13610 X-7.289 Y11.414
N13615 X-7.241 Y11.553
N13620 X-7.146 Y11.895
N13625 X-7.081 Y12.236
N13630 X-7.039 Y12.594
N13635 X-7.02 Y12.968
N13640 X-7.023 Y13.354
N13645 X-7.047 Y13.753
N13650 X-7.089 Y14.165
N13655 X-7.15 Y14.588
N13660 X-7.226 Y15.021
N13665 X-7.316 Y15.461
N13670 X-7.416 Y15.904
N13675 X-7.648 Y16.821
N13680 X-7.898 Y17.742
N13685 X-7.899 Y17.745
N13690 X-8.146 Y18.664
N13695 X-8.151 Y18.684
N13700 X-8.267 Y19.136
N13705 X-8.273 Y19.16
N13710 X-8.379 Y19.607
N13715 X-8.387 Y19.639
N13720 X-8.482 Y20.08
N13725 X-8.491 Y20.122
N13730 X-8.572 Y20.556
N13735 X-8.581 Y20.608
N13740 X-8.647 Y21.035
N13745 X-8.655 Y21.099
N13750 X-8.703 Y21.517
N13755 X-8.709 Y21.594
N13760 X-8.736 Y22.005
N13765 X-8.739 Y22.095
N13770 X-8.741 Y22.498
N13775 X-8.739 Y22.605
N13780 X-8.714 Y23.006
N13785 X-8.702 Y23.129
N13790 X-8.647 Y23.527
N13795 X-8.621 Y23.666
N13800 X-8.53 Y24.057
N13805 X-8.499 Y24.171
N13810 X-8.44 Y24.363
N13815 X-8.413 Y24.442
N13820 X-8.343 Y24.63
N13825 X-8.31 Y24.711
N13830 X-8.231 Y24.894
N13835 X-8.194 Y24.973
N13840 X-8.105 Y25.15
N13845 X-8.063 Y25.229
N13850 X-7.964 Y25.401
N13855 X-7.918 Y25.477
N13860 X-7.81 Y25.642
N13865 X-7.759 Y25.715
N13870 X-7.642 Y25.875
N13875 X-7.588 Y25.945
N13880 X-7.461 Y26.099
N13885 X-7.404 Y26.164
N13890 X-7.268 Y26.313
N13895 X-7.21 Y26.373
N13900 X-7.066 Y26.514
N13905 X-6.978 Y26.594
N13910 X-6.671 Y26.852
N13915 X-6.555 Y26.94
N13920 X-6.226 Y27.169
N13925 X-6.116 Y27.24
N13930 X-5.768 Y27.441
N13935 X-5.665 Y27.496
N13940 X-5.302 Y27.672
N13945 X-5.207 Y27.714
N13950 X-4.831 Y27.868
N13955 X-4.746 Y27.9
N13960 X-4.359 Y28.032
N13965 X-4.282 Y28.056
N13970 X-3.89 Y28.169
N13975 X-3.821 Y28.187
N13980 X-3.426 Y28.281
N13985 X-3.364 Y28.295
N13990 X-2.97 Y28.372
N13995 X-2.914 Y28.382
N14000 X-2.525 Y28.444
N14005 X-2.474 Y28.451
N14010 X-2.094 Y28.499
N14015 X-2.048 Y28.504
N14020 X-1.68 Y28.54
N14025 X-1.614 Y28.545
N14030 G2 X0.04 Y28.59 I1.654 J-30.117
N14035 G1 X0.102 Y28.589
N14040 X0.536 Y28.572
N14045 X0.581 Y28.569
N14050 X1.02 Y28.539
N14055 X1.066 Y28.535
N14060 X1.507 Y28.492
N14065 X1.555 Y28.487
N14070 X1.995 Y28.43
N14075 X2.046 Y28.423
N14080 X2.484 Y28.352
N14085 X2.537 Y28.343
N14090 X2.97 Y28.257
N14095 X3.027 Y28.245
N14100 X3.453 Y28.145
N14105 X3.514 Y28.129
N14110 X3.93 Y28.013
N14115 X3.996 Y27.993
N14120 X4.4 Y27.862
N14125 X4.472 Y27.837
N14130 X4.861 Y27.689
N14135 X4.94 Y27.657
N14140 X5.319 Y27.489
N14145 X5.406 Y27.448
N14150 X5.776 Y27.257
N14155 X5.872 Y27.203
N14160 X6.227 Y26.987
N14165 X6.331 Y26.918
N14170 X6.668 Y26.676
N14175 X6.779 Y26.588
N14180 X7.092 Y26.317
N14185 X7.177 Y26.238
N14190 X7.322 Y26.092
N14195 X7.378 Y26.033
N14200 X7.515 Y25.881
N14205 X7.57 Y25.816
N14210 X7.698 Y25.658
N14215 X7.751 Y25.588
N14220 X7.87 Y25.423
N14225 X7.92 Y25.349
N14230 X8.029 Y25.178
N14235 X8.076 Y25.1
N14240 X8.176 Y24.921
N14245 X8.218 Y24.84
N14250 X8.308 Y24.655
N14255 X8.346 Y24.571
N14260 X8.425 Y24.38
N14265 X8.457 Y24.297
N14270 X8.525 Y24.104
N14275 X8.552 Y24.021
N14280 X8.609 Y23.825
N14285 X8.63 Y23.745
N14290 X8.677 Y23.546
N14295 X8.693 Y23.469
N14300 X8.73 Y23.268
N14305 X8.746 Y23.16
N14310 X8.793 Y22.75
N14315 X8.802 Y22.621
N14320 X8.815 Y22.202
N14325 Y22.091
N14330 X8.798 Y21.664
N14335 X8.792 Y21.57
N14340 X8.749 Y21.135
N14345 X8.74 Y21.058
N14350 X8.674 Y20.615
N14355 X8.664 Y20.553
N14360 X8.579 Y20.104
N14365 X8.569 Y20.056
N14370 X8.468 Y19.599
N14375 X8.46 Y19.563
N14380 X8.345 Y19.098
N14385 X8.339 Y19.072
N14390 X8.215 Y18.599
N14395 X8.209 Y18.581
N14400 X7.943 Y17.617
N14405 X7.679 Y16.648
N14410 X7.441 Y15.681
N14415 X7.342 Y15.218
N14420 X7.258 Y14.753
N14425 X7.19 Y14.292
N14430 X7.143 Y13.838
N14435 X7.118 Y13.394
N14440 X7.117 Y12.963
N14445 X7.143 Y12.547
N14450 X7.199 Y12.132
N14455 X7.231 Y11.963
N14460 X7.272 Y11.791
N14465 X7.316 Y11.631
N14470 X7.363 Y11.482
N14475 X7.414 Y11.343
N14480 X7.467 Y11.213
N14485 X7.523 Y11.092
N14490 X7.573 Y10.991
N14495 X7.699 Y10.774
N14500 X7.826 Y10.588
N14505 X7.964 Y10.416
N14510 X8.114 Y10.258
N14515 X8.275 Y10.113
N14520 X8.448 Y9.981
N14525 X8.63 Y9.865
N14530 X8.821 Y9.764
N14535 X9.021 Y9.677
N14540 X9.231 Y9.606
N14545 X9.452 Y9.55
N14550 X9.68 Y9.509
N14555 X9.915 Y9.485
N14560 X10.159 Y9.476
N14565 X10.409 Y9.483
N14570 X10.667 Y9.505
N14575 X10.931 Y9.543
N14580 X11.199 Y9.595
N14585 X11.472 Y9.661
N14590 X11.748 Y9.741
N14595 X12.027 Y9.834
N14600 X12.308 Y9.939
N14605 X12.589 Y10.054
N14610 X12.862 Y10.175
N14615 X13.44 Y10.458
N14620 X14.014 Y10.767
N14625 X14.592 Y11.102
N14630 X15.174 Y11.456
N14635 X15.76 Y11.821
N14640 X16.345 Y12.185
N14645 X16.357 Y12.193
N14650 X16.934 Y12.545
N14655 X16.961 Y12.561
N14660 X17.53 Y12.893
N14665 X17.575 Y12.918
N14670 X18.14 Y13.224
N14675 X18.206 Y13.258
N14680 X18.77 Y13.53
N14685 X18.834 Y13.559
N14690 X19.116 Y13.68
N14695 X19.168 Y13.701
N14700 X19.45 Y13.811
N14705 X19.51 Y13.832
N14710 X19.792 Y13.929
N14715 X19.859 Y13.95
N14720 X20.14 Y14.033
N14725 X20.216 Y14.053
N14730 X20.499 Y14.121
N14735 X20.583 Y14.139
N14740 X20.867 Y14.191
N14745 X20.96 Y14.205
N14750 X21.245 Y14.24
N14755 X21.347 Y14.249
N14760 X21.633 Y14.265
N14765 X21.743 Y14.268
N14770 X22.029 Y14.264
N14775 X22.145 Y14.259
N14780 X22.432 Y14.234
N14785 X22.552 Y14.219
N14790 X22.838 Y14.173
N14795 X22.956 Y14.149
N14800 X23.235 Y14.082
N14805 X23.35 Y14.049
N14810 X23.622 Y13.961
N14815 X23.731 Y13.921
N14820 X23.996 Y13.813
N14825 X24.098 Y13.768
N14830 X24.356 Y13.641
N14835 X24.451 Y13.59
N14840 X24.702 Y13.445
N14845 X24.788 Y13.391
N14850 X25.029 Y13.23
N14855 X25.105 Y13.176
N14860 X25.337 Y13.001
N14865 X25.405 Y12.947
N14870 X25.627 Y12.759
N14875 X25.686 Y12.706
N14880 X25.899 Y12.507
N14885 X25.951 Y12.455
N14890 X26.154 Y12.247
N14895 X26.2 Y12.198
N14900 X26.394 Y11.982
N14905 X26.434 Y11.935
N14910 X26.62 Y11.71
N14915 X26.656 Y11.664
N14920 X26.836 Y11.43
N14925 X26.883 Y11.366
N14930 X27.223 Y10.873
N14935 X27.274 Y10.794
N14940 X27.588 Y10.275
N14945 X27.631 Y10.201
N14950 X27.918 Y9.664
N14955 X27.953 Y9.595
N14960 X28.213 Y9.045
N14965 X28.242 Y8.98
N14970 X28.475 Y8.425
N14975 X28.5 Y8.362
N14980 X28.705 Y7.809
N14985 X28.726 Y7.748
N14990 G2 X29.053 Y6.673 I-28.686 J-9.322
N14995 G1 X29.067 Y6.621
N15000 X29.153 Y6.272
N15005 X29.164 Y6.228
N15010 X29.241 Y5.873
N15015 X29.25 Y5.826
N15020 X29.318 Y5.466
N15025 X29.327 Y5.415
N15030 X29.382 Y5.05
N15035 X29.39 Y4.996
N15040 X29.433 Y4.629
N15045 X29.439 Y4.57
N15050 X29.468 Y4.203
N15055 X29.472 Y4.138
N15060 X29.487 Y3.772
N15065 X29.488 Y3.702
N15070 X29.486 Y3.338
N15075 X29.485 Y3.286
N15080 G3 X29.79 Y2.957 I0.317 J-0.012
N15085 G1 X30.107 Y2.944
N15090 X30.178 Y2.942 Z-9.517
N15095 X30.245 Y2.939 Z-9.494
N15100 X30.305 Y2.937 Z-9.456
N15105 X30.355 Y2.935 Z-9.405
N15110 X30.393 Y2.933 Z-9.345
N15115 X30.416 Y2.932 Z-9.278
N15120 X30.424 Z-9.208
N15125 Z5.
N15130 X30.449 Y3.567
N15135 Z-4.525 F1033.33
N15140 Z-12.383
N15145 X30.441 Z-12.453 F3100.
N15150 X30.417 Y3.568 Z-12.52
N15155 X30.379 Y3.569 Z-12.58
N15160 X30.329 Y3.571 Z-12.631
N15165 X30.269 Y3.574 Z-12.669
N15170 X30.202 Y3.576 Z-12.692
N15175 X30.131 Y3.579 Z-12.7
N15180 X29.814 Y3.591
N15185 G3 X29.485 Y3.286 I-0.012 J-0.317
N15190 G1 X29.483 Y3.26
N15195 X29.464 Y2.901
N15200 X29.457 Y2.816
N15205 X29.418 Y2.461
N15210 X29.405 Y2.367
N15215 X29.345 Y2.016
N15220 X29.324 Y1.913
N15225 X29.241 Y1.567
N15230 X29.21 Y1.456
N15235 X29.103 Y1.118
N15240 X29.06 Y0.999
N15245 X28.925 Y0.67
N15250 X28.868 Y0.545
N15255 X28.706 Y0.229
N15260 X28.634 Y0.103
N15265 X28.446 Y-0.194
N15270 X28.361 Y-0.316
N15275 X28.146 Y-0.593
N15280 X28.049 Y-0.707
N15285 X27.809 Y-0.963
N15290 X27.703 Y-1.066
N15295 X27.437 Y-1.302
N15300 X27.327 Y-1.391
N15305 X27.041 Y-1.602
N15310 X26.932 Y-1.675
N15315 X26.63 Y-1.861
N15320 X26.526 Y-1.92
N15325 X26.211 Y-2.083
N15330 X26.115 Y-2.129
N15335 X25.788 Y-2.271
N15340 X25.701 Y-2.306
N15345 X25.364 Y-2.429
N15350 X25.286 Y-2.455
N15355 X24.936 Y-2.563
N15360 X24.867 Y-2.583
N15365 X24.507 Y-2.676
N15370 X24.446 Y-2.691
N15375 X24.076 Y-2.771
N15380 X24.024 Y-2.782
N15385 X23.645 Y-2.851
N15390 X23.601 Y-2.859
N15395 X23.214 Y-2.918
N15400 X23.178 Y-2.923
N15405 X22.784 Y-2.975
N15410 X22.743 Y-2.979
N15415 X21.935 Y-3.063
N15420 X21.902 Y-3.066
N15425 X21.068 Y-3.135
N15430 X21.058 Y-3.136
N15435 X20.213 Y-3.2
N15440 X19.376 Y-3.27
N15445 X18.562 Y-3.354
N15450 X17.769 Y-3.464
N15455 X17.401 Y-3.528
N15460 X17.037 Y-3.602
N15465 X16.686 Y-3.685
N15470 X16.35 Y-3.778
N15475 X16.029 Y-3.882
N15480 X15.725 Y-3.996
N15485 X15.437 Y-4.121
N15490 X15.167 Y-4.258
N15495 X14.916 Y-4.406
N15500 X14.684 Y-4.565
N15505 X14.472 Y-4.735
N15510 X14.278 Y-4.918
N15515 X14.107 Y-5.11
N15520 X13.958 Y-5.312
N15525 X13.829 Y-5.523
N15530 X13.721 Y-5.745
N15535 X13.633 Y-5.978
N15540 X13.567 Y-6.218
N15545 X13.523 Y-6.466
N15550 X13.5 Y-6.721
N15555 Y-6.983
N15560 X13.522 Y-7.247
N15565 X13.567 Y-7.514
N15570 X13.633 Y-7.785
N15575 X13.722 Y-8.057
N15580 X13.832 Y-8.331
N15585 X13.962 Y-8.603
N15590 X14.112 Y-8.875
N15595 X14.281 Y-9.144
N15600 X14.467 Y-9.411
N15605 X14.67 Y-9.676
N15610 X14.887 Y-9.937
N15615 X15.119 Y-10.195
N15620 X15.364 Y-10.45
N15625 X15.62 Y-10.701
N15630 X15.882 Y-10.945
N15635 X16.45 Y-11.441
N15640 X17.035 Y-11.919
N15645 X17.634 Y-12.39
N15650 X18.233 Y-12.856
N15655 X18.242 Y-12.863
N15660 X18.826 Y-13.324
N15665 X18.854 Y-13.346
N15670 X19.41 Y-13.806
N15675 X19.443 Y-13.834
N15680 X19.707 Y-14.064
N15685 X19.735 Y-14.09
N15690 X19.99 Y-14.322
N15695 X20.023 Y-14.354
N15700 X20.265 Y-14.589
N15705 X20.303 Y-14.627
N15710 X20.533 Y-14.865
N15715 X20.575 Y-14.911
N15720 X20.792 Y-15.154
N15725 X20.838 Y-15.209
N15730 X21.04 Y-15.457
N15735 X21.091 Y-15.523
N15740 X21.276 Y-15.778
N15745 X21.329 Y-15.856
N15750 X21.497 Y-16.117
N15755 X21.55 Y-16.207
N15760 X21.699 Y-16.476
N15765 X21.751 Y-16.579
N15770 X21.878 Y-16.856
N15775 X21.926 Y-16.971
N15780 X22.03 Y-17.254
N15785 X22.07 Y-17.378
N15790 X22.15 Y-17.666
N15795 X22.181 Y-17.797
N15800 X22.236 Y-18.09
N15805 X22.255 Y-18.227
N15810 X22.285 Y-18.526
N15815 X22.293 Y-18.662
N15820 X22.297 Y-18.966
N15825 X22.293 Y-19.098
N15830 X22.272 Y-19.4
N15835 X22.258 Y-19.523
N15840 X22.213 Y-19.821
N15845 X22.192 Y-19.935
N15850 X22.125 Y-20.23
N15855 X22.099 Y-20.333
N15860 X22.012 Y-20.624
N15865 X21.981 Y-20.716
N15870 X21.877 Y-21.003
N15875 X21.844 Y-21.086
N15880 X21.723 Y-21.367
N15885 X21.689 Y-21.441
N15890 X21.553 Y-21.717
N15895 X21.519 Y-21.782
N15900 X21.37 Y-22.053
N15905 X21.336 Y-22.111
N15910 X21.176 Y-22.375
N15915 X21.143 Y-22.426
N15920 X20.973 Y-22.683
N15925 X20.942 Y-22.729
N15930 X20.765 Y-22.979
N15935 X20.721 Y-23.038
N15940 X20.343 Y-23.519
N15945 X20.287 Y-23.586
N15950 X19.877 Y-24.054
N15955 X19.825 Y-24.112
N15960 X19.388 Y-24.564
N15965 X19.337 Y-24.613
N15970 X18.88 Y-25.046
N15975 X18.831 Y-25.091
N15980 X18.359 Y-25.502
N15985 X18.311 Y-25.542
N15990 X17.83 Y-25.928
N15995 X17.769 Y-25.975
N16000 G2 X16.088 Y-27.111 I-17.729 J24.402
N16005 G1 X16.009 Y-27.158
N16010 X15.426 Y-27.478
N16015 X15.368 Y-27.509
N16020 X15.065 Y-27.659
N16025 X15.021 Y-27.68
N16030 X14.713 Y-27.821
N16035 X14.664 Y-27.843
N16040 X14.351 Y-27.974
N16045 X14.296 Y-27.996
N16050 X13.979 Y-28.115
N16055 X13.918 Y-28.136
N16060 X13.599 Y-28.241
N16065 X13.531 Y-28.262
N16070 X13.21 Y-28.352
N16075 X13.133 Y-28.372
N16080 X12.811 Y-28.445
N16085 X12.726 Y-28.462
N16090 X12.403 Y-28.518
N16095 X12.308 Y-28.531
N16100 X11.982 Y-28.567
N16105 X11.876 Y-28.575
N16110 X11.549 Y-28.589
N16115 X11.431
N16120 X11.104 Y-28.578
N16125 X10.976 Y-28.569
N16130 X10.651 Y-28.532
N16135 X10.513 Y-28.51
N16140 X10.193 Y-28.445
N16145 X10.051 Y-28.409
N16150 X9.742 Y-28.315
N16155 X9.6 Y-28.265
N16160 X9.302 Y-28.143
N16165 X9.166 Y-28.08
N16170 X8.879 Y-27.929
N16175 X8.752 Y-27.855
N16180 X8.478 Y-27.677
N16185 X8.363 Y-27.595
N16190 X8.106 Y-27.394
N16195 X8.008 Y-27.31
N16200 X7.768 Y-27.089
N16205 X7.686 Y-27.007
N16210 X7.462 Y-26.769
N16215 X7.394 Y-26.691
N16220 X7.186 Y-26.437
N16225 X7.131 Y-26.365
N16230 X6.935 Y-26.097
N16235 X6.89 Y-26.031
N16240 X6.705 Y-25.749
N16245 X6.668 Y-25.689
N16250 X6.492 Y-25.393
N16255 X6.462 Y-25.34
N16260 X6.295 Y-25.031
N16265 X6.271 Y-24.986
N16270 X6.111 Y-24.667
N16275 X6.084 Y-24.61
N16280 X5.783 Y-23.944
N16285 X5.759 Y-23.89
N16290 X5.473 Y-23.19
N16295 X5.46 Y-23.157
N16300 X5.181 Y-22.429
N16305 X5.176 Y-22.416
N16310 X4.898 Y-21.671
N16315 X4.617 Y-20.929
N16320 X4.329 Y-20.204
N16325 X4.03 Y-19.507
N16330 X3.709 Y-18.835
N16335 X3.548 Y-18.53
N16340 X3.377 Y-18.23
N16345 X3.201 Y-17.943
N16350 X3.02 Y-17.671
N16355 X2.832 Y-17.415
N16360 X2.637 Y-17.174
N16365 X2.436 Y-16.951
N16370 X2.229 Y-16.746
N16375 X2.016 Y-16.561
N16380 X1.798 Y-16.397
N16385 X1.575 Y-16.254
N16390 X1.35 Y-16.133
N16395 X1.123 Y-16.035
N16400 X0.892 Y-15.959
N16405 X0.657 Y-15.904
N16410 X0.42 Y-15.87
N16415 X0.181 Y-15.859
N16420 X-0.057 Y-15.87
N16425 X-0.297 Y-15.903
N16430 X-0.538 Y-15.958
N16435 X-0.775 Y-16.035
N16440 X-1.009 Y-16.133
N16445 X-1.242 Y-16.253
N16450 X-1.472 Y-16.395
N16455 X-1.699 Y-16.557
N16460 X-1.919 Y-16.74
N16465 X-2.135 Y-16.941
N16470 X-2.345 Y-17.16
N16475 X-2.548 Y-17.397
N16480 X-2.746 Y-17.648
N16485 X-2.938 Y-17.916
N16490 X-3.125 Y-18.197
N16495 X-3.306 Y-18.491
N16500 X-3.478 Y-18.789
N16505 X-3.82 Y-19.44
N16510 X-4.137 Y-20.107
N16515 X-4.44 Y-20.79
N16520 X-4.736 Y-21.486
N16525 X-5.03 Y-22.185
N16530 X-5.035 Y-22.197
N16535 X-5.33 Y-22.882
N16540 X-5.343 Y-22.912
N16545 X-5.645 Y-23.575
N16550 X-5.669 Y-23.625
N16555 X-5.984 Y-24.257
N16560 X-6.01 Y-24.308
N16565 X-6.174 Y-24.611
N16570 X-6.197 Y-24.652
N16575 X-6.368 Y-24.945
N16580 X-6.396 Y-24.991
N16585 X-6.573 Y-25.273
N16590 X-6.607 Y-25.324
N16595 X-6.792 Y-25.594
N16600 X-6.832 Y-25.651
N16605 X-7.027 Y-25.91
N16610 X-7.076 Y-25.973
N16615 X-7.282 Y-26.221
N16620 X-7.341 Y-26.288
N16625 X-7.561 Y-26.524
N16630 X-7.631 Y-26.594
N16635 X-7.865 Y-26.815
N16640 X-7.947 Y-26.888
N16645 X-8.196 Y-27.093
N16650 X-8.291 Y-27.165
N16655 X-8.555 Y-27.351
N16660 X-8.662 Y-27.42
N16665 X-8.939 Y-27.584
N16670 X-9.054 Y-27.646
N16675 X-9.341 Y-27.785
N16680 X-9.462 Y-27.837
N16685 X-9.758 Y-27.951
N16690 X-9.883 Y-27.993
N16695 X-10.189 Y-28.083
N16700 X-10.315 Y-28.115
N16705 X-10.631 Y-28.18
N16710 X-10.753 Y-28.2
N16715 X-11.073 Y-28.24
N16720 X-11.188 Y-28.251
N16725 X-11.51 Y-28.268
N16730 X-11.618 Y-28.27
N16735 X-11.94 Y-28.265
N16740 X-12.04 Y-28.26
N16745 X-12.362 Y-28.235
N16750 X-12.452 Y-28.225
N16755 X-12.773 Y-28.181
N16760 X-12.855 Y-28.168
N16765 X-13.175 Y-28.107
N16770 X-13.249 Y-28.091
N16775 X-13.566 Y-28.015
N16780 X-13.635 Y-27.997
N16785 X-13.95 Y-27.906
N16790 X-14.011 Y-27.887
N16795 X-14.322 Y-27.783
N16800 X-14.378 Y-27.763
N16805 X-14.685 Y-27.648
N16810 X-14.736 Y-27.628
N16815 X-15.037 Y-27.503
N16820 X-15.105 Y-27.473
N16825 X-15.693 Y-27.197
N16830 X-15.774 Y-27.156
N16835 X-16.35 Y-26.843
N16840 X-16.423 Y-26.801
N16845 X-16.983 Y-26.458
N16850 X-17.05 Y-26.415
N16855 X-17.588 Y-26.047
N16860 X-17.621 Y-26.024
N16865 X-17.688 Y-25.975
N16870 X-17.713 Y-25.957
N16875 X-18.07 Y-25.687
N16880 X-18.113 Y-25.654
N16885 X-18.466 Y-25.368
N16890 X-18.509 Y-25.332
N16895 X-18.855 Y-25.031
N16900 X-18.899 Y-24.991
N16905 X-19.235 Y-24.675
N16910 X-19.281 Y-24.631
N16915 X-19.604 Y-24.302
N16920 X-19.651 Y-24.253
N16925 X-19.958 Y-23.912
N16930 X-20.007 Y-23.855
N16935 X-20.296 Y-23.504
N16940 X-20.346 Y-23.439
N16945 X-20.613 Y-23.077
N16950 X-20.664 Y-23.003
N16955 X-20.907 Y-22.632
N16960 X-20.96 Y-22.545
N16965 X-21.178 Y-22.159
N16970 X-21.23 Y-22.059
N16975 X-21.42 Y-21.659
N16980 X-21.471 Y-21.541
N16985 X-21.627 Y-21.127
N16990 X-21.661 Y-21.028
N16995 X-21.726 Y-20.816
N17000 X-21.746 Y-20.744
N17005 X-21.801 Y-20.53
N17010 X-21.818 Y-20.453
N17015 X-21.862 Y-20.236
N17020 X-21.876 Y-20.155
N17025 X-21.908 Y-19.938
N17030 X-21.919 Y-19.854
N17035 X-21.939 Y-19.636
N17040 X-21.945 Y-19.551
N17045 X-21.954 Y-19.333
N17050 X-21.955 Y-19.246
N17055 X-21.952 Y-19.028
N17060 X-21.948 Y-18.94
N17065 X-21.933 Y-18.722
N17070 X-21.924 Y-18.635
N17075 X-21.896 Y-18.418
N17080 X-21.883 Y-18.33
N17085 X-21.843 Y-18.113
N17090 X-21.825 Y-18.028
N17095 X-21.773 Y-17.814
N17100 X-21.751 Y-17.732
N17105 X-21.689 Y-17.521
N17110 X-21.664 Y-17.446
N17115 X-21.591 Y-17.239
N17120 X-21.563 Y-17.166
N17125 X-21.48 Y-16.963
N17130 X-21.437 Y-16.866
N17135 X-21.243 Y-16.471
N17140 X-21.182 Y-16.358
N17145 X-20.956 Y-15.977
N17150 X-20.896 Y-15.884
N17155 X-20.639 Y-15.513
N17160 X-20.583 Y-15.436
N17165 X-20.299 Y-15.074
N17170 X-20.248 Y-15.013
N17175 X-19.941 Y-14.659
N17180 X-19.896 Y-14.609
N17185 X-19.568 Y-14.262
N17190 X-19.53 Y-14.224
N17195 X-19.185 Y-13.883
N17200 X-19.155 Y-13.854
N17205 X-18.795 Y-13.516
N17210 X-18.771 Y-13.495
N17215 X-18.398 Y-13.159
N17220 X-18.377 Y-13.14
N17225 X-17.605 Y-12.47
N17230 X-17.598 Y-12.464
N17235 X-16.82 Y-11.796
N17240 X-16.065 Y-11.127
N17245 X-15.715 Y-10.8
N17250 X-15.378 Y-10.47
N17255 X-15.06 Y-10.14
N17260 X-14.765 Y-9.809
N17265 X-14.495 Y-9.478
N17270 X-14.249 Y-9.145
N17275 X-14.032 Y-8.81
N17280 X-13.837 Y-8.461
N17285 X-13.761 Y-8.306
N17290 X-13.688 Y-8.138
N17295 X-13.623 Y-7.971
N17300 X-13.567 Y-7.803
N17305 X-13.521 Y-7.641
N17310 X-13.485 Y-7.486
N17315 X-13.457 Y-7.338
N17320 X-13.437 Y-7.197
N17325 X-13.425 Y-7.062
N17330 X-13.418 Y-6.933
N17335 X-13.417 Y-6.81
N17340 X-13.421 Y-6.706
N17345 X-13.443 Y-6.468
N17350 X-13.481 Y-6.249
N17355 X-13.536 Y-6.035
N17360 X-13.606 Y-5.824
N17365 X-13.694 Y-5.619
N17370 X-13.797 Y-5.419
N17375 X-13.916 Y-5.227
N17380 X-14.049 Y-5.043
N17385 X-14.196 Y-4.867
N17390 X-14.359 Y-4.7
N17395 X-14.537 Y-4.54
N17400 X-14.728 Y-4.389
N17405 X-14.931 Y-4.249
N17410 X-15.148 Y-4.118
N17415 X-15.376 Y-3.997
N17420 X-15.617 Y-3.886
N17425 X-15.869 Y-3.783
N17430 X-16.133 Y-3.69
N17435 X-16.406 Y-3.606
N17440 X-16.688 Y-3.532
N17445 X-16.978 Y-3.466
N17450 X-17.266 Y-3.41
N17455 X-17.894 Y-3.315
N17460 X-18.527 Y-3.25
N17465 X-19.175 Y-3.206
N17470 X-19.836 Y-3.179
N17475 X-20.508 Y-3.162
N17480 X-21.185 Y-3.15
N17485 X-21.19 Y-3.149
N17490 X-21.86 Y-3.135
N17495 X-21.882 Y-3.134
N17500 X-22.536 Y-3.111
N17505 X-22.576 Y-3.109
N17510 X-23.212 Y-3.071
N17515 X-23.271 Y-3.066
N17520 X-23.884 Y-3.006
N17525 X-23.943 Y-2.999
N17530 X-24.24 Y-2.959
N17535 X-24.287 Y-2.952
N17540 X-24.577 Y-2.903
N17545 X-24.631 Y-2.893
N17550 X-24.914 Y-2.836
N17555 X-24.974 Y-2.823
N17560 X-25.249 Y-2.756
N17565 X-25.316 Y-2.738
N17570 X-25.582 Y-2.661
N17575 X-25.656 Y-2.637
N17580 X-25.914 Y-2.549
N17585 X-25.994 Y-2.519
N17590 X-26.242 Y-2.418
N17595 X-26.328 Y-2.38
N17600 X-26.567 Y-2.266
N17605 X-26.658 Y-2.219
N17610 X-26.886 Y-2.092
N17615 X-26.979 Y-2.036
N17620 X-27.197 Y-1.894
N17625 X-27.291 Y-1.827
N17630 X-27.497 Y-1.671
N17635 X-27.59 Y-1.594
N17640 X-27.784 Y-1.422
N17645 X-27.874 Y-1.335
N17650 X-28.055 Y-1.147
N17655 X-28.139 Y-1.052
N17660 X-28.304 Y-0.849
N17665 X-28.379 Y-0.75
N17670 X-28.528 Y-0.536
N17675 X-28.592 Y-0.436
N17680 X-28.724 Y-0.212
N17685 X-28.778 Y-0.112
N17690 X-28.893 Y0.121
N17695 X-28.938 Y0.218
N17700 X-29.038 Y0.46
N17705 X-29.073 Y0.553
N17710 X-29.158 Y0.802
N17715 X-29.186 Y0.89
N17720 X-29.257 Y1.144
N17725 X-29.278 Y1.227
N17730 X-29.335 Y1.485
N17735 X-29.35 Y1.561
N17740 X-29.395 Y1.822
N17745 X-29.405 Y1.893
N17750 X-29.438 Y2.156
N17755 X-29.445 Y2.22
N17760 X-29.467 Y2.484
N17765 X-29.472 Y2.57
N17770 X-29.488 Y3.098
N17775 Y3.198
N17780 X-29.471 Y3.732
N17785 X-29.465 Y3.819
N17790 X-29.418 Y4.359
N17795 X-29.409 Y4.435
N17800 X-29.336 Y4.977
N17805 X-29.325 Y5.044
N17810 X-29.228 Y5.582
N17815 X-29.216 Y5.642
N17820 X-29.1 Y6.171
N17825 X-29.087 Y6.225
N17830 X-28.954 Y6.741
N17835 X-28.942 Y6.785
N17840 G2 X-28.647 Y7.748 I28.982 J-8.357
N17845 G1 X-28.632 Y7.791
N17850 X-28.442 Y8.323
N17855 X-28.423 Y8.374
N17860 X-28.213 Y8.905
N17865 X-28.191 Y8.958
N17870 X-27.96 Y9.484
N17875 X-27.935 Y9.539
N17880 X-27.685 Y10.056
N17885 X-27.655 Y10.114
N17890 X-27.386 Y10.616
N17895 X-27.351 Y10.679
N17900 X-27.063 Y11.161
N17905 X-27.02 Y11.23
N17910 X-26.715 Y11.687
N17915 X-26.662 Y11.761
N17920 X-26.34 Y12.189
N17925 X-26.273 Y12.272
N17930 X-25.924 Y12.676
N17935 X-25.862 Y12.744
N17940 X-25.675 Y12.936
N17945 X-25.626 Y12.985
N17950 X-25.431 Y13.169
N17955 X-25.374 Y13.22
N17960 X-25.171 Y13.394
N17965 X-25.107 Y13.446
N17970 X-24.896 Y13.609
N17975 X-24.822 Y13.662
N17980 X-24.603 Y13.813
N17985 X-24.519 Y13.866
N17990 X-24.292 Y14.001
N17995 X-24.2 Y14.052
N18000 X-23.965 Y14.172
N18005 X-23.864 Y14.219
N18010 X-23.623 Y14.321
N18015 X-23.513 Y14.363
N18020 X-23.265 Y14.447
N18025 X-23.148 Y14.481
N18030 X-22.894 Y14.546
N18035 X-22.771 Y14.572
N18040 X-22.51 Y14.617
N18045 X-22.384 Y14.633
N18050 X-22.121 Y14.657
N18055 X-21.999 Y14.663
N18060 X-21.737 Y14.667
N18065 X-21.619 Y14.664
N18070 X-21.358 Y14.647
N18075 X-21.247 Y14.637
N18080 X-20.986 Y14.602
N18085 X-20.885 Y14.585
N18090 X-20.625 Y14.534
N18095 X-20.532 Y14.512
N18100 X-20.272 Y14.444
N18105 X-20.19 Y14.42
N18110 X-19.932 Y14.337
N18115 X-19.858 Y14.311
N18120 X-19.6 Y14.214
N18125 X-19.536 Y14.188
N18130 X-19.279 Y14.079
N18135 X-19.223 Y14.053
N18140 X-18.966 Y13.932
N18145 X-18.918 Y13.908
N18150 X-18.662 Y13.776
N18155 X-18.602 Y13.744
N18160 X-18.09 Y13.451
N18165 X-18.031 Y13.415
N18170 X-17.515 Y13.089
N18175 X-17.474 Y13.063
N18180 X-16.953 Y12.711
N18185 X-16.929 Y12.695
N18190 X-16.401 Y12.325
N18195 X-16.391 Y12.318
N18200 X-15.856 Y11.937
N18205 X-15.32 Y11.557
N18210 X-14.784 Y11.188
N18215 X-14.244 Y10.834
N18220 X-13.701 Y10.502
N18225 X-13.146 Y10.195
N18230 X-12.882 Y10.063
N18235 X-12.611 Y9.937
N18240 X-12.341 Y9.822
N18245 X-12.073 Y9.719
N18250 X-11.806 Y9.629
N18255 X-11.537 Y9.551
N18260 X-11.252 Y9.483
N18265 X-10.954 Y9.429
N18270 X-10.646 Y9.394
N18275 X-10.312 Y9.381
N18280 X-10.166 Y9.384
N18285 X-10.003 Y9.394
N18290 X-9.84 Y9.411
N18295 X-9.68 Y9.435
N18300 X-9.523 Y9.466
N18305 X-9.37 Y9.505
N18310 X-9.22 Y9.55
N18315 X-9.073 Y9.601
N18320 X-8.929 Y9.66
N18325 X-8.789 Y9.726
N18330 X-8.652 Y9.799
N18335 X-8.52 Y9.878
N18340 X-8.392 Y9.963
N18345 X-8.269 Y10.054
N18350 X-8.152 Y10.151
N18355 X-8.04 Y10.254
N18360 X-7.933 Y10.362
N18365 X-7.831 Y10.477
N18370 X-7.735 Y10.596
N18375 X-7.646 Y10.72
N18380 X-7.563 Y10.849
N18385 X-7.485 Y10.982
N18390 X-7.414 Y11.121
N18395 X-7.349 Y11.265
N18400 X-7.289 Y11.414
N18405 X-7.241 Y11.553
N18410 X-7.146 Y11.895
N18415 X-7.081 Y12.236
N18420 X-7.039 Y12.594
N18425 X-7.02 Y12.968
N18430 X-7.023 Y13.354
N18435 X-7.047 Y13.753
N18440 X-7.089 Y14.165
N18445 X-7.15 Y14.588
N18450 X-7.226 Y15.021
N18455 X-7.316 Y15.461
N18460 X-7.416 Y15.904
N18465 X-7.648 Y16.821
N18470 X-7.898 Y17.742
N18475 X-7.899 Y17.745
N18480 X-8.146 Y18.664
N18485 X-8.151 Y18.684
N18490 X-8.267 Y19.136
N18495 X-8.273 Y19.16
N18500 X-8.379 Y19.607
N18505 X-8.387 Y19.639
N18510 X-8.482 Y20.08
N18515 X-8.491 Y20.122
N18520 X-8.572 Y20.556
N18525 X-8.581 Y20.608
N18530 X-8.647 Y21.035
N18535 X-8.655 Y21.099
N18540 X-8.703 Y21.517
N18545 X-8.709 Y21.594
N18550 X-8.736 Y22.005
N18555 X-8.739 Y22.095
N18560 X-8.741 Y22.498
N18565 X-8.739 Y22.605
N18570 X-8.714 Y23.006
N18575 X-8.702 Y23.129
N18580 X-8.647 Y23.527
N18585 X-8.621 Y23.666
N18590 X-8.53 Y24.057
N18595 X-8.499 Y24.171
N18600 X-8.44 Y24.363
N18605 X-8.413 Y24.442
N18610 X-8.343 Y24.63
N18615 X-8.31 Y24.711
N18620 X-8.231 Y24.894
N18625 X-8.194 Y24.973
N18630 X-8.105 Y25.15
N18635 X-8.063 Y25.229
N18640 X-7.964 Y25.401
N18645 X-7.918 Y25.477
N18650 X-7.81 Y25.642
N18655 X-7.759 Y25.715
N18660 X-7.642 Y25.875
N18665 X-7.588 Y25.945
N18670 X-7.461 Y26.099
N18675 X-7.404 Y26.164
N18680 X-7.268 Y26.313
N18685 X-7.21 Y26.373
N18690 X-7.066 Y26.514
N18695 X-6.978 Y26.594
N18700 X-6.671 Y26.852
N18705 X-6.555 Y26.94
N18710 X-6.226 Y27.169
N18715 X-6.116 Y27.24
N18720 X-5.768 Y27.441
N18725 X-5.665 Y27.496
N18730 X-5.302 Y27.672
N18735 X-5.207 Y27.714
N18740 X-4.831 Y27.868
N18745 X-4.746 Y27.9
N18750 X-4.359 Y28.032
N18755 X-4.282 Y28.056
N18760 X-3.89 Y28.169
N18765 X-3.821 Y28.187
N18770 X-3.426 Y28.281
N18775 X-3.364 Y28.295
N18780 X-2.97 Y28.372
N18785 X-2.914 Y28.382
N18790 X-2.525 Y28.444
N18795 X-2.474 Y28.451
N18800 X-2.094 Y28.499
N18805 X-2.048 Y28.504
N18810 X-1.68 Y28.54
N18815 X-1.614 Y28.545
N18820 G2 X0.04 Y28.59 I1.654 J-30.117
N18825 G1 X0.102 Y28.589
N18830 X0.536 Y28.572
N18835 X0.581 Y28.569
N18840 X1.02 Y28.539
N18845 X1.066 Y28.535
N18850 X1.507 Y28.492
N18855 X1.555 Y28.487
N18860 X1.995 Y28.43
N18865 X2.046 Y28.423
N18870 X2.484 Y28.352
N18875 X2.537 Y28.343
N18880 X2.97 Y28.257
N18885 X3.027 Y28.245
N18890 X3.453 Y28.145
N18895 X3.514 Y28.129
N18900 X3.93 Y28.013
N18905 X3.996 Y27.993
N18910 X4.4 Y27.862
N18915 X4.472 Y27.837
N18920 X4.861 Y27.689
N18925 X4.94 Y27.657
N18930 X5.319 Y27.489
N18935 X5.406 Y27.448
N18940 X5.776 Y27.257
N18945 X5.872 Y27.203
N18950 X6.227 Y26.987
N18955 X6.331 Y26.918
N18960 X6.668 Y26.676
N18965 X6.779 Y26.588
N18970 X7.092 Y26.317
N18975 X7.177 Y26.238
N18980 X7.322 Y26.092
N18985 X7.378 Y26.033
N18990 X7.515 Y25.881
N18995 X7.57 Y25.816
N19000 X7.698 Y25.658
N19005 X7.751 Y25.588
N19010 X7.87 Y25.423
N19015 X7.92 Y25.349
N19020 X8.029 Y25.178
N19025 X8.076 Y25.1
N19030 X8.176 Y24.921
N19035 X8.218 Y24.84
N19040 X8.308 Y24.655
N19045 X8.346 Y24.571
N19050 X8.425 Y24.38
N19055 X8.457 Y24.297
N19060 X8.525 Y24.104
N19065 X8.552 Y24.021
N19070 X8.609 Y23.825
N19075 X8.63 Y23.745
N19080 X8.677 Y23.546
N19085 X8.693 Y23.469
N19090 X8.73 Y23.268
N19095 X8.746 Y23.16
N19100 X8.793 Y22.75
N19105 X8.802 Y22.621
N19110 X8.815 Y22.202
N19115 Y22.091
N19120 X8.798 Y21.664
N19125 X8.792 Y21.57
N19130 X8.749 Y21.135
N19135 X8.74 Y21.058
N19140 X8.674 Y20.615
N19145 X8.664 Y20.553
N19150 X8.579 Y20.104
N19155 X8.569 Y20.056
N19160 X8.468 Y19.599
N19165 X8.46 Y19.563
N19170 X8.345 Y19.098
N19175 X8.339 Y19.072
N19180 X8.215 Y18.599
N19185 X8.209 Y18.581
N19190 X7.943 Y17.617
N19195 X7.679 Y16.648
N19200 X7.441 Y15.681
N19205 X7.342 Y15.218
N19210 X7.258 Y14.753
N19215 X7.19 Y14.292
N19220 X7.143 Y13.838
N19225 X7.118 Y13.394
N19230 X7.117 Y12.963
N19235 X7.143 Y12.547
N19240 X7.199 Y12.132
N19245 X7.231 Y11.963
N19250 X7.272 Y11.791
N19255 X7.316 Y11.631
N19260 X7.363 Y11.482
N19265 X7.414 Y11.343
N19270 X7.467 Y11.213
N19275 X7.523 Y11.092
N19280 X7.573 Y10.991
N19285 X7.699 Y10.774
N19290 X7.826 Y10.588
N19295 X7.964 Y10.416
N19300 X8.114 Y10.258
N19305 X8.275 Y10.113
N19310 X8.448 Y9.981
N19315 X8.63 Y9.865
N19320 X8.821 Y9.764
N19325 X9.021 Y9.677
N19330 X9.231 Y9.606
N19335 X9.452 Y9.55
N19340 X9.68 Y9.509
N19345 X9.915 Y9.485
N19350 X10.159 Y9.476
N19355 X10.409 Y9.483
N19360 X10.667 Y9.505
N19365 X10.931 Y9.543
N19370 X11.199 Y9.595
N19375 X11.472 Y9.661
N19380 X11.748 Y9.741
N19385 X12.027 Y9.834
N19390 X12.308 Y9.939
N19395 X12.589 Y10.054
N19400 X12.862 Y10.175
N19405 X13.44 Y10.458
N19410 X14.014 Y10.767
N19415 X14.592 Y11.102
N19420 X15.174 Y11.456
N19425 X15.76 Y11.821
N19430 X16.345 Y12.185
N19435 X16.357 Y12.193
N19440 X16.934 Y12.545
N19445 X16.961 Y12.561
N19450 X17.53 Y12.893
N19455 X17.575 Y12.918
N19460 X18.14 Y13.224
N19465 X18.206 Y13.258
N19470 X18.77 Y13.53
N19475 X18.834 Y13.559
N19480 X19.116 Y13.68
N19485 X19.168 Y13.701
N19490 X19.45 Y13.811
N19495 X19.51 Y13.832
N19500 X19.792 Y13.929
N19505 X19.859 Y13.95
N19510 X20.14 Y14.033
N19515 X20.216 Y14.053
N19520 X20.499 Y14.121
N19525 X20.583 Y14.139
N19530 X20.867 Y14.191
N19535 X20.96 Y14.205
N19540 X21.245 Y14.24
N19545 X21.347 Y14.249
N19550 X21.633 Y14.265
N19555 X21.743 Y14.268
N19560 X22.029 Y14.264
N19565 X22.145 Y14.259
N19570 X22.432 Y14.234
N19575 X22.552 Y14.219
N19580 X22.838 Y14.173
N19585 X22.956 Y14.149
N19590 X23.235 Y14.082
N19595 X23.35 Y14.049
N19600 X23.622 Y13.961
N19605 X23.731 Y13.921
N19610 X23.996 Y13.813
N19615 X24.098 Y13.768
N19620 X24.356 Y13.641
N19625 X24.451 Y13.59
N19630 X24.702 Y13.445
N19635 X24.788 Y13.391
N19640 X25.029 Y13.23
N19645 X25.105 Y13.176
N19650 X25.337 Y13.001
N19655 X25.405 Y12.947
N19660 X25.627 Y12.759
N19665 X25.686 Y12.706
N19670 X25.899 Y12.507
N19675 X25.951 Y12.455
N19680 X26.154 Y12.247
N19685 X26.2 Y12.198
N19690 X26.394 Y11.982
N19695 X26.434 Y11.935
N19700 X26.62 Y11.71
N19705 X26.656 Y11.664
N19710 X26.836 Y11.43
N19715 X26.883 Y11.366
N19720 X27.223 Y10.873
N19725 X27.274 Y10.794
N19730 X27.588 Y10.275
N19735 X27.631 Y10.201
N19740 X27.918 Y9.664
N19745 X27.953 Y9.595
N19750 X28.213 Y9.045
N19755 X28.242 Y8.98
N19760 X28.475 Y8.425
N19765 X28.5 Y8.362
N19770 X28.705 Y7.809
N19775 X28.726 Y7.748
N19780 G2 X29.053 Y6.673 I-28.686 J-9.322
N19785 G1 X29.067 Y6.621
N19790 X29.153 Y6.272
N19795 X29.164 Y6.228
N19800 X29.241 Y5.873
N19805 X29.25 Y5.826
N19810 X29.318 Y5.466
N19815 X29.327 Y5.415
N19820 X29.382 Y5.05
N19825 X29.39 Y4.996
N19830 X29.433 Y4.629
N19835 X29.439 Y4.57
N19840 X29.468 Y4.203
N19845 X29.472 Y4.138
N19850 X29.487 Y3.772
N19855 X29.488 Y3.702
N19860 X29.486 Y3.338
N19865 X29.485 Y3.286
N19870 G3 X29.79 Y2.957 I0.317 J-0.012
N19875 G1 X30.107 Y2.944
N19880 X30.178 Y2.942 Z-12.692
N19885 X30.245 Y2.939 Z-12.669
N19890 X30.305 Y2.937 Z-12.631
N19895 X30.355 Y2.935 Z-12.58
N19900 X30.393 Y2.933 Z-12.52
N19905 X30.416 Y2.932 Z-12.453
N19910 X30.424 Z-12.383
N19915 Z5.
N19920 X30.449 Y3.567
N19925 Z-7.7 F1033.33
N19930 Z-15.558
N19935 X30.441 Z-15.628 F3100.
N19940 X30.417 Y3.568 Z-15.695
N19945 X30.379 Y3.569 Z-15.755
N19950 X30.329 Y3.571 Z-15.806
N19955 X30.269 Y3.574 Z-15.844
N19960 X30.202 Y3.576 Z-15.867
N19965 X30.131 Y3.579 Z-15.875
N19970 X29.814 Y3.591
N19975 G3 X29.485 Y3.286 I-0.012 J-0.317
N19980 G1 X29.483 Y3.26
N19985 X29.464 Y2.901
N19990 X29.457 Y2.816
N19995 X29.418 Y2.461
N20000 X29.405 Y2.367
N20005 X29.345 Y2.016
N20010 X29.324 Y1.913
N20015 X29.241 Y1.567
N20020 X29.21 Y1.456
N20025 X29.103 Y1.118
N20030 X29.06 Y0.999
N20035 X28.925 Y0.67
N20040 X28.868 Y0.545
N20045 X28.706 Y0.229
N20050 X28.634 Y0.103
N20055 X28.446 Y-0.194
N20060 X28.361 Y-0.316
N20065 X28.146 Y-0.593
N20070 X28.049 Y-0.707
N20075 X27.809 Y-0.963
N20080 X27.703 Y-1.066
N20085 X27.437 Y-1.302
N20090 X27.327 Y-1.391
N20095 X27.041 Y-1.602
N20100 X26.932 Y-1.675
N20105 X26.63 Y-1.861
N20110 X26.526 Y-1.92
N20115 X26.211 Y-2.083
N20120 X26.115 Y-2.129
N20125 X25.788 Y-2.271
N20130 X25.701 Y-2.306
N20135 X25.364 Y-2.429
N20140 X25.286 Y-2.455
N20145 X24.936 Y-2.563
N20150 X24.867 Y-2.583
N20155 X24.507 Y-2.676
N20160 X24.446 Y-2.691
N20165 X24.076 Y-2.771
N20170 X24.024 Y-2.782
N20175 X23.645 Y-2.851
N20180 X23.601 Y-2.859
N20185 X23.214 Y-2.918
N20190 X23.178 Y-2.923
N20195 X22.784 Y-2.975
N20200 X22.743 Y-2.979
N20205 X21.935 Y-3.063
N20210 X21.902 Y-3.066
N20215 X21.068 Y-3.135
N20220 X21.058 Y-3.136
N20225 X20.213 Y-3.2
N20230 X19.376 Y-3.27
N20235 X18.562 Y-3.354
N20240 X17.769 Y-3.464
N20245 X17.401 Y-3.528
N20250 X17.037 Y-3.602
N20255 X16.686 Y-3.685
N20260 X16.35 Y-3.778
N20265 X16.029 Y-3.882
N20270 X15.725 Y-3.996
N20275 X15.437 Y-4.121
N20280 X15.167 Y-4.258
N20285 X14.916 Y-4.406
N20290 X14.684 Y-4.565
N20295 X14.472 Y-4.735
N20300 X14.278 Y-4.918
N20305 X14.107 Y-5.11
N20310 X13.958 Y-5.312
N20315 X13.829 Y-5.523
N20320 X13.721 Y-5.745
N20325 X13.633 Y-5.978
N20330 X13.567 Y-6.218
N20335 X13.523 Y-6.466
N20340 X13.5 Y-6.721
N20345 Y-6.983
N20350 X13.522 Y-7.247
N20355 X13.567 Y-7.514
N20360 X13.633 Y-7.785
N20365 X13.722 Y-8.057
N20370 X13.832 Y-8.331
N20375 X13.962 Y-8.603
N20380 X14.112 Y-8.875
N20385 X14.281 Y-9.144
N20390 X14.467 Y-9.411
N20395 X14.67 Y-9.676
N20400 X14.887 Y-9.937
N20405 X15.119 Y-10.195
N20410 X15.364 Y-10.45
N20415 X15.62 Y-10.701
N20420 X15.882 Y-10.945
N20425 X16.45 Y-11.441
N20430 X17.035 Y-11.919
N20435 X17.634 Y-12.39
N20440 X18.233 Y-12.856
N20445 X18.242 Y-12.863
N20450 X18.826 Y-13.324
N20455 X18.854 Y-13.346
N20460 X19.41 Y-13.806
N20465 X19.443 Y-13.834
N20470 X19.707 Y-14.064
N20475 X19.735 Y-14.09
N20480 X19.99 Y-14.322
N20485 X20.023 Y-14.354
N20490 X20.265 Y-14.589
N20495 X20.303 Y-14.627
N20500 X20.533 Y-14.865
N20505 X20.575 Y-14.911
N20510 X20.792 Y-15.154
N20515 X20.838 Y-15.209
N20520 X21.04 Y-15.457
N20525 X21.091 Y-15.523
N20530 X21.276 Y-15.778
N20535 X21.329 Y-15.856
N20540 X21.497 Y-16.117
N20545 X21.55 Y-16.207
N20550 X21.699 Y-16.476
N20555 X21.751 Y-16.579
N20560 X21.878 Y-16.856
N20565 X21.926 Y-16.971
N20570 X22.03 Y-17.254
N20575 X22.07 Y-17.378
N20580 X22.15 Y-17.666
N20585 X22.181 Y-17.797
N20590 X22.236 Y-18.09
N20595 X22.255 Y-18.227
N20600 X22.285 Y-18.526
N20605 X22.293 Y-18.662
N20610 X22.297 Y-18.966
N20615 X22.293 Y-19.098
N20620 X22.272 Y-19.4
N20625 X22.258 Y-19.523
N20630 X22.213 Y-19.821
N20635 X22.192 Y-19.935
N20640 X22.125 Y-20.23
N20645 X22.099 Y-20.333
N20650 X22.012 Y-20.624
N20655 X21.981 Y-20.716
N20660 X21.877 Y-21.003
N20665 X21.844 Y-21.086
N20670 X21.723 Y-21.367
N20675 X21.689 Y-21.441
N20680 X21.553 Y-21.717
N20685 X21.519 Y-21.782
N20690 X21.37 Y-22.053
N20695 X21.336 Y-22.111
N20700 X21.176 Y-22.375
N20705 X21.143 Y-22.426
N20710 X20.973 Y-22.683
N20715 X20.942 Y-22.729
N20720 X20.765 Y-22.979
N20725 X20.721 Y-23.038
N20730 X20.343 Y-23.519
N20735 X20.287 Y-23.586
N20740 X19.877 Y-24.054
N20745 X19.825 Y-24.112
N20750 X19.388 Y-24.564
N20755 X19.337 Y-24.613
N20760 X18.88 Y-25.046
N20765 X18.831 Y-25.091
N20770 X18.359 Y-25.502
N20775 X18.311 Y-25.542
N20780 X17.83 Y-25.928
N20785 X17.769 Y-25.975
N20790 G2 X16.088 Y-27.111 I-17.729 J24.402
N20795 G1 X16.009 Y-27.158
N20800 X15.426 Y-27.478
N20805 X15.368 Y-27.509
N20810 X15.065 Y-27.659
N20815 X15.021 Y-27.68
N20820 X14.713 Y-27.821
N20825 X14.664 Y-27.843
N20830 X14.351 Y-27.974
N20835 X14.296 Y-27.996
N20840 X13.979 Y-28.115
