%
(KNOB_1_8)
(T1  D=3.175 CR=0. - ZMIN=-18.51 - FLAT END MILL)
N10 G90 G94 G17 G91.1
N15 G21
(WHEN USING FUSION 360 FOR PERSONAL USE, THE FEEDRATE OF)
(RAPID MOVES IS REDUCED TO MATCH THE FEEDRATE OF CUTTING)
(MOVES, WHICH CAN INCREASE MACHINING TIME. UNRESTRICTED RAPID)
(MOVES ARE AVAILABLE WITH A FUSION 360 SUBSCRIPTION.)
N20 G53 G0 Z0.
(2D CONTOUR3)
N25 T1 M6
N30 S5000 M3
N35 G54
N40 M8
N45 G0 X1.564 Y-1.89
N50 G43 Z15. H1
N55 G1 Z5. F3100.
N60 Z-2.858 F1033.33
N65 G18 G2 X1.881 Z-3.175 I0.318 K0. F3100.
N70 G1 X2.199
N75 G17 G3 X2.516 Y-1.573 I0. J0.317
N80 X-2.437 I-2.476 J0.
N85 X2.516 I2.476 J0.
N90 X2.199 Y-1.255 I-0.317 J0.
N95 G1 X1.881
N100 G18 G3 X1.564 Z-2.858 I0. K0.317
N105 G1 Z5.
N110 Y-1.89
N115 Z1.825 F1033.33
N120 Z-6.033
N125 G2 X1.881 Z-6.35 I0.318 K0. F3100.
N130 G1 X2.199
N135 G17 G3 X2.516 Y-1.573 I0. J0.317
N140 X-2.437 I-2.476 J0.
N145 X2.516 I2.476 J0.
N150 X2.199 Y-1.255 I-0.317 J0.
N155 G1 X1.881
N160 G18 G3 X1.564 Z-6.033 I0. K0.318
N165 G1 Z5.
N170 Y-1.89
N175 Z-1.35 F1033.33
N180 Z-9.208
N185 G2 X1.881 Z-9.525 I0.318 K0. F3100.
N190 G1 X2.199
N195 G17 G3 X2.516 Y-1.573 I0. J0.317
N200 X-2.437 I-2.476 J0.
N205 X2.516 I2.476 J0.
N210 X2.199 Y-1.255 I-0.317 J0.
N215 G1 X1.881
N220 G18 G3 X1.564 Z-9.208 I0. K0.317
N225 G1 Z5.
N230 Y-1.89
N235 Z-4.525 F1033.33
N240 Z-11.101
N245 G2 X1.881 Z-11.418 I0.318 K0. F3100.
N250 G1 X2.199
N255 G17 G3 X2.516 Y-1.573 I0. J0.317
N260 X-2.437 I-2.476 J0.
N265 X2.516 I2.476 J0.
N270 X2.199 Y-1.255 I-0.317 J0.
N275 G1 X1.881
N280 G18 G3 X1.564 Z-11.101 I0. K0.318
N285 G1 Z15.
N290 X0.873 Y-1.89
N295 Z5.
N300 Z-2.858 F1033.33
N305 G2 X1.191 Z-3.175 I0.317 K0. F3100.
N310 G1 X1.508
N315 G17 G3 X1.826 Y-1.573 I0. J0.317
N320 X-1.746 I-1.786 J0.
N325 X1.826 I1.786 J0.
N330 X1.508 Y-1.255 I-0.317 J0.
N335 G1 X1.191
N340 G18 G3 X0.873 Z-2.858 I0. K0.317
N345 G1 Z5.
N350 Y-1.89
N355 Z1.825 F1033.33
N360 Z-6.033
N365 G2 X1.191 Z-6.35 I0.317 K0. F3100.
N370 G1 X1.508
N375 G17 G3 X1.826 Y-1.573 I0. J0.317
N380 X-1.746 I-1.786 J0.
N385 X1.826 I1.786 J0.
N390 X1.508 Y-1.255 I-0.317 J0.
N395 G1 X1.191
N400 G18 G3 X0.873 Z-6.033 I0. K0.318
N405 G1 Z5.
N410 Y-1.89
N415 Z-1.35 F1033.33
N420 Z-9.208
N425 G2 X1.191 Z-9.525 I0.317 K0. F3100.
N430 G1 X1.508
N435 G17 G3 X1.826 Y-1.573 I0. J0.317
N440 X-1.746 I-1.786 J0.
N445 X1.826 I1.786 J0.
N450 X1.508 Y-1.255 I-0.317 J0.
N455 G1 X1.191
N460 G18 G3 X0.873 Z-9.208 I0. K0.317
N465 G1 Z5.
N470 Y-1.89
N475 Z-4.525 F1033.33
N480 Z-12.383
N485 G2 X1.191 Z-12.7 I0.317 K0. F3100.
N490 G1 X1.508
N495 G17 G3 X1.826 Y-1.573 I0. J0.317
N500 X-1.746 I-1.786 J0.
N505 X1.826 I1.786 J0.
N510 X1.508 Y-1.255 I-0.317 J0.
N515 G1 X1.191
N520 G18 G3 X0.873 Z-12.383 I0. K0.318
N525 G1 Z5.
N530 Y-1.89
N535 Z-7.7 F1033.33
N540 Z-15.558
N545 G2 X1.191 Z-15.875 I0.317 K0. F3100.
N550 G1 X1.508
N555 G17 G3 X1.826 Y-1.573 I0. J0.317
N560 X-1.746 I-1.786 J0.
N565 X1.826 I1.786 J0.
N570 X1.508 Y-1.255 I-0.317 J0.
N575 G1 X1.191
N580 G18 G3 X0.873 Z-15.558 I0. K0.318
N585 G1 Z5.
N590 Y-1.89
N595 Z-10.875 F1033.33
N600 Z-18.193
N605 G2 X1.191 Z-18.51 I0.317 K0. F3100.
N610 G1 X1.508
N615 G17 G3 X1.826 Y-1.573 I0. J0.317
N620 X-1.746 I-1.786 J0.
N625 X1.826 I1.786 J0.
N630 X1.508 Y-1.255 I-0.317 J0.
N635 G1 X1.191
N640 G18 G3 X0.873 Z-18.193 I0. K0.318
N645 G1 Z5.
N650 X30.449 Y3.567
N655 Z-2.858 F1033.33
N660 X30.441 Z-2.928 F3100.
N665 X30.417 Y3.568 Z-2.995
N670 X30.379 Y3.569 Z-3.055
N675 X30.329 Y3.571 Z-3.106
N680 X30.269 Y3.574 Z-3.144
N685 X30.202 Y3.576 Z-3.167
N690 X30.131 Y3.579 Z-3.175
N695 X29.814 Y3.591
N700 G17 G3 X29.485 Y3.286 I-0.012 J-0.317
N705 G1 X29.483 Y3.26
N710 X29.464 Y2.901
N715 X29.457 Y2.816
N720 X29.418 Y2.461
N725 X29.405 Y2.367
N730 X29.345 Y2.016
N735 X29.324 Y1.913
N740 X29.241 Y1.567
N745 X29.21 Y1.456
N750 X29.103 Y1.118
N755 X29.06 Y0.999
N760 X28.925 Y0.67
N765 X28.868 Y0.545
N770 X28.706 Y0.229
N775 X28.634 Y0.103
N780 X28.446 Y-0.194
N785 X28.361 Y-0.316
N790 X28.146 Y-0.593
N795 X28.049 Y-0.707
N800 X27.809 Y-0.963
N805 X27.703 Y-1.066
N810 X27.437 Y-1.302
N815 X27.327 Y-1.391
N820 X27.041 Y-1.602
N825 X26.932 Y-1.675
N830 X26.63 Y-1.861
N835 X26.526 Y-1.92
N840 X26.211 Y-2.083
N845 X26.115 Y-2.129
N850 X25.788 Y-2.271
N855 X25.701 Y-2.306
N860 X25.364 Y-2.429
N865 X25.286 Y-2.455
N870 X24.936 Y-2.563
N875 X24.867 Y-2.583
N880 X24.507 Y-2.676
N885 X24.446 Y-2.691
N890 X24.076 Y-2.771
N895 X24.024 Y-2.782
N900 X23.645 Y-2.851
N905 X23.601 Y-2.859
N910 X23.214 Y-2.918
N915 X23.178 Y-2.923
N920 X22.784 Y-2.975
N925 X22.743 Y-2.979
N930 X21.935 Y-3.063
N935 X21.902 Y-3.066
N940 X21.068 Y-3.135
N945 X21.058 Y-3.136
N950 X20.213 Y-3.2
N955 X19.376 Y-3.27
N960 X18.562 Y-3.354
N965 X17.769 Y-3.464
N970 X17.401 Y-3.528
N975 X17.037 Y-3.602
N980 X16.686 Y-3.685
N985 X16.35 Y-3.778
N990 X16.029 Y-3.882
N995 X15.725 Y-3.996
N1000 X15.437 Y-4.121
N1005 X15.167 Y-4.258
N1010 X14.916 Y-4.406
N1015 X14.684 Y-4.565
N1020 X14.472 Y-4.735
N1025 X14.278 Y-4.918
N1030 X14.107 Y-5.11
N1035 X13.958 Y-5.312
N1040 X13.829 Y-5.523
N1045 X13.721 Y-5.745
N1050 X13.633 Y-5.978
N1055 X13.567 Y-6.218
N1060 X13.523 Y-6.466
N1065 X13.5 Y-6.721
N1070 Y-6.983
N1075 X13.522 Y-7.247
N1080 X13.567 Y-7.514
N1085 X13.633 Y-7.785
N1090 X13.722 Y-8.057
N1095 X13.832 Y-8.331
N1100 X13.962 Y-8.603
N1105 X14.112 Y-8.875
N1110 X14.281 Y-9.144
N1115 X14.467 Y-9.411
N1120 X14.67 Y-9.676
N1125 X14.887 Y-9.937
N1130 X15.119 Y-10.195
N1135 X15.364 Y-10.45
N1140 X15.62 Y-10.701
N1145 X15.882 Y-10.945
N1150 X16.45 Y-11.441
N1155 X17.035 Y-11.919
N1160 X17.634 Y-12.39
N1165 X18.233 Y-12.856
N1170 X18.242 Y-12.863
N1175 X18.826 Y-13.324
N1180 X18.854 Y-13.346
N1185 X19.41 Y-13.806
N1190 X19.443 Y-13.834
N1195 X19.707 Y-14.064
N1200 X19.735 Y-14.09
N1205 X19.99 Y-14.322
N1210 X20.023 Y-14.354
N1215 X20.265 Y-14.589
N1220 X20.303 Y-14.627
N1225 X20.533 Y-14.865
N1230 X20.575 Y-14.911
N1235 X20.792 Y-15.154
N1240 X20.838 Y-15.209
N1245 X21.04 Y-15.457
N1250 X21.091 Y-15.523
N1255 X21.276 Y-15.778
N1260 X21.329 Y-15.856
N1265 X21.497 Y-16.117
N1270 X21.55 Y-16.207
N1275 X21.699 Y-16.476
N1280 X21.751 Y-16.579
N1285 X21.878 Y-16.856
N1290 X21.926 Y-16.971
N1295 X22.03 Y-17.254
N1300 X22.07 Y-17.378
N1305 X22.15 Y-17.666
N1310 X22.181 Y-17.797
N1315 X22.236 Y-18.09
N1320 X22.255 Y-18.227
N1325 X22.285 Y-18.526
N1330 X22.293 Y-18.662
N1335 X22.297 Y-18.966
N1340 X22.293 Y-19.098
N1345 X22.272 Y-19.4
N1350 X22.258 Y-19.523
N1355 X22.213 Y-19.821
N1360 X22.192 Y-19.935
N1365 X22.125 Y-20.23
N1370 X22.099 Y-20.333
N1375 X22.012 Y-20.624
N1380 X21.981 Y-20.716
N1385 X21.877 Y-21.003
N1390 X21.844 Y-21.086
N1395 X21.723 Y-21.367
N1400 X21.689 Y-21.441
N1405 X21.553 Y-21.717
N1410 X21.519 Y-21.782
N1415 X21.37 Y-22.053
N1420 X21.336 Y-22.111
N1425 X21.176 Y-22.375
N1430 X21.143 Y-22.426
N1435 X20.973 Y-22.683
N1440 X20.942 Y-22.729
N1445 X20.765 Y-22.979
N1450 X20.721 Y-23.038
N1455 X20.343 Y-23.519
N1460 X20.287 Y-23.586
N1465 X19.877 Y-24.054
N1470 X19.825 Y-24.112
N1475 X19.388 Y-24.564
N1480 X19.337 Y-24.613
N1485 X18.88 Y-25.046
N1490 X18.831 Y-25.091
N1495 X18.359 Y-25.502
N1500 X18.311 Y-25.542
N1505 X17.83 Y-25.928
N1510 X17.769 Y-25.975
N1515 G2 X16.088 Y-27.111 I-17.729 J24.402
N1520 G1 X16.009 Y-27.158
N1525 X15.426 Y-27.478
N1530 X15.368 Y-27.509
N1535 X15.065 Y-27.659
N1540 X15.021 Y-27.68
N1545 X14.713 Y-27.821
N1550 X14.664 Y-27.843
N1555 X14.351 Y-27.974
N1560 X14.296 Y-27.996
N1565 X13.979 Y-28.115
N1570 X13.918 Y-28.136
N1575 X13.599 Y-28.241
N1580 X13.531 Y-28.262
N1585 X13.21 Y-28.352
N1590 X13.133 Y-28.372
N1595 X12.811 Y-28.445
N1600 X12.726 Y-28.462
N1605 X12.403 Y-28.518
N1610 X12.308 Y-28.531
N1615 X11.982 Y-28.567
N1620 X11.876 Y-28.575
N1625 X11.549 Y-28.589
N1630 X11.431
N1635 X11.104 Y-28.578
N1640 X10.976 Y-28.569
N1645 X10.651 Y-28.532
N1650 X10.513 Y-28.51
N1655 X10.193 Y-28.445
N1660 X10.051 Y-28.409
N1665 X9.742 Y-28.315
N1670 X9.6 Y-28.265
N1675 X9.302 Y-28.143
N1680 X9.166 Y-28.08
N1685 X8.879 Y-27.929
N1690 X8.752 Y-27.855
N1695 X8.478 Y-27.677
N1700 X8.363 Y-27.595
N1705 X8.106 Y-27.394
N1710 X8.008 Y-27.31
N1715 X7.768 Y-27.089
N1720 X7.686 Y-27.007
N1725 X7.462 Y-26.769
N1730 X7.394 Y-26.691
N1735 X7.186 Y-26.437
N1740 X7.131 Y-26.365
N1745 X6.935 Y-26.097
N1750 X6.89 Y-26.031
N1755 X6.705 Y-25.749
N1760 X6.668 Y-25.689
N1765 X6.492 Y-25.393
N1770 X6.462 Y-25.34
N1775 X6.295 Y-25.031
N1780 X6.271 Y-24.986
N1785 X6.111 Y-24.667
N1790 X6.084 Y-24.61
N1795 X5.783 Y-23.944
N1800 X5.759 Y-23.89
N1805 X5.473 Y-23.19
N1810 X5.46 Y-23.157
N1815 X5.181 Y-22.429
N1820 X5.176 Y-22.416
N1825 X4.898 Y-21.671
N1830 X4.617 Y-20.929
N1835 X4.329 Y-20.204
N1840 X4.03 Y-19.507
N1845 X3.709 Y-18.835
N1850 X3.548 Y-18.53
N1855 X3.377 Y-18.23
N1860 X3.201 Y-17.943
N1865 X3.02 Y-17.671
N1870 X2.832 Y-17.415
N1875 X2.637 Y-17.174
N1880 X2.436 Y-16.951
N1885 X2.229 Y-16.746
N1890 X2.016 Y-16.561
N1895 X1.798 Y-16.397
N1900 X1.575 Y-16.254
N1905 X1.35 Y-16.133
N1910 X1.123 Y-16.035
N1915 X0.892 Y-15.959
N1920 X0.657 Y-15.904
N1925 X0.42 Y-15.87
N1930 X0.181 Y-15.859
N1935 X-0.057 Y-15.87
N1940 X-0.297 Y-15.903
N1945 X-0.538 Y-15.958
N1950 X-0.775 Y-16.035
N1955 X-1.009 Y-16.133
N1960 X-1.242 Y-16.253
N1965 X-1.472 Y-16.395
N1970 X-1.699 Y-16.557
N1975 X-1.919 Y-16.74
N1980 X-2.135 Y-16.941
N1985 X-2.345 Y-17.16
N1990 X-2.548 Y-17.397
N1995 X-2.746 Y-17.648
N2000 X-2.938 Y-17.916
N2005 X-3.125 Y-18.197
N2010 X-3.306 Y-18.491
N2015 X-3.478 Y-18.789
N2020 X-3.82 Y-19.44
N2025 X-4.137 Y-20.107
N2030 X-4.44 Y-20.79
N2035 X-4.736 Y-21.486
N2040 X-5.03 Y-22.185
N2045 X-5.035 Y-22.197
N2050 X-5.33 Y-22.882
N2055 X-5.343 Y-22.912
N2060 X-5.645 Y-23.575
N2065 X-5.669 Y-23.625
N2070 X-5.984 Y-24.257
N2075 X-6.01 Y-24.308
N2080 X-6.174 Y-24.611
N2085 X-6.197 Y-24.652
N2090 X-6.368 Y-24.945
N2095 X-6.396 Y-24.991
N2100 X-6.573 Y-25.273
N2105 X-6.607 Y-25.324
N2110 X-6.792 Y-25.594
N2115 X-6.832 Y-25.651
N2120 X-7.027 Y-25.91
N2125 X-7.076 Y-25.973
N2130 X-7.282 Y-26.221
N2135 X-7.341 Y-26.288
N2140 X-7.561 Y-26.524
N2145 X-7.631 Y-26.594
N2150 X-7.865 Y-26.815
N2155 X-7.947 Y-26.888
N2160 X-8.196 Y-27.093
N2165 X-8.291 Y-27.165
N2170 X-8.555 Y-27.351
N2175 X-8.662 Y-27.42
N2180 X-8.939 Y-27.584
N2185 X-9.054 Y-27.646
N2190 X-9.341 Y-27.785
N2195 X-9.462 Y-27.837
N2200 X-9.758 Y-27.951
N2205 X-9.883 Y-27.993
N2210 X-10.189 Y-28.083
N2215 X-10.315 Y-28.115
N2220 X-10.631 Y-28.18
N2225 X-10.753 Y-28.2
N2230 X-11.073 Y-28.24
N2235 X-11.188 Y-28.251
N2240 X-11.51 Y-28.268
N2245 X-11.618 Y-28.27
N2250 X-11.94 Y-28.265
N2255 X-12.04 Y-28.26
N2260 X-12.362 Y-28.235
N2265 X-12.452 Y-28.225
N2270 X-12.773 Y-28.181
N2275 X-12.855 Y-28.168
N2280 X-13.175 Y-28.107
N2285 X-13.249 Y-28.091
N2290 X-13.566 Y-28.015
N2295 X-13.635 Y-27.997
N2300 X-13.95 Y-27.906
N2305 X-14.011 Y-27.887
N2310 X-14.322 Y-27.783
N2315 X-14.378 Y-27.763
N2320 X-14.685 Y-27.648
N2325 X-14.736 Y-27.628
N2330 X-15.037 Y-27.503
N2335 X-15.105 Y-27.473
N2340 X-15.693 Y-27.197
N2345 X-15.774 Y-27.156
N2350 X-16.35 Y-26.843
N2355 X-16.423 Y-26.801
N2360 X-16.983 Y-26.458
N2365 X-17.05 Y-26.415
N2370 X-17.588 Y-26.047
N2375 X-17.621 Y-26.024
N2380 X-17.688 Y-25.975
N2385 X-17.713 Y-25.957
N2390 X-18.07 Y-25.687
N2395 X-18.113 Y-25.654
N2400 X-18.466 Y-25.368
N2405 X-18.509 Y-25.332
N2410 X-18.855 Y-25.031
N2415 X-18.899 Y-24.991
N2420 X-19.235 Y-24.675
N2425 X-19.281 Y-24.631
N2430 X-19.604 Y-24.302
N2435 X-19.651 Y-24.253
N2440 X-19.958 Y-23.912
N2445 X-20.007 Y-23.855
N2450 X-20.296 Y-23.504
N2455 X-20.346 Y-23.439
N2460 X-20.613 Y-23.077
N2465 X-20.664 Y-23.003
N2470 X-20.907 Y-22.632
N2475 X-20.96 Y-22.545
N2480 X-21.178 Y-22.159
N2485 X-21.23 Y-22.059
N2490 X-21.42 Y-21.659
N2495 X-21.471 Y-21.541
N2500 X-21.627 Y-21.127
N2505 X-21.661 Y-21.028
N2510 X-21.726 Y-20.816
N2515 X-21.746 Y-20.744
N2520 X-21.801 Y-20.53
N2525 X-21.818 Y-20.453
N2530 X-21.862 Y-20.236
N2535 X-21.876 Y-20.155
N2540 X-21.908 Y-19.938
N2545 X-21.919 Y-19.854
N2550 X-21.939 Y-19.636
N2555 X-21.945 Y-19.551
N2560 X-21.954 Y-19.333
N2565 X-21.955 Y-19.246
N2570 X-21.952 Y-19.028
N2575 X-21.948 Y-18.94
N2580 X-21.933 Y-18.722
N2585 X-21.924 Y-18.635
N2590 X-21.896 Y-18.418
N2595 X-21.883 Y-18.33
N2600 X-21.843 Y-18.113
N2605 X-21.825 Y-18.028
N2610 X-21.773 Y-17.814
N2615 X-21.751 Y-17.732
N2620 X-21.689 Y-17.521
N2625 X-21.664 Y-17.446
N2630 X-21.591 Y-17.239
N2635 X-21.563 Y-17.166
N2640 X-21.48 Y-16.963
N2645 X-21.437 Y-16.866
N2650 X-21.243 Y-16.471
N2655 X-21.182 Y-16.358
N2660 X-20.956 Y-15.977
N2665 X-20.896 Y-15.884
N2670 X-20.639 Y-15.513
N2675 X-20.583 Y-15.436
N2680 X-20.299 Y-15.074
N2685 X-20.248 Y-15.013
N2690 X-19.941 Y-14.659
N2695 X-19.896 Y-14.609
N2700 X-19.568 Y-14.262
N2705 X-19.53 Y-14.224
N2710 X-19.185 Y-13.883
N2715 X-19.155 Y-13.854
N2720 X-18.795 Y-13.516
N2725 X-18.771 Y-13.495
N2730 X-18.398 Y-13.159
N2735 X-18.377 Y-13.14
N2740 X-17.605 Y-12.47
N2745 X-17.598 Y-12.464
N2750 X-16.82 Y-11.796
N2755 X-16.065 Y-11.127
N2760 X-15.715 Y-10.8
N2765 X-15.378 Y-10.47
N2770 X-15.06 Y-10.14
N2775 X-14.765 Y-9.809
N2780 X-14.495 Y-9.478
N2785 X-14.249 Y-9.145
N2790 X-14.032 Y-8.81
N2795 X-13.837 Y-8.461
N2800 X-13.761 Y-8.306
N2805 X-13.688 Y-8.138
N2810 X-13.623 Y-7.971
N2815 X-13.567 Y-7.803
N2820 X-13.521 Y-7.641
N2825 X-13.485 Y-7.486
N2830 X-13.457 Y-7.338
N2835 X-13.437 Y-7.197
N2840 X-13.425 Y-7.062
N2845 X-13.418 Y-6.933
N2850 X-13.417 Y-6.81
N2855 X-13.421 Y-6.706
N2860 X-13.443 Y-6.468
N2865 X-13.481 Y-6.249
N2870 X-13.536 Y-6.035
N2875 X-13.606 Y-5.824
N2880 X-13.694 Y-5.619
N2885 X-13.797 Y-5.419
N2890 X-13.916 Y-5.227
N2895 X-14.049 Y-5.043
N2900 X-14.196 Y-4.867
N2905 X-14.359 Y-4.7
N2910 X-14.537 Y-4.54
N2915 X-14.728 Y-4.389
N2920 X-14.931 Y-4.249
N2925 X-15.148 Y-4.118
N2930 X-15.376 Y-3.997
N2935 X-15.617 Y-3.886
N2940 X-15.869 Y-3.783
N2945 X-16.133 Y-3.69
N2950 X-16.406 Y-3.606
N2955 X-16.688 Y-3.532
N2960 X-16.978 Y-3.466
N2965 X-17.266 Y-3.41
N2970 X-17.894 Y-3.315
N2975 X-18.527 Y-3.25
N2980 X-19.175 Y-3.206
N2985 X-19.836 Y-3.179
N2990 X-20.508 Y-3.162
N2995 X-21.185 Y-3.15
N3000 X-21.19 Y-3.149
N3005 X-21.86 Y-3.135
N3010 X-21.882 Y-3.134
N3015 X-22.536 Y-3.111
N3020 X-22.576 Y-3.109
N3025 X-23.212 Y-3.071
N3030 X-23.271 Y-3.066
N3035 X-23.884 Y-3.006
N3040 X-23.943 Y-2.999
N3045 X-24.24 Y-2.959
N3050 X-24.287 Y-2.952
N3055 X-24.577 Y-2.903
N3060 X-24.631 Y-2.893
N3065 X-24.914 Y-2.836
N3070 X-24.974 Y-2.823
N3075 X-25.249 Y-2.756
N3080 X-25.316 Y-2.738
N3085 X-25.582 Y-2.661
N3090 X-25.656 Y-2.637
N3095 X-25.914 Y-2.549
N3100 X-25.994 Y-2.519
N3105 X-26.242 Y-2.418
N3110 X-26.328 Y-2.38
N3115 X-26.567 Y-2.266
N3120 X-26.658 Y-2.219
N3125 X-26.886 Y-2.092
N3130 X-26.979 Y-2.036
N3135 X-27.197 Y-1.894
N3140 X-27.291 Y-1.827
N3145 X-27.497 Y-1.671
N3150 X-27.59 Y-1.594
N3155 X-27.784 Y-1.422
N3160 X-27.874 Y-1.335
N3165 X-28.055 Y-1.147
N3170 X-28.139 Y-1.052
N3175 X-28.304 Y-0.849
N3180 X-28.379 Y-0.75
N3185 X-28.528 Y-0.536
N3190 X-28.592 Y-0.436
N3195 X-28.724 Y-0.212
N3200 X-28.778 Y-0.112
N3205 X-28.893 Y0.121
N3210 X-28.938 Y0.218
N3215 X-29.038 Y0.46
N3220 X-29.073 Y0.553
N3225 X-29.158 Y0.802
N3230 X-29.186 Y0.89
N3235 X-29.257 Y1.144
N3240 X-29.278 Y1.227
N3245 X-29.335 Y1.485
N3250 X-29.35 Y1.561
N3255 X-29.395 Y1.822
N3260 X-29.405 Y1.893
N3265 X-29.438 Y2.156
N3270 X-29.445 Y2.22
N3275 X-29.467 Y2.484
N3280 X-29.472 Y2.57
N3285 X-29.488 Y3.098
N3290 Y3.198
N3295 X-29.471 Y3.732
N3300 X-29.465 Y3.819
N3305 X-29.418 Y4.359
N3310 X-29.409 Y4.435
N3315 X-29.336 Y4.977
N3320 X-29.325 Y5.044
N3325 X-29.228 Y5.582
N3330 X-29.216 Y5.642
N3335 X-29.1 Y6.171
N3340 X-29.087 Y6.225
N3345 X-28.954 Y6.741
N3350 X-28.942 Y6.785
N3355 G2 X-28.647 Y7.748 I28.982 J-8.357
N3360 G1 X-28.632 Y7.791
N3365 X-28.442 Y8.323
N3370 X-28.423 Y8.374
N3375 X-28.213 Y8.905
N3380 X-28.191 Y8.958
N3385 X-27.96 Y9.484
N3390 X-27.935 Y9.539
N3395 X-27.685 Y10.056
N3400 X-27.655 Y10.114
N3405 X-27.386 Y10.616
N3410 X-27.351 Y10.679
N3415 X-27.063 Y11.161
N3420 X-27.02 Y11.23
N3425 X-26.715 Y11.687
N3430 X-26.662 Y11.761
N3435 X-26.34 Y12.189
N3440 X-26.273 Y12.272
N3445 X-25.924 Y12.676
N3450 X-25.862 Y12.744
N3455 X-25.675 Y12.936
N3460 X-25.626 Y12.985
N3465 X-25.431 Y13.169
N3470 X-25.374 Y13.22
N3475 X-25.171 Y13.394
N3480 X-25.107 Y13.446
N3485 X-24.896 Y13.609
N3490 X-24.822 Y13.662
N3495 X-24.603 Y13.813
N3500 X-24.519 Y13.866
N3505 X-24.292 Y14.001
N3510 X-24.2 Y14.052
N3515 X-23.965 Y14.172
N3520 X-23.864 Y14.219
N3525 X-23.623 Y14.321
N3530 X-23.513 Y14.363
N3535 X-23.265 Y14.447
N3540 X-23.148 Y14.481
N3545 X-22.894 Y14.546
N3550 X-22.771 Y14.572
N3555 X-22.51 Y14.617
N3560 X-22.384 Y14.633
N3565 X-22.121 Y14.657
N3570 X-21.999 Y14.663
N3575 X-21.737 Y14.667
N3580 X-21.619 Y14.664
N3585 X-21.358 Y14.647
N3590 X-21.247 Y14.637
N3595 X-20.986 Y14.602
N3600 X-20.885 Y14.585
N3605 X-20.625 Y14.534
N3610 X-20.532 Y14.512
N3615 X-20.272 Y14.444
N3620 X-20.19 Y14.42
N3625 X-19.932 Y14.337
N3630 X-19.858 Y14.311
N3635 X-19.6 Y14.214
N3640 X-19.536 Y14.188
N3645 X-19.279 Y14.079
N3650 X-19.223 Y14.053
N3655 X-18.966 Y13.932
N3660 X-18.918 Y13.908
N3665 X-18.662 Y13.776
N3670 X-18.602 Y13.744
N3675 X-18.09 Y13.451
N3680 X-18.031 Y13.415
N3685 X-17.515 Y13.089
N3690 X-17.474 Y13.063
N3695 X-16.953 Y12.711
N3700 X-16.929 Y12.695
N3705 X-16.401 Y12.325
N3710 X-16.391 Y12.318
N3715 X-15.856 Y11.937
N3720 X-15.32 Y11.557
N3725 X-14.784 Y11.188
N3730 X-14.244 Y10.834
N3735 X-13.701 Y10.502
N3740 X-13.146 Y10.195
N3745 X-12.882 Y10.063
N3750 X-12.611 Y9.937
N3755 X-12.341 Y9.822
N3760 X-12.073 Y9.719
N3765 X-11.806 Y9.629
N3770 X-11.537 Y9.551
N3775 X-11.252 Y9.483
N3780 X-10.954 Y9.429
N3785 X-10.646 Y9.394
N3790 X-10.312 Y9.381
N3795 X-10.166 Y9.384
N3800 X-10.003 Y9.394
N3805 X-9.84 Y9.411
N3810 X-9.68 Y9.435
N3815 X-9.523 Y9.466
N3820 X-9.37 Y9.505
N3825 X-9.22 Y9.55
N3830 X-9.073 Y9.601
N3835 X-8.929 Y9.66
N3840 X-8.789 Y9.726
N3845 X-8.652 Y9.799
N3850 X-8.52 Y9.878
N3855 X-8.392 Y9.963
N3860 X-8.269 Y10.054
N3865 X-8.152 Y10.151
N3870 X-8.04 Y10.254
N3875 X-7.933 Y10.362
N3880 X-7.831 Y10.477
N3885 X-7.735 Y10.596
N3890 X-7.646 Y10.72
N3895 X-7.563 Y10.849
N3900 X-7.485 Y10.982
N3905 X-7.414 Y11.121
N3910 X-7.349 Y11.265
N3915 X-7.289 Y11.414
N3920 X-7.241 Y11.553
N3925 X-7.146 Y11.895
N3930 X-7.081 Y12.236
N3935 X-7.039 Y12.594
N3940 X-7.02 Y12.968
N3945 X-7.023 Y13.354
N3950 X-7.047 Y13.753
N3955 X-7.089 Y14.165
N3960 X-7.15 Y14.588
N3965 X-7.226 Y15.021
N3970 X-7.316 Y15.461
N3975 X-7.416 Y15.904
N3980 X-7.648 Y16.821
N3985 X-7.898 Y17.742
N3990 X-7.899 Y17.745
N3995 X-8.146 Y18.664
N4000 X-8.151 Y18.684
N4005 X-8.267 Y19.136
N4010 X-8.273 Y19.16
N4015 X-8.379 Y19.607
N4020 X-8.387 Y19.639
N4025 X-8.482 Y20.08
N4030 X-8.491 Y20.122
N4035 X-8.572 Y20.556
N4040 X-8.581 Y20.608
N4045 X-8.647 Y21.035
N4050 X-8.655 Y21.099
N4055 X-8.703 Y21.517
N4060 X-8.709 Y21.594
N4065 X-8.736 Y22.005
N4070 X-8.739 Y22.095
N4075 X-8.741 Y22.498
N4080 X-8.739 Y22.605
N4085 X-8.714 Y23.006
N4090 X-8.702 Y23.129
N4095 X-8.647 Y23.527
N4100 X-8.621 Y23.666
N4105 X-8.53 Y24.057
N4110 X-8.499 Y24.171
N4115 X-8.44 Y24.363
N4120 X-8.413 Y24.442
N4125 X-8.343 Y24.63
N4130 X-8.31 Y24.711
N4135 X-8.231 Y24.894
N4140 X-8.194 Y24.973
N4145 X-8.105 Y25.15
N4150 X-8.063 Y25.229
N4155 X-7.964 Y25.401
N4160 X-7.918 Y25.477
N4165 X-7.81 Y25.642
N4170 X-7.759 Y25.715
N4175 X-7.642 Y25.875
N4180 X-7.588 Y25.945
N4185 X-7.461 Y26.099
N4190 X-7.404 Y26.164
N4195 X-7.268 Y26.313
N4200 X-7.21 Y26.373
N4205 X-7.066 Y26.514
N4210 X-6.978 Y26.594
N4215 X-6.671 Y26.852
N4220 X-6.555 Y26.94
N4225 X-6.226 Y27.169
N4230 X-6.116 Y27.24
N4235 X-5.768 Y27.441
N4240 X-5.665 Y27.496
N4245 X-5.302 Y27.672
N4250 X-5.207 Y27.714
N4255 X-4.831 Y27.868
N4260 X-4.746 Y27.9
N4265 X-4.359 Y28.032
N4270 X-4.282 Y28.056
N4275 X-3.89 Y28.169
N4280 X-3.821 Y28.187
N4285 X-3.426 Y28.281
N4290 X-3.364 Y28.295
N4295 X-2.97 Y28.372
N4300 X-2.914 Y28.382
N4305 X-2.525 Y28.444
N4310 X-2.474 Y28.451
N4315 X-2.094 Y28.499
N4320 X-2.048 Y28.504
N4325 X-1.68 Y28.54
N4330 X-1.614 Y28.545
N4335 G2 X0.04 Y28.59 I1.654 J-30.117
N4340 G1 X0.102 Y28.589
N4345 X0.536 Y28.572
N4350 X0.581 Y28.569
N4355 X1.02 Y28.539
N4360 X1.066 Y28.535
N4365 X1.507 Y28.492
N4370 X1.555 Y28.487
N4375 X1.995 Y28.43
N4380 X2.046 Y28.423
N4385 X2.484 Y28.352
N4390 X2.537 Y28.343
N4395 X2.97 Y28.257
N4400 X3.027 Y28.245
N4405 X3.453 Y28.145
N4410 X3.514 Y28.129
N4415 X3.93 Y28.013
N4420 X3.996 Y27.993
N4425 X4.4 Y27.862
N4430 X4.472 Y27.837
N4435 X4.861 Y27.689
N4440 X4.94 Y27.657
N4445 X5.319 Y27.489
N4450 X5.406 Y27.448
N4455 X5.776 Y27.257
N4460 X5.872 Y27.203
N4465 X6.227 Y26.987
N4470 X6.331 Y26.918
N4475 X6.668 Y26.676
N4480 X6.779 Y26.588
N4485 X7.092 Y26.317
N4490 X7.177 Y26.238
N4495 X7.322 Y26.092
N4500 X7.378 Y26.033
N4505 X7.515 Y25.881
N4510 X7.57 Y25.816
N4515 X7.698 Y25.658
N4520 X7.751 Y25.588
N4525 X7.87 Y25.423
N4530 X7.92 Y25.349
N4535 X8.029 Y25.178
N4540 X8.076 Y25.1
N4545 X8.176 Y24.921
N4550 X8.218 Y24.84
N4555 X8.308 Y24.655
N4560 X8.346 Y24.571
N4565 X8.425 Y24.38
N4570 X8.457 Y24.297
N4575 X8.525 Y24.104
N4580 X8.552 Y24.021
N4585 X8.609 Y23.825
N4590 X8.63 Y23.745
N4595 X8.677 Y23.546
N4600 X8.693 Y23.469
N4605 X8.73 Y23.268
N4610 X8.746 Y23.16
N4615 X8.793 Y22.75
N4620 X8.802 Y22.621
N4625 X8.815 Y22.202
N4630 Y22.091
N4635 X8.798 Y21.664
N4640 X8.792 Y21.57
N4645 X8.749 Y21.135
N4650 X8.74 Y21.058
N4655 X8.674 Y20.615
N4660 X8.664 Y20.553
N4665 X8.579 Y20.104
N4670 X8.569 Y20.056
N4675 X8.468 Y19.599
N4680 X8.46 Y19.563
N4685 X8.345 Y19.098
N4690 X8.339 Y19.072
N4695 X8.215 Y18.599
N4700 X8.209 Y18.581
N4705 X7.943 Y17.617
N4710 X7.679 Y16.648
N4715 X7.441 Y15.681
N4720 X7.342 Y15.218
N4725 X7.258 Y14.753
N4730 X7.19 Y14.292
N4735 X7.143 Y13.838
N4740 X7.118 Y13.394
N4745 X7.117 Y12.963
N4750 X7.143 Y12.547
N4755 X7.199 Y12.132
N4760 X7.231 Y11.963
N4765 X7.272 Y11.791
N4770 X7.316 Y11.631
N4775 X7.363 Y11.482
N4780 X7.414 Y11.343
N4785 X7.467 Y11.213
N4790 X7.523 Y11.092
N4795 X7.573 Y10.991
N4800 X7.699 Y10.774
N4805 X7.826 Y10.588
N4810 X7.964 Y10.416
N4815 X8.114 Y10.258
N4820 X8.275 Y10.113
N4825 X8.448 Y9.981
N4830 X8.63 Y9.865
N4835 X8.821 Y9.764
N4840 X9.021 Y9.677
N4845 X9.231 Y9.606
N4850 X9.452 Y9.55
N4855 X9.68 Y9.509
N4860 X9.915 Y9.485
N4865 X10.159 Y9.476
N4870 X10.409 Y9.483
N4875 X10.667 Y9.505
N4880 X10.931 Y9.543
N4885 X11.199 Y9.595
N4890 X11.472 Y9.661
N4895 X11.748 Y9.741
N4900 X12.027 Y9.834
N4905 X12.308 Y9.939
N4910 X12.589 Y10.054
N4915 X12.862 Y10.175
N4920 X13.44 Y10.458
N4925 X14.014 Y10.767
N4930 X14.592 Y11.102
N4935 X15.174 Y11.456
N4940 X15.76 Y11.821
N4945 X16.345 Y12.185
N4950 X16.357 Y12.193
N4955 X16.934 Y12.545
N4960 X16.961 Y12.561
N4965 X17.53 Y12.893
N4970 X17.575 Y12.918
N4975 X18.14 Y13.224
N4980 X18.206 Y13.258
N4985 X18.77 Y13.53
N4990 X18.834 Y13.559
N4995 X19.116 Y13.68
N5000 X19.168 Y13.701
N5005 X19.45 Y13.811
N5010 X19.51 Y13.832
N5015 X19.792 Y13.929
N5020 X19.859 Y13.95
N5025 X20.14 Y14.033
N5030 X20.216 Y14.053
N5035 X20.499 Y14.121
N5040 X20.583 Y14.139
N5045 X20.867 Y14.191
N5050 X20.96 Y14.205
N5055 X21.245 Y14.24
N5060 X21.347 Y14.249
N5065 X21.633 Y14.265
N5070 X21.743 Y14.268
N5075 X22.029 Y14.264
N5080 X22.145 Y14.259
N5085 X22.432 Y14.234
N5090 X22.552 Y14.219
N5095 X22.838 Y14.173
N5100 X22.956 Y14.149
N5105 X23.235 Y14.082
N5110 X23.35 Y14.049
N5115 X23.622 Y13.961
N5120 X23.731 Y13.921
N5125 X23.996 Y13.813
N5130 X24.098 Y13.768
N5135 X24.356 Y13.641
N5140 X24.451 Y13.59
N5145 X24.702 Y13.445
N5150 X24.788 Y13.391
N5155 X25.029 Y13.23
N5160 X25.105 Y13.176
N5165 X25.337 Y13.001
N5170 X25.405 Y12.947
N5175 X25.627 Y12.759
N5180 X25.686 Y12.706
N5185 X25.899 Y12.507
N5190 X25.951 Y12.455
N5195 X26.154 Y12.247
N5200 X26.2 Y12.198
N5205 X26.394 Y11.982
N5210 X26.434 Y11.935
N5215 X26.62 Y11.71
N5220 X26.656 Y11.664
N5225 X26.836 Y11.43
N5230 X26.883 Y11.366
N5235 X27.223 Y10.873
N5240 X27.274 Y10.794
N5245 X27.588 Y10.275
N5250 X27.631 Y10.201
N5255 X27.918 Y9.664
N5260 X27.953 Y9.595
N5265 X28.213 Y9.045
N5270 X28.242 Y8.98
N5275 X28.475 Y8.425
N5280 X28.5 Y8.362
N5285 X28.705 Y7.809
N5290 X28.726 Y7.748
N5295 G2 X29.053 Y6.673 I-28.686 J-9.322
N5300 G1 X29.067 Y6.621
N5305 X29.153 Y6.272
N5310 X29.164 Y6.228
N5315 X29.241 Y5.873
N5320 X29.25 Y5.826
N5325 X29.318 Y5.466
N5330 X29.327 Y5.415
N5335 X29.382 Y5.05
N5340 X29.39 Y4.996
N5345 X29.433 Y4.629
N5350 X29.439 Y4.57
N5355 X29.468 Y4.203
N5360 X29.472 Y4.138
N5365 X29.487 Y3.772
N5370 X29.488 Y3.702
N5375 X29.486 Y3.338
N5380 X29.485 Y3.286
N5385 G3 X29.79 Y2.957 I0.317 J-0.012
N5390 G1 X30.107 Y2.944
N5395 X30.178 Y2.942 Z-3.167
N5400 X30.245 Y2.939 Z-3.144
N5405 X30.305 Y2.937 Z-3.106
N5410 X30.355 Y2.935 Z-3.055
N5415 X30.393 Y2.933 Z-2.995
N5420 X30.416 Y2.932 Z-2.928
N5425 X30.424 Z-2.858
N5430 Z5.
N5435 X30.449 Y3.567
N5440 Z1.825 F1033.33
N5445 Z-6.033
N5450 X30.441 Z-6.103 F3100.
N5455 X30.417 Y3.568 Z-6.17
N5460 X30.379 Y3.569 Z-6.23
N5465 X30.329 Y3.571 Z-6.281
N5470 X30.269 Y3.574 Z-6.319
N5475 X30.202 Y3.576 Z-6.342
N5480 X30.131 Y3.579 Z-6.35
N5485 X29.814 Y3.591
N5490 G3 X29.485 Y3.286 I-0.012 J-0.317
N5495 G1 X29.483 Y3.26
N5500 X29.464 Y2.901
N5505 X29.457 Y2.816
N5510 X29.418 Y2.461
N5515 X29.405 Y2.367
N5520 X29.345 Y2.016
N5525 X29.324 Y1.913
N5530 X29.241 Y1.567
N5535 X29.21 Y1.456
N5540 X29.103 Y1.118
N5545 X29.06 Y0.999
N5550 X28.925 Y0.67
N5555 X28.868 Y0.545
N5560 X28.706 Y0.229
N5565 X28.634 Y0.103
N5570 X28.446 Y-0.194
N5575 X28.361 Y-0.316
N5580 X28.146 Y-0.593
N5585 X28.049 Y-0.707
N5590 X27.809 Y-0.963
N5595 X27.703 Y-1.066
N5600 X27.437 Y-1.302
N5605 X27.327 Y-1.391
N5610 X27.041 Y-1.602
N5615 X26.932 Y-1.675
N5620 X26.63 Y-1.861
N5625 X26.526 Y-1.92
N5630 X26.211 Y-2.083
N5635 X26.115 Y-2.129
N5640 X25.788 Y-2.271
N5645 X25.701 Y-2.306
N5650 X25.364 Y-2.429
N5655 X25.286 Y-2.455
N5660 X24.936 Y-2.563
N5665 X24.867 Y-2.583
N5670 X24.507 Y-2.676
N5675 X24.446 Y-2.691
N5680 X24.076 Y-2.771
N5685 X24.024 Y-2.782
N5690 X23.645 Y-2.851
N5695 X23.601 Y-2.859
N5700 X23.214 Y-2.918
N5705 X23.178 Y-2.923
N5710 X22.784 Y-2.975
N5715 X22.743 Y-2.979
N5720 X21.935 Y-3.063
N5725 X21.902 Y-3.066
N5730 X21.068 Y-3.135
N5735 X21.058 Y-3.136
N5740 X20.213 Y-3.2
N5745 X19.376 Y-3.27
N5750 X18.562 Y-3.354
N5755 X17.769 Y-3.464
N5760 X17.401 Y-3.528
N5765 X17.037 Y-3.602
N5770 X16.686 Y-3.685
N5775 X16.35 Y-3.778
N5780 X16.029 Y-3.882
N5785 X15.725 Y-3.996
N5790 X15.437 Y-4.121
N5795 X15.167 Y-4.258
N5800 X14.916 Y-4.406
N5805 X14.684 Y-4.565
N5810 X14.472 Y-4.735
N5815 X14.278 Y-4.918
N5820 X14.107 Y-5.11
N5825 X13.958 Y-5.312
N5830 X13.829 Y-5.523
N5835 X13.721 Y-5.745
N5840 X13.633 Y-5.978
N5845 X13.567 Y-6.218
N5850 X13.523 Y-6.466
N5855 X13.5 Y-6.721
N5860 Y-6.983
N5865 X13.522 Y-7.247
N5870 X13.567 Y-7.514
N5875 X13.633 Y-7.785
N5880 X13.722 Y-8.057
N5885 X13.832 Y-8.331
N5890 X13.962 Y-8.603
N5895 X14.112 Y-8.875
N5900 X14.281 Y-9.144
N5905 X14.467 Y-9.411
N5910 X14.67 Y-9.676
N5915 X14.887 Y-9.937
N5920 X15.119 Y-10.195
N5925 X15.364 Y-10.45
N5930 X15.62 Y-10.701
N5935 X15.882 Y-10.945
N5940 X16.45 Y-11.441
N5945 X17.035 Y-11.919
N5950 X17.634 Y-12.39
N5955 X18.233 Y-12.856
N5960 X18.242 Y-12.863
N5965 X18.826 Y-13.324
N5970 X18.854 Y-13.346
N5975 X19.41 Y-13.806
N5980 X19.443 Y-13.834
N5985 X19.707 Y-14.064
N5990 X19.735 Y-14.09
N5995 X19.99 Y-14.322
N6000 X20.023 Y-14.354
N6005 X20.265 Y-14.589
N6010 X20.303 Y-14.627
N6015 X20.533 Y-14.865
N6020 X20.575 Y-14.911
N6025 X20.792 Y-15.154
N6030 X20.838 Y-15.209
N6035 X21.04 Y-15.457
N6040 X21.091 Y-15.523
N6045 X21.276 Y-15.778
N6050 X21.329 Y-15.856
N6055 X21.497 Y-16.117
N6060 X21.55 Y-16.207
N6065 X21.699 Y-16.476
N6070 X21.751 Y-16.579
N6075 X21.878 Y-16.856
N6080 X21.926 Y-16.971
N6085 X22.03 Y-17.254
N6090 X22.07 Y-17.378
N6095 X22.15 Y-17.666
N6100 X22.181 Y-17.797
N6105 X22.236 Y-18.09
N6110 X22.255 Y-18.227
N6115 X22.285 Y-18.526
N6120 X22.293 Y-18.662
N6125 X22.297 Y-18.966
N6130 X22.293 Y-19.098
N6135 X22.272 Y-19.4
N6140 X22.258 Y-19.523
N6145 X22.213 Y-19.821
N6150 X22.192 Y-19.935
N6155 X22.125 Y-20.23
N6160 X22.099 Y-20.333
N6165 X22.012 Y-20.624
N6170 X21.981 Y-20.716
N6175 X21.877 Y-21.003
N6180 X21.844 Y-21.086
N6185 X21.723 Y-21.367
N6190 X21.689 Y-21.441
N6195 X21.553 Y-21.717
N6200 X21.519 Y-21.782
N6205 X21.37 Y-22.053
N6210 X21.336 Y-22.111
N6215 X21.176 Y-22.375
N6220 X21.143 Y-22.426
N6225 X20.973 Y-22.683
N6230 X20.942 Y-22.729
N6235 X20.765 Y-22.979
N6240 X20.721 Y-23.038
N6245 X20.343 Y-23.519
N6250 X20.287 Y-23.586
N6255 X19.877 Y-24.054
N6260 X19.825 Y-24.112
N6265 X19.388 Y-24.564
N6270 X19.337 Y-24.613
N6275 X18.88 Y-25.046
N6280 X18.831 Y-25.091
N6285 X18.359 Y-25.502
N6290 X18.311 Y-25.542
N6295 X17.83 Y-25.928
N6300 X17.769 Y-25.975
N6305 G2 X16.088 Y-27.111 I-17.729 J24.402
N6310 G1 X16.009 Y-27.158
N6315 X15.426 Y-27.478
N6320 X15.368 Y-27.509
N6325 X15.065 Y-27.659
N6330 X15.021 Y-27.68
N6335 X14.713 Y-27.821
N6340 X14.664 Y-27.843
N6345 X14.351 Y-27.974
N6350 X14.296 Y-27.996
N6355 X13.979 Y-28.115
N6360 X13.918 Y-28.136
N6365 X13.599 Y-28.241
N6370 X13.531 Y-28.262
N6375 X13.21 Y-28.352
N6380 X13.133 Y-28.372
N6385 X12.811 Y-28.445
N6390 X12.726 Y-28.462
N6395 X12.403 Y-28.518
N6400 X12.308 Y-28.531
N6405 X11.982 Y-28.567
N6410 X11.876 Y-28.575
N6415 X11.549 Y-28.589
N6420 X11.431
N6425 X11.104 Y-28.578
N6430 X10.976 Y-28.569
N6435 X10.651 Y-28.532
N6440 X10.513 Y-28.51
N6445 X10.193 Y-28.445
N6450 X10.051 Y-28.409
N6455 X9.742 Y-28.315
N6460 X9.6 Y-28.265
N6465 X9.302 Y-28.143
N6470 X9.166 Y-28.08
N6475 X8.879 Y-27.929
N6480 X8.752 Y-27.855
N6485 X8.478 Y-27.677
N6490 X8.363 Y-27.595
N6495 X8.106 Y-27.394
N6500 X8.008 Y-27.31
N6505 X7.768 Y-27.089
N6510 X7.686 Y-27.007
N6515 X7.462 Y-26.769
N6520 X7.394 Y-26.691
N6525 X7.186 Y-26.437
N6530 X7.131 Y-26.365
N6535 X6.935 Y-26.097
N6540 X6.89 Y-26.031
N6545 X6.705 Y-25.749
N6550 X6.668 Y-25.689
N6555 X6.492 Y-25.393
N6560 X6.462 Y-25.34
N6565 X6.295 Y-25.031
N6570 X6.271 Y-24.986
N6575 X6.111 Y-24.667
N6580 X6.084 Y-24.61
N6585 X5.783 Y-23.944
N6590 X5.759 Y-23.89
N6595 X5.473 Y-23.19
N6600 X5.46 Y-23.157
N6605 X5.181 Y-22.429
N6610 X5.176 Y-22.416
N6615 X4.898 Y-21.671
N6620 X4.617 Y-20.929
N6625 X4.329 Y-20.204
N6630 X4.03 Y-19.507
N6635 X3.709 Y-18.835
N6640 X3.548 Y-18.53
N6645 X3.377 Y-18.23
N6650 X3.201 Y-17.943
N6655 X3.02 Y-17.671
N6660 X2.832 Y-17.415
N6665 X2.637 Y-17.174
N6670 X2.436 Y-16.951
N6675 X2.229 Y-16.746
N6680 X2.016 Y-16.561
N6685 X1.798 Y-16.397
N6690 X1.575 Y-16.254
N6695 X1.35 Y-16.133
N6700 X1.123 Y-16.035
N6705 X0.892 Y-15.959
N6710 X0.657 Y-15.904
N6715 X0.42 Y-15.87
N6720 X0.181 Y-15.859
N6725 X-0.057 Y-15.87
N6730 X-0.297 Y-15.903
N6735 X-0.538 Y-15.958
N6740 X-0.775 Y-16.035
N6745 X-1.009 Y-16.133
N6750 X-1.242 Y-16.253
N6755 X-1.472 Y-16.395
N6760 X-1.699 Y-16.557
N6765 X-1.919 Y-16.74
N6770 X-2.135 Y-16.941
N6775 X-2.345 Y-17.16
N6780 X-2.548 Y-17.397
N6785 X-2.746 Y-17.648
N6790 X-2.938 Y-17.916
N6795 X-3.125 Y-18.197
N6800 X-3.306 Y-18.491
N6805 X-3.478 Y-18.789
N6810 X-3.82 Y-19.44
N6815 X-4.137 Y-20.107
N6820 X-4.44 Y-20.79
N6825 X-4.736 Y-21.486
N6830 X-5.03 Y-22.185
N6835 X-5.035 Y-22.197
N6840 X-5.33 Y-22.882
N6845 X-5.343 Y-22.912
N6850 X-5.645 Y-23.575
N6855 X-5.669 Y-23.625
N6860 X-5.984 Y-24.257
N6865 X-6.01 Y-24.308
N6870 X-6.174 Y-24.611
N6875 X-6.197 Y-24.652
N6880 X-6.368 Y-24.945
N6885 X-6.396 Y-24.991
N6890 X-6.573 Y-25.273
N6895 X-6.607 Y-25.324
N6900 X-6.792 Y-25.594
N6905 X-6.832 Y-25.651
N6910 X-7.027 Y-25.91
N6915 X-7.076 Y-25.973
N6920 X-7.282 Y-26.221
N6925 X-7.341 Y-26.288
N6930 X-7.561 Y-26.524
N6935 X-7.631 Y-26.594
N6940 X-7.865 Y-26.815
N6945 X-7.947 Y-26.888
N6950 X-8.196 Y-27.093
N6955 X-8.291 Y-27.165
N6960 X-8.555 Y-27.351
N6965 X-8.662 Y-27.42
N6970 X-8.939 Y-27.584
N6975 X-9.054 Y-27.646
N6980 X-9.341 Y-27.785
N6985 X-9.462 Y-27.837
N6990 X-9.758 Y-27.951
N6995 X-9.883 Y-27.993
N7000 X-10.189 Y-28.083
N7005 X-10.315 Y-28.115
N7010 X-10.631 Y-28.18
N7015 X-10.753 Y-28.2
N7020 X-11.073 Y-28.24
N7025 X-11.188 Y-28.251
N7030 X-11.51 Y-28.268
N7035 X-11.618 Y-28.27
N7040 X-11.94 Y-28.265
N7045 X-12.04 Y-28.26
N7050 X-12.362 Y-28.235
N7055 X-12.452 Y-28.225
N7060 X-12.773 Y-28.181
N7065 X-12.855 Y-28.168
N7070 X-13.175 Y-28.107
N7075 X-13.249 Y-28.091
N7080 X-13.566 Y-28.015
N7085 X-13.635 Y-27.997
N7090 X-13.95 Y-27.906
N7095 X-14.011 Y-27.887
N7100 X-14.322 Y-27.783
N7105 X-14.378 Y-27.763
N7110 X-14.685 Y-27.648
N7115 X-14.736 Y-27.628
N7120 X-15.037 Y-27.503
N7125 X-15.105 Y-27.473
N7130 X-15.693 Y-27.197
N7135 X-15.774 Y-27.156
N7140 X-16.35 Y-26.843
N7145 X-16.423 Y-26.801
N7150 X-16.983 Y-26.458
N7155 X-17.05 Y-26.415
N7160 X-17.588 Y-26.047
N7165 X-17.621 Y-26.024
N7170 X-17.688 Y-25.975
N7175 X-17.713 Y-25.957
N7180 X-18.07 Y-25.687
N7185 X-18.113 Y-25.654
N7190 X-18.466 Y-25.368
N7195 X-18.509 Y-25.332
N7200 X-18.855 Y-25.031
N7205 X-18.899 Y-24.991
N7210 X-19.235 Y-24.675
N7215 X-19.281 Y-24.631
N7220 X-19.604 Y-24.302
N7225 X-19.651 Y-24.253
N7230 X-19.958 Y-23.912
N7235 X-20.007 Y-23.855
N7240 X-20.296 Y-23.504
N7245 X-20.346 Y-23.439
N7250 X-20.613 Y-23.077
N7255 X-20.664 Y-23.003
N7260 X-20.907 Y-22.632
N7265 X-20.96 Y-22.545
N7270 X-21.178 Y-22.159
N7275 X-21.23 Y-22.059
N7280 X-21.42 Y-21.659
N7285 X-21.471 Y-21.541
N7290 X-21.627 Y-21.127
N7295 X-21.661 Y-21.028
N7300 X-21.726 Y-20.816
N7305 X-21.746 Y-20.744
N7310 X-21.801 Y-20.53
N7315 X-21.818 Y-20.453
N7320 X-21.862 Y-20.236
N7325 X-21.876 Y-20.155
N7330 X-21.908 Y-19.938
N7335 X-21.919 Y-19.854
N7340 X-21.939 Y-19.636
N7345 X-21.945 Y-19.551
N7350 X-21.954 Y-19.333
N7355 X-21.955 Y-19.246
N7360 X-21.952 Y-19.028
N7365 X-21.948 Y-18.94
N7370 X-21.933 Y-18.722
N7375 X-21.924 Y-18.635
N7380 X-21.896 Y-18.418
N7385 X-21.883 Y-18.33
N7390 X-21.843 Y-18.113
N7395 X-21.825 Y-18.028
N7400 X-21.773 Y-17.814
N7405 X-21.751 Y-17.732
N7410 X-21.689 Y-17.521
N7415 X-21.664 Y-17.446
N7420 X-21.591 Y-17.239
N7425 X-21.563 Y-17.166
N7430 X-21.48 Y-16.963
N7435 X-21.437 Y-16.866
N7440 X-21.243 Y-16.471
N7445 X-21.182 Y-16.358
N7450 X-20.956 Y-15.977
N7455 X-20.896 Y-15.884
N7460 X-20.639 Y-15.513
N7465 X-20.583 Y-15.436
N7470 X-20.299 Y-15.074
N7475 X-20.248 Y-15.013
N7480 X-19.941 Y-14.659
N7485 X-19.896 Y-14.609
N7490 X-19.568 Y-14.262
N7495 X-19.53 Y-14.224
N7500 X-19.185 Y-13.883
N7505 X-19.155 Y-13.854
N7510 X-18.795 Y-13.516
N7515 X-18.771 Y-13.495
N7520 X-18.398 Y-13.159
N7525 X-18.377 Y-13.14
N7530 X-17.605 Y-12.47
N7535 X-17.598 Y-12.464
N7540 X-16.82 Y-11.796
N7545 X-16.065 Y-11.127
N7550 X-15.715 Y-10.8
N7555 X-15.378 Y-10.47
N7560 X-15.06 Y-10.14
N7565 X-14.765 Y-9.809
N7570 X-14.495 Y-9.478
N7575 X-14.249 Y-9.145
N7580 X-14.032 Y-8.81
N7585 X-13.837 Y-8.461
N7590 X-13.761 Y-8.306
N7595 X-13.688 Y-8.138
N7600 X-13.623 Y-7.971
N7605 X-13.567 Y-7.803
N7610 X-13.521 Y-7.641
N7615 X-13.485 Y-7.486
N7620 X-13.457 Y-7.338
N7625 X-13.437 Y-7.197
N7630 X-13.425 Y-7.062
N7635 X-13.418 Y-6.933
N7640 X-13.417 Y-6.81
N7645 X-13.421 Y-6.706
N7650 X-13.443 Y-6.468
N7655 X-13.481 Y-6.249
N7660 X-13.536 Y-6.035
N7665 X-13.606 Y-5.824
N7670 X-13.694 Y-5.619
N7675 X-13.797 Y-5.419
N7680 X-13.916 Y-5.227
N7685 X-14.049 Y-5.043
N7690 X-14.196 Y-4.867
N7695 X-14.359 Y-4.7
N7700 X-14.537 Y-4.54
N7705 X-14.728 Y-4.389
N7710 X-14.931 Y-4.249
N7715 X-15.148 Y-4.118
N7720 X-15.376 Y-3.997
N7725 X-15.617 Y-3.886
N7730 X-15.869 Y-3.783
N7735 X-16.133 Y-3.69
N7740 X-16.406 Y-3.606
N7745 X-16.688 Y-3.532
N7750 X-16.978 Y-3.466
N7755 X-17.266 Y-3.41
N7760 X-17.894 Y-3.315
N7765 X-18.527 Y-3.25
N7770 X-19.175 Y-3.206
N7775 X-19.836 Y-3.179
N7780 X-20.508 Y-3.162
N7785 X-21.185 Y-3.15
N7790 X-21.19 Y-3.149
N7795 X-21.86 Y-3.135
N7800 X-21.882 Y-3.134
N7805 X-22.536 Y-3.111
N7810 X-22.576 Y-3.109
N7815 X-23.212 Y-3.071
N7820 X-23.271 Y-3.066
N7825 X-23.884 Y-3.006
N7830 X-23.943 Y-2.999
N7835 X-24.24 Y-2.959
N7840 X-24.287 Y-2.952
N7845 X-24.577 Y-2.903
N7850 X-24.631 Y-2.893
N7855 X-24.914 Y-2.836
N7860 X-24.974 Y-2.823
N7865 X-25.249 Y-2.756
N7870 X-25.316 Y-2.738
N7875 X-25.582 Y-2.661
N7880 X-25.656 Y-2.637
N7885 X-25.914 Y-2.549
N7890 X-25.994 Y-2.519
N7895 X-26.242 Y-2.418
N7900 X-26.328 Y-2.38
N7905 X-26.567 Y-2.266
N7910 X-26.658 Y-2.219
N7915 X-26.886 Y-2.092
N7920 X-26.979 Y-2.036
N7925 X-27.197 Y-1.894
N7930 X-27.291 Y-1.827
N7935 X-27.497 Y-1.671
N7940 X-27.59 Y-1.594
N7945 X-27.784 Y-1.422
N7950 X-27.874 Y-1.335
N7955 X-28.055 Y-1.147
N7960 X-28.139 Y-1.052
N7965 X-28.304 Y-0.849
N7970 X-28.379 Y-0.75
N7975 X-28.528 Y-0.536
N7980 X-28.592 Y-0.436
N7985 X-28.724 Y-0.212
N7990 X-28.778 Y-0.112
N7995 X-28.893 Y0.121
N8000 X-28.938 Y0.218
N8005 X-29.038 Y0.46
N8010 X-29.073 Y0.553
N8015 X-29.158 Y0.802
N8020 X-29.186 Y0.89
N8025 X-29.257 Y1.144
N8030 X-29.278 Y1.227
N8035 X-29.335 Y1.485
N8040 X-29.35 Y1.561
N8045 X-29.395 Y1.822
N8050 X-29.405 Y1.893
N8055 X-29.438 Y2.156
N8060 X-29.445 Y2.22
N8065 X-29.467 Y2.484
N8070 X-29.472 Y2.57
N8075 X-29.488 Y3.098
N8080 Y3.198
N8085 X-29.471 Y3.732
N8090 X-29.465 Y3.819
N8095 X-29.418 Y4.359
N8100 X-29.409 Y4.435
N8105 X-29.336 Y4.977
N8110 X-29.325 Y5.044
N8115 X-29.228 Y5.582
N8120 X-29.216 Y5.642
N8125 X-29.1 Y6.171
N8130 X-29.087 Y6.225
N8135 X-28.954 Y6.741
N8140 X-28.942 Y6.785
N8145 G2 X-28.647 Y7.748 I28.982 J-8.357
N8150 G1 X-28.632 Y7.791
N8155 X-28.442 Y8.323
N8160 X-28.423 Y8.374
N8165 X-28.213 Y8.905
N8170 X-28.191 Y8.958
N8175 X-27.96 Y9.484
N8180 X-27.935 Y9.539
N8185 X-27.685 Y10.056
N8190 X-27.655 Y10.114
N8195 X-27.386 Y10.616
N8200 X-27.351 Y10.679
N8205 X-27.063 Y11.161
N8210 X-27.02 Y11.23
N8215 X-26.715 Y11.687
N8220 X-26.662 Y11.761
N8225 X-26.34 Y12.189
N8230 X-26.273 Y12.272
N8235 X-25.924 Y12.676
N8240 X-25.862 Y12.744
N8245 X-25.675 Y12.936
N8250 X-25.626 Y12.985
N8255 X-25.431 Y13.169
N8260 X-25.374 Y13.22
N8265 X-25.171 Y13.394
N8270 X-25.107 Y13.446
N8275 X-24.896 Y13.609
N8280 X-24.822 Y13.662
N8285 X-24.603 Y13.813
N8290 X-24.519 Y13.866
N8295 X-24.292 Y14.001
N8300 X-24.2 Y14.052
N8305 X-23.965 Y14.172
N8310 X-23.864 Y14.219
N8315 X-23.623 Y14.321
N8320 X-23.513 Y14.363
N8325 X-23.265 Y14.447
N8330 X-23.148 Y14.481
N8335 X-22.894 Y14.546
N8340 X-22.771 Y14.572
N8345 X-22.51 Y14.617
N8350 X-22.384 Y14.633
N8355 X-22.121 Y14.657
N8360 X-21.999 Y14.663
N8365 X-21.737 Y14.667
N8370 X-21.619 Y14.664
N8375 X-21.358 Y14.647
N8380 X-21.247 Y14.637
N8385 X-20.986 Y14.602
N8390 X-20.885 Y14.585
N8395 X-20.625 Y14.534
N8400 X-20.532 Y14.512
N8405 X-20.272 Y14.444
N8410 X-20.19 Y14.42
N8415 X-19.932 Y14.337
N8420 X-19.858 Y14.311
N8425 X-19.6 Y14.214
N8430 X-19.536 Y14.188
N8435 X-19.279 Y14.079
N8440 X-19.223 Y14.053
N8445 X-18.966 Y13.932
N8450 X-18.918 Y13.908
N8455 X-18.662 Y13.776
N8460 X-18.602 Y13.744
N8465 X-18.09 Y13.451
N8470 X-18.031 Y13.415
N8475 X-17.515 Y13.089
N8480 X-17.474 Y13.063
N8485 X-16.953 Y12.711
N8490 X-16.929 Y12.695
N8495 X-16.401 Y12.325
N8500 X-16.391 Y12.318
N8505 X-15.856 Y11.937
N8510 X-15.32 Y11.557
N8515 X-14.784 Y11.188
N8520 X-14.244 Y10.834
N8525 X-13.701 Y10.502
N8530 X-13.146 Y10.195
N8535 X-12.882 Y10.063
N8540 X-12.611 Y9.937
N8545 X-12.341 Y9.822
N8550 X-12.073 Y9.719
N8555 X-11.806 Y9.629
N8560 X-11.537 Y9.551
N8565 X-11.252 Y9.483
N8570 X-10.954 Y9.429
N8575 X-10.646 Y9.394
N8580 X-10.312 Y9.381
N8585 X-10.166 Y9.384
N8590 X-10.003 Y9.394
N8595 X-9.84 Y9.411
N8600 X-9.68 Y9.435
N8605 X-9.523 Y9.466
N8610 X-9.37 Y9.505
N8615 X-9.22 Y9.55
N8620 X-9.073 Y9.601
N8625 X-8.929 Y9.66
N8630 X-8.789 Y9.726
N8635 X-8.652 Y9.799
N8640 X-8.52 Y9.878
N8645 X-8.392 Y9.963
N8650 X-8.269 Y10.054
N8655 X-8.152 Y10.151
N8660 X-8.04 Y10.254
N8665 X-7.933 Y10.362
N8670 X-7.831 Y10.477
N8675 X-7.735 Y10.596
N8680 X-7.646 Y10.72
N8685 X-7.563 Y10.849
N8690 X-7.485 Y10.982
N8695 X-7.414 Y11.121
N8700 X-7.349 Y11.265
N8705 X-7.289 Y11.414
N8710 X-7.241 Y11.553
N8715 X-7.146 Y11.895
N8720 X-7.081 Y12.236
N8725 X-7.039 Y12.594
N8730 X-7.02 Y12.968
N8735 X-7.023 Y13.354
N8740 X-7.047 Y13.753
N8745 X-7.089 Y14.165
N8750 X-7.15 Y14.588
N8755 X-7.226 Y15.021
N8760 X-7.316 Y15.461
N8765 X-7.416 Y15.904
N8770 X-7.648 Y16.821
N8775 X-7.898 Y17.742
N8780 X-7.899 Y17.745
N8785 X-8.146 Y18.664
N8790 X-8.151 Y18.684
N8795 X-8.267 Y19.136
N8800 X-8.273 Y19.16
N8805 X-8.379 Y19.607
N8810 X-8.387 Y19.639
N8815 X-8.482 Y20.08
N8820 X-8.491 Y20.122
N8825 X-8.572 Y20.556
N8830 X-8.581 Y20.608
N8835 X-8.647 Y21.035
N8840 X-8.655 Y21.099
N8845 X-8.703 Y21.517
N8850 X-8.709 Y21.594
N8855 X-8.736 Y22.005
N8860 X-8.739 Y22.095
N8865 X-8.741 Y22.498
N8870 X-8.739 Y22.605
N8875 X-8.714 Y23.006
N8880 X-8.702 Y23.129
N8885 X-8.647 Y23.527
N8890 X-8.621 Y23.666
N8895 X-8.53 Y24.057
N8900 X-8.499 Y24.171
N8905 X-8.44 Y24.363
N8910 X-8.413 Y24.442
N8915 X-8.343 Y24.63
N8920 X-8.31 Y24.711
N8925 X-8.231 Y24.894
N8930 X-8.194 Y24.973
N8935 X-8.105 Y25.15
N8940 X-8.063 Y25.229
N8945 X-7.964 Y25.401
N8950 X-7.918 Y25.477
N8955 X-7.81 Y25.642
N8960 X-7.759 Y25.715
N8965 X-7.642 Y25.875
N8970 X-7.588 Y25.945
N8975 X-7.461 Y26.099
N8980 X-7.404 Y26.164
N8985 X-7.268 Y26.313
N8990 X-7.21 Y26.373
N8995 X-7.066 Y26.514
N9000 X-6.978 Y26.594
N9005 X-6.671 Y26.852
N9010 X-6.555 Y26.94
N9015 X-6.226 Y27.169
N9020 X-6.116 Y27.24
N9025 X-5.768 Y27.441
N9030 X-5.665 Y27.496
N9035 X-5.302 Y27.672
N9040 X-5.207 Y27.714
N9045 X-4.831 Y27.868
N9050 X-4.746 Y27.9
N9055 X-4.359 Y28.032
N9060 X-4.282 Y28.056
N9065 X-3.89 Y28.169
N9070 X-3.821 Y28.187
N9075 X-3.426 Y28.281
N9080 X-3.364 Y28.295
N9085 X-2.97 Y28.372
N9090 X-2.914 Y28.382
N9095 X-2.525 Y28.444
N9100 X-2.474 Y28.451
N9105 X-2.094 Y28.499
N9110 X-2.048 Y28.504
N9115 X-1.68 Y28.54
N9120 X-1.614 Y28.545
N9125 G2 X0.04 Y28.59 I1.654 J-30.117
N9130 G1 X0.102 Y28.589
N9135 X0.536 Y28.572
N9140 X0.581 Y28.569
N9145 X1.02 Y28.539
N9150 X1.066 Y28.535
N9155 X1.507 Y28.492
N9160 X1.555 Y28.487
N9165 X1.995 Y28.43
N9170 X2.046 Y28.423
N9175 X2.484 Y28.352
N9180 X2.537 Y28.343
N9185 X2.97 Y28.257
N9190 X3.027 Y28.245
N9195 X3.453 Y28.145
N9200 X3.514 Y28.129
N9205 X3.93 Y28.013
N9210 X3.996 Y27.993
N9215 X4.4 Y27.862
N9220 X4.472 Y27.837
N9225 X4.861 Y27.689
N9230 X4.94 Y27.657
N9235 X5.319 Y27.489
N9240 X5.406 Y27.448
N9245 X5.776 Y27.257
N9250 X5.872 Y27.203
N9255 X6.227 Y26.987
N9260 X6.331 Y26.918
N9265 X6.668 Y26.676
N9270 X6.779 Y26.588
N9275 X7.092 Y26.317
N9280 X7.177 Y26.238
N9285 X7.322 Y26.092
N9290 X7.378 Y26.033
N9295 X7.515 Y25.881
N9300 X7.57 Y25.816
N9305 X7.698 Y25.658
N9310 X7.751 Y25.588
N9315 X7.87 Y25.423
N9320 X7.92 Y25.349
N9325 X8.029 Y25.178
N9330 X8.076 Y25.1
N9335 X8.176 Y24.921
N9340 X8.218 Y24.84
N9345 X8.308 Y24.655
N9350 X8.346 Y24.571
N9355 X8.425 Y24.38
N9360 X8.457 Y24.297
N9365 X8.525 Y24.104
N9370 X8.552 Y24.021
N9375 X8.609 Y23.825
N9380 X8.63 Y23.745
N9385 X8.677 Y23.546
N9390 X8.693 Y23.469
N9395 X8.73 Y23.268
N9400 X8.746 Y23.16
N9405 X8.793 Y22.75
N9410 X8.802 Y22.621
N9415 X8.815 Y22.202
N9420 Y22.091
N9425 X8.798 Y21.664
N9430 X8.792 Y21.57
N9435 X8.749 Y21.135
N9440 X8.74 Y21.058
N9445 X8.674 Y20.615
N9450 X8.664 Y20.553
N9455 X8.579 Y20.104
N9460 X8.569 Y20.056
N9465 X8.468 Y19.599
N9470 X8.46 Y19.563
N9475 X8.345 Y19.098
N9480 X8.339 Y19.072
N9485 X8.215 Y18.599
N9490 X8.209 Y18.581
N9495 X7.943 Y17.617
N9500 X7.679 Y16.648
N9505 X7.441 Y15.681
N9510 X7.342 Y15.218
N9515 X7.258 Y14.753
N9520 X7.19 Y14.292
N9525 X7.143 Y13.838
N9530 X7.118 Y13.394
N9535 X7.117 Y12.963
N9540 X7.143 Y12.547
N9545 X7.199 Y12.132
N9550 X7.231 Y11.963
N9555 X7.272 Y11.791
N9560 X7.316 Y11.631
N9565 X7.363 Y11.482
N9570 X7.414 Y11.343
N9575 X7.467 Y11.213
N9580 X7.523 Y11.092
N9585 X7.573 Y10.991
N9590 X7.699 Y10.774
N9595 X7.826 Y10.588
N9600 X7.964 Y10.416
N9605 X8.114 Y10.258
N9610 X8.275 Y10.113
N9615 X8.448 Y9.981
N9620 X8.63 Y9.865
N9625 X8.821 Y9.764
N9630 X9.021 Y9.677
N9635 X9.231 Y9.606
N9640 X9.452 Y9.55
N9645 X9.68 Y9.509
N9650 X9.915 Y9.485
N9655 X10.159 Y9.476
N9660 X10.409 Y9.483
N9665 X10.667 Y9.505
N9670 X10.931 Y9.543
N9675 X11.199 Y9.595
N9680 X11.472 Y9.661
N9685 X11.748 Y9.741
N9690 X12.027 Y9.834
N9695 X12.308 Y9.939
N9700 X12.589 Y10.054
N9705 X12.862 Y10.175
N9710 X13.44 Y10.458
N9715 X14.014 Y10.767
N9720 X14.592 Y11.102
N9725 X15.174 Y11.456
N9730 X15.76 Y11.821
N9735 X16.345 Y12.185
N9740 X16.357 Y12.193
N9745 X16.934 Y12.545
N9750 X16.961 Y12.561
N9755 X17.53 Y12.893
N9760 X17.575 Y12.918
N9765 X18.14 Y13.224
N9770 X18.206 Y13.258
N9775 X18.77 Y13.53
N9780 X18.834 Y13.559
N9785 X19.116 Y13.68
N9790 X19.168 Y13.701
N9795 X19.45 Y13.811
N9800 X19.51 Y13.832
N9805 X19.792 Y13.929
N9810 X19.859 Y13.95
N9815 X20.14 Y14.033
N9820 X20.216 Y14.053
N9825 X20.499 Y14.121
N9830 X20.583 Y14.139
N9835 X20.867 Y14.191
N9840 X20.96 Y14.205
N9845 X21.245 Y14.24
N9850 X21.347 Y14.249
N9855 X21.633 Y14.265
N9860 X21.743 Y14.268
N9865 X22.029 Y14.264
N9870 X22.145 Y14.259
N9875 X22.432 Y14.234
N9880 X22.552 Y14.219
N9885 X22.838 Y14.173
N9890 X22.956 Y14.149
N9895 X23.235 Y14.082
N9900 X23.35 Y14.049
N9905 X23.622 Y13.961
N9910 X23.731 Y13.921
N9915 X23.996 Y13.813
N9920 X24.098 Y13.768
N9925 X24.356 Y13.641
N9930 X24.451 Y13.59
N9935 X24.702 Y13.445
N9940 X24.788 Y13.391
N9945 X25.029 Y13.23
N9950 X25.105 Y13.176
N9955 X25.337 Y13.001
N9960 X25.405 Y12.947
N9965 X25.627 Y12.759
N9970 X25.686 Y12.706
N9975 X25.899 Y12.507
N9980 X25.951 Y12.455
N9985 X26.154 Y12.247
N9990 X26.2 Y12.198
N9995 X26.394 Y11.982
N10000 X26.434 Y11.935
N10005 X26.62 Y11.71
N10010 X26.656 Y11.664
N10015 X26.836 Y11.43
N10020 X26.883 Y11.366
N10025 X27.223 Y10.873
N10030 X27.274 Y10.794
N10035 X27.588 Y10.275
N10040 X27.631 Y10.201
N10045 X27.918 Y9.664
N10050 X27.953 Y9.595
N10055 X28.213 Y9.045
N10060 X28.242 Y8.98
N10065 X28.475 Y8.425
N10070 X28.5 Y8.362
N10075 X28.705 Y7.809
N10080 X28.726 Y7.748
N10085 G2 X29.053 Y6.673 I-28.686 J-9.322
N10090 G1 X29.067 Y6.621
N10095 X29.153 Y6.272
N10100 X29.164 Y6.228
N10105 X29.241 Y5.873
N10110 X29.25 Y5.826
N10115 X29.318 Y5.466
N10120 X29.327 Y5.415
N10125 X29.382 Y5.05
N10130 X29.39 Y4.996
N10135 X29.433 Y4.629
N10140 X29.439 Y4.57
N10145 X29.468 Y4.203
N10150 X29.472 Y4.138
N10155 X29.487 Y3.772
N10160 X29.488 Y3.702
N10165 X29.486 Y3.338
N10170 X29.485 Y3.286
N10175 G3 X29.79 Y2.957 I0.317 J-0.012
N10180 G1 X30.107 Y2.944
N10185 X30.178 Y2.942 Z-6.342
N10190 X30.245 Y2.939 Z-6.319
N10195 X30.305 Y2.937 Z-6.281
N10200 X30.355 Y2.935 Z-6.23
N10205 X30.393 Y2.933 Z-6.17
N10210 X30.416 Y2.932 Z-6.103
N10215 X30.424 Z-6.033
N10220 Z5.
N10225 X30.449 Y3.567
N10230 Z-1.35 F1033.33
N10235 Z-9.208
N10240 X30.441 Z-9.278 F3100.
N10245 X30.417 Y3.568 Z-9.345
N10250 X30.379 Y3.569 Z-9.405
N10255 X30.329 Y3.571 Z-9.456
N10260 X30.269 Y3.574 Z-9.494
N10265 X30.202 Y3.576 Z-9.517
N10270 X30.131 Y3.579 Z-9.525
N10275 X29.814 Y3.591
N10280 G3 X29.485 Y3.286 I-0.012 J-0.317
N10285 G1 X29.483 Y3.26
N10290 X29.464 Y2.901
N10295 X29.457 Y2.816
N10300 X29.418 Y2.461
N10305 X29.405 Y2.367
N10310 X29.345 Y2.016
N10315 X29.324 Y1.913
N10320 X29.241 Y1.567
N10325 X29.21 Y1.456
N10330 X29.103 Y1.118
N10335 X29.06 Y0.999
N10340 X28.925 Y0.67
N10345 X28.868 Y0.545
N10350 X28.706 Y0.229
N10355 X28.634 Y0.103
N10360 X28.446 Y-0.194
N10365 X28.361 Y-0.316
N10370 X28.146 Y-0.593
N10375 X28.049 Y-0.707
N10380 X27.809 Y-0.963
N10385 X27.703 Y-1.066
N10390 X27.437 Y-1.302
N10395 X27.327 Y-1.391
N10400 X27.041 Y-1.602
N10405 X26.932 Y-1.675
N10410 X26.63 Y-1.861
N10415 X26.526 Y-1.92
N10420 X26.211 Y-2.083
N10425 X26.115 Y-2.129
N10430 X25.788 Y-2.271
N10435 X25.701 Y-2.306
N10440 X25.364 Y-2.429
N10445 X25.286 Y-2.455
N10450 X24.936 Y-2.563
N10455 X24.867 Y-2.583
N10460 X24.507 Y-2.676
N10465 X24.446 Y-2.691
N10470 X24.076 Y-2.771
N10475 X24.024 Y-2.782
N10480 X23.645 Y-2.851
N10485 X23.601 Y-2.859
N10490 X23.214 Y-2.918
N10495 X23.178 Y-2.923
N10500 X22.784 Y-2.975
N10505 X22.743 Y-2.979
N10510 X21.935 Y-3.063
N10515 X21.902 Y-3.066
N10520 X21.068 Y-3.135
N10525 X21.058 Y-3.136
N10530 X20.213 Y-3.2
N10535 X19.376 Y-3.27
N10540 X18.562 Y-3.354
N10545 X17.769 Y-3.464
N10550 X17.401 Y-3.528
N10555 X17.037 Y-3.602
N10560 X16.686 Y-3.685
N10565 X16.35 Y-3.778
N10570 X16.029 Y-3.882
N10575 X15.725 Y-3.996
N10580 X15.437 Y-4.121
N10585 X15.167 Y-4.258
N10590 X14.916 Y-4.406
N10595 X14.684 Y-4.565
N10600 X14.472 Y-4.735
N10605 X14.278 Y-4.918
N10610 X14.107 Y-5.11
N10615 X13.958 Y-5.312
N10620 X13.829 Y-5.523
N10625 X13.721 Y-5.745
N10630 X13.633 Y-5.978
N10635 X13.567 Y-6.218
N10640 X13.523 Y-6.466
N10645 X13.5 Y-6.721
N10650 Y-6.983
N10655 X13.522 Y-7.247
N10660 X13.567 Y-7.514
N10665 X13.633 Y-7.785
N10670 X13.722 Y-8.057
N10675 X13.832 Y-8.331
N10680 X13.962 Y-8.603
N10685 X14.112 Y-8.875
N10690 X14.281 Y-9.144
N10695 X14.467 Y-9.411
N10700 X14.67 Y-9.676
N10705 X14.887 Y-9.937
N10710 X15.119 Y-10.195
N10715 X15.364 Y-10.45
N10720 X15.62 Y-10.701
N10725 X15.882 Y-10.945
N10730 X16.45 Y-11.441
N10735 X17.035 Y-11.919
N10740 X17.634 Y-12.39
N10745 X18.233 Y-12.856
N10750 X18.242 Y-12.863
N10755 X18.826 Y-13.324
N10760 X18.854 Y-13.346
N10765 X19.41 Y-13.806
N10770 X19.443 Y-13.834
N10775 X19.707 Y-14.064
N10780 X19.735 Y-14.09
N10785 X19.99 Y-14.322
N10790 X20.023 Y-14.354
N10795 X20.265 Y-14.589
N10800 X20.303 Y-14.627
N10805 X20.533 Y-14.865
N10810 X20.575 Y-14.911
N10815 X20.792 Y-15.154
N10820 X20.838 Y-15.209
N10825 X21.04 Y-15.457
N10830 X21.091 Y-15.523
N10835 X21.276 Y-15.778
N10840 X21.329 Y-15.856
N10845 X21.497 Y-16.117
N10850 X21.55 Y-16.207
N10855 X21.699 Y-16.476
N10860 X21.751 Y-16.579
N10865 X21.878 Y-16.856
N10870 X21.926 Y-16.971
N10875 X22.03 Y-17.254
N10880 X22.07 Y-17.378
N10885 X22.15 Y-17.666
N10890 X22.181 Y-17.797
N10895 X22.236 Y-18.09
N10900 X22.255 Y-18.227
N10905 X22.285 Y-18.526
N10910 X22.293 Y-18.662
N10915 X22.297 Y-18.966
N10920 X22.293 Y-19.098
N10925 X22.272 Y-19.4
N10930 X22.258 Y-19.523
N10935 X22.213 Y-19.821
N10940 X22.192 Y-19.935
N10945 X22.125 Y-20.23
N10950 X22.099 Y-20.333
N10955 X22.012 Y-20.624
N10960 X21.981 Y-20.716
N10965 X21.877 Y-21.003
N10970 X21.844 Y-21.086
N10975 X21.723 Y-21.367
N10980 X21.689 Y-21.441
N10985 X21.553 Y-21.717
N10990 X21.519 Y-21.782
N10995 X21.37 Y-22.053
N11000 X21.336 Y-22.111
N11005 X21.176 Y-22.375
N11010 X21.143 Y-22.426
N11015 X20.973 Y-22.683
N11020 X20.942 Y-22.729
N11025 X20.765 Y-22.979
N11030 X20.721 Y-23.038
N11035 X20.343 Y-23.519
N11040 X20.287 Y-23.586
N11045 X19.877 Y-24.054
N11050 X19.825 Y-24.112
N11055 X19.388 Y-24.564
N11060 X19.337 Y-24.613
N11065 X18.88 Y-25.046
N11070 X18.831 Y-25.091
N11075 X18.359 Y-25.502
N11080 X18.311 Y-25.542
N11085 X17.83 Y-25.928
N11090 X17.769 Y-25.975
N11095 G2 X16.088 Y-27.111 I-17.729 J24.402
N11100 G1 X16.009 Y-27.158
N11105 X15.426 Y-27.478
N11110 X15.368 Y-27.509
N11115 X15.065 Y-27.659
N11120 X15.021 Y-27.68
N11125 X14.713 Y-27.821
N11130 X14.664 Y-27.843
N11135 X14.351 Y-27.974
N11140 X14.296 Y-27.996
N11145 X13.979 Y-28.115
N11150 X13.918 Y-28.136
N11155 X13.599 Y-28.241
N11160 X13.531 Y-28.262
N11165 X13.21 Y-28.352
N11170 X13.133 Y-28.372
N11175 X12.811 Y-28.445
N11180 X12.726 Y-28.462
N11185 X12.403 Y-28.518
N11190 X12.308 Y-28.531
N11195 X11.982 Y-28.567
N11200 X11.876 Y-28.575
N11205 X11.549 Y-28.589
N11210 X11.431
N11215 X11.104 Y-28.578
N11220 X10.976 Y-28.569
N11225 X10.651 Y-28.532
N11230 X10.513 Y-28.51
N11235 X10.193 Y-28.445
N11240 X10.051 Y-28.409
N11245 X9.742 Y-28.315
N11250 X9.6 Y-28.265
N11255 X9.302 Y-28.143
N11260 X9.166 Y-28.08
N11265 X8.879 Y-27.929
N11270 X8.752 Y-27.855
N11275 X8.478 Y-27.677
N11280 X8.363 Y-27.595
N11285 X8.106 Y-27.394
N11290 X8.008 Y-27.31
N11295 X7.768 Y-27.089
N11300 X7.686 Y-27.007
N11305 X7.462 Y-26.769
N11310 X7.394 Y-26.691
N11315 X7.186 Y-26.437
N11320 X7.131 Y-26.365
N11325 X6.935 Y-26.097
N11330 X6.89 Y-26.031
N11335 X6.705 Y-25.749
N11340 X6.668 Y-25.689
N11345 X6.492 Y-25.393
N11350 X6.462 Y-25.34
N11355 X6.295 Y-25.031
N11360 X6.271 Y-24.986
N11365 X6.111 Y-24.667
N11370 X6.084 Y-24.61
N11375 X5.783 Y-23.944
N11380 X5.759 Y-23.89
N11385 X5.473 Y-23.19
N11390 X5.46 Y-23.157
N11395 X5.181 Y-22.429
N11400 X5.176 Y-22.416
N11405 X4.898 Y-21.671
N11410 X4.617 Y-20.929
N11415 X4.329 Y-20.204
N11420 X4.03 Y-19.507
N11425 X3.709 Y-18.835
N11430 X3.548 Y-18.53
N11435 X3.377 Y-18.23
N11440 X3.201 Y-17.943
N11445 X3.02 Y-17.671
N11450 X2.832 Y-17.415
N11455 X2.637 Y-17.174
N11460 X2.436 Y-16.951
N11465 X2.229 Y-16.746
N11470 X2.016 Y-16.561
N11475 X1.798 Y-16.397
N11480 X1.575 Y-16.254
N11485 X1.35 Y-16.133
N11490 X1.123 Y-16.035
N11495 X0.892 Y-15.959
N11500 X0.657 Y-15.904
N11505 X0.42 Y-15.87
N11510 X0.181 Y-15.859
N11515 X-0.057 Y-15.87
N11520 X-0.297 Y-15.903
N11525 X-0.538 Y-15.958
N11530 X-0.775 Y-16.035
N11535 X-1.009 Y-16.133
N11540 X-1.242 Y-16.253
N11545 X-1.472 Y-16.395
N11550 X-1.699 Y-16.557
N11555 X-1.919 Y-16.74
N11560 X-2.135 Y-16.941
N11565 X-2.345 Y-17.16
N11570 X-2.548 Y-17.397
N11575 X-2.746 Y-17.648
N11580 X-2.938 Y-17.916
N11585 X-3.125 Y-18.197
N11590 X-3.306 Y-18.491
N11595 X-3.478 Y-18.789
N11600 X-3.82 Y-19.44
N11605 X-4.137 Y-20.107
N11610 X-4.44 Y-20.79
N11615 X-4.736 Y-21.486
N11620 X-5.03 Y-22.185
N11625 X-5.035 Y-22.197
N11630 X-5.33 Y-22.882
N11635 X-5.343 Y-22.912
N11640 X-5.645 Y-23.575
N11645 X-5.669 Y-23.625
N11650 X-5.984 Y-24.257
N11655 X-6.01 Y-24.308
N11660 X-6.174 Y-24.611
N11665 X-6.197 Y-24.652
N11670 X-6.368 Y-24.945
N11675 X-6.396 Y-24.991
N11680 X-6.573 Y-25.273
N11685 X-6.607 Y-25.324
N11690 X-6.792 Y-25.594
N11695 X-6.832 Y-25.651
N11700 X-7.027 Y-25.91
N11705 X-7.076 Y-25.973
N11710 X-7.282 Y-26.221
N11715 X-7.341 Y-26.288
N11720 X-7.561 Y-26.524
N11725 X-7.631 Y-26.594
N11730 X-7.865 Y-26.815
N11735 X-7.947 Y-26.888
N11740 X-8.196 Y-27.093
N11745 X-8.291 Y-27.165
N11750 X-8.555 Y-27.351
N11755 X-8.662 Y-27.42
N11760 X-8.939 Y-27.584
N11765 X-9.054 Y-27.646
N11770 X-9.341 Y-27.785
N11775 X-9.462 Y-27.837
N11780 X-9.758 Y-27.951
N11785 X-9.883 Y-27.993
N11790 X-10.189 Y-28.083
N11795 X-10.315 Y-28.115
N11800 X-10.631 Y-28.18
N11805 X-10.753 Y-28.2
N11810 X-11.073 Y-28.24
N11815 X-11.188 Y-28.251
N11820 X-11.51 Y-28.268
N11825 X-11.618 Y-28.27
N11830 X-11.94 Y-28.265
N11835 X-12.04 Y-28.26
N11840 X-12.362 Y-28.235
N11845 X-12.452 Y-28.225
N11850 X-12.773 Y-28.181
N11855 X-12.855 Y-28.168
N11860 X-13.175 Y-28.107
N11865 X-13.249 Y-28.091
N11870 X-13.566 Y-28.015
N11875 X-13.635 Y-27.997
N11880 X-13.95 Y-27.906
N11885 X-14.011 Y-27.887
N11890 X-14.322 Y-27.783
N11895 X-14.378 Y-27.763
N11900 X-14.685 Y-27.648
N11905 X-14.736 Y-27.628
N11910 X-15.037 Y-27.503
N11915 X-15.105 Y-27.473
N11920 X-15.693 Y-27.197
N11925 X-15.774 Y-27.156
N11930 X-16.35 Y-26.843
N11935 X-16.423 Y-26.801
N11940 X-16.983 Y-26.458
N11945 X-17.05 Y-26.415
N11950 X-17.588 Y-26.047
N11955 X-17.621 Y-26.024
N11960 X-17.688 Y-25.975
N11965 X-17.713 Y-25.957
N11970 X-18.07 Y-25.687
N11975 X-18.113 Y-25.654
N11980 X-18.466 Y-25.368
N11985 X-18.509 Y-25.332
N11990 X-18.855 Y-25.031
N11995 X-18.899 Y-24.991
N12000 X-19.235 Y-24.675
N12005 X-19.281 Y-24.631
N12010 X-19.604 Y-24.302
N12015 X-19.651 Y-24.253
N12020 X-19.958 Y-23.912
N12025 X-20.007 Y-23.855
N12030 X-20.296 Y-23.504
N12035 X-20.346 Y-23.439
N12040 X-20.613 Y-23.077
N12045 X-20.664 Y-23.003
N12050 X-20.907 Y-22.632
N12055 X-20.96 Y-22.545
N12060 X-21.178 Y-22.159
N12065 X-21.23 Y-22.059
N12070 X-21.42 Y-21.659
N12075 X-21.471 Y-21.541
N12080 X-21.627 Y-21.127
N12085 X-21.661 Y-21.028
N12090 X-21.726 Y-20.816
N12095 X-21.746 Y-20.744
N12100 X-21.801 Y-20.53
N12105 X-21.818 Y-20.453
N12110 X-21.862 Y-20.236
N12115 X-21.876 Y-20.155
N12120 X-21.908 Y-19.938
N12125 X-21.919 Y-19.854
N12130 X-21.939 Y-19.636
N12135 X-21.945 Y-19.551
N12140 X-21.954 Y-19.333
N12145 X-21.955 Y-19.246
N12150 X-21.952 Y-19.028
N12155 X-21.948 Y-18.94
N12160 X-21.933 Y-18.722
N12165 X-21.924 Y-18.635
N12170 X-21.896 Y-18.418
N12175 X-21.883 Y-18.33
N12180 X-21.843 Y-18.113
N12185 X-21.825 Y-18.028
N12190 X-21.773 Y-17.814
N12195 X-21.751 Y-17.732
N12200 X-21.689 Y-17.521
N12205 X-21.664 Y-17.446
N12210 X-21.591 Y-17.239
N12215 X-21.563 Y-17.166
N12220 X-21.48 Y-16.963
N12225 X-21.437 Y-16.866
N12230 X-21.243 Y-16.471
N12235 X-21.182 Y-16.358
N12240 X-20.956 Y-15.977
N12245 X-20.896 Y-15.884
N12250 X-20.639 Y-15.513
N12255 X-20.583 Y-15.436
N12260 X-20.299 Y-15.074
N12265 X-20.248 Y-15.013
N12270 X-19.941 Y-14.659
N12275 X-19.896 Y-14.609
N12280 X-19.568 Y-14.262
N12285 X-19.53 Y-14.224
N12290 X-19.185 Y-13.883
N12295 X-19.155 Y-13.854
N12300 X-18.795 Y-13.516
N12305 X-18.771 Y-13.495
N12310 X-18.398 Y-13.159
N12315 X-18.377 Y-13.14
N12320 X-17.605 Y-12.47
N12325 X-17.598 Y-12.464
N12330 X-16.82 Y-11.796
N12335 X-16.065 Y-11.127
N12340 X-15.715 Y-10.8
N12345 X-15.378 Y-10.47
N12350 X-15.06 Y-10.14
N12355 X-14.765 Y-9.809
N12360 X-14.495 Y-9.478
N12365 X-14.249 Y-9.145
N12370 X-14.032 Y-8.81
N12375 X-13.837 Y-8.461
N12380 X-13.761 Y-8.306
N12385 X-13.688 Y-8.138
N12390 X-13.623 Y-7.971
N12395 X-13.567 Y-7.803
N12400 X-13.521 Y-7.641
N12405 X-13.485 Y-7.486
N12410 X-13.457 Y-7.338
N12415 X-13.437 Y-7.197
N12420 X-13.425 Y-7.062
N12425 X-13.418 Y-6.933
N12430 X-13.417 Y-6.81
N12435 X-13.421 Y-6.706
N12440 X-13.443 Y-6.468
N12445 X-13.481 Y-6.249
N12450 X-13.536 Y-6.035
N12455 X-13.606 Y-5.824
N12460 X-13.694 Y-5.619
N12465 X-13.797 Y-5.419
N12470 X-13.916 Y-5.227
N12475 X-14.049 Y-5.043
N12480 X-14.196 Y-4.867
N12485 X-14.359 Y-4.7
N12490 X-14.537 Y-4.54
N12495 X-14.728 Y-4.389
N12500 X-14.931 Y-4.249
N12505 X-15.148 Y-4.118
N12510 X-15.376 Y-3.997
N12515 X-15.617 Y-3.886
N12520 X-15.869 Y-3.783
N12525 X-16.133 Y-3.69
N12530 X-16.406 Y-3.606
N12535 X-16.688 Y-3.532
N12540 X-16.978 Y-3.466
N12545 X-17.266 Y-3.41
N12550 X-17.894 Y-3.315
N12555 X-18.527 Y-3.25
N12560 X-19.175 Y-3.206
N12565 X-19.836 Y-3.179
N12570 X-20.508 Y-3.162
N12575 X-21.185 Y-3.15
N12580 X-21.19 Y-3.149
N12585 X-21.86 Y-3.135
N12590 X-21.882 Y-3.134
N12595 X-22.536 Y-3.111
N12600 X-22.576 Y-3.109
N12605 X-23.212 Y-3.071
N12610 X-23.271 Y-3.066
N12615 X-23.884 Y-3.006
N12620 X-23.943 Y-2.999
N12625 X-24.24 Y-2.959
N12630 X-24.287 Y-2.952
N12635 X-24.577 Y-2.903
N12640 X-24.631 Y-2.893
N12645 X-24.914 Y-2.836
N12650 X-24.974 Y-2.823
N12655 X-25.249 Y-2.756
N12660 X-25.316 Y-2.738
N12665 X-25.582 Y-2.661
N12670 X-25.656 Y-2.637
N12675 X-25.914 Y-2.549
N12680 X-25.994 Y-2.519
N12685 X-26.242 Y-2.418
N12690 X-26.328 Y-2.38
N12695 X-26.567 Y-2.266
N12700 X-26.658 Y-2.219
N12705 X-26.886 Y-2.092
N12710 X-26.979 Y-2.036
N12715 X-27.197 Y-1.894
N12720 X-27.291 Y-1.827
N12725 X-27.497 Y-1.671
N12730 X-27.59 Y-1.594
N12735 X-27.784 Y-1.422
N12740 X-27.874 Y-1.335
N12745 X-28.055 Y-1.147
N12750 X-28.139 Y-1.052
N12755 X-28.304 Y-0.849
N12760 X-28.379 Y-0.75
N12765 X-28.528 Y-0.536
N12770 X-28.592 Y-0.436
N12775 X-28.724 Y-0.212
N12780 X-28.778 Y-0.112
N12785 X-28.893 Y0.121
N12790 X-28.938 Y0.218
N12795 X-29.038 Y0.46
N12800 X-29.073 Y0.553
N12805 X-29.158 Y0.802
N12810 X-29.186 Y0.89
N12815 X-29.257 Y1.144
N12820 X-29.278 Y1.227
N12825 X-29.335 Y1.485
N12830 X-29.35 Y1.561
N12835 X-29.395 Y1.822
N12840 X-29.405 Y1.893
N12845 X-29.438 Y2.156
N12850 X-29.445 Y2.22
N12855 X-29.467 Y2.484
N12860 X-29.472 Y2.57
N12865 X-29.488 Y3.098
N12870 Y3.198
N12875 X-29.471 Y3.732
N12880 X-29.465 Y3.819
N12885 X-29.418 Y4.359
N12890 X-29.409 Y4.435
N12895 X-29.336 Y4.977
N12900 X-29.325 Y5.044
N12905 X-29.228 Y5.582
N12910 X-29.216 Y5.642
N12915 X-29.1 Y6.171
N12920 X-29.087 Y6.225
N12925 X-28.954 Y6.741
N12930 X-28.942 Y6.785
N12935 G2 X-28.647 Y7.748 I28.982 J-8.357
N12940 G1 X-28.632 Y7.791
N12945 X-28.442 Y8.323
N12950 X-28.423 Y8.374
N12955 X-28.213 Y8.905
N12960 X-28.191 Y8.958
N12965 X-27.96 Y9.484
N12970 X-27.935 Y9.539
N12975 X-27.685 Y10.056
N12980 X-27.655 Y10.114
N12985 X-27.386 Y10.616
N12990 X-27.351 Y10.679
N12995 X-27.063 Y11.161
N13000 X-27.02 Y11.23
N13005 X-26.715 Y11.687
N13010 X-26.662 Y11.761
N13015 X-26.34 Y12.189
N13020 X-26.273 Y12.272
N13025 X-25.924 Y12.676
N13030 X-25.862 Y12.744
N13035 X-25.675 Y12.936
N13040 X-25.626 Y12.985
N13045 X-25.431 Y13.169
N13050 X-25.374 Y13.22
N13055 X-25.171 Y13.394
N13060 X-25.107 Y13.446
N13065 X-24.896 Y13.609
N13070 X-24.822 Y13.662
N13075 X-24.603 Y13.813
N13080 X-24.519 Y13.866
N13085 X-24.292 Y14.001
N13090 X-24.2 Y14.052
N13095 X-23.965 Y14.172
N13100 X-23.864 Y14.219
N13105 X-23.623 Y14.321
N13110 X-23.513 Y14.363
N13115 X-23.265 Y14.447
N13120 X-23.148 Y14.481
N13125 X-22.894 Y14.546
N13130 X-22.771 Y14.572
N13135 X-22.51 Y14.617
N13140 X-22.384 Y14.633
N13145 X-22.121 Y14.657
N13150 X-21.999 Y14.663
N13155 X-21.737 Y14.667
N13160 X-21.619 Y14.664
N13165 X-21.358 Y14.647
N13170 X-21.247 Y14.637
N13175 X-20.986 Y14.602
N13180 X-20.885 Y14.585
N13185 X-20.625 Y14.534
N13190 X-20.532 Y14.512
N13195 X-20.272 Y14.444
N13200 X-20.19 Y14.42
N13205 X-19.932 Y14.337
N13210 X-19.858 Y14.311
N13215 X-19.6 Y14.214
N13220 X-19.536 Y14.188
N13225 X-19.279 Y14.079
N13230 X-19.223 Y14.053
N13235 X-18.966 Y13.932
N13240 X-18.918 Y13.908
N13245 X-18.662 Y13.776
N13250 X-18.602 Y13.744
N13255 X-18.09 Y13.451
N13260 X-18.031 Y13.415
N13265 X-17.515 Y13.089
N13270 X-17.474 Y13.063
N13275 X-16.953 Y12.711
N13280 X-16.929 Y12.695
N13285 X-16.401 Y12.325
N13290 X-16.391 Y12.318
N13295 X-15.856 Y11.937
N13300 X-15.32 Y11.557
N13305 X-14.784 Y11.188
N13310 X-14.244 Y10.834
N13315 X-13.701 Y10.502
N13320 X-13.146 Y10.195
N13325 X-12.882 Y10.063
N13330 X-12.611 Y9.937
N13335 X-12.341 Y9.822
N13340 X-12.073 Y9.719
N13345 X-11.806 Y9.629
N13350 X-11.537 Y9.551
N13355 X-11.252 Y9.483
N13360 X-10.954 Y9.429
N13365 X-10.646 Y9.394
N13370 X-10.312 Y9.381
N13375 X-10.166 Y9.384
N13380 X-10.003 Y9.394
N13385 X-9.84 Y9.411
N13390 X-9.68 Y9.435
N13395 X-9.523 Y9.466
N13400 X-9.37 Y9.505
N13405 X-9.22 Y9.55
N13410 X-9.073 Y9.601
N13415 X-8.929 Y9.66
N13420 X-8.789 Y9.726
N13425 X-8.652 Y9.799
N13430 X-8.52 Y9.878
N13435 X-8.392 Y9.963
N13440 X-8.269 Y10.054
N13445 X-8.152 Y10.151
N13450 X-8.04 Y10.254
N13455 X-7.933 Y10.362
N13460 X-7.831 Y10.477
N13465 X-7.735 Y10.596
N13470 X-7.646 Y10.72
N13475 X-7.563 Y10.849
N13480 X-7.485 Y10.982
N13485 X-7.414 Y11.121
N13490 X-7.349 Y11.265
N13495 X-7.289 Y11.414
N13500 X-7.241 Y11.553
N13505 X-7.146 Y11.895
N13510 X-7.081 Y12.236
N13515 X-7.039 Y12.594
N13520 X-7.02 Y12.968
N13525 X-7.023 Y13.354
N13530 X-7.047 Y13.753
N13535 X-7.089 Y14.165
N13540 X-7.15 Y14.588
N13545 X-7.226 Y15.021
N13550 X-7.316 Y15.461
N13555 X-7.416 Y15.904
N13560 X-7.648 Y16.821
N13565 X-7.898 Y17.742
N13570 X-7.899 Y17.745
N13575 X-8.146 Y18.664
N13580 X-8.151 Y18.684
N13585 X-8.267 Y19.136
N13590 X-8.273 Y19.16
N13595 X-8.379 Y19.607
N13600 X-8.387 Y19.639
N13605 X-8.482 Y20.08
N13610 X-8.491 Y20.122
N13615 X-8.572 Y20.556
N13620 X-8.581 Y20.608
N13625 X-8.647 Y21.035
N13630 X-8.655 Y21.099
N13635 X-8.703 Y21.517
N13640 X-8.709 Y21.594
N13645 X-8.736 Y22.005
N13650 X-8.739 Y22.095
N13655 X-8.741 Y22.498
N13660 X-8.739 Y22.605
N13665 X-8.714 Y23.006
N13670 X-8.702 Y23.129
N13675 X-8.647 Y23.527
N13680 X-8.621 Y23.666
N13685 X-8.53 Y24.057
N13690 X-8.499 Y24.171
N13695 X-8.44 Y24.363
N13700 X-8.413 Y24.442
N13705 X-8.343 Y24.63
N13710 X-8.31 Y24.711
N13715 X-8.231 Y24.894
N13720 X-8.194 Y24.973
N13725 X-8.105 Y25.15
N13730 X-8.063 Y25.229
N13735 X-7.964 Y25.401
N13740 X-7.918 Y25.477
N13745 X-7.81 Y25.642
N13750 X-7.759 Y25.715
N13755 X-7.642 Y25.875
N13760 X-7.588 Y25.945
N13765 X-7.461 Y26.099
N13770 X-7.404 Y26.164
N13775 X-7.268 Y26.313
N13780 X-7.21 Y26.373
N13785 X-7.066 Y26.514
N13790 X-6.978 Y26.594
N13795 X-6.671 Y26.852
N13800 X-6.555 Y26.94
N13805 X-6.226 Y27.169
N13810 X-6.116 Y27.24
N13815 X-5.768 Y27.441
N13820 X-5.665 Y27.496
N13825 X-5.302 Y27.672
N13830 X-5.207 Y27.714
N13835 X-4.831 Y27.868
N13840 X-4.746 Y27.9
N13845 X-4.359 Y28.032
N13850 X-4.282 Y28.056
N13855 X-3.89 Y28.169
N13860 X-3.821 Y28.187
N13865 X-3.426 Y28.281
N13870 X-3.364 Y28.295
N13875 X-2.97 Y28.372
N13880 X-2.914 Y28.382
N13885 X-2.525 Y28.444
N13890 X-2.474 Y28.451
N13895 X-2.094 Y28.499
N13900 X-2.048 Y28.504
N13905 X-1.68 Y28.54
N13910 X-1.614 Y28.545
N13915 G2 X0.04 Y28.59 I1.654 J-30.117
N13920 G1 X0.102 Y28.589
N13925 X0.536 Y28.572
N13930 X0.581 Y28.569
N13935 X1.02 Y28.539
N13940 X1.066 Y28.535
N13945 X1.507 Y28.492
N13950 X1.555 Y28.487
N13955 X1.995 Y28.43
N13960 X2.046 Y28.423
N13965 X2.484 Y28.352
N13970 X2.537 Y28.343
N13975 X2.97 Y28.257
N13980 X3.027 Y28.245
N13985 X3.453 Y28.145
N13990 X3.514 Y28.129
N13995 X3.93 Y28.013
N14000 X3.996 Y27.993
N14005 X4.4 Y27.862
N14010 X4.472 Y27.837
N14015 X4.861 Y27.689
N14020 X4.94 Y27.657
N14025 X5.319 Y27.489
N14030 X5.406 Y27.448
N14035 X5.776 Y27.257
N14040 X5.872 Y27.203
N14045 X6.227 Y26.987
N14050 X6.331 Y26.918
N14055 X6.668 Y26.676
N14060 X6.779 Y26.588
N14065 X7.092 Y26.317
N14070 X7.177 Y26.238
N14075 X7.322 Y26.092
N14080 X7.378 Y26.033
N14085 X7.515 Y25.881
N14090 X7.57 Y25.816
N14095 X7.698 Y25.658
N14100 X7.751 Y25.588
N14105 X7.87 Y25.423
N14110 X7.92 Y25.349
N14115 X8.029 Y25.178
N14120 X8.076 Y25.1
N14125 X8.176 Y24.921
N14130 X8.218 Y24.84
N14135 X8.308 Y24.655
N14140 X8.346 Y24.571
N14145 X8.425 Y24.38
N14150 X8.457 Y24.297
N14155 X8.525 Y24.104
N14160 X8.552 Y24.021
N14165 X8.609 Y23.825
N14170 X8.63 Y23.745
N14175 X8.677 Y23.546
N14180 X8.693 Y23.469
N14185 X8.73 Y23.268
N14190 X8.746 Y23.16
N14195 X8.793 Y22.75
N14200 X8.802 Y22.621
N14205 X8.815 Y22.202
N14210 Y22.091
N14215 X8.798 Y21.664
N14220 X8.792 Y21.57
N14225 X8.749 Y21.135
N14230 X8.74 Y21.058
N14235 X8.674 Y20.615
N14240 X8.664 Y20.553
N14245 X8.579 Y20.104
N14250 X8.569 Y20.056
N14255 X8.468 Y19.599
N14260 X8.46 Y19.563
N14265 X8.345 Y19.098
N14270 X8.339 Y19.072
N14275 X8.215 Y18.599
N14280 X8.209 Y18.581
N14285 X7.943 Y17.617
N14290 X7.679 Y16.648
N14295 X7.441 Y15.681
N14300 X7.342 Y15.218
N14305 X7.258 Y14.753
N14310 X7.19 Y14.292
N14315 X7.143 Y13.838
N14320 X7.118 Y13.394
N14325 X7.117 Y12.963
N14330 X7.143 Y12.547
N14335 X7.199 Y12.132
N14340 X7.231 Y11.963
N14345 X7.272 Y11.791
N14350 X7.316 Y11.631
N14355 X7.363 Y11.482
N14360 X7.414 Y11.343
N14365 X7.467 Y11.213
N14370 X7.523 Y11.092
N14375 X7.573 Y10.991
N14380 X7.699 Y10.774
N14385 X7.826 Y10.588
N14390 X7.964 Y10.416
N14395 X8.114 Y10.258
N14400 X8.275 Y10.113
N14405 X8.448 Y9.981
N14410 X8.63 Y9.865
N14415 X8.821 Y9.764
N14420 X9.021 Y9.677
N14425 X9.231 Y9.606
N14430 X9.452 Y9.55
N14435 X9.68 Y9.509
N14440 X9.915 Y9.485
N14445 X10.159 Y9.476
N14450 X10.409 Y9.483
N14455 X10.667 Y9.505
N14460 X10.931 Y9.543
N14465 X11.199 Y9.595
N14470 X11.472 Y9.661
N14475 X11.748 Y9.741
N14480 X12.027 Y9.834
N14485 X12.308 Y9.939
N14490 X12.589 Y10.054
N14495 X12.862 Y10.175
N14500 X13.44 Y10.458
N14505 X14.014 Y10.767
N14510 X14.592 Y11.102
N14515 X15.174 Y11.456
N14520 X15.76 Y11.821
N14525 X16.345 Y12.185
N14530 X16.357 Y12.193
N14535 X16.934 Y12.545
N14540 X16.961 Y12.561
N14545 X17.53 Y12.893
N14550 X17.575 Y12.918
N14555 X18.14 Y13.224
N14560 X18.206 Y13.258
N14565 X18.77 Y13.53
N14570 X18.834 Y13.559
N14575 X19.116 Y13.68
N14580 X19.168 Y13.701
N14585 X19.45 Y13.811
N14590 X19.51 Y13.832
N14595 X19.792 Y13.929
N14600 X19.859 Y13.95
N14605 X20.14 Y14.033
N14610 X20.216 Y14.053
N14615 X20.499 Y14.121
N14620 X20.583 Y14.139
N14625 X20.867 Y14.191
N14630 X20.96 Y14.205
N14635 X21.245 Y14.24
N14640 X21.347 Y14.249
N14645 X21.633 Y14.265
N14650 X21.743 Y14.268
N14655 X22.029 Y14.264
N14660 X22.145 Y14.259
N14665 X22.432 Y14.234
N14670 X22.552 Y14.219
N14675 X22.838 Y14.173
N14680 X22.956 Y14.149
N14685 X23.235 Y14.082
N14690 X23.35 Y14.049
N14695 X23.622 Y13.961
N14700 X23.731 Y13.921
N14705 X23.996 Y13.813
N14710 X24.098 Y13.768
N14715 X24.356 Y13.641
N14720 X24.451 Y13.59
N14725 X24.702 Y13.445
N14730 X24.788 Y13.391
N14735 X25.029 Y13.23
N14740 X25.105 Y13.176
N14745 X25.337 Y13.001
N14750 X25.405 Y12.947
N14755 X25.627 Y12.759
N14760 X25.686 Y12.706
N14765 X25.899 Y12.507
N14770 X25.951 Y12.455
N14775 X26.154 Y12.247
N14780 X26.2 Y12.198
N14785 X26.394 Y11.982
N14790 X26.434 Y11.935
N14795 X26.62 Y11.71
N14800 X26.656 Y11.664
N14805 X26.836 Y11.43
N14810 X26.883 Y11.366
N14815 X27.223 Y10.873
N14820 X27.274 Y10.794
N14825 X27.588 Y10.275
N14830 X27.631 Y10.201
N14835 X27.918 Y9.664
N14840 X27.953 Y9.595
N14845 X28.213 Y9.045
N14850 X28.242 Y8.98
N14855 X28.475 Y8.425
N14860 X28.5 Y8.362
N14865 X28.705 Y7.809
N14870 X28.726 Y7.748
N14875 G2 X29.053 Y6.673 I-28.686 J-9.322
N14880 G1 X29.067 Y6.621
N14885 X29.153 Y6.272
N14890 X29.164 Y6.228
N14895 X29.241 Y5.873
N14900 X29.25 Y5.826
N14905 X29.318 Y5.466
N14910 X29.327 Y5.415
N14915 X29.382 Y5.05
N14920 X29.39 Y4.996
N14925 X29.433 Y4.629
N14930 X29.439 Y4.57
N14935 X29.468 Y4.203
N14940 X29.472 Y4.138
N14945 X29.487 Y3.772
N14950 X29.488 Y3.702
N14955 X29.486 Y3.338
N14960 X29.485 Y3.286
N14965 G3 X29.79 Y2.957 I0.317 J-0.012
N14970 G1 X30.107 Y2.944
N14975 X30.178 Y2.942 Z-9.517
N14980 X30.245 Y2.939 Z-9.494
N14985 X30.305 Y2.937 Z-9.456
N14990 X30.355 Y2.935 Z-9.405
N14995 X30.393 Y2.933 Z-9.345
N15000 X30.416 Y2.932 Z-9.278
N15005 X30.424 Z-9.208
N15010 Z5.
N15015 X30.449 Y3.567
N15020 Z-4.525 F1033.33
N15025 Z-12.383
N15030 X30.441 Z-12.453 F3100.
N15035 X30.417 Y3.568 Z-12.52
N15040 X30.379 Y3.569 Z-12.58
N15045 X30.329 Y3.571 Z-12.631
N15050 X30.269 Y3.574 Z-12.669
N15055 X30.202 Y3.576 Z-12.692
N15060 X30.131 Y3.579 Z-12.7
N15065 X29.814 Y3.591
N15070 G3 X29.485 Y3.286 I-0.012 J-0.317
N15075 G1 X29.483 Y3.26
N15080 X29.464 Y2.901
N15085 X29.457 Y2.816
N15090 X29.418 Y2.461
N15095 X29.405 Y2.367
N15100 X29.345 Y2.016
N15105 X29.324 Y1.913
N15110 X29.241 Y1.567
N15115 X29.21 Y1.456
N15120 X29.103 Y1.118
N15125 X29.06 Y0.999
N15130 X28.925 Y0.67
N15135 X28.868 Y0.545
N15140 X28.706 Y0.229
N15145 X28.634 Y0.103
N15150 X28.446 Y-0.194
N15155 X28.361 Y-0.316
N15160 X28.146 Y-0.593
N15165 X28.049 Y-0.707
N15170 X27.809 Y-0.963
N15175 X27.703 Y-1.066
N15180 X27.437 Y-1.302
N15185 X27.327 Y-1.391
N15190 X27.041 Y-1.602
N15195 X26.932 Y-1.675
N15200 X26.63 Y-1.861
N15205 X26.526 Y-1.92
N15210 X26.211 Y-2.083
N15215 X26.115 Y-2.129
N15220 X25.788 Y-2.271
N15225 X25.701 Y-2.306
N15230 X25.364 Y-2.429
N15235 X25.286 Y-2.455
N15240 X24.936 Y-2.563
N15245 X24.867 Y-2.583
N15250 X24.507 Y-2.676
N15255 X24.446 Y-2.691
N15260 X24.076 Y-2.771
N15265 X24.024 Y-2.782
N15270 X23.645 Y-2.851
N15275 X23.601 Y-2.859
N15280 X23.214 Y-2.918
N15285 X23.178 Y-2.923
N15290 X22.784 Y-2.975
N15295 X22.743 Y-2.979
N15300 X21.935 Y-3.063
N15305 X21.902 Y-3.066
N15310 X21.068 Y-3.135
N15315 X21.058 Y-3.136
N15320 X20.213 Y-3.2
N15325 X19.376 Y-3.27
N15330 X18.562 Y-3.354
N15335 X17.769 Y-3.464
N15340 X17.401 Y-3.528
N15345 X17.037 Y-3.602
N15350 X16.686 Y-3.685
N15355 X16.35 Y-3.778
N15360 X16.029 Y-3.882
N15365 X15.725 Y-3.996
N15370 X15.437 Y-4.121
N15375 X15.167 Y-4.258
N15380 X14.916 Y-4.406
N15385 X14.684 Y-4.565
N15390 X14.472 Y-4.735
N15395 X14.278 Y-4.918
N15400 X14.107 Y-5.11
N15405 X13.958 Y-5.312
N15410 X13.829 Y-5.523
N15415 X13.721 Y-5.745
N15420 X13.633 Y-5.978
N15425 X13.567 Y-6.218
N15430 X13.523 Y-6.466
N15435 X13.5 Y-6.721
N15440 Y-6.983
N15445 X13.522 Y-7.247
N15450 X13.567 Y-7.514
N15455 X13.633 Y-7.785
N15460 X13.722 Y-8.057
N15465 X13.832 Y-8.331
N15470 X13.962 Y-8.603
N15475 X14.112 Y-8.875
N15480 X14.281 Y-9.144
N15485 X14.467 Y-9.411
N15490 X14.67 Y-9.676
N15495 X14.887 Y-9.937
N15500 X15.119 Y-10.195
N15505 X15.364 Y-10.45
N15510 X15.62 Y-10.701
N15515 X15.882 Y-10.945
N15520 X16.45 Y-11.441
N15525 X17.035 Y-11.919
N15530 X17.634 Y-12.39
N15535 X18.233 Y-12.856
N15540 X18.242 Y-12.863
N15545 X18.826 Y-13.324
N15550 X18.854 Y-13.346
N15555 X19.41 Y-13.806
N15560 X19.443 Y-13.834
N15565 X19.707 Y-14.064
N15570 X19.735 Y-14.09
N15575 X19.99 Y-14.322
N15580 X20.023 Y-14.354
N15585 X20.265 Y-14.589
N15590 X20.303 Y-14.627
N15595 X20.533 Y-14.865
N15600 X20.575 Y-14.911
N15605 X20.792 Y-15.154
N15610 X20.838 Y-15.209
N15615 X21.04 Y-15.457
N15620 X21.091 Y-15.523
N15625 X21.276 Y-15.778
N15630 X21.329 Y-15.856
N15635 X21.497 Y-16.117
N15640 X21.55 Y-16.207
N15645 X21.699 Y-16.476
N15650 X21.751 Y-16.579
N15655 X21.878 Y-16.856
N15660 X21.926 Y-16.971
N15665 X22.03 Y-17.254
N15670 X22.07 Y-17.378
N15675 X22.15 Y-17.666
N15680 X22.181 Y-17.797
N15685 X22.236 Y-18.09
N15690 X22.255 Y-18.227
N15695 X22.285 Y-18.526
N15700 X22.293 Y-18.662
N15705 X22.297 Y-18.966
N15710 X22.293 Y-19.098
N15715 X22.272 Y-19.4
N15720 X22.258 Y-19.523
N15725 X22.213 Y-19.821
N15730 X22.192 Y-19.935
N15735 X22.125 Y-20.23
N15740 X22.099 Y-20.333
N15745 X22.012 Y-20.624
N15750 X21.981 Y-20.716
N15755 X21.877 Y-21.003
N15760 X21.844 Y-21.086
N15765 X21.723 Y-21.367
N15770 X21.689 Y-21.441
N15775 X21.553 Y-21.717
N15780 X21.519 Y-21.782
N15785 X21.37 Y-22.053
N15790 X21.336 Y-22.111
N15795 X21.176 Y-22.375
N15800 X21.143 Y-22.426
N15805 X20.973 Y-22.683
N15810 X20.942 Y-22.729
N15815 X20.765 Y-22.979
N15820 X20.721 Y-23.038
N15825 X20.343 Y-23.519
N15830 X20.287 Y-23.586
N15835 X19.877 Y-24.054
N15840 X19.825 Y-24.112
N15845 X19.388 Y-24.564
N15850 X19.337 Y-24.613
N15855 X18.88 Y-25.046
N15860 X18.831 Y-25.091
N15865 X18.359 Y-25.502
N15870 X18.311 Y-25.542
N15875 X17.83 Y-25.928
N15880 X17.769 Y-25.975
N15885 G2 X16.088 Y-27.111 I-17.729 J24.402
N15890 G1 X16.009 Y-27.158
N15895 X15.426 Y-27.478
N15900 X15.368 Y-27.509
N15905 X15.065 Y-27.659
N15910 X15.021 Y-27.68
N15915 X14.713 Y-27.821
N15920 X14.664 Y-27.843
N15925 X14.351 Y-27.974
N15930 X14.296 Y-27.996
N15935 X13.979 Y-28.115
N15940 X13.918 Y-28.136
N15945 X13.599 Y-28.241
N15950 X13.531 Y-28.262
N15955 X13.21 Y-28.352
N15960 X13.133 Y-28.372
N15965 X12.811 Y-28.445
N15970 X12.726 Y-28.462
N15975 X12.403 Y-28.518
N15980 X12.308 Y-28.531
N15985 X11.982 Y-28.567
N15990 X11.876 Y-28.575
N15995 X11.549 Y-28.589
N16000 X11.431
N16005 X11.104 Y-28.578
N16010 X10.976 Y-28.569
N16015 X10.651 Y-28.532
N16020 X10.513 Y-28.51
N16025 X10.193 Y-28.445
N16030 X10.051 Y-28.409
N16035 X9.742 Y-28.315
N16040 X9.6 Y-28.265
N16045 X9.302 Y-28.143
N16050 X9.166 Y-28.08
N16055 X8.879 Y-27.929
N16060 X8.752 Y-27.855
N16065 X8.478 Y-27.677
N16070 X8.363 Y-27.595
N16075 X8.106 Y-27.394
N16080 X8.008 Y-27.31
N16085 X7.768 Y-27.089
N16090 X7.686 Y-27.007
N16095 X7.462 Y-26.769
N16100 X7.394 Y-26.691
N16105 X7.186 Y-26.437
N16110 X7.131 Y-26.365
N16115 X6.935 Y-26.097
N16120 X6.89 Y-26.031
N16125 X6.705 Y-25.749
N16130 X6.668 Y-25.689
N16135 X6.492 Y-25.393
N16140 X6.462 Y-25.34
N16145 X6.295 Y-25.031
N16150 X6.271 Y-24.986
N16155 X6.111 Y-24.667
N16160 X6.084 Y-24.61
N16165 X5.783 Y-23.944
N16170 X5.759 Y-23.89
N16175 X5.473 Y-23.19
N16180 X5.46 Y-23.157
N16185 X5.181 Y-22.429
N16190 X5.176 Y-22.416
N16195 X4.898 Y-21.671
N16200 X4.617 Y-20.929
N16205 X4.329 Y-20.204
N16210 X4.03 Y-19.507
N16215 X3.709 Y-18.835
N16220 X3.548 Y-18.53
N16225 X3.377 Y-18.23
N16230 X3.201 Y-17.943
N16235 X3.02 Y-17.671
N16240 X2.832 Y-17.415
N16245 X2.637 Y-17.174
N16250 X2.436 Y-16.951
N16255 X2.229 Y-16.746
N16260 X2.016 Y-16.561
N16265 X1.798 Y-16.397
N16270 X1.575 Y-16.254
N16275 X1.35 Y-16.133
N16280 X1.123 Y-16.035
N16285 X0.892 Y-15.959
N16290 X0.657 Y-15.904
N16295 X0.42 Y-15.87
N16300 X0.181 Y-15.859
N16305 X-0.057 Y-15.87
N16310 X-0.297 Y-15.903
N16315 X-0.538 Y-15.958
N16320 X-0.775 Y-16.035
N16325 X-1.009 Y-16.133
N16330 X-1.242 Y-16.253
N16335 X-1.472 Y-16.395
N16340 X-1.699 Y-16.557
N16345 X-1.919 Y-16.74
N16350 X-2.135 Y-16.941
N16355 X-2.345 Y-17.16
N16360 X-2.548 Y-17.397
N16365 X-2.746 Y-17.648
N16370 X-2.938 Y-17.916
N16375 X-3.125 Y-18.197
N16380 X-3.306 Y-18.491
N16385 X-3.478 Y-18.789
N16390 X-3.82 Y-19.44
N16395 X-4.137 Y-20.107
N16400 X-4.44 Y-20.79
N16405 X-4.736 Y-21.486
N16410 X-5.03 Y-22.185
N16415 X-5.035 Y-22.197
N16420 X-5.33 Y-22.882
N16425 X-5.343 Y-22.912
N16430 X-5.645 Y-23.575
N16435 X-5.669 Y-23.625
N16440 X-5.984 Y-24.257
N16445 X-6.01 Y-24.308
N16450 X-6.174 Y-24.611
N16455 X-6.197 Y-24.652
N16460 X-6.368 Y-24.945
N16465 X-6.396 Y-24.991
N16470 X-6.573 Y-25.273
N16475 X-6.607 Y-25.324
N16480 X-6.792 Y-25.594
N16485 X-6.832 Y-25.651
N16490 X-7.027 Y-25.91
N16495 X-7.076 Y-25.973
N16500 X-7.282 Y-26.221
N16505 X-7.341 Y-26.288
N16510 X-7.561 Y-26.524
N16515 X-7.631 Y-26.594
N16520 X-7.865 Y-26.815
N16525 X-7.947 Y-26.888
N16530 X-8.196 Y-27.093
N16535 X-8.291 Y-27.165
N16540 X-8.555 Y-27.351
N16545 X-8.662 Y-27.42
N16550 X-8.939 Y-27.584
N16555 X-9.054 Y-27.646
N16560 X-9.341 Y-27.785
N16565 X-9.462 Y-27.837
N16570 X-9.758 Y-27.951
N16575 X-9.883 Y-27.993
N16580 X-10.189 Y-28.083
N16585 X-10.315 Y-28.115
N16590 X-10.631 Y-28.18
N16595 X-10.753 Y-28.2
N16600 X-11.073 Y-28.24
N16605 X-11.188 Y-28.251
N16610 X-11.51 Y-28.268
N16615 X-11.618 Y-28.27
N16620 X-11.94 Y-28.265
N16625 X-12.04 Y-28.26
N16630 X-12.362 Y-28.235
N16635 X-12.452 Y-28.225
N16640 X-12.773 Y-28.181
N16645 X-12.855 Y-28.168
N16650 X-13.175 Y-28.107
N16655 X-13.249 Y-28.091
N16660 X-13.566 Y-28.015
N16665 X-13.635 Y-27.997
N16670 X-13.95 Y-27.906
N16675 X-14.011 Y-27.887
N16680 X-14.322 Y-27.783
N16685 X-14.378 Y-27.763
N16690 X-14.685 Y-27.648
N16695 X-14.736 Y-27.628
N16700 X-15.037 Y-27.503
N16705 X-15.105 Y-27.473
N16710 X-15.693 Y-27.197
N16715 X-15.774 Y-27.156
N16720 X-16.35 Y-26.843
N16725 X-16.423 Y-26.801
N16730 X-16.983 Y-26.458
N16735 X-17.05 Y-26.415
N16740 X-17.588 Y-26.047
N16745 X-17.621 Y-26.024
N16750 X-17.688 Y-25.975
N16755 X-17.713 Y-25.957
N16760 X-18.07 Y-25.687
N16765 X-18.113 Y-25.654
N16770 X-18.466 Y-25.368
N16775 X-18.509 Y-25.332
N16780 X-18.855 Y-25.031
N16785 X-18.899 Y-24.991
N16790 X-19.235 Y-24.675
N16795 X-19.281 Y-24.631
N16800 X-19.604 Y-24.302
N16805 X-19.651 Y-24.253
N16810 X-19.958 Y-23.912
N16815 X-20.007 Y-23.855
N16820 X-20.296 Y-23.504
N16825 X-20.346 Y-23.439
N16830 X-20.613 Y-23.077
N16835 X-20.664 Y-23.003
N16840 X-20.907 Y-22.632
N16845 X-20.96 Y-22.545
N16850 X-21.178 Y-22.159
N16855 X-21.23 Y-22.059
N16860 X-21.42 Y-21.659
N16865 X-21.471 Y-21.541
N16870 X-21.627 Y-21.127
N16875 X-21.661 Y-21.028
N16880 X-21.726 Y-20.816
N16885 X-21.746 Y-20.744
N16890 X-21.801 Y-20.53
N16895 X-21.818 Y-20.453
N16900 X-21.862 Y-20.236
N16905 X-21.876 Y-20.155
N16910 X-21.908 Y-19.938
N16915 X-21.919 Y-19.854
N16920 X-21.939 Y-19.636
N16925 X-21.945 Y-19.551
N16930 X-21.954 Y-19.333
N16935 X-21.955 Y-19.246
N16940 X-21.952 Y-19.028
N16945 X-21.948 Y-18.94
N16950 X-21.933 Y-18.722
N16955 X-21.924 Y-18.635
N16960 X-21.896 Y-18.418
N16965 X-21.883 Y-18.33
N16970 X-21.843 Y-18.113
N16975 X-21.825 Y-18.028
N16980 X-21.773 Y-17.814
N16985 X-21.751 Y-17.732
N16990 X-21.689 Y-17.521
N16995 X-21.664 Y-17.446
N17000 X-21.591 Y-17.239
N17005 X-21.563 Y-17.166
N17010 X-21.48 Y-16.963
N17015 X-21.437 Y-16.866
N17020 X-21.243 Y-16.471
N17025 X-21.182 Y-16.358
N17030 X-20.956 Y-15.977
N17035 X-20.896 Y-15.884
N17040 X-20.639 Y-15.513
N17045 X-20.583 Y-15.436
N17050 X-20.299 Y-15.074
N17055 X-20.248 Y-15.013
N17060 X-19.941 Y-14.659
N17065 X-19.896 Y-14.609
N17070 X-19.568 Y-14.262
N17075 X-19.53 Y-14.224
N17080 X-19.185 Y-13.883
N17085 X-19.155 Y-13.854
N17090 X-18.795 Y-13.516
N17095 X-18.771 Y-13.495
N17100 X-18.398 Y-13.159
N17105 X-18.377 Y-13.14
N17110 X-17.605 Y-12.47
N17115 X-17.598 Y-12.464
N17120 X-16.82 Y-11.796
N17125 X-16.065 Y-11.127
N17130 X-15.715 Y-10.8
N17135 X-15.378 Y-10.47
N17140 X-15.06 Y-10.14
N17145 X-14.765 Y-9.809
N17150 X-14.495 Y-9.478
N17155 X-14.249 Y-9.145
N17160 X-14.032 Y-8.81
N17165 X-13.837 Y-8.461
N17170 X-13.761 Y-8.306
N17175 X-13.688 Y-8.138
N17180 X-13.623 Y-7.971
N17185 X-13.567 Y-7.803
N17190 X-13.521 Y-7.641
N17195 X-13.485 Y-7.486
N17200 X-13.457 Y-7.338
N17205 X-13.437 Y-7.197
N17210 X-13.425 Y-7.062
N17215 X-13.418 Y-6.933
N17220 X-13.417 Y-6.81
N17225 X-13.421 Y-6.706
N17230 X-13.443 Y-6.468
N17235 X-13.481 Y-6.249
N17240 X-13.536 Y-6.035
N17245 X-13.606 Y-5.824
N17250 X-13.694 Y-5.619
N17255 X-13.797 Y-5.419
N17260 X-13.916 Y-5.227
N17265 X-14.049 Y-5.043
N17270 X-14.196 Y-4.867
N17275 X-14.359 Y-4.7
N17280 X-14.537 Y-4.54
N17285 X-14.728 Y-4.389
N17290 X-14.931 Y-4.249
N17295 X-15.148 Y-4.118
N17300 X-15.376 Y-3.997
N17305 X-15.617 Y-3.886
N17310 X-15.869 Y-3.783
N17315 X-16.133 Y-3.69
N17320 X-16.406 Y-3.606
N17325 X-16.688 Y-3.532
N17330 X-16.978 Y-3.466
N17335 X-17.266 Y-3.41
N17340 X-17.894 Y-3.315
N17345 X-18.527 Y-3.25
N17350 X-19.175 Y-3.206
N17355 X-19.836 Y-3.179
N17360 X-20.508 Y-3.162
N17365 X-21.185 Y-3.15
N17370 X-21.19 Y-3.149
N17375 X-21.86 Y-3.135
N17380 X-21.882 Y-3.134
N17385 X-22.536 Y-3.111
N17390 X-22.576 Y-3.109
N17395 X-23.212 Y-3.071
N17400 X-23.271 Y-3.066
N17405 X-23.884 Y-3.006
N17410 X-23.943 Y-2.999
N17415 X-24.24 Y-2.959
N17420 X-24.287 Y-2.952
N17425 X-24.577 Y-2.903
N17430 X-24.631 Y-2.893
N17435 X-24.914 Y-2.836
N17440 X-24.974 Y-2.823
N17445 X-25.249 Y-2.756
N17450 X-25.316 Y-2.738
N17455 X-25.582 Y-2.661
N17460 X-25.656 Y-2.637
N17465 X-25.914 Y-2.549
N17470 X-25.994 Y-2.519
N17475 X-26.242 Y-2.418
N17480 X-26.328 Y-2.38
N17485 X-26.567 Y-2.266
N17490 X-26.658 Y-2.219
N17495 X-26.886 Y-2.092
N17500 X-26.979 Y-2.036
N17505 X-27.197 Y-1.894
N17510 X-27.291 Y-1.827
N17515 X-27.497 Y-1.671
N17520 X-27.59 Y-1.594
N17525 X-27.784 Y-1.422
N17530 X-27.874 Y-1.335
N17535 X-28.055 Y-1.147
N17540 X-28.139 Y-1.052
N17545 X-28.304 Y-0.849
N17550 X-28.379 Y-0.75
N17555 X-28.528 Y-0.536
N17560 X-28.592 Y-0.436
N17565 X-28.724 Y-0.212
N17570 X-28.778 Y-0.112
N17575 X-28.893 Y0.121
N17580 X-28.938 Y0.218
N17585 X-29.038 Y0.46
N17590 X-29.073 Y0.553
N17595 X-29.158 Y0.802
N17600 X-29.186 Y0.89
N17605 X-29.257 Y1.144
N17610 X-29.278 Y1.227
N17615 X-29.335 Y1.485
N17620 X-29.35 Y1.561
N17625 X-29.395 Y1.822
N17630 X-29.405 Y1.893
N17635 X-29.438 Y2.156
N17640 X-29.445 Y2.22
N17645 X-29.467 Y2.484
N17650 X-29.472 Y2.57
N17655 X-29.488 Y3.098
N17660 Y3.198
N17665 X-29.471 Y3.732
N17670 X-29.465 Y3.819
N17675 X-29.418 Y4.359
N17680 X-29.409 Y4.435
N17685 X-29.336 Y4.977
N17690 X-29.325 Y5.044
N17695 X-29.228 Y5.582
N17700 X-29.216 Y5.642
N17705 X-29.1 Y6.171
N17710 X-29.087 Y6.225
N17715 X-28.954 Y6.741
N17720 X-28.942 Y6.785
N17725 G2 X-28.647 Y7.748 I28.982 J-8.357
N17730 G1 X-28.632 Y7.791
N17735 X-28.442 Y8.323
N17740 X-28.423 Y8.374
N17745 X-28.213 Y8.905
N17750 X-28.191 Y8.958
N17755 X-27.96 Y9.484
N17760 X-27.935 Y9.539
N17765 X-27.685 Y10.056
N17770 X-27.655 Y10.114
N17775 X-27.386 Y10.616
N17780 X-27.351 Y10.679
N17785 X-27.063 Y11.161
N17790 X-27.02 Y11.23
N17795 X-26.715 Y11.687
N17800 X-26.662 Y11.761
N17805 X-26.34 Y12.189
N17810 X-26.273 Y12.272
N17815 X-25.924 Y12.676
N17820 X-25.862 Y12.744
N17825 X-25.675 Y12.936
N17830 X-25.626 Y12.985
N17835 X-25.431 Y13.169
N17840 X-25.374 Y13.22
N17845 X-25.171 Y13.394
N17850 X-25.107 Y13.446
N17855 X-24.896 Y13.609
N17860 X-24.822 Y13.662
N17865 X-24.603 Y13.813
N17870 X-24.519 Y13.866
N17875 X-24.292 Y14.001
N17880 X-24.2 Y14.052
N17885 X-23.965 Y14.172
N17890 X-23.864 Y14.219
N17895 X-23.623 Y14.321
N17900 X-23.513 Y14.363
N17905 X-23.265 Y14.447
N17910 X-23.148 Y14.481
N17915 X-22.894 Y14.546
N17920 X-22.771 Y14.572
N17925 X-22.51 Y14.617
N17930 X-22.384 Y14.633
N17935 X-22.121 Y14.657
N17940 X-21.999 Y14.663
N17945 X-21.737 Y14.667
N17950 X-21.619 Y14.664
N17955 X-21.358 Y14.647
N17960 X-21.247 Y14.637
N17965 X-20.986 Y14.602
N17970 X-20.885 Y14.585
N17975 X-20.625 Y14.534
N17980 X-20.532 Y14.512
N17985 X-20.272 Y14.444
N17990 X-20.19 Y14.42
N17995 X-19.932 Y14.337
N18000 X-19.858 Y14.311
N18005 X-19.6 Y14.214
N18010 X-19.536 Y14.188
N18015 X-19.279 Y14.079
N18020 X-19.223 Y14.053
N18025 X-18.966 Y13.932
N18030 X-18.918 Y13.908
N18035 X-18.662 Y13.776
N18040 X-18.602 Y13.744
N18045 X-18.09 Y13.451
N18050 X-18.031 Y13.415
N18055 X-17.515 Y13.089
N18060 X-17.474 Y13.063
N18065 X-16.953 Y12.711
N18070 X-16.929 Y12.695
N18075 X-16.401 Y12.325
N18080 X-16.391 Y12.318
N18085 X-15.856 Y11.937
N18090 X-15.32 Y11.557
N18095 X-14.784 Y11.188
N18100 X-14.244 Y10.834
N18105 X-13.701 Y10.502
N18110 X-13.146 Y10.195
N18115 X-12.882 Y10.063
N18120 X-12.611 Y9.937
N18125 X-12.341 Y9.822
N18130 X-12.073 Y9.719
N18135 X-11.806 Y9.629
N18140 X-11.537 Y9.551
N18145 X-11.252 Y9.483
N18150 X-10.954 Y9.429
N18155 X-10.646 Y9.394
N18160 X-10.312 Y9.381
N18165 X-10.166 Y9.384
N18170 X-10.003 Y9.394
N18175 X-9.84 Y9.411
N18180 X-9.68 Y9.435
N18185 X-9.523 Y9.466
N18190 X-9.37 Y9.505
N18195 X-9.22 Y9.55
N18200 X-9.073 Y9.601
N18205 X-8.929 Y9.66
N18210 X-8.789 Y9.726
N18215 X-8.652 Y9.799
N18220 X-8.52 Y9.878
N18225 X-8.392 Y9.963
N18230 X-8.269 Y10.054
N18235 X-8.152 Y10.151
N18240 X-8.04 Y10.254
N18245 X-7.933 Y10.362
N18250 X-7.831 Y10.477
N18255 X-7.735 Y10.596
N18260 X-7.646 Y10.72
N18265 X-7.563 Y10.849
N18270 X-7.485 Y10.982
N18275 X-7.414 Y11.121
N18280 X-7.349 Y11.265
N18285 X-7.289 Y11.414
N18290 X-7.241 Y11.553
N18295 X-7.146 Y11.895
N18300 X-7.081 Y12.236
N18305 X-7.039 Y12.594
N18310 X-7.02 Y12.968
N18315 X-7.023 Y13.354
N18320 X-7.047 Y13.753
N18325 X-7.089 Y14.165
N18330 X-7.15 Y14.588
N18335 X-7.226 Y15.021
N18340 X-7.316 Y15.461
N18345 X-7.416 Y15.904
N18350 X-7.648 Y16.821
N18355 X-7.898 Y17.742
N18360 X-7.899 Y17.745
N18365 X-8.146 Y18.664
N18370 X-8.151 Y18.684
N18375 X-8.267 Y19.136
N18380 X-8.273 Y19.16
N18385 X-8.379 Y19.607
N18390 X-8.387 Y19.639
N18395 X-8.482 Y20.08
N18400 X-8.491 Y20.122
N18405 X-8.572 Y20.556
N18410 X-8.581 Y20.608
N18415 X-8.647 Y21.035
N18420 X-8.655 Y21.099
N18425 X-8.703 Y21.517
N18430 X-8.709 Y21.594
N18435 X-8.736 Y22.005
N18440 X-8.739 Y22.095
N18445 X-8.741 Y22.498
N18450 X-8.739 Y22.605
N18455 X-8.714 Y23.006
N18460 X-8.702 Y23.129
N18465 X-8.647 Y23.527
N18470 X-8.621 Y23.666
N18475 X-8.53 Y24.057
N18480 X-8.499 Y24.171
N18485 X-8.44 Y24.363
N18490 X-8.413 Y24.442
N18495 X-8.343 Y24.63
N18500 X-8.31 Y24.711
N18505 X-8.231 Y24.894
N18510 X-8.194 Y24.973
N18515 X-8.105 Y25.15
N18520 X-8.063 Y25.229
N18525 X-7.964 Y25.401
N18530 X-7.918 Y25.477
N18535 X-7.81 Y25.642
N18540 X-7.759 Y25.715
N18545 X-7.642 Y25.875
N18550 X-7.588 Y25.945
N18555 X-7.461 Y26.099
N18560 X-7.404 Y26.164
N18565 X-7.268 Y26.313
N18570 X-7.21 Y26.373
N18575 X-7.066 Y26.514
N18580 X-6.978 Y26.594
N18585 X-6.671 Y26.852
N18590 X-6.555 Y26.94
N18595 X-6.226 Y27.169
N18600 X-6.116 Y27.24
N18605 X-5.768 Y27.441
N18610 X-5.665 Y27.496
N18615 X-5.302 Y27.672
N18620 X-5.207 Y27.714
N18625 X-4.831 Y27.868
N18630 X-4.746 Y27.9
N18635 X-4.359 Y28.032
N18640 X-4.282 Y28.056
N18645 X-3.89 Y28.169
N18650 X-3.821 Y28.187
N18655 X-3.426 Y28.281
N18660 X-3.364 Y28.295
N18665 X-2.97 Y28.372
N18670 X-2.914 Y28.382
N18675 X-2.525 Y28.444
N18680 X-2.474 Y28.451
N18685 X-2.094 Y28.499
N18690 X-2.048 Y28.504
N18695 X-1.68 Y28.54
N18700 X-1.614 Y28.545
N18705 G2 X0.04 Y28.59 I1.654 J-30.117
N18710 G1 X0.102 Y28.589
N18715 X0.536 Y28.572
N18720 X0.581 Y28.569
N18725 X1.02 Y28.539
N18730 X1.066 Y28.535
N18735 X1.507 Y28.492
N18740 X1.555 Y28.487
N18745 X1.995 Y28.43
N18750 X2.046 Y28.423
N18755 X2.484 Y28.352
N18760 X2.537 Y28.343
N18765 X2.97 Y28.257
N18770 X3.027 Y28.245
N18775 X3.453 Y28.145
N18780 X3.514 Y28.129
N18785 X3.93 Y28.013
N18790 X3.996 Y27.993
N18795 X4.4 Y27.862
N18800 X4.472 Y27.837
N18805 X4.861 Y27.689
N18810 X4.94 Y27.657
N18815 X5.319 Y27.489
N18820 X5.406 Y27.448
N18825 X5.776 Y27.257
N18830 X5.872 Y27.203
N18835 X6.227 Y26.987
N18840 X6.331 Y26.918
N18845 X6.668 Y26.676
N18850 X6.779 Y26.588
N18855 X7.092 Y26.317
N18860 X7.177 Y26.238
N18865 X7.322 Y26.092
N18870 X7.378 Y26.033
N18875 X7.515 Y25.881
N18880 X7.57 Y25.816
N18885 X7.698 Y25.658
N18890 X7.751 Y25.588
N18895 X7.87 Y25.423
N18900 X7.92 Y25.349
N18905 X8.029 Y25.178
N18910 X8.076 Y25.1
N18915 X8.176 Y24.921
N18920 X8.218 Y24.84
N18925 X8.308 Y24.655
N18930 X8.346 Y24.571
N18935 X8.425 Y24.38
N18940 X8.457 Y24.297
N18945 X8.525 Y24.104
N18950 X8.552 Y24.021
N18955 X8.609 Y23.825
N18960 X8.63 Y23.745
N18965 X8.677 Y23.546
N18970 X8.693 Y23.469
N18975 X8.73 Y23.268
N18980 X8.746 Y23.16
N18985 X8.793 Y22.75
N18990 X8.802 Y22.621
N18995 X8.815 Y22.202
N19000 Y22.091
N19005 X8.798 Y21.664
N19010 X8.792 Y21.57
N19015 X8.749 Y21.135
N19020 X8.74 Y21.058
N19025 X8.674 Y20.615
N19030 X8.664 Y20.553
N19035 X8.579 Y20.104
N19040 X8.569 Y20.056
N19045 X8.468 Y19.599
N19050 X8.46 Y19.563
N19055 X8.345 Y19.098
N19060 X8.339 Y19.072
N19065 X8.215 Y18.599
N19070 X8.209 Y18.581
N19075 X7.943 Y17.617
N19080 X7.679 Y16.648
N19085 X7.441 Y15.681
N19090 X7.342 Y15.218
N19095 X7.258 Y14.753
N19100 X7.19 Y14.292
N19105 X7.143 Y13.838
N19110 X7.118 Y13.394
N19115 X7.117 Y12.963
N19120 X7.143 Y12.547
N19125 X7.199 Y12.132
N19130 X7.231 Y11.963
N19135 X7.272 Y11.791
N19140 X7.316 Y11.631
N19145 X7.363 Y11.482
N19150 X7.414 Y11.343
N19155 X7.467 Y11.213
N19160 X7.523 Y11.092
N19165 X7.573 Y10.991
N19170 X7.699 Y10.774
N19175 X7.826 Y10.588
N19180 X7.964 Y10.416
N19185 X8.114 Y10.258
N19190 X8.275 Y10.113
N19195 X8.448 Y9.981
N19200 X8.63 Y9.865
N19205 X8.821 Y9.764
N19210 X9.021 Y9.677
N19215 X9.231 Y9.606
N19220 X9.452 Y9.55
N19225 X9.68 Y9.509
N19230 X9.915 Y9.485
N19235 X10.159 Y9.476
N19240 X10.409 Y9.483
N19245 X10.667 Y9.505
N19250 X10.931 Y9.543
N19255 X11.199 Y9.595
N19260 X11.472 Y9.661
N19265 X11.748 Y9.741
N19270 X12.027 Y9.834
N19275 X12.308 Y9.939
N19280 X12.589 Y10.054
N19285 X12.862 Y10.175
N19290 X13.44 Y10.458
N19295 X14.014 Y10.767
N19300 X14.592 Y11.102
N19305 X15.174 Y11.456
N19310 X15.76 Y11.821
N19315 X16.345 Y12.185
N19320 X16.357 Y12.193
N19325 X16.934 Y12.545
N19330 X16.961 Y12.561
N19335 X17.53 Y12.893
N19340 X17.575 Y12.918
N19345 X18.14 Y13.224
N19350 X18.206 Y13.258
N19355 X18.77 Y13.53
N19360 X18.834 Y13.559
N19365 X19.116 Y13.68
N19370 X19.168 Y13.701
N19375 X19.45 Y13.811
N19380 X19.51 Y13.832
N19385 X19.792 Y13.929
N19390 X19.859 Y13.95
N19395 X20.14 Y14.033
N19400 X20.216 Y14.053
N19405 X20.499 Y14.121
N19410 X20.583 Y14.139
N19415 X20.867 Y14.191
N19420 X20.96 Y14.205
N19425 X21.245 Y14.24
N19430 X21.347 Y14.249
N19435 X21.633 Y14.265
N19440 X21.743 Y14.268
N19445 X22.029 Y14.264
N19450 X22.145 Y14.259
N19455 X22.432 Y14.234
N19460 X22.552 Y14.219
N19465 X22.838 Y14.173
N19470 X22.956 Y14.149
N19475 X23.235 Y14.082
N19480 X23.35 Y14.049
N19485 X23.622 Y13.961
N19490 X23.731 Y13.921
N19495 X23.996 Y13.813
N19500 X24.098 Y13.768
N19505 X24.356 Y13.641
N19510 X24.451 Y13.59
N19515 X24.702 Y13.445
N19520 X24.788 Y13.391
N19525 X25.029 Y13.23
N19530 X25.105 Y13.176
N19535 X25.337 Y13.001
N19540 X25.405 Y12.947
N19545 X25.627 Y12.759
N19550 X25.686 Y12.706
N19555 X25.899 Y12.507
N19560 X25.951 Y12.455
N19565 X26.154 Y12.247
N19570 X26.2 Y12.198
N19575 X26.394 Y11.982
N19580 X26.434 Y11.935
N19585 X26.62 Y11.71
N19590 X26.656 Y11.664
N19595 X26.836 Y11.43
N19600 X26.883 Y11.366
N19605 X27.223 Y10.873
N19610 X27.274 Y10.794
N19615 X27.588 Y10.275
N19620 X27.631 Y10.201
N19625 X27.918 Y9.664
N19630 X27.953 Y9.595
N19635 X28.213 Y9.045
N19640 X28.242 Y8.98
N19645 X28.475 Y8.425
N19650 X28.5 Y8.362
N19655 X28.705 Y7.809
N19660 X28.726 Y7.748
N19665 G2 X29.053 Y6.673 I-28.686 J-9.322
N19670 G1 X29.067 Y6.621
N19675 X29.153 Y6.272
N19680 X29.164 Y6.228
N19685 X29.241 Y5.873
N19690 X29.25 Y5.826
N19695 X29.318 Y5.466
N19700 X29.327 Y5.415
N19705 X29.382 Y5.05
N19710 X29.39 Y4.996
N19715 X29.433 Y4.629
N19720 X29.439 Y4.57
N19725 X29.468 Y4.203
N19730 X29.472 Y4.138
N19735 X29.487 Y3.772
N19740 X29.488 Y3.702
N19745 X29.486 Y3.338
N19750 X29.485 Y3.286
N19755 G3 X29.79 Y2.957 I0.317 J-0.012
N19760 G1 X30.107 Y2.944
N19765 X30.178 Y2.942 Z-12.692
N19770 X30.245 Y2.939 Z-12.669
N19775 X30.305 Y2.937 Z-12.631
N19780 X30.355 Y2.935 Z-12.58
N19785 X30.393 Y2.933 Z-12.52
N19790 X30.416 Y2.932 Z-12.453
N19795 X30.424 Z-12.383
N19800 Z5.
N19805 X30.449 Y3.567
N19810 Z-7.7 F1033.33
N19815 Z-15.558
N19820 X30.441 Z-15.628 F3100.
N19825 X30.417 Y3.568 Z-15.695
N19830 X30.379 Y3.569 Z-15.755
N19835 X30.329 Y3.571 Z-15.806
N19840 X30.269 Y3.574 Z-15.844
N19845 X30.202 Y3.576 Z-15.867
N19850 X30.131 Y3.579 Z-15.875
N19855 X29.814 Y3.591
N19860 G3 X29.485 Y3.286 I-0.012 J-0.317
N19865 G1 X29.483 Y3.26
N19870 X29.464 Y2.901
N19875 X29.457 Y2.816
N19880 X29.418 Y2.461
N19885 X29.405 Y2.367
N19890 X29.345 Y2.016
N19895 X29.324 Y1.913
N19900 X29.241 Y1.567
N19905 X29.21 Y1.456
N19910 X29.103 Y1.118
N19915 X29.06 Y0.999
N19920 X28.925 Y0.67
N19925 X28.868 Y0.545
N19930 X28.706 Y0.229
N19935 X28.634 Y0.103
N19940 X28.446 Y-0.194
N19945 X28.361 Y-0.316
N19950 X28.146 Y-0.593
N19955 X28.049 Y-0.707
N19960 X27.809 Y-0.963
N19965 X27.703 Y-1.066
N19970 X27.437 Y-1.302
N19975 X27.327 Y-1.391
N19980 X27.041 Y-1.602
N19985 X26.932 Y-1.675
N19990 X26.63 Y-1.861
N19995 X26.526 Y-1.92
N20000 X26.211 Y-2.083
N20005 X26.115 Y-2.129
N20010 X25.788 Y-2.271
N20015 X25.701 Y-2.306
N20020 X25.364 Y-2.429
N20025 X25.286 Y-2.455
N20030 X24.936 Y-2.563
N20035 X24.867 Y-2.583
N20040 X24.507 Y-2.676
N20045 X24.446 Y-2.691
N20050 X24.076 Y-2.771
N20055 X24.024 Y-2.782
N20060 X23.645 Y-2.851
N20065 X23.601 Y-2.859
N20070 X23.214 Y-2.918
N20075 X23.178 Y-2.923
N20080 X22.784 Y-2.975
N20085 X22.743 Y-2.979
N20090 X21.935 Y-3.063
N20095 X21.902 Y-3.066
N20100 X21.068 Y-3.135
N20105 X21.058 Y-3.136
N20110 X20.213 Y-3.2
N20115 X19.376 Y-3.27
N20120 X18.562 Y-3.354
N20125 X17.769 Y-3.464
N20130 X17.401 Y-3.528
N20135 X17.037 Y-3.602
N20140 X16.686 Y-3.685
N20145 X16.35 Y-3.778
N20150 X16.029 Y-3.882
N20155 X15.725 Y-3.996
N20160 X15.437 Y-4.121
N20165 X15.167 Y-4.258
N20170 X14.916 Y-4.406
N20175 X14.684 Y-4.565
N20180 X14.472 Y-4.735
N20185 X14.278 Y-4.918
N20190 X14.107 Y-5.11
N20195 X13.958 Y-5.312
N20200 X13.829 Y-5.523
N20205 X13.721 Y-5.745
N20210 X13.633 Y-5.978
N20215 X13.567 Y-6.218
N20220 X13.523 Y-6.466
N20225 X13.5 Y-6.721
N20230 Y-6.983
N20235 X13.522 Y-7.247
N20240 X13.567 Y-7.514
N20245 X13.633 Y-7.785
N20250 X13.722 Y-8.057
N20255 X13.832 Y-8.331
N20260 X13.962 Y-8.603
N20265 X14.112 Y-8.875
N20270 X14.281 Y-9.144
N20275 X14.467 Y-9.411
N20280 X14.67 Y-9.676
N20285 X14.887 Y-9.937
N20290 X15.119 Y-10.195
N20295 X15.364 Y-10.45
N20300 X15.62 Y-10.701
N20305 X15.882 Y-10.945
N20310 X16.45 Y-11.441
N20315 X17.035 Y-11.919
N20320 X17.634 Y-12.39
N20325 X18.233 Y-12.856
N20330 X18.242 Y-12.863
N20335 X18.826 Y-13.324
N20340 X18.854 Y-13.346
N20345 X19.41 Y-13.806
N20350 X19.443 Y-13.834
N20355 X19.707 Y-14.064
N20360 X19.735 Y-14.09
N20365 X19.99 Y-14.322
N20370 X20.023 Y-14.354
N20375 X20.265 Y-14.589
N20380 X20.303 Y-14.627
N20385 X20.533 Y-14.865
N20390 X20.575 Y-14.911
N20395 X20.792 Y-15.154
N20400 X20.838 Y-15.209
N20405 X21.04 Y-15.457
N20410 X21.091 Y-15.523
N20415 X21.276 Y-15.778
N20420 X21.329 Y-15.856
N20425 X21.497 Y-16.117
N20430 X21.55 Y-16.207
N20435 X21.699 Y-16.476
N20440 X21.751 Y-16.579
N20445 X21.878 Y-16.856
N20450 X21.926 Y-16.971
N20455 X22.03 Y-17.254
N20460 X22.07 Y-17.378
N20465 X22.15 Y-17.666
N20470 X22.181 Y-17.797
N20475 X22.236 Y-18.09
N20480 X22.255 Y-18.227
N20485 X22.285 Y-18.526
N20490 X22.293 Y-18.662
N20495 X22.297 Y-18.966
N20500 X22.293 Y-19.098
N20505 X22.272 Y-19.4
N20510 X22.258 Y-19.523
N20515 X22.213 Y-19.821
N20520 X22.192 Y-19.935
N20525 X22.125 Y-20.23
N20530 X22.099 Y-20.333
N20535 X22.012 Y-20.624
N20540 X21.981 Y-20.716
N20545 X21.877 Y-21.003
N20550 X21.844 Y-21.086
N20555 X21.723 Y-21.367
N20560 X21.689 Y-21.441
N20565 X21.553 Y-21.717
N20570 X21.519 Y-21.782
N20575 X21.37 Y-22.053
N20580 X21.336 Y-22.111
N20585 X21.176 Y-22.375
N20590 X21.143 Y-22.426
N20595 X20.973 Y-22.683
N20600 X20.942 Y-22.729
N20605 X20.765 Y-22.979
N20610 X20.721 Y-23.038
N20615 X20.343 Y-23.519
N20620 X20.287 Y-23.586
N20625 X19.877 Y-24.054
N20630 X19.825 Y-24.112
N20635 X19.388 Y-24.564
N20640 X19.337 Y-24.613
N20645 X18.88 Y-25.046
N20650 X18.831 Y-25.091
N20655 X18.359 Y-25.502
N20660 X18.311 Y-25.542
N20665 X17.83 Y-25.928
N20670 X17.769 Y-25.975
N20675 G2 X16.088 Y-27.111 I-17.729 J24.402
N20680 G1 X16.009 Y-27.158
N20685 X15.426 Y-27.478
N20690 X15.368 Y-27.509
N20695 X15.065 Y-27.659
N20700 X15.021 Y-27.68
N20705 X14.713 Y-27.821
N20710 X14.664 Y-27.843
N20715 X14.351 Y-27.974
N20720 X14.296 Y-27.996
N20725 X13.979 Y-28.115
N20730 X13.918 Y-28.136
N20735 X13.599 Y-28.241
N20740 X13.531 Y-28.262
N20745 X13.21 Y-28.352
N20750 X13.133 Y-28.372
N20755 X12.811 Y-28.445
N20760 X12.726 Y-28.462
N20765 X12.403 Y-28.518
N20770 X12.308 Y-28.531
N20775 X11.982 Y-28.567
N20780 X11.876 Y-28.575
N20785 X11.549 Y-28.589
N20790 X11.431
N20795 X11.104 Y-28.578
N20800 X10.976 Y-28.569
N20805 X10.651 Y-28.532
N20810 X10.513 Y-28.51
N20815 X10.193 Y-28.445
N20820 X10.051 Y-28.409
N20825 X9.742 Y-28.315
N20830 X9.6 Y-28.265
N20835 X9.302 Y-28.143
N20840 X9.166 Y-28.08
N20845 X8.879 Y-27.929
N20850 X8.752 Y-27.855
N20855 X8.478 Y-27.677
N20860 X8.363 Y-27.595
N20865 X8.106 Y-27.394
N20870 X8.008 Y-27.31
