%
(LEAF2)
(MACHINE)
(  VENDOR AUTODESK)
(  DESCRIPTION GENERIC 3-AXIS)
(T1  D=3.175 CR=0. - ZMIN=-3.05 - FLAT END MILL)
N10 G90 G94 G17 G91.1
N15 G21
(WHEN USING FUSION 360 FOR PERSONAL USE, THE FEEDRATE OF)
(RAPID MOVES IS REDUCED TO MATCH THE FEEDRATE OF CUTTING)
(MOVES, WHICH CAN INCREASE MACHINING TIME. UNRESTRICTED RAPID)
(MOVES ARE AVAILABLE WITH A FUSION 360 SUBSCRIPTION.)
N20 G53 G0 Z0.
(2D CONTOUR3)
N25 T1 M6
N30 S5000 M3
N35 G54
N40 M8
N45 G0 X50.957 Y76.455
N50 G43 Z15. H1
N55 G1 Z5. F1000.
N60 Z2.5 F333.33
N65 Z-1.183
N70 X50.965 Y76.452 Z-1.253 F1000.
N75 X50.987 Y76.445 Z-1.32
N80 X51.023 Y76.433 Z-1.38
N85 X51.071 Y76.418 Z-1.431
N90 X51.128 Y76.399 Z-1.469
N95 X51.192 Y76.379 Z-1.492
N100 X51.259 Y76.357 Z-1.5
N105 X51.561 Y76.26
N110 G3 X51.961 Y76.465 I0.097 J0.302
N115 G1 X51.991 Y76.559
N120 X52.111 Y76.937
N125 X52.223 Y77.295
N130 X52.323 Y77.625
N135 X52.409 Y77.921
N140 X52.446 Y78.048
N145 X52.478 Y78.163
N150 X52.504 Y78.263
N155 X52.525 Y78.345
N160 X52.539 Y78.403
N165 X52.548 Y78.445
N170 X52.579 Y78.601
N175 X52.616 Y78.795
N180 X52.658 Y79.008
N185 X52.702 Y79.232
N190 X52.79 Y79.689
N195 X52.832 Y79.907
N200 X52.871 Y80.109
N205 X52.874 Y80.126
N210 X52.971 Y80.598
N215 X52.979 Y80.636
N220 X53.08 Y81.075
N225 X53.09 Y81.118
N230 X53.196 Y81.525
N235 X53.209 Y81.573
N240 X53.318 Y81.947
N245 X53.335 Y82.001
N250 X53.448 Y82.341
N255 X53.471 Y82.405
N260 X53.587 Y82.71
N265 X53.618 Y82.786
N270 X53.737 Y83.056
N275 X53.78 Y83.147
N280 X53.901 Y83.38
N285 X53.964 Y83.491
N290 X54.088 Y83.688
N295 X54.133 Y83.758
N300 X54.183 Y83.824
N305 X54.308 Y83.984
N310 X54.379 Y84.069
N315 X54.456 Y84.149
N320 X54.582 Y84.27
N325 G2 X54.819 Y84.459 I1.102 J-1.142
N330 G1 X54.945 Y84.541
N335 G2 X55.203 Y84.677 I0.865 J-1.331
N340 G1 X55.267 Y84.703
N345 X55.372 Y84.742
N350 X55.48 Y84.774
N355 X55.544 Y84.79
N360 X55.664 Y84.816
N365 X55.787 Y84.833
N370 X55.85 Y84.839
N375 X55.964 Y84.845
N380 X56.074 Y85.172
N385 X56.231 Y85.648
N390 X56.381 Y86.12
N395 X56.518 Y86.57
N400 X56.619 Y86.904
N405 X56.62 Y86.909
N410 X56.716 Y87.223
N415 X56.718 Y87.23
N420 X56.808 Y87.52
N425 X56.81 Y87.527
N430 X56.895 Y87.795
N435 X56.898 Y87.805
N440 X56.977 Y88.05
N445 X56.981 Y88.062
N450 X57.055 Y88.285
N455 X57.059 Y88.298
N460 X57.128 Y88.501
N465 X57.133 Y88.516
N470 X57.197 Y88.697
N475 X57.204 Y88.718
N480 X57.263 Y88.878
N485 X57.273 Y88.904
N490 X57.327 Y89.044
N495 X57.34 Y89.077
N500 X57.389 Y89.196
N505 X57.41 Y89.242
N510 X57.454 Y89.342
N515 X57.486 Y89.407
N520 X57.526 Y89.486
N525 X57.578 Y89.581
N530 X57.614 Y89.642
N535 X57.665 Y89.721
N540 X57.719 Y89.796
N545 X57.751 Y89.838
N550 G2 X58. Y90.095 I1.258 J-0.968
N555 G1 X58.028 Y90.118
N560 G2 X58.493 Y90.384 I1.01 J-1.225
N565 G1 X58.56 Y90.409
N570 G2 X58.957 Y90.498 I0.545 J-1.491
N575 G1 X59.032 Y90.505
N580 X59.176 Y90.512
N585 X59.201 Y90.568
N590 X59.205 Y90.575
N595 X59.279 Y90.734
N600 X59.283 Y90.742
N605 X59.35 Y90.884
N610 X59.356 Y90.895
N615 X59.417 Y91.023
N620 X59.424 Y91.036
N625 X59.481 Y91.151
N630 X59.491 Y91.171
N635 X59.543 Y91.273
N640 X59.554 Y91.294
N645 X59.603 Y91.385
N650 X59.627 Y91.43
N655 X59.715 Y91.583
N660 X59.763 Y91.661
N665 X59.844 Y91.785
N670 X59.891 Y91.853
N675 X59.941 Y91.917
N680 X60.105 Y92.121
N685 X60.185 Y92.211
N690 X60.257 Y92.288
N695 X60.315 Y92.346
N700 X60.378 Y92.406
N705 X60.475 Y92.492
N710 X60.533 Y92.538
N715 X60.612 Y92.599
N720 X60.696 Y92.654
N725 X60.75 Y92.687
N730 G2 X60.984 Y92.807 I0.836 J-1.35
N735 G1 X61.038 Y92.829
N740 X61.142 Y92.867
N745 X61.25 Y92.898
N750 X61.281 Y92.935
N755 X61.416 Y93.087
N760 X61.459 Y93.134
N765 X61.615 Y93.297
N770 X61.653 Y93.334
N775 X61.831 Y93.507
N780 X61.862 Y93.537
N785 X62.062 Y93.722
N790 X62.089 Y93.746
N795 X62.312 Y93.942
N800 X62.335 Y93.962
N805 X62.581 Y94.17
N810 X62.601 Y94.187
N815 X62.87 Y94.407
N820 X62.893 Y94.425
N825 X63.015 Y94.522
N830 X63.038 Y94.54
N835 X63.171 Y94.641
N840 X63.198 Y94.661
N845 X63.489 Y94.872
N850 X63.519 Y94.893
N855 X63.825 Y95.105
N860 X63.852 Y95.123
N865 X64.156 Y95.324
N870 X64.178 Y95.338
N875 X64.323 Y95.431
N880 X64.339 Y95.441
N885 X64.476 Y95.526
N890 X64.497 Y95.539
N895 X64.624 Y95.615
N900 X64.65 Y95.63
N905 X64.764 Y95.696
N910 X64.8 Y95.716
N915 X64.899 Y95.77
N920 X64.955 Y95.798
N925 X65.038 Y95.839
N930 X65.142 Y95.886
N935 X65.205 Y95.911
N940 G2 X65.464 Y95.991 I0.595 J-1.472
N945 G1 X65.504 Y95.999
N950 G2 X66.06 Y96.02 I0.336 J-1.551
N955 G1 X66.144 Y96.008
N960 G2 X66.469 Y95.927 I-0.219 J-1.572
N965 G1 X66.558 Y95.895
N970 X66.67 Y95.849
N975 X66.778 Y95.795
N980 X66.867 Y95.746
N985 X66.956 Y95.693
N990 X67.041 Y95.635
N995 X67.124 Y95.574
N1000 X67.202 Y95.513
N1005 X67.275 Y95.448
N1010 X67.349 Y95.378
N1015 X67.428 Y95.298
N1020 X67.502 Y95.212
N1025 X67.56 Y95.139
N1030 G2 X67.722 Y94.891 I-1.242 J-0.988
N1035 G1 X67.761 Y94.817
N1040 G2 X67.913 Y94.389 I-1.404 J-0.74
N1045 G1 X67.927 Y94.319
N1050 G2 X67.944 Y93.797 I-1.557 J-0.312
N1055 G1 X67.94 Y93.762
N1060 G2 X67.883 Y93.503 I-1.574 J0.21
N1065 G1 X67.869 Y93.46
N1070 X67.832 Y93.352
N1075 X67.786 Y93.247
N1080 X67.738 Y93.146
N1085 X67.695 Y93.061
N1090 X67.646 Y92.979
N1095 X67.575 Y92.867
N1100 X67.53 Y92.799
N1105 X67.481 Y92.734
N1110 X67.395 Y92.625
N1115 X67.331 Y92.544
N1120 X67.287 Y92.476
N1125 X67.224 Y92.365
N1130 X67.154 Y92.228
N1135 X67.087 Y92.077
N1140 X67.026 Y91.925
N1145 X66.978 Y91.783
N1150 X66.943 Y91.661
N1155 X66.935 Y91.621
N1160 X66.921 Y91.541
N1165 X66.905 Y91.431
N1170 X66.891 Y91.304
N1175 X66.863 Y90.984
N1180 X66.844 Y90.639
N1185 X66.835 Y90.291
N1190 X66.836 Y90.244
N1195 X66.84 Y90.243
N1200 X66.943 Y90.213
N1205 G2 X67.198 Y90.116 I-0.435 J-1.527
N1210 G1 X67.291 Y90.071
N1215 G2 X67.527 Y89.931 I-0.69 J-1.43
N1220 G1 X67.608 Y89.873
N1225 G2 X67.818 Y89.693 I-0.926 J-1.29
N1230 G1 X67.885 Y89.624
N1235 G2 X68.071 Y89.395 I-1.136 J-1.109
N1240 G1 X68.122 Y89.317
N1245 G2 X68.273 Y89.033 I-1.321 J-0.88
N1250 G1 X68.306 Y88.949
N1255 G2 X68.402 Y88.605 I-1.472 J-0.595
N1260 G1 X68.416 Y88.518
N1265 G2 X68.43 Y88.129 I-1.568 J-0.251
N1270 G1 X68.422 Y88.041
N1275 X68.402 Y87.889
N1280 X68.394 Y87.85
N1285 X68.384 Y87.782
N1290 X68.365 Y87.655
N1295 X68.34 Y87.463
N1300 X68.333 Y87.408
N1305 X68.445 Y87.544
N1310 X68.747 Y87.931
N1315 X69.014 Y88.276
N1320 X69.033 Y88.3
N1325 X69.608 Y89.015
N1330 X69.635 Y89.048
N1335 X69.753 Y89.187
N1340 X69.775 Y89.212
N1345 X69.859 Y89.307
N1350 X69.902 Y89.354
N1355 X69.957 Y89.412
N1360 X69.963 Y89.418
N1365 G2 X70.293 Y89.853 I1.411 J-0.727
N1370 G1 X70.333 Y89.891
N1375 G2 X70.746 Y90.168 I1.081 J-1.163
N1380 G1 X70.806 Y90.196
N1385 G2 X71.106 Y90.3 I0.668 J-1.44
N1390 G1 X71.181 Y90.318
N1395 X71.297 Y90.341
N1400 X71.414 Y90.356
N1405 X71.5 Y90.363
N1410 X71.605 Y90.368
N1415 X71.71 Y90.367
N1420 X71.734 Y90.366
N1425 X71.861 Y90.592
N1430 X71.97 Y90.788
N1435 X71.983 Y90.809
N1440 X72.091 Y90.996
N1445 X72.113 Y91.032
N1450 X72.325 Y91.377
N1455 X72.362 Y91.433
N1460 X72.569 Y91.74
N1465 X72.616 Y91.806
N1470 X72.82 Y92.077
N1475 X72.881 Y92.153
N1480 X73.085 Y92.391
N1485 X73.16 Y92.473
N1490 X73.366 Y92.682
N1495 X73.457 Y92.768
N1500 X73.666 Y92.949
N1505 X73.77 Y93.032
N1510 X73.985 Y93.189
N1515 X74.068 Y93.246
N1520 X74.155 Y93.298
N1525 X74.244 Y93.347
N1530 X74.355 Y93.402
N1535 X74.469 Y93.449
N1540 X74.567 Y93.484
N1545 X74.675 Y93.519
N1550 X74.785 Y93.546
N1555 X74.888 Y93.567
N1560 X74.994 Y93.585
N1565 X75.101 Y93.596
N1570 X75.205 Y93.604
N1575 X75.312 Y93.607
N1580 X75.418 Y93.604
N1585 X75.522 Y93.597
N1590 X75.631 Y93.586
N1595 X75.74 Y93.568
N1600 X75.84 Y93.547
N1605 X75.955 Y93.519
N1610 X76.068 Y93.482
N1615 X76.162 Y93.447
N1620 G2 X76.403 Y93.335 I-0.549 J-1.49
N1625 G1 X76.488 Y93.286
N1630 X76.581 Y93.228
N1635 X76.67 Y93.164
N1640 X76.73 Y93.118
N1645 G2 X76.97 Y92.888 I-0.972 J-1.255
N1650 G1 X77.012 Y92.838
N1655 G2 X77.281 Y92.387 I-1.211 J-1.026
N1660 G1 X77.306 Y92.322
N1665 G2 X77.408 Y91.877 I-1.48 J-0.575
N1670 G1 X77.416 Y91.788
N1675 X77.421 Y91.68
N1680 X77.419 Y91.572
N1685 X77.416 Y91.515
N1690 X77.408 Y91.423
N1695 X77.4 Y91.355
N1700 X77.392 Y91.292
N1705 X77.38 Y91.213
N1710 X77.372 Y91.169
N1715 X77.355 Y91.078
N1720 X77.35 Y91.05
N1725 X77.329 Y90.945
N1730 X77.325 Y90.926
N1735 X77.299 Y90.805
N1740 X77.296 Y90.794
N1745 X77.266 Y90.657
N1750 X77.264 Y90.651
N1755 X77.262 Y90.639
N1760 X77.268 Y90.644
N1765 X77.445 Y90.805
N1770 X77.467 Y90.825
N1775 X77.634 Y90.97
N1780 X77.661 Y90.993
N1785 X77.818 Y91.124
N1790 X77.852 Y91.152
N1795 X78.001 Y91.27
N1800 X78.042 Y91.301
N1805 X78.185 Y91.406
N1810 X78.234 Y91.441
N1815 X78.372 Y91.535
N1820 X78.459 Y91.59
N1825 X78.726 Y91.747
N1830 X78.864 Y91.82
N1835 X79.127 Y91.941
N1840 X79.274 Y92.001
N1845 X79.544 Y92.095
N1850 X79.675 Y92.134
N1855 X79.965 Y92.207
N1860 X80.081 Y92.232
N1865 X80.224 Y92.257
N1870 X80.378 Y92.276
N1875 X80.506 Y92.286
N1880 X80.605 Y92.29
N1885 X80.704 Y92.288
N1890 X80.819 Y92.283
N1895 X80.942 Y92.272
N1900 X81.064 Y92.251
N1905 X81.168 Y92.23
N1910 G2 X81.441 Y92.147 I-0.323 J-1.554
N1915 G1 X81.534 Y92.109
N1920 G2 X81.801 Y91.97 I-0.595 J-1.472
N1925 G1 X81.885 Y91.916
N1930 G2 X82.116 Y91.735 I-0.863 J-1.333
N1935 G1 X82.188 Y91.666
N1940 X82.27 Y91.686
N1945 X82.512 Y91.738
N1950 X82.629 Y91.759
N1955 X82.862 Y91.792
N1960 X82.99 Y91.805
N1965 X83.217 Y91.818
N1970 X83.346 Y91.821
N1975 X83.57 Y91.815
N1980 X83.653 Y91.811
N1985 X83.786 Y91.801
N1990 X83.842 Y91.796
N1995 X83.951 Y91.784
N2000 X84.048 Y91.77
N2005 X84.115 Y91.759
N2010 X84.13 Y91.771
N2015 X84.178 Y91.808
N2020 X84.341 Y91.931
N2025 X84.433 Y91.996
N2030 X84.585 Y92.094
N2035 X84.706 Y92.165
N2040 X84.858 Y92.245
N2045 X84.983 Y92.305
N2050 X85.145 Y92.373
N2055 X85.249 Y92.413
N2060 X85.431 Y92.475
N2065 X85.498 Y92.496
N2070 X85.71 Y92.558
N2075 X85.8 Y92.582
N2080 X86.101 Y92.651
N2085 X86.211 Y92.673
N2090 X86.54 Y92.724
N2095 X86.631 Y92.736
N2100 X86.971 Y92.769
N2105 X87.055 Y92.775
N2110 X87.39 Y92.79
N2115 X87.48 Y92.792
N2120 X87.793 Y92.788
N2125 X87.873 Y92.785
N2130 X88.016 Y92.776
N2135 X88.082 Y92.771
N2140 X88.214 Y92.757
N2145 X88.295 Y92.747
N2150 X88.413 Y92.728
N2155 X88.521 Y92.707
N2160 X88.624 Y92.684
N2165 X88.773 Y92.642
N2170 X88.858 Y92.614
N2175 X88.969 Y92.572
N2180 X89.078 Y92.521
N2185 X89.143 Y92.488
N2190 X89.242 Y92.433
N2195 X89.338 Y92.37
N2200 X89.417 Y92.314
N2205 X89.54 Y92.218
N2210 X89.604 Y92.162
N2215 X89.686 Y92.086
N2220 X89.763 Y92.003
N2225 X89.811 Y91.948
N2230 G2 X89.983 Y91.707 I-1.2 J-1.04
N2235 G1 X90.017 Y91.649
N2240 G2 X90.156 Y91.337 I-1.372 J-0.799
N2245 G1 X90.176 Y91.275
N2250 G2 X90.244 Y90.951 I-1.511 J-0.487
N2255 G1 X90.251 Y90.884
N2260 G2 X90.255 Y90.607 I-1.579 J-0.162
N2265 G1 X90.249 Y90.532
N2270 X90.239 Y90.433
N2275 X90.223 Y90.334
N2280 X90.206 Y90.251
N2285 X90.177 Y90.133
N2290 X90.14 Y90.017
N2295 X90.11 Y89.936
N2300 G2 X89.872 Y89.507 I-1.491 J0.546
N2305 G1 X89.829 Y89.452
N2310 G2 X89.335 Y89.033 I-1.252 J0.976
N2315 G1 X89.276 Y89.001
N2320 G2 X88.805 Y88.834 I-0.758 J1.395
N2325 G1 X88.727 Y88.782
N2330 X88.644 Y88.718
N2335 X88.565 Y88.651
N2340 X88.507 Y88.596
N2345 X88.349 Y88.419
N2350 X88.293 Y88.348
N2355 X88.225 Y88.251
N2360 X88.151 Y88.138
N2365 X88.07 Y88.004
N2370 X87.98 Y87.845
N2375 X87.874 Y87.645
N2380 X87.872 Y87.64
N2385 X87.797 Y87.501
N2390 X87.78 Y87.47
N2395 X87.669 Y87.274
N2400 X87.648 Y87.238
N2405 X87.525 Y87.032
N2410 G2 X87.543 Y86.758 I-1.569 J-0.243
N2415 G1 X87.542 Y86.697
N2420 G2 X87.5 Y86.363 I-1.587 J0.031
N2425 G1 X87.484 Y86.296
N2430 G2 X87.401 Y86.043 I-1.545 J0.366
N2435 G1 X87.371 Y85.971
N2440 X87.331 Y85.884
N2445 X87.286 Y85.801
N2450 G2 X87.458 Y85.578 I-1.165 J-1.079
N2455 G1 X87.514 Y85.491
N2460 G2 X87.639 Y85.254 I-1.337 J-0.857
N2465 G1 X87.663 Y85.196
N2470 X87.711 Y85.068
N2475 X87.727 Y85.019
N2480 G2 X87.789 Y84.75 I-1.51 J-0.491
N2485 G1 X87.795 Y84.709
N2490 G2 X87.8 Y84.304 I-1.572 J-0.222
N2495 G1 X87.796 Y84.266
N2500 G2 X87.681 Y83.832 I-1.577 J0.183
N2505 G1 X87.666 Y83.794
N2510 G2 X87.501 Y83.497 I-1.463 J0.617
N2515 G1 X87.473 Y83.458
N2520 X87.412 Y83.376
N2525 X87.345 Y83.299
N2530 X87.304 Y83.255
N2535 X87.235 Y83.184
N2540 X87.181 Y83.132
N2545 X87.071 Y83.035
N2550 X86.911 Y82.908
N2555 G2 X86.295 Y82.606 I-0.99 J1.241
N2560 G1 X86.278 Y82.597
N2565 X86.152 Y82.525
N2570 X86.019 Y82.444
N2575 X85.9 Y82.367
N2580 X85.804 Y82.299
N2585 X85.741 Y82.25
N2590 X85.832 Y82.202
N2595 X85.92 Y82.148
N2600 X86.009 Y82.089
N2605 G2 X86.21 Y81.931 I-0.875 J-1.324
N2610 G1 X86.288 Y81.859
N2615 G2 X86.475 Y81.654 I-1.077 J-1.167
N2620 G1 X86.537 Y81.573
N2625 G2 X86.71 Y81.287 I-1.263 J-0.961
N2630 G1 X86.751 Y81.201
N2635 G2 X86.88 Y80.784 I-1.436 J-0.676
N2640 G1 X86.895 Y80.696
N2645 G2 X86.908 Y80.272 I-1.566 J-0.26
N2650 G1 X86.903 Y80.225
N2655 X86.892 Y80.145
N2660 X86.878 Y80.065
N2665 X86.864 Y79.998
N2670 X86.845 Y79.919
N2675 X86.823 Y79.834
N2680 X86.809 Y79.783
N2685 X86.779 Y79.684
N2690 X86.763 Y79.632
N2695 X86.686 Y79.404
N2700 X86.665 Y79.346
N2705 X86.571 Y79.1
N2710 X86.536 Y79.014
N2715 X86.336 Y78.569
N2720 X86.28 Y78.457
N2725 X86.052 Y78.039
N2730 X85.984 Y77.928
N2735 X85.728 Y77.538
N2740 X85.649 Y77.43
N2745 X85.365 Y77.069
N2750 X85.277 Y76.966
N2755 X84.966 Y76.635
N2760 X84.868 Y76.539
N2765 X84.532 Y76.237
N2770 X84.425 Y76.149
N2775 X84.064 Y75.877
N2780 X83.951 Y75.8
N2785 X83.903 Y75.77
N2790 X83.9 Y75.753
N2795 X83.894 Y75.716
N2800 G2 X83.813 Y75.418 I-1.565 J0.266
N2805 G1 X83.794 Y75.369
N2810 X83.762 Y75.292
N2815 X83.727 Y75.217
N2820 X83.697 Y75.157
N2825 X83.649 Y75.071
N2830 X83.608 Y75.001
N2835 X83.571 Y74.941
N2840 X83.52 Y74.862
N2845 X83.492 Y74.82
N2850 X83.431 Y74.732
N2855 X83.41 Y74.703
N2860 X83.34 Y74.607
N2865 X83.321 Y74.582
N2870 X83.243 Y74.478
N2875 X83.221 Y74.451
N2880 X83.041 Y74.224
N2885 X83.019 Y74.196
N2890 X82.812 Y73.948
N2895 X82.794 Y73.926
N2900 X82.566 Y73.662
N2905 X82.55 Y73.643
N2910 X82.305 Y73.368
N2915 X82.283 Y73.344
N2920 X82.033 Y73.074
N2925 X82.306 Y73.112
N2930 X82.719 Y73.2
N2935 X83.153 Y73.325
N2940 X83.219 Y73.348
N2945 X83.221
N2950 X83.335 Y73.386
N2955 X83.366 Y73.396
N2960 X83.471 Y73.429
N2965 X83.536 Y73.448
N2970 X83.72 Y73.497
N2975 X83.857 Y73.527
N2980 X84.011 Y73.554
N2985 X84.12 Y73.569
N2990 X84.231 Y73.577
N2995 X84.36 Y73.581
N3000 G2 X84.681 Y73.559 I0.052 J-1.587
N3005 G1 X84.79 Y73.54
N3010 G2 X85.172 Y73.423 I-0.269 J-1.564
N3015 G1 X85.265 Y73.381
N3020 G2 X85.599 Y73.178 I-0.652 J-1.448
N3025 G1 X85.681 Y73.113
N3030 G2 X85.898 Y72.905 I-0.985 J-1.245
N3035 G1 X85.975 Y72.816
N3040 X86.059 Y72.709
N3045 X86.102 Y72.65
N3050 X86.184 Y72.525
N3055 X86.214 Y72.474
N3060 G2 X86.353 Y72.167 I-1.368 J-0.805
N3065 G1 X86.37 Y72.116
N3070 G2 X86.431 Y71.863 I-1.507 J-0.498
N3075 G1 X86.745 Y71.796
N3080 X86.759 Y71.793
N3085 X87.207 Y71.693
N3090 X87.22 Y71.69
N3095 X87.725 Y71.573
N3100 X87.736 Y71.571
N3105 X88.307 Y71.434
N3110 X88.313 Y71.433
N3115 X88.445 Y71.401
N3120 X88.786 Y71.319
N3125 X89.308 Y71.197
N3130 X89.872 Y71.071
N3135 X90.12 Y71.019
N3140 X90.289 Y70.985
N3145 X90.404 Y70.963
N3150 X90.413 Y70.961
N3155 X90.418 Y70.96
N3160 X90.542 Y70.938
N3165 X90.568 Y70.933
N3170 X90.681 Y70.911
N3175 X90.729 Y70.9
N3180 X90.928 Y70.855
N3185 X91.02 Y70.83
N3190 X91.184 Y70.782
N3195 X91.322 Y70.735
N3200 X91.453 Y70.682
N3205 X91.551 Y70.639
N3210 X91.646 Y70.59
N3215 X91.749 Y70.532
N3220 G2 X91.989 Y70.366 I-0.78 J-1.383
N3225 G1 X92.066 Y70.301
N3230 G2 X92.316 Y70.038 I-1.019 J-1.217
N3235 G1 X92.371 Y69.965
N3240 G2 X92.557 Y69.647 I-1.269 J-0.954
N3245 G1 X92.594 Y69.563
N3250 G2 X92.689 Y69.272 I-1.454 J-0.636
N3255 G1 X92.705 Y69.199
N3260 G2 X92.736 Y68.704 I-1.549 J-0.346
N3265 G1 X92.73 Y68.637
N3270 G2 X92.536 Y68.013 I-1.58 J0.149
N3275 G1 X92.499 Y67.947
N3280 G2 X92.273 Y67.637 I-1.387 J0.773
N3285 G1 X92.241 Y67.602
N3290 X92.18 Y67.54
N3295 X92.115 Y67.481
N3300 X92.073 Y67.445
N3305 X91.97 Y67.364
N3310 X91.916 Y67.324
N3315 X91.844 Y67.275
N3320 X91.777 Y67.232
N3325 X91.725 Y67.2
N3330 X91.645 Y67.153
N3335 X91.608 Y67.131
N3340 X91.513 Y67.079
N3345 X91.487 Y67.064
N3350 X91.377 Y67.006
N3355 X91.359 Y66.997
N3360 X91.233 Y66.932
N3365 X91.221 Y66.926
N3370 X91.078 Y66.853
N3375 X91.07 Y66.85
N3380 X90.909 Y66.769
N3385 X90.868 Y66.75
N3390 X90.241 Y66.459
N3395 X90.187 Y66.435
N3400 X89.881 Y66.307
N3405 X89.872 Y66.303
N3410 G2 X89.747 Y66.033 I-1.498 J0.526
N3415 G1 X89.696 Y65.944
N3420 G2 X89.44 Y65.613 I-1.373 J0.796
N3425 G1 X89.35 Y65.523
N3430 X89.274 Y65.453
N3435 X89.195 Y65.388
N3440 X89.135 Y65.342
N3445 X89.055 Y65.285
N3450 X88.984 Y65.238
N3455 X88.921 Y65.198
N3460 X88.841 Y65.15
N3465 X88.79 Y65.12
N3470 X88.699 Y65.07
N3475 X88.628 Y65.033
N3480 X88.429 Y64.936
N3485 X88.331 Y64.892
N3490 X88.118 Y64.805
N3495 X88.024 Y64.77
N3500 X87.796 Y64.693
N3505 X87.708 Y64.666
N3510 X87.465 Y64.6
N3515 X87.384 Y64.58
N3520 X87.125 Y64.524
N3525 X87.052 Y64.509
N3530 X86.775 Y64.463
N3535 X86.768 Y64.462
N3540 X86.766 Y64.457
N3545 X86.714 Y64.38
N3550 X86.658 Y64.306
N3555 X86.615 Y64.253
N3560 X86.559 Y64.187
N3565 X86.507 Y64.128
N3570 X86.465 Y64.084
N3575 X86.403 Y64.019
N3580 X86.374 Y63.99
N3585 X86.302 Y63.919
N3590 X86.28 Y63.898
N3595 X86.197 Y63.819
N3600 X86.183 Y63.806
N3605 X86.089 Y63.72
N3610 X86.033 Y63.671
N3615 X85.847 Y63.515
N3620 X85.733 Y63.428
N3625 X85.533 Y63.289
N3630 X85.41 Y63.211
N3635 X85.191 Y63.086
N3640 X85.07 Y63.024
N3645 X84.826 Y62.912
N3650 X84.716 Y62.867
N3655 X84.442 Y62.765
N3660 X84.357 Y62.736
N3665 X84.327 Y62.625
N3670 X84.308 Y62.564
N3675 X84.279 Y62.48
N3680 X84.245 Y62.398
N3685 X84.217 Y62.332
N3690 X84.158 Y62.212
N3695 X84.119 Y62.141
N3700 X84.067 Y62.053
N3705 X84.02 Y61.977
N3710 X83.98 Y61.918
N3715 X83.923 Y61.836
N3720 X83.873 Y61.769
N3725 X83.772 Y61.639
N3730 X83.702 Y61.554
N3735 X83.592 Y61.432
N3740 X83.511 Y61.348
N3745 X83.393 Y61.234
N3750 X83.305 Y61.156
N3755 X83.177 Y61.05
N3760 X83.086 Y60.98
N3765 X82.948 Y60.88
N3770 X82.855 Y60.819
N3775 X82.705 Y60.727
N3780 X82.615 Y60.676
N3785 X82.453 Y60.59
N3790 X82.366 Y60.547
N3795 X82.19 Y60.468
N3800 X82.111 Y60.435
N3805 X81.921 Y60.361
N3810 X81.848 Y60.335
N3815 X81.644 Y60.267
N3820 X81.579 Y60.247
N3825 X81.358 Y60.183
N3830 X81.301 Y60.168
N3835 X81.064 Y60.109
N3840 X81.013 Y60.098
N3845 X80.758 Y60.044
N3850 X80.715 Y60.035
N3855 X80.442 Y59.985
N3860 X80.405 Y59.979
N3865 X80.113 Y59.932
N3870 X80.08 Y59.927
N3875 X79.768 Y59.884
N3880 X79.761 Y59.883
N3885 X79.541 Y59.854
N3890 X79.345 Y59.826
N3895 X79.274 Y59.815
N3900 X79.295 Y59.766
N3905 X79.32 Y59.705
N3910 G2 X79.427 Y59.265 I-1.473 J-0.592
N3915 G1 X79.428 Y59.253
N3920 G2 X79.398 Y58.759 I-1.58 J-0.152
N3925 G1 X79.39 Y58.725
N3930 G2 X79.19 Y58.231 I-1.55 J0.342
N3935 G1 X79.166 Y58.193
N3940 G2 X78.963 Y57.931 I-1.35 J0.836
N3945 G1 X78.921 Y57.886
N3950 X78.85 Y57.817
N3955 X78.774 Y57.752
N3960 X78.712 Y57.701
N3965 X78.611 Y57.625
N3970 X78.526 Y57.567
N3975 X78.458 Y57.523
N3980 X78.349 Y57.455
N3985 X78.3 Y57.427
N3990 X78.165 Y57.35
N3995 X78.13 Y57.33
N4000 X77.965 Y57.243
N4005 X77.942 Y57.23
N4010 X77.747 Y57.13
N4015 X77.728 Y57.121
N4020 X77.501 Y57.008
N4025 X77.488 Y57.001
N4030 X77.227 Y56.875
N4035 X77.218 Y56.87
N4040 X77.073 Y56.801
N4045 X77.07 Y56.8
N4050 X76.916 Y56.727
N4055 X76.913 Y56.725
N4060 X76.75 Y56.648
N4065 X76.746 Y56.646
N4070 X76.573 Y56.565
N4075 X76.57 Y56.564
N4080 X76.387 Y56.479
N4085 X76.384 Y56.477
N4090 X76.191 Y56.388
N4095 X76.189 Y56.387
N4100 X75.985 Y56.292
N4105 X75.983
N4110 X75.768 Y56.193
N4115 X75.766 Y56.192
N4120 X75.54 Y56.088
N4125 X75.539 Y56.087
N4130 X75.302 Y55.979
N4135 X74.875 Y55.783
N4140 X74.466 Y55.593
N4145 X74.073 Y55.41
N4150 X73.696 Y55.231
N4155 X73.335 Y55.058
N4160 X72.988 Y54.89
N4165 X72.656 Y54.726
N4170 X72.337 Y54.566
N4175 X72.031 Y54.411
N4180 X71.738 Y54.258
N4185 X71.456 Y54.109
N4190 X71.189 Y53.965
N4195 X70.677 Y53.678
N4200 X70.206 Y53.399
N4205 X69.766 Y53.125
N4210 X69.353 Y52.853
N4215 X68.961 Y52.578
N4220 X68.584 Y52.296
N4225 X68.215 Y52.006
N4230 X67.849 Y51.701
N4235 X67.48 Y51.379
N4240 X67.29 Y51.205
N4245 X67.294 Y51.204
N4250 X67.476 Y51.16
N4255 X67.679 Y51.113
N4260 X67.904 Y51.063
N4265 X68.153 Y51.011
N4270 X68.429 Y50.954
N4275 X68.727 Y50.894
N4280 X69.117 Y50.82
N4285 X69.482 Y50.758
N4290 X69.833 Y50.706
N4295 X70.174 Y50.664
N4300 X70.51 Y50.631
N4305 X70.847 Y50.608
N4310 X71.189 Y50.594
N4315 X71.542 Y50.589
N4320 X71.912 Y50.593
N4325 X72.303 Y50.607
N4330 X72.72 Y50.631
N4335 X73.166 Y50.665
N4340 X73.647 Y50.709
N4345 X74.167 Y50.764
N4350 X74.439 Y50.795
N4355 X74.724 Y50.829
N4360 X75.02 Y50.866
N4365 X75.33 Y50.905
N4370 X75.697 Y50.953
N4375 X75.701
N4380 X76.057 Y50.998
N4385 X76.062 Y50.999
N4390 X76.408 Y51.041
N4395 X76.412 Y51.042
N4400 X76.746 Y51.082
N4405 X76.752
N4410 X77.075 Y51.12
N4415 X77.08 Y51.121
N4420 X77.392 Y51.156
N4425 X77.398 Y51.157
N4430 X77.7 Y51.19
N4435 X77.706 Y51.191
N4440 X77.997 Y51.222
N4445 X78.004
N4450 X78.284 Y51.251
N4455 X78.29 Y51.252
N4460 X78.56 Y51.278
N4465 X78.567 Y51.279
N4470 X78.826 Y51.303
N4475 X78.835
N4480 X79.083 Y51.325
N4485 X79.092 Y51.326
N4490 X79.329 Y51.345
N4495 X79.339 Y51.346
N4500 X79.566 Y51.363
N4505 X79.577 Y51.364
N4510 X79.794 Y51.378
N4515 X79.805 Y51.379
N4520 X80.011 Y51.392
N4525 X80.025
N4530 X80.221 Y51.403
N4535 X80.235
N4540 X80.42 Y51.411
N4545 X80.438 Y51.412
N4550 X80.613 Y51.417
N4555 X80.631 Y51.418
N4560 X80.796 Y51.421
N4565 X80.817
N4570 X80.972 Y51.422
N4575 X80.997
N4580 X81.141 Y51.421
N4585 X81.168
N4590 X81.302 Y51.417
N4595 X81.335 Y51.416
N4600 X81.459 Y51.41
N4605 X81.498 Y51.408
N4610 X81.612 Y51.4
N4615 X81.657 Y51.396
N4620 X81.761 Y51.385
N4625 X81.814 Y51.379
N4630 X81.908 Y51.367
N4635 X81.974 Y51.357
N4640 X82.058 Y51.342
N4645 X82.185 Y51.314
N4650 X82.325 Y51.278
N4655 G2 X82.574 Y51.19 I-0.402 J-1.536
N4660 G1 X82.676 Y51.144
N4665 X82.779 Y51.093
N4670 X82.878 Y51.035
N4675 X82.951 Y50.988
N4680 X83.025 Y50.938
N4685 X83.087 Y50.893
N4690 X83.203 Y50.801
N4695 X83.253 Y50.758
N4700 X83.334 Y50.682
N4705 X83.409 Y50.601
N4710 X83.447 Y50.557
N4715 G2 X83.628 Y50.302 I-1.2 J-1.04
N4720 G1 X83.654 Y50.256
N4725 G2 X83.805 Y49.89 I-1.38 J-0.785
N4730 G1 X83.819 Y49.841
N4735 G2 X83.875 Y49.432 I-1.531 J-0.418
N4740 G1 Y49.379
N4745 G2 X83.835 Y49.016 I-1.587 J-0.009
N4750 G1 X83.822 Y48.959
N4755 G2 X83.737 Y48.695 I-1.548 J0.353
N4760 G1 X83.71 Y48.631
N4765 X83.669 Y48.542
N4770 X83.623 Y48.456
N4775 X83.582 Y48.385
N4780 X83.509 Y48.27
N4785 X83.453 Y48.189
N4790 X83.429 Y48.155
N4795 X83.512 Y48.148
N4800 X83.677 Y48.139
N4805 X83.861 Y48.129
N4810 X84.064 Y48.121
N4815 X84.289 Y48.114
N4820 X84.537 Y48.107
N4825 X84.811 Y48.101
N4830 X85.114 Y48.094
N4835 X85.449 Y48.089
N4840 X85.634 Y48.085
N4845 X85.809 Y48.082
N4850 X85.811
N4855 X86.13 Y48.076
N4860 X86.134
N4865 X86.415 Y48.071
N4870 X86.42 Y48.07
N4875 X86.666 Y48.065
N4880 X86.674 Y48.064
N4885 X86.886 Y48.058
N4890 X86.898
N4895 X87.081 Y48.051
N4900 X87.098 Y48.05
N4905 X87.253 Y48.043
N4910 X87.278 Y48.042
N4915 X87.409 Y48.033
N4920 X87.445 Y48.03
N4925 X87.554 Y48.021
N4930 X87.606 Y48.016
N4935 X87.695 Y48.005
N4940 X87.77 Y47.994
N4945 X87.843 Y47.982
N4950 X87.944 Y47.961
N4955 X88.004 Y47.947
N4960 X88.107 Y47.919
N4965 X88.209 Y47.884
N4970 X88.296 Y47.85
N4975 G2 X88.601 Y47.693 I-0.57 J-1.482
N4980 G1 X88.666 Y47.65
N4985 G2 X88.874 Y47.486 I-0.875 J-1.325
N4990 G1 X88.956 Y47.41
N4995 G2 X89.169 Y47.166 I-1.083 J-1.161
N5000 G1 X89.225 Y47.087
N5005 G2 X89.415 Y46.729 I-1.296 J-0.917
N5010 G1 X89.445 Y46.649
N5015 G2 X89.544 Y46.185 I-1.486 J-0.56
N5020 G1 X89.549 Y46.104
N5025 X89.55 Y46.088
N5030 X89.62 Y46.081
N5035 X89.626 Y46.08
N5040 X89.818 Y46.059
N5045 X89.825 Y46.058
N5050 X90. Y46.039
N5055 X90.01 Y46.037
N5060 X90.169 Y46.018
N5065 X90.183 Y46.017
N5070 X90.328 Y45.998
N5075 X90.346 Y45.996
N5080 X90.479 Y45.977
N5085 X90.512 Y45.972
N5090 X90.747 Y45.934
N5095 X90.804 Y45.924
N5100 X91.008 Y45.883
N5105 X91.078 Y45.868
N5110 X91.262 Y45.823
N5115 X91.332 Y45.804
N5120 X91.509 Y45.751
N5125 X91.568 Y45.733
N5130 X91.751 Y45.671
N5135 X91.799 Y45.654
N5140 X91.912 Y45.612
N5145 X91.978 Y45.585
N5150 X92.078 Y45.543
N5155 X92.163 Y45.503
N5160 X92.25 Y45.46
N5165 X92.356 Y45.402
N5170 X92.43 Y45.358
N5175 X92.563 Y45.27
N5180 X92.624 Y45.224
N5185 X92.705 Y45.16
N5190 X92.781 Y45.091
N5195 X92.83 Y45.044
N5200 G2 X93.002 Y44.848 I-1.103 J-1.142
N5205 G1 X93.039 Y44.798
N5210 G2 X93.198 Y44.533 I-1.274 J-0.947
N5215 G1 X93.223 Y44.481
N5220 G2 X93.335 Y44.16 I-1.434 J-0.681
N5225 G1 X93.346 Y44.115
N5230 X93.394
N5235 X93.537 Y44.114
N5240 X93.691 Y44.113
N5245 X93.855
N5250 X94.032 Y44.112
N5255 X94.221
N5260 X94.421 Y44.111
N5265 X94.654
N5270 X94.658
N5275 X94.878 Y44.11
N5280 X94.88
N5285 X95.089 Y44.108
N5290 X95.093
N5295 X95.291 Y44.106
N5300 X95.295
N5305 X95.481 Y44.104
N5310 X95.488
N5315 X95.664 Y44.101
N5320 X95.676
N5325 X96. Y44.094
N5330 X96.02 Y44.093
N5335 X96.31 Y44.083
N5340 X96.337 Y44.081
N5345 X96.595 Y44.068
N5350 X96.631 Y44.065
N5355 X96.862 Y44.048
N5360 X96.908 Y44.043
N5365 X97.115 Y44.021
N5370 X97.172 Y44.014
N5375 X97.359 Y43.988
N5380 X97.426 Y43.977
N5385 X97.596 Y43.945
N5390 X97.673 Y43.928
N5395 X97.831 Y43.891
N5400 X97.909 Y43.87
N5405 X98.059 Y43.826
N5410 X98.169 Y43.789
N5415 X98.457 Y43.681
N5420 X98.546 Y43.645
N5425 X98.693 Y43.579
N5430 X98.732 Y43.561
N5435 X98.885 Y43.488
N5440 X98.965 Y43.447
N5445 X99.123 Y43.36
N5450 X99.221 Y43.301
N5455 X99.384 Y43.195
N5460 X99.46 Y43.143
N5465 X99.621 Y43.024
N5470 X99.687 Y42.973
N5475 X99.837 Y42.85
N5480 X99.907 Y42.789
N5485 X100.038 Y42.669
N5490 X100.125 Y42.582
N5495 X100.228 Y42.471
N5500 X100.317 Y42.367
N5505 X100.356 Y42.318
N5510 X100.438 Y42.202
N5515 X100.467 Y42.157
N5520 X100.524 Y42.062
N5525 X100.574 Y41.963
N5530 X100.592 Y41.924
N5535 G2 X100.713 Y41.542 I-1.441 J-0.666
N5540 G1 X100.718 Y41.51
N5545 G2 X100.728 Y40.996 I-1.562 J-0.285
N5550 G1 X100.72 Y40.945
N5555 G2 X100.572 Y40.47 I-1.571 J0.229
N5560 G1 X100.548 Y40.422
N5565 G2 X100.305 Y40.063 I-1.423 J0.704
N5570 G1 X100.262 Y40.016
N5575 G2 X100.032 Y39.806 I-1.18 J1.062
N5580 G1 X99.968 Y39.759
N5585 X99.886 Y39.701
N5590 X99.801 Y39.649
N5595 X99.715 Y39.601
N5600 X99.601 Y39.543
N5605 X99.49 Y39.491
N5610 X99.419 Y39.46
N5615 X99.28 Y39.404
N5620 X99.234 Y39.386
N5625 X99.068 Y39.324
N5630 X99.026 Y39.309
N5635 X98.988 Y39.293
N5640 X98.853 Y39.237
N5645 X98.685 Y39.161
N5650 X98.489 Y39.071
N5655 X98.276 Y38.969
N5660 X98.058 Y38.862
N5665 X97.606 Y38.631
N5670 X97.372 Y38.509
N5675 X97.367 Y38.507
N5680 X97.147 Y38.393
N5685 X97.14 Y38.389
N5690 X96.938 Y38.286
N5695 X96.928 Y38.281
N5700 X96.744 Y38.188
N5705 X96.732 Y38.182
N5710 X96.562 Y38.099
N5715 X96.545 Y38.09
N5720 X96.388 Y38.016
N5725 X96.368 Y38.007
N5730 X96.223 Y37.94
N5735 X96.199 Y37.929
N5740 X96.064 Y37.869
N5745 X96.019 Y37.85
N5750 X95.769 Y37.749
N5755 X95.7 Y37.723
N5760 X95.547 Y37.669
N5765 X95.497 Y37.579
N5770 X95.441 Y37.491
N5775 X95.404 Y37.437
N5780 G2 X95.059 Y37.075 I-1.308 J0.899
N5785 G1 X95.008 Y37.036
N5790 G2 X94.652 Y36.831 I-0.964 J1.262
N5795 G1 X94.589 Y36.805
N5800 X94.456 Y36.757
N5805 X94.348 Y36.723
N5810 X94.245 Y36.694
N5815 X94.065 Y36.651
N5820 X93.989 Y36.635
N5825 X93.94 Y36.625
N5830 X93.895 Y36.616
N5835 X93.822 Y36.6
N5840 X93.714 Y36.573
N5845 X93.58 Y36.539
N5850 X93.429 Y36.499
N5855 X93.271 Y36.457
N5860 G2 X93.165 Y36.164 I-1.538 J0.394
N5865 G1 X93.132 Y36.097
N5870 G2 X92.87 Y35.709 I-1.431 J0.687
N5875 G1 X92.816 Y35.65
N5880 G2 X92.264 Y35.262 I-1.168 J1.075
N5885 G1 X92.225 Y35.246
N5890 G2 X91.944 Y35.157 I-0.617 J1.463
N5895 G1 X91.866 Y35.14
N5900 X91.759 Y35.121
N5905 X91.641 Y35.104
N5910 X91.585 Y35.096
N5915 X91.427 Y35.079
N5920 X91.392 Y35.076
N5925 X91.191 Y35.058
N5930 X91.166 Y35.056
N5935 X90.92 Y35.038
N5940 X90.901 Y35.037
N5945 X90.607 Y35.019
N5950 X90.592
N5955 X90.244 Y35.001
N5960 X90.233
N5965 X89.994 Y34.99
N5970 X89.328 Y34.956
N5975 X89.012 Y34.936
N5980 X88.709 Y34.913
N5985 X88.436 Y34.891
N5990 X88.348 Y34.882
N5995 X88.484 Y34.737
N6000 X88.641 Y34.572
N6005 X88.747 Y34.462
N6010 X88.752 Y34.456
N6015 X88.849 Y34.354
N6020 X88.857 Y34.345
N6025 X88.944 Y34.252
N6030 X88.953 Y34.242
N6035 X89.031 Y34.157
N6040 X89.044 Y34.143
N6045 X89.113 Y34.065
N6050 X89.129 Y34.048
N6055 X89.19 Y33.978
N6060 X89.222 Y33.939
N6065 X89.321 Y33.817
N6070 X89.384 Y33.735
N6075 X89.454 Y33.636
N6080 X89.502 Y33.564
N6085 X89.546 Y33.49
N6090 X89.591 Y33.409
N6095 G2 X89.706 Y33.151 I-1.387 J-0.773
N6100 G1 X89.729 Y33.084
N6105 G2 X89.812 Y32.671 I-1.502 J-0.515
N6110 G1 X89.815 Y32.615
N6115 G2 X89.777 Y32.153 I-1.584 J-0.102
N6120 G1 X89.753 Y32.048
N6125 G2 X89.546 Y31.556 I-1.546 J0.36
N6130 G1 X89.491 Y31.47
N6135 G2 X89.21 Y31.139 I-1.339 J0.853
N6140 G1 X89.169 Y31.102
N6145 G2 X88.968 Y30.949 I-1.058 J1.184
N6150 G1 X88.918 Y30.918
N6155 X88.824 Y30.862
N6160 X88.726 Y30.813
N6165 X88.666 Y30.785
N6170 X88.588 Y30.751
N6175 X88.509 Y30.722
N6180 X88.438 Y30.698
N6185 X88.307 Y30.661
N6190 X88.225 Y30.64
N6195 X88.121 Y30.619
N6200 X88.027 Y30.602
N6205 X87.949 Y30.591
N6210 X87.842 Y30.577
N6215 X87.778 Y30.571
N6220 X87.657 Y30.561
N6225 X87.609 Y30.557
N6230 X87.475 Y30.55
N6235 X87.437 Y30.549
N6240 X87.287 Y30.545
N6245 X87.258 Y30.544
N6250 X87.093 Y30.542
N6255 X87.07
N6260 X86.89 Y30.543
N6265 X86.875
N6270 X86.737 Y30.545
N6275 X86.727
N6280 X86.6 Y30.548
N6285 X86.574
N6290 X86.348 Y30.556
N6295 X86.297 Y30.559
N6300 X86.098 Y30.573
N6305 X86.028 Y30.579
N6310 X85.845 Y30.6
N6315 X85.766 Y30.611
N6320 X85.587 Y30.64
N6325 X85.515 Y30.654
N6330 X85.329 Y30.693
N6335 X85.272 Y30.707
N6340 X85.068 Y30.758
N6345 X85.032 Y30.767
N6350 X84.798 Y30.832
N6355 X84.79 Y30.834
N6360 X84.409 Y30.942
N6365 X84.062 Y31.038
N6370 X83.748 Y31.123
N6375 X83.669 Y31.144
N6380 G2 X83.369 Y30.885 I-1.182 J1.06
N6385 G1 X83.325 Y30.855
N6390 G2 X82.962 Y30.675 I-0.882 J1.32
N6395 G1 X82.925 Y30.662
N6400 X82.849 Y30.638
N6405 X82.771 Y30.618
N6410 X82.722 Y30.606
N6415 X82.622 Y30.586
N6420 X82.559 Y30.575
N6425 X82.489 Y30.565
N6430 X82.411 Y30.555
N6435 X82.364 Y30.55
N6440 X82.27 Y30.541
N6445 X82.235 Y30.538
N6450 X82.123 Y30.53
N6455 X82.098 Y30.529
N6460 X81.966 Y30.522
N6465 X81.949 Y30.521
N6470 X81.796 Y30.514
N6475 X81.782 Y30.513
N6480 X81.607 Y30.507
N6485 X81.598
N6490 X81.398 Y30.501
N6495 X81.39 Y30.5
N6500 X81.165 Y30.495
N6505 X81.16
N6510 X80.908 Y30.489
N6515 X80.904
N6520 X80.624 Y30.484
N6525 X80.62
N6530 X80.31 Y30.479
N6535 X80.023 Y30.474
N6540 X79.761 Y30.468
N6545 X79.521 Y30.463
N6550 X79.302 Y30.457
N6555 X79.105 Y30.451
N6560 X78.928 Y30.444
N6565 X78.771 Y30.437
N6570 X78.633 Y30.43
N6575 X78.515 Y30.423
N6580 X78.415 Y30.415
N6585 X78.334 Y30.408
N6590 X78.273 Y30.401
N6595 X78.233 Y30.395
N6600 X78.23
N6605 X78.208 Y30.389
N6610 X78.117 Y30.361
N6615 X78.015 Y30.325
N6620 X77.929 Y30.291
N6625 X77.861 Y30.259
N6630 X77.809 Y30.231
N6635 X77.771 Y30.209
N6640 X77.751 Y30.195
N6645 X77.746 Y30.168
N6650 X77.741 Y30.119
N6655 X77.738 Y30.048
N6660 Y29.959
N6665 X77.743 Y29.852
N6670 X77.753 Y29.728
N6675 X77.77 Y29.591
N6680 X77.793 Y29.44
N6685 X77.823 Y29.277
N6690 X77.858 Y29.112
N6695 X77.954 Y28.722
N6700 X78.076 Y28.307
N6705 X78.224 Y27.861
N6710 X78.399 Y27.388
N6715 X78.599 Y26.892
N6720 X78.823 Y26.376
N6725 X79.071 Y25.843
N6730 X79.341 Y25.298
N6735 X79.633 Y24.742
N6740 X79.945 Y24.179
N6745 X80.283 Y23.599
N6750 X80.37 Y23.453
N6755 X80.378 Y23.439
N6760 X80.458 Y23.302
N6765 X80.469 Y23.282
N6770 X80.539 Y23.157
N6775 X80.553 Y23.13
N6780 X80.613 Y23.018
N6785 X80.633 Y22.98
N6790 X80.683 Y22.879
N6795 X80.707 Y22.83
N6800 X80.748 Y22.74
N6805 X80.778 Y22.672
N6810 X80.81 Y22.591
N6815 X80.845 Y22.496
N6820 X80.868 Y22.425
N6825 X80.905 Y22.298
N6830 X80.92 Y22.235
N6835 X80.939 Y22.146
N6840 X80.952 Y22.056
N6845 X80.959 Y22.
N6850 G2 X80.961 Y21.631 I-1.576 J-0.192
N6855 G1 X80.951 Y21.539
N6860 G2 X80.753 Y20.931 I-1.578 J0.177
N6865 G1 X80.712 Y20.859
N6870 G2 X80.341 Y20.419 I-1.38 J0.785
N6875 G1 X80.271 Y20.361
N6880 G2 X79.857 Y20.115 I-1.009 J1.226
N6885 G1 X79.765 Y20.078
N6890 G2 X79.332 Y19.971 I-0.595 J1.472
N6895 G1 X79.278 Y19.965
N6900 G2 X79.001 Y19.961 I-0.162 J1.579
N6905 G1 X78.941 Y19.965
N6910 X78.829 Y19.978
N6915 X78.718 Y19.998
N6920 X78.65 Y20.013
N6925 X78.565 Y20.033
N6930 X78.482 Y20.059
N6935 X78.404 Y20.085
N6940 X78.284 Y20.131
N6945 X78.195 Y20.169
N6950 X78.106 Y20.211
N6955 X78.005 Y20.262
N6960 X77.942 Y20.295
N6965 X77.827 Y20.36
N6970 X77.781 Y20.386
N6975 X77.652 Y20.465
N6980 X77.618 Y20.486
N6985 X77.472 Y20.58
N6990 X77.449 Y20.595
N6995 X77.286 Y20.704
N7000 X77.267 Y20.717
N7005 X77.084 Y20.843
N7010 X77.071 Y20.852
N7015 X76.868 Y20.995
N7020 X76.858 Y21.002
N7025 X76.634 Y21.162
N7030 X76.627 Y21.167
N7035 X76.387 Y21.341
N7040 X76.131 Y21.522
N7045 X75.913 Y21.664
N7050 X75.719 Y21.78
N7055 X75.543 Y21.874
N7060 X75.376 Y21.951
N7065 X75.208 Y22.017
N7070 X75.028 Y22.077
N7075 X74.801 Y22.141
N7080 X74.654 Y22.18
N7085 X74.624 Y22.188
N7090 X74.411 Y22.25
N7095 X74.383 Y22.258
N7100 X74.242 Y22.302
N7105 X74.231 Y22.292
N7110 X74.197 Y22.264
N7115 X74.097 Y22.188
N7120 X73.993 Y22.121
N7125 X73.947 Y22.094
N7130 G2 X73.7 Y21.976 I-0.806 J1.368
N7135 G1 X73.63 Y21.95
N7140 G2 X73.322 Y21.868 I-0.558 J1.486
N7145 G1 X73.237 Y21.855
N7150 X73.125 Y21.841
N7155 X73.012 Y21.835
N7160 X72.913 Y21.834
N7165 X72.831
N7170 X72.75 Y21.839
N7175 X72.637 Y21.849
N7180 X72.514 Y21.865
N7185 X72.39 Y21.885
N7190 X72.295 Y21.904
N7195 X72.161 Y21.935
N7200 X72.081 Y21.955
N7205 X71.939 Y21.996
N7210 X71.872 Y22.017
N7215 X71.723 Y22.066
N7220 X71.636 Y22.098
N7225 X71.325 Y22.223
N7230 X71.223 Y22.268
N7235 X70.905 Y22.422
N7240 X70.808 Y22.473
N7245 X70.495 Y22.652
N7250 X70.394 Y22.715
N7255 X70.098 Y22.915
N7260 X70.035 Y22.96
N7265 X69.949 Y23.024
N7270 X69.937 Y23.033
N7275 X69.817 Y23.125
N7280 X69.811 Y23.13
N7285 X69.65 Y23.254
N7290 X69.644 Y23.259
N7295 X69.429 Y23.426
N7300 X69.423 Y23.431
N7305 X69.102 Y23.684
N7310 X69.095 Y23.69
N7315 X69.005 Y23.762
N7320 G2 X68.762 Y23.584 I-1.057 J1.184
N7325 G1 X68.684 Y23.537
N7330 G2 X68.227 Y23.353 I-0.815 J1.363
N7335 G1 X68.181 Y23.342
N7340 G2 X67.901 Y23.304 I-0.358 J1.547
N7345 G1 X67.849 Y23.301
N7350 X67.73 Y23.3
N7355 X67.612 Y23.307
N7360 X67.553 Y23.313
N7365 X67.46 Y23.325
N7370 X67.368 Y23.343
N7375 X67.302 Y23.357
N7380 X67.163 Y23.395
N7385 X67.091 Y23.418
N7390 X66.985 Y23.456
N7395 X66.906 Y23.488
N7400 X66.824 Y23.523
N7405 X66.736 Y23.564
N7410 X66.675 Y23.594
N7415 X66.579 Y23.644
N7420 X66.53 Y23.67
N7425 X66.427 Y23.729
N7430 X66.39 Y23.75
N7435 X66.277 Y23.818
N7440 X66.246 Y23.837
N7445 X66.124 Y23.914
N7450 X66.101 Y23.929
N7455 X65.981 Y24.008
N7460 X65.555 Y24.278
N7465 X65.123 Y24.525
N7470 X64.661 Y24.762
N7475 X64.168 Y24.99
N7480 X63.644 Y25.208
N7485 X63.087 Y25.416
N7490 X62.496 Y25.614
N7495 X61.861 Y25.805
N7500 X61.638 Y25.869
N7505 X61.429 Y25.927
N7510 X61.243 Y25.978
N7515 X61.079 Y26.022
N7520 X60.936 Y26.058
N7525 X60.812 Y26.088
N7530 X60.706 Y26.112
N7535 X60.625 Y26.128
N7540 X60.47 Y26.154
N7545 X60.344 Y26.168
N7550 X60.203 Y26.176
N7555 X60.082 Y26.178
N7560 Y26.151
N7565 X60.089 Y25.91
N7570 X60.11 Y25.712
N7575 X60.15 Y25.5
N7580 X60.173 Y25.409
N7585 X60.208 Y25.292
N7590 X60.251 Y25.161
N7595 X60.305 Y25.014
N7600 X60.37 Y24.851
N7605 X60.447 Y24.669
N7610 X60.537 Y24.468
N7615 X60.64 Y24.247
N7620 X60.757 Y24.003
N7625 X60.888 Y23.737
N7630 X60.997 Y23.521
N7635 X61.102 Y23.318
N7640 X61.201 Y23.129
N7645 X61.295 Y22.956
N7650 X61.479 Y22.631
N7655 X61.651 Y22.346
N7660 X61.818 Y22.089
N7665 X61.987 Y21.851
N7670 X62.163 Y21.62
N7675 X62.364 Y21.375
N7680 X62.464 Y21.256
N7685 X62.47 Y21.249
N7690 X62.614 Y21.076
N7695 X62.619 Y21.069
N7700 X62.826 Y20.818
N7705 X62.835 Y20.807
N7710 X63.245 Y20.299
N7715 X63.273 Y20.263
N7720 X63.463 Y20.013
N7725 X63.503 Y19.959
N7730 X63.671 Y19.717
N7735 X63.711 Y19.658
N7740 X63.858 Y19.425
N7745 X63.899 Y19.357
N7750 X64.024 Y19.135
N7755 X64.065 Y19.057
N7760 X64.169 Y18.848
N7765 X64.211 Y18.755
N7770 X64.292 Y18.561
N7775 X64.335 Y18.444
N7780 X64.393 Y18.266
N7785 X64.434 Y18.115
N7790 X64.47 Y17.956
N7795 X64.489 Y17.853
N7800 X64.501 Y17.749
N7805 X64.513 Y17.61
N7810 G2 X64.511 Y17.317 I-1.582 J-0.136
N7815 G1 X64.5 Y17.2
N7820 G2 X64.404 Y16.793 I-1.58 J0.156
N7825 G1 X64.369 Y16.7
N7830 G2 X64.074 Y16.212 I-1.484 J0.564
N7835 G1 X64.014 Y16.144
N7840 G2 X63.503 Y15.761 I-1.189 J1.052
N7845 G1 X63.419 Y15.721
N7850 G2 X63.006 Y15.591 I-0.678 J1.435
N7855 G1 X63.058 Y15.475
N7860 X63.164 Y15.284
N7865 X63.175 Y15.265
N7870 X63.243 Y15.167
N7875 X63.334 Y15.04
N7880 X63.445 Y14.889
N7885 X63.569 Y14.723
N7890 X63.7 Y14.552
N7895 X63.985 Y14.19
N7900 X64.126 Y14.013
N7905 X64.141 Y13.994
N7910 X64.274 Y13.821
N7915 X64.288 Y13.801
N7920 X64.409 Y13.639
N7925 X64.425 Y13.617
N7930 X64.53 Y13.47
N7935 X64.552 Y13.439
N7940 X64.638 Y13.312
N7945 X64.669 Y13.265
N7950 X64.735 Y13.161
N7955 X64.786 Y13.074
N7960 X64.827 Y12.997
N7965 X64.867 Y12.92
N7970 X64.902 Y12.84
N7975 X64.913 Y12.813
N7980 G2 X64.999 Y12.532 I-1.469 J-0.601
N7985 G1 X65.002 Y12.514
N7990 G2 X65.011 Y11.922 I-1.555 J-0.32
N7995 G1 X65.003 Y11.872
N8000 G2 X64.861 Y11.44 I-1.564 J0.272
N8005 G1 X64.837 Y11.39
N8010 G2 X64.648 Y11.096 I-1.423 J0.704
N8015 G1 X64.61 Y11.049
N8020 G2 X64.416 Y10.848 I-1.234 J0.998
N8025 G1 X64.367 Y10.805
N8030 X64.273 Y10.73
N8035 X64.173 Y10.661
N8040 X64.143 Y10.642
N8045 X64.162 Y10.574
N8050 X64.3 Y10.189
N8055 X64.316 Y10.151
N8060 X64.357 Y10.056
N8065 X64.411 Y9.936
N8070 X64.478 Y9.791
N8075 X64.554 Y9.629
N8080 X64.639 Y9.453
N8085 X64.729 Y9.268
N8090 X64.923 Y8.876
N8095 X65.121 Y8.485
N8100 X65.311 Y8.117
N8105 X65.398 Y7.953
N8110 X65.477 Y7.805
N8115 X65.547 Y7.679
N8120 X65.61 Y7.568
N8125 X65.671 Y7.459
N8130 X65.681 Y7.442
N8135 X65.765 Y7.291
N8140 X65.771 Y7.279
N8145 X65.882 Y7.075
N8150 X65.888 Y7.064
N8155 X66.042 Y6.774
N8160 X66.05 Y6.758
N8165 X66.319 Y6.238
N8170 X66.328 Y6.22
N8175 X66.408 Y6.062
N8180 X66.416 Y6.046
N8185 X66.484 Y5.905
N8190 X66.496 Y5.881
N8195 X66.554 Y5.756
N8200 X66.571 Y5.718
N8205 X66.62 Y5.607
N8210 X66.642 Y5.553
N8215 X66.68 Y5.456
N8220 X66.71 Y5.374
N8225 X66.738 Y5.29
N8230 X66.772 Y5.171
N8235 X66.789 Y5.099
N8240 X66.809 Y5.005
N8245 X66.824 Y4.911
N8250 X66.831 Y4.85
N8255 G2 X66.841 Y4.582 I-1.576 J-0.19
N8260 G1 X66.838 Y4.53
N8265 G2 X66.773 Y4.152 I-1.586 J0.077
N8270 G1 X66.76 Y4.109
N8275 G2 X66.566 Y3.693 I-1.521 J0.456
N8280 G1 X66.544 Y3.659
N8285 G2 X66.237 Y3.314 I-1.326 J0.873
N8290 G1 X66.204 Y3.287
N8295 G2 X65.897 Y3.085 I-1.02 J1.217
N8300 G1 X65.854 Y3.064
N8305 G2 X65.611 Y2.966 I-0.712 J1.419
N8310 G1 X65.558 Y2.949
N8315 X65.476 Y2.926
N8320 X65.392 Y2.908
N8325 X65.33 Y2.896
N8330 X65.223 Y2.879
N8335 X65.151 Y2.87
N8340 X65.005 Y2.859
N8345 X64.936 Y2.856
N8350 X64.818 Y2.857
N8355 X64.701 Y2.867
N8360 X64.629 Y2.875
N8365 X64.513 Y2.893
N8370 X64.399 Y2.92
N8375 X64.321 Y2.941
N8380 X64.223 Y2.971
N8385 X64.127 Y3.008
N8390 X64.041 Y3.043
N8395 X63.967 Y3.077
N8400 X63.894 Y3.114
N8405 X63.797 Y3.166
N8410 X63.691 Y3.229
N8415 X63.581 Y3.301
N8420 X63.506 Y3.353
N8425 X63.381 Y3.444
N8430 X63.328 Y3.485
N8435 X63.185 Y3.6
N8440 X63.148 Y3.631
N8445 X62.984 Y3.77
N8450 X62.957 Y3.793
N8455 X62.771 Y3.96
N8460 X62.752 Y3.977
N8465 X62.541 Y4.172
N8470 X62.53 Y4.182
N8475 X62.414 Y4.29
N8480 X62.408 Y4.296
N8485 X62.284 Y4.413
N8490 X62.279 Y4.418
N8495 X62.149 Y4.543
N8500 X62.145 Y4.547
N8505 X62.006 Y4.68
N8510 X62.003 Y4.684
N8515 X61.856 Y4.826
N8520 X61.853 Y4.829
N8525 X61.697 Y4.98
N8530 X61.695 Y4.982
N8535 X61.531 Y5.143
N8540 X61.529 Y5.145
N8545 X61.356 Y5.315
N8550 X61.354 Y5.317
N8555 X61.171 Y5.496
N8560 X61.17 Y5.497
N8565 X60.978 Y5.687
N8570 X60.792 Y5.871
N8575 X60.615 Y6.045
N8580 X60.447 Y6.21
N8585 X60.288 Y6.367
N8590 X60.137 Y6.515
N8595 X59.994 Y6.655
N8600 X59.858 Y6.787
N8605 X59.73 Y6.911
N8610 X59.494 Y7.138
N8615 X59.285 Y7.337
N8620 X59.1 Y7.51
N8625 X58.937 Y7.66
N8630 X58.795 Y7.787
N8635 X58.671 Y7.895
N8640 X58.563 Y7.985
N8645 X58.477 Y8.053
N8650 X58.377 Y8.128
N8655 X58.357 Y8.123
N8660 X58.251 Y8.101
N8665 G2 X57.812 Y8.07 I-0.33 J1.553
N8670 G1 X57.757 Y8.074
N8675 G2 X57.472 Y8.12 I0.11 J1.584
N8680 G1 X57.415 Y8.135
N8685 X57.296 Y8.17
N8690 X57.18 Y8.215
N8695 X57.119 Y8.241
N8700 X57.03 Y8.283
N8705 X56.944 Y8.33
N8710 X56.878 Y8.369
N8715 X56.754 Y8.45
N8720 X56.682 Y8.502
N8725 X56.596 Y8.569
N8730 X56.517 Y8.634
N8735 X56.456 Y8.687
N8740 X56.369 Y8.767
N8745 X56.327 Y8.808
N8750 X56.231 Y8.903
N8755 X56.201 Y8.933
N8760 X56.095 Y9.045
N8765 X56.075 Y9.066
N8770 X55.957 Y9.194
N8775 X55.942 Y9.21
N8780 X55.812 Y9.356
N8785 X55.802 Y9.366
N8790 X55.661 Y9.526
N8795 X55.315 Y9.915
N8800 X54.985 Y10.272
N8805 X54.973 Y10.285
N8810 X54.929 Y10.25
N8815 X54.874 Y10.206
N8820 G2 X54.532 Y10.003 I-0.975 J1.252
N8825 G1 X54.468 Y9.976
N8830 G2 X54.104 Y9.867 I-0.634 J1.455
N8835 G1 X54.033 Y9.854
N8840 G2 X53.711 Y9.832 I-0.27 J1.564
N8845 G1 X53.632 Y9.835
N8850 G2 X53.366 Y9.866 I0.053 J1.587
N8855 G1 X53.281 Y9.883
N8860 X53.18 Y9.908
N8865 X53.08 Y9.939
N8870 X52.988 Y9.97
N8875 X52.908 Y10.001
N8880 X52.83 Y10.035
N8885 X52.733 Y10.081
N8890 X52.611 Y10.145
N8895 X52.51 Y10.205
N8900 X52.413 Y10.266
N8905 X52.307 Y10.339
N8910 X52.229 Y10.395
N8915 X52.119 Y10.481
N8920 X52.054 Y10.534
N8925 X51.941 Y10.633
N8930 X51.887 Y10.682
N8935 X51.77 Y10.792
N8940 X51.724 Y10.838
N8945 X51.605 Y10.961
N8950 X51.564 Y11.005
N8955 X51.443 Y11.14
N8960 X51.408 Y11.18
N8965 X51.285 Y11.326
N8970 X51.253 Y11.366
N8975 X51.13 Y11.523
N8980 X51.102 Y11.559
N8985 X51.059 Y11.618
N8990 X51.041 Y11.643
N8995 X50.992 Y11.712
N9000 X50.974 Y11.738
N9005 X50.861 Y11.904
N9010 X50.845 Y11.928
N9015 X50.716 Y12.125
N9020 X50.704 Y12.143
N9025 X50.564 Y12.363
N9030 X50.554 Y12.379
N9035 X50.407 Y12.616
N9040 X50.399 Y12.63
N9045 X50.249 Y12.878
N9050 X50.236 Y12.899
N9055 X49.944 Y13.398
N9060 X49.936 Y13.411
N9065 X49.785 Y13.676
N9070 X49.648 Y13.914
N9075 X49.522 Y14.129
N9080 X49.408 Y14.321
N9085 X49.304 Y14.493
N9090 X49.209 Y14.645
N9095 X49.122 Y14.779
N9100 X49.049 Y14.889
N9105 X48.851 Y14.435
N9110 X48.816 Y14.358
N9115 X48.641 Y14.009
N9120 X48.601 Y13.933
N9125 X48.451 Y13.67
N9130 X48.399 Y13.585
N9135 X48.268 Y13.384
N9140 X48.225 Y13.323
N9145 X48.196 Y13.282
N9150 X48.171 Y13.249
N9155 X48.106 Y13.164
N9160 X48.055 Y13.101
N9165 X47.997 Y13.033
N9170 X47.91 Y12.938
N9175 X47.857 Y12.886
N9180 X47.787 Y12.82
N9185 X47.714 Y12.759
N9190 X47.663 Y12.72
N9195 G2 X47.449 Y12.578 I-0.979 J1.25
N9200 G1 X47.398 Y12.55
N9205 G2 X47.138 Y12.436 I-0.764 J1.392
N9210 G1 X47.085 Y12.418
N9215 G2 X46.839 Y12.357 I-0.505 J1.505
N9220 G1 X46.78 Y12.348
N9225 X46.685 Y12.335
N9230 X46.588 Y12.328
N9235 X46.522 Y12.325
N9240 X46.424 Y12.324
N9245 X46.326 Y12.329
N9250 X46.219 Y12.337
N9255 G2 X45.881 Y12.403 I0.129 J1.582
N9260 G1 X45.784 Y12.432
N9265 G2 X45.421 Y12.596 I0.467 J1.517
N9270 G1 X45.329 Y12.653
N9275 G2 X45.057 Y12.863 I0.83 J1.353
N9280 G1 X44.965 Y12.952
N9285 X44.899 Y13.019
N9290 X44.837 Y13.091
N9295 X44.79 Y13.149
N9300 X44.732 Y13.224
N9305 X44.683 Y13.292
N9310 X44.64 Y13.354
N9315 X44.589 Y13.433
N9320 X44.56 Y13.48
N9325 X44.505 Y13.571
N9330 X44.482 Y13.61
N9335 X44.424 Y13.712
N9340 X44.409 Y13.74
N9345 X44.347 Y13.855
N9350 X44.336 Y13.876
N9355 X44.269 Y14.005
N9360 X44.261 Y14.021
N9365 X44.189 Y14.164
N9370 X44.173 Y14.198
N9375 X44.023 Y14.512
N9380 X43.998 Y14.568
N9385 X43.854 Y14.903
N9390 X43.832 Y14.957
N9395 X43.691 Y15.322
N9400 X43.678 Y15.358
N9405 X43.607 Y15.555
N9410 X43.599 Y15.579
N9415 X43.528 Y15.787
N9420 X43.521 Y15.807
N9425 X43.449 Y16.028
N9430 X43.443 Y16.047
N9435 X43.369 Y16.283
N9440 X43.365 Y16.298
N9445 X43.289 Y16.549
N9450 X43.285 Y16.563
N9455 X43.207 Y16.831
N9460 X43.203 Y16.843
N9465 X43.122 Y17.13
N9470 X43.119 Y17.14
N9475 X43.035 Y17.446
N9480 X43.032 Y17.454
N9485 X42.944 Y17.781
N9490 X42.942 Y17.789
N9495 X42.85 Y18.136
N9500 X42.724 Y18.609
N9505 X42.606 Y19.039
N9510 X42.494 Y19.432
N9515 X42.387 Y19.79
N9520 X42.284 Y20.115
N9525 X42.185 Y20.41
N9530 X42.089 Y20.676
N9535 X41.996 Y20.916
N9540 X41.904 Y21.135
N9545 X41.813 Y21.333
N9550 X41.722 Y21.516
N9555 X41.635 Y21.676
N9560 X41.426 Y22.016
N9565 X41.194 Y22.345
N9570 X41.091 Y22.475
N9575 X41.035 Y22.537
N9580 X40.974 Y22.47
N9585 X40.891 Y22.369
N9590 X40.799 Y22.245
N9595 X40.701 Y22.101
N9600 X40.597 Y21.937
N9605 X40.491 Y21.757
N9610 X40.383 Y21.56
N9615 X40.275 Y21.349
N9620 X40.167 Y21.125
N9625 X40.063 Y20.896
N9630 X39.851 Y20.383
N9635 X39.655 Y19.845
N9640 X39.47 Y19.263
N9645 X39.417 Y19.085
N9650 X39.413 Y19.071
N9655 X39.361 Y18.903
N9660 X39.353 Y18.879
N9665 X39.306 Y18.733
N9670 X39.292 Y18.693
N9675 X39.247 Y18.568
N9680 X39.224 Y18.507
N9685 X39.182 Y18.402
N9690 X39.141 Y18.31
N9695 X39.1 Y18.223
N9700 X39.028 Y18.09
N9705 X38.986 Y18.021
N9710 X38.926 Y17.928
N9715 X38.859 Y17.84
N9720 X38.816 Y17.787
N9725 G2 X38.596 Y17.565 I-1.232 J1.001
N9730 G1 X38.551 Y17.528
N9735 G2 X38.208 Y17.312 I-1.011 J1.224
N9740 G1 X38.161 Y17.29
N9745 G2 X37.754 Y17.164 I-0.668 J1.44
N9750 G1 X37.703 Y17.155
N9755 G2 X37.332 Y17.137 I-0.262 J1.566
N9760 G1 X37.275 Y17.141
N9765 G2 X37.005 Y17.183 I0.109 J1.584
N9770 G1 X36.943 Y17.199
N9775 X36.856 Y17.223
N9780 X36.77 Y17.252
N9785 X36.7 Y17.278
N9790 X36.599 Y17.319
N9795 X36.522 Y17.354
N9800 X36.464 Y17.381
N9805 X36.378 Y17.425
N9810 X36.273 Y17.482
N9815 X36.097 Y17.588
N9820 X36.009 Y17.644
N9825 X35.925 Y17.706
N9830 X35.763 Y17.835
N9835 X35.685 Y17.9
N9840 X35.612 Y17.971
N9845 X35.463 Y18.124
N9850 X35.399 Y18.193
N9855 X35.34 Y18.266
N9860 X35.202 Y18.446
N9865 X35.153 Y18.513
N9870 X35.108 Y18.582
N9875 X34.981 Y18.791
N9880 X34.913 Y18.914
N9885 X34.794 Y19.152
N9890 X34.747 Y19.257
N9895 X34.636 Y19.527
N9900 X34.603 Y19.616
N9905 X34.5 Y19.919
N9910 X34.489 Y19.951
N9915 X34.41 Y20.201
N9920 X34.341 Y20.414
N9925 X34.28 Y20.593
N9930 X34.25 Y20.674
N9935 X34.153 Y20.705
N9940 X34.058 Y20.743
N9945 X33.908 Y20.808
N9950 G2 X33.582 Y21. I0.635 J1.455
N9955 G1 X33.469 Y21.086
N9960 G2 X33.152 Y21.407 I0.961 J1.263
N9965 G1 X33.075 Y21.512
N9970 G2 X32.85 Y21.942 I1.278 J0.942
N9975 G1 X32.809 Y22.063
N9980 G2 X32.726 Y22.508 I1.503 J0.512
N9985 G1 X32.72 Y22.635
N9990 G2 X32.734 Y22.922 I1.586 J0.067
N9995 G1 X32.755 Y23.072
N10000 X32.774 Y23.177
N10005 X32.799 Y23.28
N10010 X32.834 Y23.405
N10015 G2 X32.946 Y23.694 I1.529 J-0.429
N10020 G1 X32.967 Y23.751
N10025 X33.005 Y23.859
N10030 X33.052 Y23.994
N10035 X33.103 Y24.148
N10040 X33.217 Y24.5
N10045 X33.332 Y24.869
N10050 X33.342 Y24.902
N10055 X33.253 Y24.966
N10060 G2 X33.031 Y25.154 I0.915 J1.297
N10065 G1 X32.994 Y25.192
N10070 G2 X32.805 Y25.427 I1.136 J1.109
N10075 G1 X32.728 Y25.543
N10080 G2 X32.555 Y25.892 I1.325 J0.874
N10085 G1 X32.509 Y26.025
N10090 G2 X32.439 Y26.302 I1.498 J0.525
N10095 G1 X32.429 Y26.368
N10100 X32.415 Y26.479
N10105 X32.41 Y26.592
N10110 X32.409 Y26.653
N10115 G2 X32.43 Y26.934 I1.587 J0.023
N10120 G1 X32.439 Y26.989
N10125 G2 X32.519 Y27.29 I1.566 J-0.258
N10130 G1 X32.528 Y27.331
N10135 X32.554 Y27.457
N10140 X32.584 Y27.615
N10145 X32.618 Y27.796
N10150 X32.653 Y27.996
N10155 X32.689 Y28.204
N10160 X32.754 Y28.611
N10165 X32.815 Y29.045
N10170 X32.873 Y29.515
N10175 X32.93 Y30.028
N10180 X32.957 Y30.297
N10185 X32.984 Y30.581
N10190 X33.01 Y30.876
N10195 X33.036 Y31.184
N10200 X33.062 Y31.504
N10205 X33.087 Y31.839
N10210 X33.113 Y32.186
N10215 X33.138 Y32.551
N10220 X33.139 Y32.562
N10225 X33.157 Y32.802
N10230 X33.159 Y32.822
N10235 X33.182 Y33.081
N10240 X33.184 Y33.106
N10245 X33.19 Y33.166
N10250 X33.183 Y33.16
N10255 X33.169 Y33.146
N10260 X32.778 Y32.796
N10265 X32.766 Y32.785
N10270 X32.359 Y32.428
N10275 X32.35 Y32.42
N10280 X31.927 Y32.055
N10285 X31.92 Y32.049
N10290 X31.482 Y31.674
N10295 X31.477 Y31.67
N10300 X31.022 Y31.285
N10305 X31.018 Y31.282
N10310 X30.548 Y30.886
N10315 X30.545 Y30.884
N10320 X30.061 Y30.478
N10325 X30.058 Y30.476
N10330 X29.06 Y29.643
N10335 X29.056 Y29.64
N10340 X28.038 Y28.794
N10345 X28.035 Y28.793
N10350 X27.02 Y27.953
N10355 X26.024 Y27.128
N10360 X25.045 Y26.306
N10365 X24.56 Y25.889
N10370 X24.07 Y25.459
N10375 X23.57 Y25.009
N10380 X23.058 Y24.535
N10385 X22.531 Y24.032
N10390 X21.987 Y23.497
N10395 X21.426 Y22.93
N10400 X20.852 Y22.333
N10405 X20.271 Y21.712
N10410 X19.689 Y21.074
N10415 X19.118 Y20.429
N10420 X18.567 Y19.789
N10425 X18.043 Y19.162
N10430 X17.798 Y18.861
N10435 X17.562 Y18.565
N10440 X17.337 Y18.278
N10445 X17.125 Y18.001
N10450 X16.925 Y17.735
N10455 X16.738 Y17.479
N10460 X16.564 Y17.235
N10465 X16.403 Y17.002
N10470 X16.253 Y16.779
N10475 X16.114 Y16.566
N10480 X15.984 Y16.361
N10485 X15.863 Y16.164
N10490 X15.627 Y15.767
N10495 X15.16 Y14.967
N10500 X15.144 Y14.941
N10505 X14.89 Y14.525
N10510 X14.868 Y14.489
N10515 X14.586 Y14.054
N10520 X14.559 Y14.014
N10525 X14.245 Y13.561
N10530 X14.216 Y13.519
N10535 X13.873 Y13.057
N10540 X13.841 Y13.015
N10545 X13.482 Y12.563
N10550 X13.453 Y12.528
N10555 X13.273 Y12.314
N10560 X13.249 Y12.286
N10565 X13.072 Y12.086
N10570 X13.042 Y12.053
N10575 X12.87 Y11.869
N10580 X12.831 Y11.828
N10585 X12.667 Y11.665
N10590 X12.612 Y11.612
N10595 X12.457 Y11.472
N10600 X12.374 Y11.402
N10605 X12.231 Y11.29
N10610 X12.102 Y11.198
N10615 X11.971 Y11.114
N10620 X11.865 Y11.053
N10625 X11.755 Y10.999
N10630 X11.638 Y10.948
N10635 G2 X11.274 Y10.838 I-0.637 J1.454
N10640 G1 X11.169 Y10.819
N10645 G2 X10.645 Y10.816 I-0.274 J1.564
N10650 G1 X10.551 Y10.831
N10655 G2 X10.016 Y11.018 I0.25 J1.568
N10660 G1 X9.931 Y11.067
N10665 G2 X9.583 Y11.335 I0.785 J1.38
N10670 G1 X9.504 Y11.415
N10675 G2 X9.329 Y11.629 I1.134 J1.111
N10680 G1 X9.253 Y11.739
N10685 X9.172 Y11.87
N10690 X9.097 Y12.008
N10695 X9.061 Y12.076
N10700 X8.982 Y12.238
N10705 X8.97 Y12.262
N10710 X8.885 Y12.444
N10715 X8.796 Y12.633
N10720 X8.707 Y12.817
N10725 X8.498 Y13.22
N10730 X8.266 Y13.634
N10735 X8.147 Y13.838
N10740 X8.146 Y13.84
N10745 X8.03 Y14.042
N10750 X8.019 Y14.06
N10755 X7.914 Y14.249
N10760 X7.891 Y14.291
N10765 X7.801 Y14.464
N10770 X7.763 Y14.542
N10775 X7.693 Y14.697
N10780 X7.638 Y14.835
N10785 X7.591 Y14.973
N10790 X7.555 Y15.089
N10795 X7.529 Y15.207
N10800 X7.508 Y15.327
N10805 G2 X7.485 Y15.696 I1.562 J0.282
N10810 G1 X7.49 Y15.799
N10815 G2 X7.588 Y16.266 I1.585 J-0.086
N10820 G1 X7.621 Y16.356
N10825 G2 X7.845 Y16.764 I1.488 J-0.553
N10830 G1 X7.905 Y16.843
N10835 G2 X8.136 Y17.087 I1.264 J-0.961
N10840 G1 X8.221 Y17.161
N10845 X8.298 Y17.222
N10850 X8.377 Y17.278
N10855 X8.485 Y17.35
N10860 X8.557 Y17.395
N10865 X8.684 Y17.47
N10870 X8.696 Y17.477
N10875 X8.824 Y17.551
N10880 X8.937 Y17.619
N10885 X9.041 Y17.689
N10890 X9.145 Y17.766
N10895 X9.253 Y17.856
N10900 X9.369 Y17.964
N10905 X9.493 Y18.093
N10910 X9.625 Y18.244
N10915 X9.764 Y18.417
N10920 X9.908 Y18.611
N10925 X10.053 Y18.818
N10930 X10.368 Y19.3
N10935 X10.688 Y19.815
N10940 X11.012 Y20.336
N10945 X11.03 Y20.364
N10950 X11.351 Y20.858
N10955 X11.385 Y20.908
N10960 X11.708 Y21.365
N10965 X11.754 Y21.427
N10970 X12.081 Y21.846
N10975 X12.132 Y21.908
N10980 X12.467 Y22.295
N10985 X12.513 Y22.346
N10990 X12.859 Y22.712
N10995 X12.891 Y22.745
N11000 X13.248 Y23.102
N11005 X13.261 Y23.115
N11010 X13.629 Y23.474
N11015 X14.003 Y23.842
N11020 X14.384 Y24.228
N11025 X14.778 Y24.639
N11030 X15.189 Y25.082
N11035 X15.618 Y25.554
N11040 X16.064 Y26.052
N11045 X16.068 Y26.056
N11050 X16.996 Y27.084
N11055 X17.013 Y27.102
N11060 X17.489 Y27.614
N11065 X17.508 Y27.634
N11070 X17.992 Y28.135
N11075 X18.015 Y28.159
N11080 X18.504 Y28.646
N11085 X18.53 Y28.671
N11090 X19.024 Y29.141
N11095 X19.05 Y29.164
N11100 X19.549 Y29.618
N11105 X19.572 Y29.639
N11110 X20.075 Y30.079
N11115 X20.101 Y30.101
N11120 X21.117 Y30.952
N11125 X21.133 Y30.964
N11130 X22.16 Y31.803
N11135 X23.196 Y32.656
N11140 X24.248 Y33.544
N11145 X25.325 Y34.465
N11150 X25.329 Y34.468
N11155 X26.427 Y35.401
N11160 X26.442 Y35.414
N11165 X27.546 Y36.329
N11170 X27.562 Y36.342
N11175 X28.11 Y36.785
N11180 X28.119 Y36.792
N11185 X28.66 Y37.222
N11190 X28.668 Y37.228
N11195 X29.196 Y37.642
N11200 X29.198 Y37.644
N11205 X29.707 Y38.042
N11210 X30.185 Y38.418
N11215 X30.627 Y38.774
N11220 X30.827 Y38.939
N11225 X31.017 Y39.099
N11230 X31.193 Y39.252
N11235 X31.354 Y39.398
N11240 X31.355 Y39.399
N11245 X31.302 Y39.42
N11250 X31.014 Y39.523
N11255 X30.715 Y39.622
N11260 X30.337 Y39.738
N11265 X29.953 Y39.846
N11270 X29.561 Y39.946
N11275 X29.16 Y40.04
N11280 X28.748 Y40.127
N11285 X28.323 Y40.207
N11290 X27.883 Y40.281
N11295 X27.426 Y40.349
N11300 X26.952 Y40.41
N11305 X26.458 Y40.466
N11310 X25.942 Y40.515
N11315 X25.404 Y40.559
N11320 X24.842 Y40.598
N11325 X24.255 Y40.63
N11330 X23.641 Y40.658
N11335 X22.995 Y40.68
N11340 X22.729 Y40.688
N11345 X22.726
N11350 X22.488 Y40.695
N11355 X22.484
N11360 X22.277 Y40.702
N11365 X22.269 Y40.703
N11370 X22.09 Y40.71
N11375 X22.077
N11380 X21.923 Y40.718
N11385 X21.904 Y40.719
N11390 X21.773 Y40.726
N11395 X21.742 Y40.728
N11400 X21.632 Y40.737
N11405 X21.587 Y40.741
N11410 X21.495 Y40.751
N11415 X21.432 Y40.759
N11420 X21.356 Y40.771
N11425 X21.267 Y40.786
N11430 X21.204 Y40.799
N11435 X21.108 Y40.822
N11440 X21.012 Y40.851
N11445 X20.917 Y40.884
N11450 G2 X20.599 Y41.033 I0.512 J1.503
N11455 G1 X20.529 Y41.076
N11460 G2 X20.314 Y41.235 I0.83 J1.353
N11465 G1 X20.25 Y41.291
N11470 X20.149 Y41.388
N11475 X20.074 Y41.465
N11480 X20.002 Y41.546
N11485 X19.936 Y41.631
N11490 X19.882 Y41.705
N11495 X19.858 Y41.74
N11500 X19.835 Y41.743
N11505 X19.44 Y41.806
N11510 X19.4 Y41.813
N11515 X19.208 Y41.848
N11520 X19.177 Y41.854
N11525 X18.997 Y41.891
N11530 X18.991 Y41.892
N11535 X18.823 Y41.927
N11540 X18.658 Y41.959
N11545 X18.296 Y42.022
N11550 X18.132 Y42.048
N11555 X17.979 Y42.069
N11560 X17.853 Y42.085
N11565 X17.743 Y42.096
N11570 X17.599 Y42.11
N11575 X17.557 Y42.114
N11580 X17.428 Y42.13
N11585 X17.367 Y42.138
N11590 X17.257 Y42.156
N11595 X17.172 Y42.172
N11600 X17.079 Y42.192
N11605 X16.967 Y42.221
N11610 X16.889 Y42.243
N11615 X16.811 Y42.269
N11620 X16.734 Y42.298
N11625 X16.671 Y42.324
N11630 X16.574 Y42.367
N11635 X16.481 Y42.417
N11640 X16.429 Y42.447
N11645 G2 X16.208 Y42.6 I0.792 J1.376
N11650 G1 X16.168 Y42.634
N11655 G2 X15.962 Y42.838 I1.013 J1.222
N11660 G1 X15.905 Y42.906
N11665 X15.854 Y42.972
N11670 X15.743 Y42.996
N11675 G2 X15.436 Y43.095 I0.333 J1.552
N11680 G1 X15.314 Y43.148
N11685 G2 X15.025 Y43.314 I0.639 J1.453
N11690 G1 X14.92 Y43.389
N11695 G2 X14.651 Y43.636 I0.929 J1.288
N11700 G1 X14.569 Y43.729
N11705 G2 X14.339 Y44.077 I1.198 J1.041
N11710 G1 X14.286 Y44.186
N11715 G2 X14.145 Y44.635 I1.428 J0.694
N11720 G1 X14.126 Y44.756
N11725 G2 X14.14 Y45.322 I1.568 J0.245
N11730 G1 X14.149 Y45.367
N11735 G2 X14.281 Y45.751 I1.555 J-0.321
N11740 G1 X14.309 Y45.806
N11745 X14.363 Y45.906
N11750 X14.424 Y46.003
N11755 X14.469 Y46.068
N11760 X14.555 Y46.181
N11765 X14.616 Y46.255
N11770 X14.68 Y46.327
N11775 X14.757 Y46.409
N11780 X14.807 Y46.46
N11785 X14.898 Y46.548
N11790 X14.938 Y46.586
N11795 X15.043 Y46.681
N11800 X15.077 Y46.711
N11805 X15.195 Y46.812
N11810 X15.224 Y46.837
N11815 X15.355 Y46.944
N11820 X15.381 Y46.964
N11825 X15.523 Y47.076
N11830 X15.545 Y47.093
N11835 X15.698 Y47.208
N11840 X15.72 Y47.225
N11845 X15.883 Y47.344
N11850 X15.912 Y47.364
N11855 X16.264 Y47.609
N11860 X16.301 Y47.634
N11865 X16.684 Y47.885
N11870 X16.698 Y47.894
N11875 X16.925 Y48.039
N11880 X17.126 Y48.17
N11885 X17.306 Y48.289
N11890 X17.436 Y48.377
N11895 X17.26 Y48.471
N11900 X17.047 Y48.581
N11905 X16.805 Y48.703
N11910 X16.533 Y48.839
N11915 X16.229 Y48.989
N11920 X15.893 Y49.152
N11925 X15.571 Y49.308
N11930 X15.275 Y49.449
N11935 X15.001 Y49.576
N11940 X14.749 Y49.691
N11945 X14.518 Y49.794
N11950 X14.306 Y49.886
N11955 X14.112 Y49.966
N11960 X13.934 Y50.036
N11965 X13.771 Y50.096
N11970 X13.632 Y50.144
N11975 X13.357 Y50.229
N11980 X13.117 Y50.288
N11985 X12.843 Y50.34
N11990 X12.636 Y50.379
N11995 X12.527 Y50.404
N12000 X12.355 Y50.449
N12005 X12.271 Y50.474
N12010 X12.188 Y50.503
N12015 X12.05 Y50.557
N12020 G2 X11.815 Y50.671 I0.572 J1.481
N12025 G1 X11.708 Y50.734
N12030 G2 X11.418 Y50.954 I0.808 J1.367
N12035 G1 X11.34 Y51.029
N12040 G2 X11.072 Y51.365 I1.097 J1.147
N12045 G1 X11.019 Y51.454
N12050 X10.968 Y51.546
N12055 X10.924 Y51.642
N12060 X10.768 Y51.705
N12065 X10.585 Y51.777
N12070 X10.561 Y51.787
N12075 X10.341 Y51.878
N12080 X10.275 Y51.907
N12085 X10.089 Y51.994
N12090 X9.998 Y52.04
N12095 X9.844 Y52.125
N12100 X9.721 Y52.2
N12105 X9.598 Y52.283
N12110 X9.515 Y52.343
N12115 X9.436 Y52.408
N12120 X9.343 Y52.49
N12125 G2 X9.144 Y52.701 I1.05 J1.191
N12130 G1 X9.079 Y52.783
N12135 G2 X8.88 Y53.112 I1.249 J0.98
N12140 G1 X8.843 Y53.196
N12145 G2 X8.719 Y53.623 I1.448 J0.651
N12150 G1 X8.707 Y53.71
N12155 G2 X8.696 Y54.06 I1.572 J0.224
N12160 G1 X8.702 Y54.135
N12165 G2 X8.767 Y54.476 I1.582 J-0.126
N12170 G1 X8.786 Y54.539
N12175 G2 X8.987 Y54.959 I1.517 J-0.467
N12180 G1 X9.023 Y55.012
N12185 G2 X9.343 Y55.361 I1.316 J-0.888
N12190 G1 X9.397 Y55.404
N12195 G2 X9.713 Y55.602 I0.995 J-1.237
N12200 G1 X9.787 Y55.637
N12205 X9.9 Y55.685
N12210 X10.017 Y55.724
N12215 X10.113 Y55.753
N12220 X10.263 Y55.789
N12225 X10.384 Y55.813
N12230 X10.476 Y55.828
N12235 X10.593 Y55.843
N12240 X10.663 Y55.855
N12245 X10.704 Y55.867
N12250 X10.763 Y55.889
N12255 X10.801 Y55.908
N12260 Y55.911
N12265 X10.786 Y56.019
N12270 X10.767 Y56.122
N12275 X10.752 Y56.188
N12280 X10.702 Y56.35
N12285 X10.693 Y56.372
N12290 X10.67 Y56.417
N12295 X10.637 Y56.473
N12300 X10.588 Y56.545
N12305 X10.519 Y56.637
N12310 X10.426 Y56.749
N12315 X10.306 Y56.884
N12320 X10.158 Y57.041
N12325 X9.98 Y57.222
N12330 X9.772 Y57.426
N12335 X9.534 Y57.655
N12340 X9.263 Y57.91
N12345 X9.108 Y58.055
N12350 X8.964 Y58.187
N12355 X8.69 Y58.432
N12360 X8.438 Y58.648
N12365 X8.19 Y58.848
N12370 X7.934 Y59.044
N12375 X7.655 Y59.246
N12380 X7.337 Y59.467
N12385 X7.164 Y59.583
N12390 X6.972 Y59.711
N12395 X6.969 Y59.713
N12400 X6.773 Y59.844
N12405 X6.76 Y59.853
N12410 X6.579 Y59.976
N12415 X6.563 Y59.987
N12420 X6.398 Y60.103
N12425 X6.378 Y60.117
N12430 X6.228 Y60.226
N12435 X6.204 Y60.243
N12440 X6.068 Y60.345
N12445 X6.041 Y60.366
N12450 X5.919 Y60.462
N12455 X5.885 Y60.489
N12460 X5.777 Y60.579
N12465 X5.738 Y60.613
N12470 X5.642 Y60.697
N12475 X5.595 Y60.741
N12480 X5.512 Y60.821
N12485 X5.456 Y60.878
N12490 X5.386 Y60.952
N12495 X5.32 Y61.027
N12500 X5.262 Y61.097
N12505 X5.186 Y61.197
N12510 X5.14 Y61.263
N12515 X5.057 Y61.394
N12520 X5.021 Y61.456
N12525 X4.977 Y61.54
N12530 X4.938 Y61.627
N12535 X4.913 Y61.687
N12540 X4.873 Y61.793
N12545 X4.84 Y61.902
N12550 X4.826 Y61.959
N12555 G2 X4.782 Y62.216 I1.537 J0.396
N12560 G1 X4.777 Y62.271
N12565 X4.771 Y62.382
N12570 X4.773 Y62.493
N12575 X4.777 Y62.572
N12580 G2 X4.83 Y62.902 I1.585 J-0.083
N12585 G1 X4.846 Y62.964
N12590 G2 X5.114 Y63.509 I1.533 J-0.413
N12595 G1 X5.149 Y63.556
N12600 G2 X5.633 Y63.979 I1.266 J-0.958
N12605 G1 X5.658 Y63.993
N12610 X5.493 Y64.169
N12615 X5.304 Y64.366
N12620 X5.05 Y64.63
N12625 X5.037 Y64.644
N12630 X4.809 Y64.887
N12635 X4.792 Y64.906
N12640 X4.591 Y65.127
N12645 X4.569 Y65.152
N12650 X4.393 Y65.354
N12655 X4.365 Y65.387
N12660 X4.214 Y65.57
N12665 X4.179 Y65.614
N12670 X4.053 Y65.779
N12675 X4.007 Y65.841
N12680 X3.905 Y65.989
N12685 X3.849 Y66.077
N12690 X3.77 Y66.209
N12695 X3.7 Y66.338
N12700 X3.644 Y66.455
N12705 X3.602 Y66.551
N12710 X3.567 Y66.649
N12715 X3.533 Y66.751
N12720 G2 X3.468 Y67.041 I1.509 J0.492
N12725 G1 X3.457 Y67.13
N12730 G2 Y67.537 I1.575 J0.202
N12735 G1 X3.467 Y67.613
N12740 G2 X3.605 Y68.086 I1.574 J-0.204
N12745 G1 X3.636 Y68.151
N12750 X3.644 Y68.167
N12755 X3.585 Y68.253
N12760 X3.446 Y68.446
N12765 X3.293 Y68.648
N12770 X3.135 Y68.849
N12775 X2.777 Y69.278
N12780 X2.384 Y69.71
N12785 X2.098 Y70.016
N12790 X2.085 Y70.031
N12795 X1.811 Y70.331
N12800 X1.795 Y70.348
N12805 X1.542 Y70.634
N12810 X1.524 Y70.655
N12815 X1.29 Y70.928
N12820 X1.271 Y70.951
N12825 X1.056 Y71.212
N12830 X1.034 Y71.24
N12835 X0.838 Y71.49
N12840 X0.813 Y71.522
N12845 X0.635 Y71.762
N12850 X0.608 Y71.8
N12855 X0.447 Y72.03
N12860 X0.417 Y72.074
N12865 X0.273 Y72.295
N12870 X0.242 Y72.345
N12875 X0.113 Y72.56
N12880 X0.081 Y72.617
N12885 X-0.032 Y72.825
N12890 X-0.066 Y72.889
N12895 X-0.164 Y73.091
N12900 X-0.196 Y73.162
N12905 X-0.281 Y73.36
N12910 X-0.312 Y73.438
N12915 X-0.383 Y73.632
N12920 X-0.41 Y73.715
N12925 X-0.469 Y73.907
N12930 X-0.492 Y73.993
N12935 X-0.538 Y74.182
N12940 X-0.584 Y74.368
N12945 X-0.585 Y74.369
N12950 X-0.604 Y74.412
N12955 G2 X-0.742 Y75.062 I1.449 J0.648
N12960 G1 Y75.119
N12965 G2 X-0.695 Y75.501 I1.587 J-0.002
N12970 G1 X-0.678 Y75.567
N12975 G2 X-0.595 Y75.814 I1.54 J-0.384
N12980 G1 X-0.565 Y75.883
N12985 X-0.518 Y75.981
N12990 X-0.466 Y76.075
N12995 X-0.425 Y76.143
N13000 X-0.365 Y76.235
N13005 X-0.298 Y76.323
N13010 X-0.249 Y76.383
N13015 G2 X-0.062 Y76.576 I1.231 J-1.002
N13020 G1 X-0.008 Y76.623
N13025 G2 X0.31 Y76.839 I1.044 J-1.196
N13030 G1 X0.367 Y76.868
N13035 G2 X0.809 Y77.019 I0.726 J-1.412
N13040 G1 X0.878 Y77.031
N13045 G2 X1.289 Y77.051 I0.283 J-1.562
N13050 G1 X1.363 Y77.045
N13055 G2 X1.713 Y76.977 I-0.128 J-1.582
N13060 G1 X1.795 Y76.951
N13065 G2 X2.039 Y76.851 I-0.478 J-1.514
N13070 G1 X2.133 Y76.803
N13075 X2.211 Y76.76
N13080 X2.286 Y76.714
N13085 X2.395 Y76.642
N13090 X2.489 Y76.575
N13095 X2.615 Y76.478
N13100 X2.673 Y76.431
N13105 X2.82 Y76.307
N13110 X2.856 Y76.275
N13115 X3.016 Y76.131
N13120 X3.096 Y76.062
N13125 X3.164 Y76.009
N13130 X3.26 Y75.943
N13135 X3.403 Y75.855
N13140 X3.484 Y75.808
N13145 X3.586 Y75.751
N13150 X3.702 Y75.689
N13155 X3.833 Y75.619
N13160 X3.98 Y75.543
N13165 X4.143 Y75.46
N13170 X4.322 Y75.37
N13175 X4.523 Y75.271
N13180 X4.528 Y75.268
N13185 X4.881 Y75.091
N13190 X4.899 Y75.082
N13195 X5.228 Y74.911
N13200 X5.249 Y74.9
N13205 X5.554 Y74.736
N13210 X5.578 Y74.723
N13215 X5.86 Y74.565
N13220 X5.888 Y74.549
N13225 X6.148 Y74.396
N13230 X6.18 Y74.377
N13235 X6.419 Y74.229
N13240 X6.454 Y74.206
N13245 X6.673 Y74.063
N13250 X6.713 Y74.035
N13255 X6.913 Y73.896
N13260 X6.924 Y73.888
N13265 X7.137 Y73.735
N13270 X7.272 Y73.643
N13275 X7.374 Y73.704
N13280 X7.426 Y73.732
N13285 G2 X7.881 Y73.894 I0.756 J-1.396
N13290 G1 X7.947 Y73.907
N13295 G2 X8.312 Y73.934 I0.3 J-1.559
N13300 G1 X8.393 Y73.931
N13305 G2 X8.644 Y73.901 I-0.065 J-1.586
N13310 G1 X8.74 Y73.881
N13315 X8.827 Y73.861
N13320 X8.911 Y73.837
N13325 X9.025 Y73.8
N13330 X9.14 Y73.758
N13335 X9.271 Y73.704
N13340 X9.354 Y73.667
N13345 X9.504 Y73.596
N13350 X9.563 Y73.566
N13355 X9.732 Y73.476
N13360 X9.777 Y73.452
N13365 X9.966 Y73.343
N13370 X9.999 Y73.324
N13375 X10.21 Y73.196
N13380 X10.237 Y73.18
N13385 X10.47 Y73.032
N13390 X10.49 Y73.02
N13395 X10.746 Y72.852
N13400 X10.762 Y72.842
N13405 X11.043 Y72.654
N13410 X11.055 Y72.645
N13415 X11.361 Y72.436
N13420 X11.371 Y72.429
N13425 X11.702 Y72.199
N13430 X11.932 Y72.04
N13435 X12.247 Y71.826
N13440 X13.01 Y71.327
N13445 X13.07 Y71.289
N13450 X13.153 Y71.377
N13455 X13.241 Y71.458
N13460 X13.297 Y71.506
N13465 G2 X13.692 Y71.752 I1.028 J-1.209
N13470 G1 X13.768 Y71.785
N13475 G2 X14.091 Y71.886 I0.633 J-1.456
N13480 G1 X14.185 Y71.905
N13485 X14.305 Y71.924
N13490 X14.427 Y71.934
N13495 X14.537 Y71.939
N13500 X14.626 Y71.94
N13505 X14.715 Y71.936
N13510 X14.84 Y71.927
N13515 X14.974 Y71.912
N13520 X15.113 Y71.891
N13525 X15.219 Y71.87
N13530 X15.37 Y71.836
N13535 X15.456 Y71.814
N13540 X15.617 Y71.768
N13545 X15.689 Y71.746
N13550 X15.858 Y71.688
N13555 X15.922 Y71.665
N13560 X16.1 Y71.596
N13565 X16.156 Y71.573
N13570 X16.34 Y71.494
N13575 X16.391 Y71.47
N13580 X16.579 Y71.381
N13585 X16.652 Y71.344
N13590 X17.035 Y71.137
N13595 X17.128 Y71.082
N13600 X17.51 Y70.841
N13605 X17.577 Y70.796
N13610 X17.76 Y70.667
N13615 X17.805 Y70.634
N13620 X17.989 Y70.495
N13625 X18.034 Y70.459
N13630 X18.229 Y70.3
N13635 X18.257 Y70.276
N13640 X18.362 Y70.187
N13645 X18.379 Y70.172
N13650 X18.49 Y70.074
N13655 X18.504 Y70.061
N13660 X18.623 Y69.953
N13665 X18.635 Y69.943
N13670 X18.764 Y69.824
N13675 X18.773 Y69.815
N13680 X18.912 Y69.685
N13685 X18.921 Y69.677
N13690 X19.072 Y69.534
N13695 X19.078 Y69.528
N13700 X19.242 Y69.37
N13705 X19.246 Y69.366
N13710 X19.425 Y69.193
N13715 X19.429 Y69.189
N13720 X19.623 Y69.
N13725 X19.626 Y68.997
N13730 X19.837 Y68.79
N13735 X19.986 Y68.645
N13740 X20.124 Y68.51
N13745 X20.381 Y68.262
N13750 X20.613 Y68.044
N13755 X20.821 Y67.854
N13760 X21.011 Y67.688
N13765 X21.188 Y67.541
N13770 X21.355 Y67.41
N13775 X21.52 Y67.29
N13780 X21.69 Y67.175
N13785 X21.872 Y67.061
N13790 X22.073 Y66.942
N13795 X22.298 Y66.817
N13800 X22.554 Y66.681
N13805 X22.843 Y66.534
N13810 X23.172 Y66.37
N13815 X23.349 Y66.283
N13820 X23.539 Y66.191
N13825 X23.804 Y66.063
N13830 X24.04 Y65.949
N13835 X24.247 Y65.851
N13840 X24.398 Y65.781
N13845 X24.341 Y66.104
N13850 X24.253 Y66.519
N13855 X24.147 Y66.958
N13860 X24.024 Y67.413
N13865 X23.886 Y67.878
N13870 X23.736 Y68.347
N13875 X23.575 Y68.813
N13880 X23.405 Y69.272
N13885 X23.229 Y69.717
N13890 X23.049 Y70.142
N13895 X22.867 Y70.541
N13900 X22.687 Y70.908
N13905 X22.512 Y71.234
N13910 X22.342 Y71.522
N13915 X22.27 Y71.632
N13920 X22.184 Y71.758
N13925 X22.175 Y71.771
N13930 X22.079 Y71.914
N13935 X22.015 Y72.017
N13940 X21.945 Y72.141
N13945 X21.901 Y72.225
N13950 X21.862 Y72.311
N13955 X21.817 Y72.418
N13960 G2 X21.728 Y72.703 I1.464 J0.614
N13965 G1 X21.708 Y72.795
N13970 G2 X21.679 Y73.247 I1.553 J0.328
N13975 G1 X21.685 Y73.325
N13980 G2 X21.836 Y73.887 I1.583 J-0.124
N13985 G1 X21.868 Y73.952
N13990 G2 X22.19 Y74.401 I1.432 J-0.686
N13995 G1 X22.246 Y74.457
N14000 G2 X22.569 Y74.7 I1.109 J-1.136
N14005 G1 X22.65 Y74.746
N14010 X22.744 Y74.796
N14015 X22.84 Y74.839
N14020 X22.846 Y74.841
N14025 X22.755 Y74.974
N14030 X22.577 Y75.223
N14035 X22.37 Y75.504
N14040 X22.14 Y75.816
N14045 X22.117 Y75.847
N14050 X21.555 Y76.648
N14055 X21.521 Y76.699
N14060 X21.443 Y76.821
N14065 X21.414 Y76.867
N14070 X21.366 Y76.948
N14075 X21.338 Y76.996
N14080 X21.333 Y77.005
N14085 X21.298 Y77.073
N14090 X21.231 Y77.211
N14095 X21.191 Y77.299
N14100 X21.122 Y77.464
N14105 X21.088 Y77.554
N14110 X20.959 Y77.925
N14115 X20.934 Y78.005
N14120 X20.88 Y78.19
N14125 X20.864 Y78.251
N14130 X20.822 Y78.422
N14135 X20.803 Y78.509
N14140 X20.775 Y78.657
N14145 X20.759 Y78.76
N14150 X20.752 Y78.822
N14155 X20.742 Y78.935
N14160 X20.74 Y78.986
N14165 G2 X20.751 Y79.269 I1.586 J0.077
N14170 G1 X20.76 Y79.339
N14175 G2 X20.864 Y79.73 I1.574 J-0.206
N14180 G1 X20.89 Y79.796
N14185 G2 X21.069 Y80.122 I1.471 J-0.597
N14190 G1 X21.112 Y80.181
N14195 X21.141 Y80.22
N14200 X21.044 Y80.356
N14205 X20.849 Y80.618
N14210 X20.62 Y80.914
N14215 X20.471 Y81.106
N14220 X20.461 Y81.118
N14225 X20.327 Y81.295
N14230 X20.314 Y81.313
N14235 X20.196 Y81.472
N14240 X20.178 Y81.497
N14245 X20.076 Y81.641
N14250 X20.053 Y81.674
N14255 X19.967 Y81.803
N14260 X19.936 Y81.85
N14265 X19.865 Y81.964
N14270 X19.825 Y82.032
N14275 X19.769 Y82.133
N14280 X19.721 Y82.228
N14285 X19.679 Y82.317
N14290 X19.62 Y82.462
N14295 X19.592 Y82.539
N14300 X19.559 Y82.644
N14305 X19.534 Y82.751
N14310 X19.52 Y82.818
N14315 G2 X19.488 Y83.129 I1.555 J0.317
N14320 G1 Y83.186
N14325 G2 X19.54 Y83.594 I1.587 J0.006
N14330 G1 X19.552 Y83.643
N14335 G2 X19.74 Y84.078 I1.536 J-0.402
N14340 G1 X19.765 Y84.119
N14345 G2 X19.953 Y84.364 I1.348 J-0.838
N14350 G1 X19.907 Y84.475
N14355 X19.854 Y84.6
N14360 X19.793 Y84.739
N14365 X19.725 Y84.89
N14370 X19.649 Y85.059
N14375 X19.647 Y85.062
N14380 X19.548 Y85.28
N14385 X19.542 Y85.295
N14390 X19.453 Y85.496
N14395 X19.444 Y85.516
N14400 X19.367 Y85.7
N14405 X19.356 Y85.726
N14410 X19.288 Y85.894
N14415 X19.274 Y85.929
N14420 X19.216 Y86.083
N14425 X19.2 Y86.127
N14430 X19.152 Y86.269
N14435 X19.134 Y86.325
N14440 X19.094 Y86.456
N14445 X19.075 Y86.524
N14450 X19.045 Y86.644
N14455 X19.026 Y86.729
N14460 X19.004 Y86.841
N14465 X18.988 Y86.942
N14470 X18.974 Y87.047
N14475 X18.965 Y87.133
N14480 X18.961 Y87.219
N14485 X18.957 Y87.413
N14490 G2 X18.972 Y87.664 I1.587 J0.032
N14495 G1 X18.997 Y87.846
N14500 X19.017 Y87.956
N14505 X19.044 Y88.065
N14510 X19.096 Y88.246
N14515 X19.138 Y88.373
N14520 X19.162 Y88.436
N14525 X19.216 Y88.561
N14530 X19.24 Y88.611
N14535 X19.293 Y88.712
N14540 X19.353 Y88.809
N14545 X19.38 Y88.848
N14550 G2 X19.587 Y89.097 I1.317 J-0.887
N14555 G1 X19.617 Y89.126
N14560 G2 X19.926 Y89.362 I1.109 J-1.136
N14565 G1 X19.962 Y89.382
N14570 G2 X20.289 Y89.527 I0.8 J-1.371
N14575 G1 X20.331 Y89.54
N14580 G2 X20.59 Y89.597 I0.473 J-1.515
N14585 G1 X20.641 Y89.604
N14590 X20.721 Y89.613
N14595 X20.8 Y89.618
N14600 X20.862 Y89.62
N14605 X20.977
N14610 X21.092 Y89.611
N14615 X21.208 Y89.598
N14620 X21.322 Y89.581
N14625 X21.435 Y89.556
N14630 X21.502 Y89.538
N14635 X21.627 Y89.5
N14640 X21.704 Y89.473
N14645 X21.796 Y89.437
N14650 X21.883 Y89.4
N14655 X21.953 Y89.368
N14660 X22.054 Y89.32
N14665 X22.106 Y89.293
N14670 X22.222 Y89.232
N14675 X22.259 Y89.211
N14680 X22.392 Y89.136
N14685 X22.42 Y89.12
N14690 X22.572 Y89.03
N14695 X22.594 Y89.018
N14700 X22.767 Y88.912
N14705 X22.781 Y88.902
N14710 X22.978 Y88.779
N14715 X22.99 Y88.772
N14720 X23.211 Y88.63
N14725 X23.219 Y88.625
N14730 X23.468 Y88.463
N14735 X23.474 Y88.46
N14740 X23.752 Y88.278
N14745 X23.757 Y88.275
N14750 X24.066 Y88.071
N14755 X24.068 Y88.069
N14760 X24.235 Y87.959
N14765 X24.41 Y87.842
N14770 X24.635 Y87.694
N14775 X24.848 Y87.555
N14780 X25.051 Y87.423
N14785 X25.244 Y87.3
N14790 X25.611 Y87.072
N14795 X25.944 Y86.873
N14800 X26.246 Y86.701
N14805 X26.52 Y86.555
N14810 X26.768 Y86.433
N14815 X26.992 Y86.333
N14820 X27.195 Y86.252
N14825 X27.382 Y86.189
N14830 X27.556 Y86.14
N14835 X27.725 Y86.102
N14840 X27.895 Y86.073
N14845 X28.071 Y86.052
N14850 X28.133 Y86.048
N14855 X28.132 Y86.201
N14860 Y86.209
N14865 Y86.38
N14870 Y86.393
N14875 Y86.545
N14880 X28.133 Y86.566
N14885 X28.135 Y86.704
N14890 X28.136 Y86.73
N14895 X28.14 Y86.856
N14900 X28.143 Y86.911
N14905 X28.159 Y87.139
N14910 X28.168 Y87.229
N14915 X28.195 Y87.443
N14920 X28.208 Y87.529
N14925 X28.249 Y87.753
N14930 X28.259 Y87.8
N14935 X28.285 Y87.923
N14940 X28.29 Y87.946
N14945 X28.321 Y88.079
N14950 X28.324 Y88.093
N14955 X28.359 Y88.24
N14960 X28.362 Y88.25
N14965 X28.401 Y88.408
N14970 X28.449 Y88.611
N14975 X28.492 Y88.799
N14980 X28.53 Y88.972
N14985 X28.562 Y89.13
N14990 X28.589 Y89.273
N14995 X28.609 Y89.395
N15000 X28.641 Y89.629
N15005 X28.657 Y89.814
N15010 X28.661 Y89.971
N15015 X28.656 Y90.116
N15020 X28.638 Y90.293
N15025 X28.622 Y90.421
N15030 X28.618 Y90.46
N15035 X28.607 Y90.578
N15040 X28.601 Y90.648
N15045 X28.597 Y90.743
N15050 X28.595 Y90.863
N15055 X28.597 Y90.938
N15060 X28.602 Y91.037
N15065 X28.613 Y91.134
N15070 X28.622 Y91.194
N15075 G2 X28.688 Y91.465 I1.57 J-0.234
N15080 G1 X28.704 Y91.513
N15085 G2 X28.921 Y91.937 I1.505 J-0.505
N15090 G1 X28.977 Y92.014
N15095 G2 X29.172 Y92.238 I1.288 J-0.928
N15100 G1 X29.169 Y92.436
N15105 X29.172 Y92.564
N15110 X29.193 Y92.901
N15115 X29.207 Y93.033
N15120 X29.258 Y93.376
N15125 X29.275 Y93.469
N15130 X29.312 Y93.647
N15135 X29.325 Y93.703
N15140 X29.37 Y93.888
N15145 X29.383 Y93.937
N15150 X29.438 Y94.129
N15155 X29.45 Y94.172
N15160 X29.513 Y94.374
N15165 X29.526 Y94.412
N15170 X29.598 Y94.625
N15175 X29.609 Y94.656
N15180 X29.691 Y94.882
N15185 X29.7 Y94.907
N15190 X29.792 Y95.148
N15195 X29.8 Y95.168
N15200 X29.901 Y95.424
N15205 X29.981 Y95.627
N15210 X30.179 Y96.177
N15215 X30.18 Y96.18
N15220 X30.215 Y96.277
N15225 X30.261 Y96.39
N15230 X30.315 Y96.5
N15235 X30.36 Y96.582
N15240 G2 X30.522 Y96.822 I1.393 J-0.762
N15245 G1 X30.575 Y96.888
N15250 G2 X30.815 Y97.126 I1.231 J-1.002
N15255 G1 X30.876 Y97.174
N15260 G2 X31.197 Y97.373 I0.991 J-1.24
N15265 G1 X31.266 Y97.405
N15270 G2 X31.642 Y97.526 I0.67 J-1.439
N15275 G1 X31.716 Y97.54
N15280 G2 X32.094 Y97.565 I0.294 J-1.56
N15285 G1 X32.173 Y97.561
N15290 G2 X32.513 Y97.506 I-0.084 J-1.585
N15295 G1 X32.597 Y97.483
N15300 G2 X32.833 Y97.397 I-0.424 J-1.53
N15305 G1 X32.919 Y97.357
N15310 X33.006 Y97.314
N15315 X33.091 Y97.266
N15320 Y97.27
N15325 X33.114 Y97.449
N15330 X33.117 Y97.476
N15335 X33.141 Y97.644
N15340 X33.149 Y97.691
N15345 X33.202 Y97.997
N15350 X33.217 Y98.072
N15355 X33.277 Y98.343
N15360 X33.301 Y98.436
N15365 X33.37 Y98.676
N15370 X33.404 Y98.781
N15375 X33.483 Y98.997
N15380 X33.528 Y99.109
N15385 X33.618 Y99.308
N15390 X33.653 Y99.38
N15395 X33.712 Y99.495
N15400 X33.741 Y99.548
N15405 X33.792 Y99.639
N15410 X33.854 Y99.739
N15415 X33.901 Y99.809
N15420 X33.959 Y99.891
N15425 X34.023 Y99.97
N15430 X34.068 Y100.022
N15435 G2 X34.278 Y100.223 I1.198 J-1.041
N15440 G1 X34.325 Y100.26
N15445 G2 X34.618 Y100.444 I0.988 J-1.243
N15450 G1 X34.668 Y100.469
N15455 G2 X34.953 Y100.576 I0.695 J-1.427
N15460 G1 X35.012 Y100.591
N15465 X35.109 Y100.614
N15470 X35.207 Y100.63
N15475 X35.276 Y100.64
N15480 X35.398 Y100.652
N15485 X35.521 Y100.654
N15490 X35.61 Y100.653
N15495 G2 X35.927 Y100.614 I-0.03 J-1.587
N15500 G1 X35.997 Y100.599
N15505 X36.093 Y100.722
N15510 X36.358 Y101.09
N15515 X36.615 Y101.484
N15520 X36.774 Y101.75
N15525 X36.94 Y102.042
N15530 X37.274 Y102.672
N15535 X37.413 Y102.954
N15540 X37.535 Y103.217
N15545 X37.581 Y103.321
N15550 X37.619 Y103.414
N15555 X37.647 Y103.487
N15560 X37.659 Y103.523
N15565 X37.699 Y103.659
N15570 X37.744 Y103.844
N15575 X37.79 Y104.062
N15580 X37.832 Y104.295
N15585 X37.868 Y104.527
N15590 X37.894 Y104.738
N15595 X37.91 Y104.92
N15600 X37.913 Y104.973
N15605 X37.914 Y105.036
N15610 X37.915 Y105.142
N15615 X37.917 Y105.201
N15620 X37.921 Y105.294
N15625 X37.929 Y105.389
N15630 X37.937 Y105.465
N15635 X37.948 Y105.546
N15640 X37.963 Y105.627
N15645 X37.976 Y105.687
N15650 X38.005 Y105.801
N15655 X38.043 Y105.913
N15660 X38.061 Y105.961
N15665 G2 X38.214 Y106.265 I1.485 J-0.56
N15670 G1 X38.238 Y106.302
N15675 G2 X38.59 Y106.687 I1.332 J-0.864
N15680 G1 X38.659 Y106.741
N15685 G2 X38.919 Y106.907 I0.98 J-1.249
N15690 G1 X38.974 Y106.935
N15695 X39.049 Y106.97
N15700 X39.096 Y106.991
N15705 G2 X39.445 Y107.101 I0.645 J-1.45
N15710 G1 X39.529 Y107.117
N15715 G2 X40.079 Y107.124 I0.296 J-1.56
N15720 G1 X40.172 Y107.109
N15725 X40.294 Y107.084
N15730 X40.413 Y107.05
N15735 X40.471 Y107.031
N15740 X40.565 Y106.997
N15745 X40.635 Y106.969
N15750 X40.735 Y106.925
N15755 X40.831 Y106.875
N15760 X40.956 Y106.804
N15765 G2 X41.298 Y106.542 I-0.785 J-1.38
N15770 G1 X41.4 Y106.439
N15775 G2 X41.643 Y106.122 I-1.127 J-1.118
N15780 G1 X41.722 Y105.988
N15785 G2 X41.864 Y105.668 I-1.371 J-0.801
N15790 G1 X41.916 Y105.504
N15795 G2 X41.979 Y105.216 I-1.513 J-0.481
N15800 G1 X42.003 Y105.023
N15805 X42.01 Y104.942
N15810 X42.014 Y104.862
N15815 Y104.843
N15820 X42.021 Y104.792
N15825 X42.041 Y104.675
N15830 X42.07 Y104.518
N15835 X42.109 Y104.333
N15840 X42.152 Y104.136
N15845 X42.259 Y103.696
N15850 X42.306 Y103.512
N15855 X42.309 Y103.502
N15860 X42.353 Y103.326
N15865 X42.355 Y103.318
N15870 X42.393 Y103.16
N15875 X42.398 Y103.141
N15880 X42.431 Y102.996
N15885 X42.441 Y102.95
N15890 X42.495 Y102.682
N15895 X42.508 Y102.606
N15900 X42.548 Y102.344
N15905 X42.556 Y102.285
N15910 X42.571 Y102.147
N15915 X42.575 Y102.112
N15920 X42.588 Y101.964
N15925 X42.59 Y101.935
N15930 X42.602 Y101.772
N15935 X42.603 Y101.75
N15940 X42.614 Y101.57
N15945 Y101.555
N15950 X42.624 Y101.354
N15955 Y101.343
N15960 X42.634 Y101.116
N15965 Y101.11
N15970 X42.644 Y100.854
N15975 Y100.851
N15980 X42.654 Y100.563
N15985 X42.657 Y100.476
N15990 X42.688 Y100.478
N15995 X42.757 Y100.483
N16000 G2 X43.09 Y100.47 I0.107 J-1.584
N16005 G1 X43.217 Y100.452
N16010 G2 X43.642 Y100.328 I-0.227 J-1.571
N16015 G1 X43.76 Y100.275
N16020 G2 X44.058 Y100.1 I-0.652 J-1.448
N16025 G1 X44.175 Y100.013
N16030 G2 X44.514 Y99.667 I-0.949 J-1.272
N16035 G1 X44.56 Y99.604
N16040 G2 X44.769 Y99.2 I-1.289 J-0.926
N16045 G1 X44.805 Y99.099
N16050 X44.841 Y98.981
N16055 X44.868 Y98.86
N16060 X44.893 Y98.721
N16065 X44.913 Y98.57
N16070 X44.928 Y98.393
N16075 X44.933 Y98.294
N16080 X44.937 Y98.078
N16085 Y98.007
N16090 X44.931 Y97.752
N16095 X44.929 Y97.699
N16100 X44.912 Y97.404
N16105 X44.91 Y97.363
N16110 X44.882 Y97.027
N16115 X44.878 Y96.994
N16120 X44.839 Y96.617
N16125 X44.837 Y96.596
N16130 X44.812 Y96.385
N16135 X44.783 Y96.122
N16140 X44.763 Y95.887
N16145 X44.751 Y95.669
N16150 X44.746 Y95.481
N16155 X44.768 Y95.499
N16160 X44.836 Y95.55
N16165 X44.907 Y95.598
N16170 X44.968 Y95.637
N16175 G2 X45.331 Y95.808 I0.852 J-1.34
N16180 G1 X45.356 Y95.816
N16185 G2 X46.071 Y95.877 I0.489 J-1.51
N16190 G1 X46.136 Y95.867
N16195 G2 X46.42 Y95.799 I-0.226 J-1.571
N16200 G1 X46.496 Y95.773
N16205 G2 X46.728 Y95.674 I-0.51 J-1.503
N16210 G1 X46.893 Y95.587
N16215 X46.979 Y95.538
N16220 X47.061 Y95.484
N16225 X47.139 Y95.43
N16230 X47.257 Y95.339
N16235 X47.323 Y95.282
N16240 X47.399 Y95.214
N16245 X47.47 Y95.14
N16250 X47.52 Y95.085
N16255 G2 X47.736 Y94.784 I-1.175 J-1.068
N16260 G1 X47.763 Y94.734
N16265 G2 X47.915 Y94.344 I-1.39 J-0.766
N16270 G1 X47.93 Y94.283
N16275 X47.95 Y94.189
N16280 X47.967 Y94.096
N16285 X47.974 Y94.054
N16290 X47.993 Y93.932
N16295 X47.996 Y93.905
N16300 X48.016 Y93.758
N16305 X48.018 Y93.741
N16310 X48.039 Y93.575
N16315 X48.041 Y93.561
N16320 X48.062 Y93.379
N16325 X48.064 Y93.363
N16330 X48.106 Y92.968
N16335 X48.108 Y92.949
N16340 X48.146 Y92.541
N16345 X48.148 Y92.522
N16350 X48.18 Y92.135
N16355 X48.181 Y92.117
N16360 X48.194 Y91.942
N16365 X48.195 Y91.925
N16370 X48.204 Y91.768
N16375 X48.206 Y91.744
N16380 X48.212 Y91.61
N16385 X48.213 Y91.57
N16390 X48.215 Y91.462
N16395 Y91.391
N16400 X48.212 Y91.273
N16405 X48.21 Y91.222
N16410 X48.201 Y91.07
N16415 X48.199 Y91.038
N16420 X48.185 Y90.859
N16425 X48.183 Y90.836
N16430 X48.165 Y90.638
N16435 X48.162 Y90.61
N16440 X48.114 Y90.176
N16445 X48.109 Y90.141
N16450 X48.078 Y89.903
N16455 G2 X48.354 Y89.736 I-0.682 J-1.434
N16460 G1 X48.451 Y89.662
N16465 G2 X48.734 Y89.386 I-0.958 J-1.266
N16470 G1 X48.806 Y89.295
N16475 G2 X49.026 Y88.926 I-1.241 J-0.99
N16480 G1 X49.072 Y88.819
N16485 G2 X49.185 Y88.402 I-1.461 J-0.621
N16490 G1 X49.201 Y88.281
N16495 G2 X49.18 Y87.75 I-1.574 J-0.204
N16500 G1 X49.175 Y87.727
N16505 G2 X49.076 Y87.418 I-1.553 J0.327
N16510 G1 X49.062 Y87.387
N16515 X49.016 Y87.29
N16520 X48.963 Y87.197
N16525 X48.913 Y87.114
N16530 X48.83 Y86.992
N16535 X48.756 Y86.892
N16540 X48.689 Y86.808
N16545 X48.605 Y86.71
N16550 X48.575 Y86.674
N16555 X48.556 Y86.648
N16560 X48.518 Y86.587
N16565 X48.467 Y86.499
N16570 X48.409 Y86.391
N16575 X48.352 Y86.276
N16580 X48.248 Y86.045
N16585 X48.412 Y86.109
N16590 X48.583 Y86.188
N16595 X48.723 Y86.257
N16600 X48.771 Y86.28
N16605 X48.9 Y86.339
N16610 X49. Y86.38
N16615 X49.106 Y86.42
N16620 X49.196 Y86.45
N16625 X49.287 Y86.475
N16630 X49.377 Y86.497
N16635 G2 X49.648 Y86.539 I0.375 J-1.543
N16640 G1 X49.728 Y86.544
N16645 G2 X50.046 Y86.533 I0.104 J-1.584
N16650 G1 X50.123 Y86.522
N16655 G2 X50.379 Y86.466 I-0.213 J-1.573
N16660 G1 X50.46 Y86.441
N16665 X50.608 Y86.387
N16670 X50.699 Y86.349
N16675 G2 X50.964 Y86.206 I-0.616 J-1.463
N16680 G1 X51.031 Y86.162
N16685 G2 X51.303 Y85.931 I-0.882 J-1.32
N16690 G1 X51.366 Y85.865
N16695 X51.446 Y85.773
N16700 X51.519 Y85.676
N16705 X51.575 Y85.594
N16710 X51.629 Y85.512
N16715 X51.677 Y85.426
N16720 X51.723 Y85.337
N16725 X51.766 Y85.248
N16730 X51.803 Y85.156
N16735 X51.836 Y85.067
N16740 G2 X51.905 Y84.822 I-1.489 J-0.551
N16745 G1 X51.921 Y84.742
N16750 G2 X51.947 Y84.333 I-1.558 J-0.307
N16755 G1 X51.943 Y84.268
N16760 G2 X51.744 Y83.594 I-1.584 J0.102
N16765 G1 X51.728 Y83.545
N16770 X51.691 Y83.428
N16775 X51.648 Y83.286
N16780 X51.601 Y83.127
N16785 X51.554 Y82.962
N16790 X51.354 Y82.221
N16795 X51.313 Y82.059
N16800 X51.276 Y81.904
N16805 X51.245 Y81.77
N16810 X51.222 Y81.659
N16815 X51.179 Y81.439
N16820 X51.145 Y81.241
N16825 X51.119 Y81.069
N16830 X51.117 Y81.055
N16835 X51.163 Y81.023
N16840 X51.249 Y80.959
N16845 X51.321 Y80.901
N16850 X51.39 Y80.84
N16855 X51.463 Y80.771
N16860 X51.542 Y80.69
N16865 X51.616 Y80.604
N16870 X51.672 Y80.534
N16875 G2 X51.838 Y80.277 I-1.243 J-0.987
N16880 G1 X51.874 Y80.208
N16885 G2 X52.023 Y79.779 I-1.41 J-0.73
N16890 G1 X52.036 Y79.713
N16895 G2 X52.032 Y79.091 I-1.559 J-0.301
N16900 G1 X52.026 Y79.062
N16905 G2 X51.929 Y78.753 I-1.555 J0.32
N16910 G1 X51.911 Y78.713
N16915 X51.876 Y78.637
N16920 X51.837 Y78.564
N16925 X51.81 Y78.515
N16930 X51.757 Y78.428
N16935 X51.721 Y78.372
N16940 X51.659 Y78.284
N16945 X51.565 Y78.158
N16950 X51.492 Y78.068
N16955 X51.377 Y77.936
N16960 X51.369 Y77.927
N16965 X51.237 Y77.778
N16970 X51.134 Y77.649
N16975 X51.035 Y77.511
N16980 X50.943 Y77.37
N16985 X50.863 Y77.231
N16990 X50.796 Y77.102
N16995 X50.747 Y76.991
N17000 X50.707 Y76.88
N17005 X50.655 Y76.717
N17010 X50.611 Y76.559
N17015 X50.595 Y76.491
N17020 X50.575 Y76.396
N17025 X50.552 Y76.275
N17030 X50.525 Y76.123
N17035 X50.495 Y75.934
N17040 X50.46 Y75.703
N17045 X50.441 Y75.573
N17050 X50.42 Y75.43
N17055 X50.398 Y75.274
N17060 X50.374 Y75.105
N17065 X50.348 Y74.922
N17070 X50.321 Y74.726
N17075 X50.292 Y74.514
N17080 X50.261 Y74.286
N17085 X50.228 Y74.043
N17090 X50.192 Y73.783
N17095 X50.155 Y73.505
N17100 X50.116 Y73.22
N17105 X50.109 Y73.166
N17110 X50.103 Y73.101
N17115 X50.096 Y73.015
N17120 X50.088 Y72.913
N17125 X50.081 Y72.798
N17130 X50.074 Y72.673
N17135 X50.061 Y72.383
N17140 X50.051 Y72.064
N17145 X50.049 Y72.01
N17150 X50.083 Y72.055
N17155 X50.203 Y72.224
N17160 X50.311 Y72.381
N17165 X50.404 Y72.522
N17170 X50.575 Y72.801
N17175 X50.717 Y73.059
N17180 X50.845 Y73.32
N17185 X50.972 Y73.611
N17190 X51.002 Y73.686
N17195 X51.041 Y73.785
N17200 X51.085 Y73.9
N17205 X51.132 Y74.027
N17210 X51.239 Y74.321
N17215 X51.355 Y74.65
N17220 X51.479 Y75.008
N17225 X51.606 Y75.384
N17230 X51.866 Y76.171
N17235 X51.961 Y76.465
N17240 G3 X51.756 Y76.864 I-0.302 J0.097
N17245 G1 X51.454 Y76.962
N17250 X51.387 Y76.983 Z-1.492
N17255 X51.323 Y77.004 Z-1.469
N17260 X51.266 Y77.022 Z-1.431
N17265 X51.218 Y77.038 Z-1.38
N17270 X51.182 Y77.049 Z-1.32
N17275 X51.159 Y77.057 Z-1.253
N17280 X51.152 Y77.059 Z-1.183
N17285 Z5.
N17290 X50.957 Y76.455
N17295 Z1. F333.33
N17300 Z-1.958
N17305 X50.965 Y76.452 Z-2.028 F1000.
N17310 X50.987 Y76.445 Z-2.095
N17315 X51.023 Y76.433 Z-2.155
N17320 X51.071 Y76.418 Z-2.206
N17325 X51.128 Y76.399 Z-2.244
N17330 X51.192 Y76.379 Z-2.267
N17335 X51.259 Y76.357 Z-2.275
N17340 X51.561 Y76.26
N17345 G3 X51.961 Y76.465 I0.097 J0.302
N17350 G1 X51.991 Y76.559
N17355 X52.111 Y76.937
N17360 X52.223 Y77.295
N17365 X52.323 Y77.625
N17370 X52.409 Y77.921
N17375 X52.446 Y78.048
N17380 X52.478 Y78.163
N17385 X52.504 Y78.263
N17390 X52.525 Y78.345
N17395 X52.539 Y78.403
N17400 X52.548 Y78.445
N17405 X52.579 Y78.601
N17410 X52.616 Y78.795
N17415 X52.658 Y79.008
N17420 X52.702 Y79.232
N17425 X52.79 Y79.689
N17430 X52.832 Y79.907
N17435 X52.871 Y80.109
N17440 X52.874 Y80.126
N17445 X52.971 Y80.598
N17450 X52.979 Y80.636
N17455 X53.08 Y81.075
N17460 X53.09 Y81.118
N17465 X53.196 Y81.525
N17470 X53.209 Y81.573
N17475 X53.318 Y81.947
N17480 X53.335 Y82.001
N17485 X53.448 Y82.341
N17490 X53.471 Y82.405
N17495 X53.587 Y82.71
N17500 X53.618 Y82.786
N17505 X53.737 Y83.056
N17510 X53.78 Y83.147
N17515 X53.901 Y83.38
N17520 X53.964 Y83.491
N17525 X54.088 Y83.688
N17530 X54.133 Y83.758
N17535 X54.183 Y83.824
N17540 X54.308 Y83.984
N17545 X54.379 Y84.069
N17550 X54.456 Y84.149
N17555 X54.582 Y84.27
N17560 G2 X54.819 Y84.459 I1.102 J-1.142
N17565 G1 X54.945 Y84.541
N17570 G2 X55.203 Y84.677 I0.865 J-1.331
N17575 G1 X55.267 Y84.703
N17580 X55.372 Y84.742
N17585 X55.48 Y84.774
N17590 X55.544 Y84.79
N17595 X55.664 Y84.816
N17600 X55.787 Y84.833
N17605 X55.85 Y84.839
N17610 X55.964 Y84.845
N17615 X56.074 Y85.172
N17620 X56.231 Y85.648
N17625 X56.381 Y86.12
N17630 X56.518 Y86.57
N17635 X56.619 Y86.904
N17640 X56.62 Y86.909
N17645 X56.716 Y87.223
N17650 X56.718 Y87.23
N17655 X56.808 Y87.52
N17660 X56.81 Y87.527
N17665 X56.895 Y87.795
N17670 X56.898 Y87.805
N17675 X56.977 Y88.05
N17680 X56.981 Y88.062
N17685 X57.055 Y88.285
N17690 X57.059 Y88.298
N17695 X57.128 Y88.501
N17700 X57.133 Y88.516
N17705 X57.197 Y88.697
N17710 X57.204 Y88.718
N17715 X57.263 Y88.878
N17720 X57.273 Y88.904
N17725 X57.327 Y89.044
N17730 X57.34 Y89.077
N17735 X57.389 Y89.196
N17740 X57.41 Y89.242
N17745 X57.454 Y89.342
N17750 X57.486 Y89.407
N17755 X57.526 Y89.486
N17760 X57.578 Y89.581
N17765 X57.614 Y89.642
N17770 X57.665 Y89.721
N17775 X57.719 Y89.796
N17780 X57.751 Y89.838
N17785 G2 X58. Y90.095 I1.258 J-0.968
N17790 G1 X58.028 Y90.118
N17795 G2 X58.493 Y90.384 I1.01 J-1.225
N17800 G1 X58.56 Y90.409
N17805 G2 X58.957 Y90.498 I0.545 J-1.491
N17810 G1 X59.032 Y90.505
N17815 X59.176 Y90.512
N17820 X59.201 Y90.568
N17825 X59.205 Y90.575
N17830 X59.279 Y90.734
N17835 X59.283 Y90.742
N17840 X59.35 Y90.884
N17845 X59.356 Y90.895
N17850 X59.417 Y91.023
N17855 X59.424 Y91.036
N17860 X59.481 Y91.151
N17865 X59.491 Y91.171
N17870 X59.543 Y91.273
N17875 X59.554 Y91.294
N17880 X59.603 Y91.385
N17885 X59.627 Y91.43
N17890 X59.715 Y91.583
N17895 X59.763 Y91.661
N17900 X59.844 Y91.785
N17905 X59.891 Y91.853
N17910 X59.941 Y91.917
N17915 X60.105 Y92.121
N17920 X60.185 Y92.211
N17925 X60.257 Y92.288
N17930 X60.315 Y92.346
N17935 X60.378 Y92.406
N17940 X60.475 Y92.492
N17945 X60.533 Y92.538
N17950 X60.612 Y92.599
N17955 X60.696 Y92.654
N17960 X60.75 Y92.687
N17965 G2 X60.984 Y92.807 I0.836 J-1.35
N17970 G1 X61.038 Y92.829
N17975 X61.142 Y92.867
N17980 X61.25 Y92.898
N17985 X61.281 Y92.935
N17990 X61.416 Y93.087
N17995 X61.459 Y93.134
N18000 X61.615 Y93.297
N18005 X61.653 Y93.334
N18010 X61.831 Y93.507
N18015 X61.862 Y93.537
N18020 X62.062 Y93.722
N18025 X62.089 Y93.746
N18030 X62.312 Y93.942
N18035 X62.335 Y93.962
N18040 X62.581 Y94.17
N18045 X62.601 Y94.187
N18050 X62.87 Y94.407
N18055 X62.893 Y94.425
N18060 X63.015 Y94.522
N18065 X63.038 Y94.54
N18070 X63.171 Y94.641
N18075 X63.198 Y94.661
N18080 X63.489 Y94.872
N18085 X63.519 Y94.893
N18090 X63.825 Y95.105
N18095 X63.852 Y95.123
N18100 X64.156 Y95.324
N18105 X64.178 Y95.338
N18110 X64.323 Y95.431
N18115 X64.339 Y95.441
N18120 X64.476 Y95.526
N18125 X64.497 Y95.539
N18130 X64.624 Y95.615
N18135 X64.65 Y95.63
N18140 X64.764 Y95.696
N18145 X64.8 Y95.716
N18150 X64.899 Y95.77
N18155 X64.955 Y95.798
N18160 X65.038 Y95.839
N18165 X65.142 Y95.886
N18170 X65.205 Y95.911
N18175 G2 X65.464 Y95.991 I0.595 J-1.472
N18180 G1 X65.504 Y95.999
N18185 G2 X66.06 Y96.02 I0.336 J-1.551
N18190 G1 X66.144 Y96.008
N18195 G2 X66.469 Y95.927 I-0.219 J-1.572
N18200 G1 X66.558 Y95.895
N18205 X66.67 Y95.849
N18210 X66.778 Y95.795
N18215 X66.867 Y95.746
N18220 X66.956 Y95.693
N18225 X67.041 Y95.635
N18230 X67.124 Y95.574
N18235 X67.202 Y95.513
N18240 X67.275 Y95.448
N18245 X67.349 Y95.378
N18250 X67.428 Y95.298
N18255 X67.502 Y95.212
N18260 X67.56 Y95.139
N18265 G2 X67.722 Y94.891 I-1.242 J-0.988
N18270 G1 X67.761 Y94.817
N18275 G2 X67.913 Y94.389 I-1.404 J-0.74
N18280 G1 X67.927 Y94.319
N18285 G2 X67.944 Y93.797 I-1.557 J-0.312
N18290 G1 X67.94 Y93.762
N18295 G2 X67.883 Y93.503 I-1.574 J0.21
N18300 G1 X67.869 Y93.46
N18305 X67.832 Y93.352
N18310 X67.786 Y93.247
N18315 X67.738 Y93.146
N18320 X67.695 Y93.061
N18325 X67.646 Y92.979
N18330 X67.575 Y92.867
N18335 X67.53 Y92.799
N18340 X67.481 Y92.734
N18345 X67.395 Y92.625
N18350 X67.331 Y92.544
N18355 X67.287 Y92.476
N18360 X67.224 Y92.365
N18365 X67.154 Y92.228
N18370 X67.087 Y92.077
N18375 X67.026 Y91.925
N18380 X66.978 Y91.783
N18385 X66.943 Y91.661
N18390 X66.935 Y91.621
N18395 X66.921 Y91.541
N18400 X66.905 Y91.431
N18405 X66.891 Y91.304
N18410 X66.863 Y90.984
N18415 X66.844 Y90.639
N18420 X66.835 Y90.291
N18425 X66.836 Y90.244
N18430 X66.84 Y90.243
N18435 X66.943 Y90.213
N18440 G2 X67.198 Y90.116 I-0.435 J-1.527
N18445 G1 X67.291 Y90.071
N18450 G2 X67.527 Y89.931 I-0.69 J-1.43
N18455 G1 X67.608 Y89.873
N18460 G2 X67.818 Y89.693 I-0.926 J-1.29
N18465 G1 X67.885 Y89.624
N18470 G2 X68.071 Y89.395 I-1.136 J-1.109
N18475 G1 X68.122 Y89.317
N18480 G2 X68.273 Y89.033 I-1.321 J-0.88
N18485 G1 X68.306 Y88.949
N18490 G2 X68.402 Y88.605 I-1.472 J-0.595
N18495 G1 X68.416 Y88.518
N18500 G2 X68.43 Y88.129 I-1.568 J-0.251
N18505 G1 X68.422 Y88.041
N18510 X68.402 Y87.889
N18515 X68.394 Y87.85
N18520 X68.384 Y87.782
N18525 X68.365 Y87.655
N18530 X68.34 Y87.463
N18535 X68.333 Y87.408
N18540 X68.445 Y87.544
N18545 X68.747 Y87.931
N18550 X69.014 Y88.276
N18555 X69.033 Y88.3
N18560 X69.608 Y89.015
N18565 X69.635 Y89.048
N18570 X69.753 Y89.187
N18575 X69.775 Y89.212
N18580 X69.859 Y89.307
N18585 X69.902 Y89.354
N18590 X69.957 Y89.412
N18595 X69.963 Y89.418
N18600 G2 X70.293 Y89.853 I1.411 J-0.727
N18605 G1 X70.333 Y89.891
N18610 G2 X70.746 Y90.168 I1.081 J-1.163
N18615 G1 X70.806 Y90.196
N18620 G2 X71.106 Y90.3 I0.668 J-1.44
N18625 G1 X71.181 Y90.318
N18630 X71.297 Y90.341
N18635 X71.414 Y90.356
N18640 X71.5 Y90.363
N18645 X71.605 Y90.368
N18650 X71.71 Y90.367
N18655 X71.734 Y90.366
N18660 X71.861 Y90.592
N18665 X71.97 Y90.788
N18670 X71.983 Y90.809
N18675 X72.091 Y90.996
N18680 X72.113 Y91.032
N18685 X72.325 Y91.377
N18690 X72.362 Y91.433
N18695 X72.569 Y91.74
N18700 X72.616 Y91.806
N18705 X72.82 Y92.077
N18710 X72.881 Y92.153
N18715 X73.085 Y92.391
N18720 X73.16 Y92.473
N18725 X73.366 Y92.682
N18730 X73.457 Y92.768
N18735 X73.666 Y92.949
N18740 X73.77 Y93.032
N18745 X73.985 Y93.189
N18750 X74.068 Y93.246
N18755 X74.155 Y93.298
N18760 X74.244 Y93.347
N18765 X74.355 Y93.402
N18770 X74.469 Y93.449
N18775 X74.567 Y93.484
N18780 X74.675 Y93.519
N18785 X74.785 Y93.546
N18790 X74.888 Y93.567
N18795 X74.994 Y93.585
N18800 X75.101 Y93.596
N18805 X75.205 Y93.604
N18810 X75.312 Y93.607
N18815 X75.418 Y93.604
N18820 X75.522 Y93.597
N18825 X75.631 Y93.586
N18830 X75.74 Y93.568
N18835 X75.84 Y93.547
N18840 X75.955 Y93.519
N18845 X76.068 Y93.482
N18850 X76.162 Y93.447
N18855 G2 X76.403 Y93.335 I-0.549 J-1.49
N18860 G1 X76.488 Y93.286
N18865 X76.581 Y93.228
N18870 X76.67 Y93.164
N18875 X76.73 Y93.118
N18880 G2 X76.97 Y92.888 I-0.972 J-1.255
N18885 G1 X77.012 Y92.838
N18890 G2 X77.281 Y92.387 I-1.211 J-1.026
N18895 G1 X77.306 Y92.322
N18900 G2 X77.408 Y91.877 I-1.48 J-0.575
N18905 G1 X77.416 Y91.788
N18910 X77.421 Y91.68
N18915 X77.419 Y91.572
N18920 X77.416 Y91.515
N18925 X77.408 Y91.423
N18930 X77.4 Y91.355
N18935 X77.392 Y91.292
N18940 X77.38 Y91.213
N18945 X77.372 Y91.169
N18950 X77.355 Y91.078
N18955 X77.35 Y91.05
N18960 X77.329 Y90.945
N18965 X77.325 Y90.926
N18970 X77.299 Y90.805
N18975 X77.296 Y90.794
N18980 X77.266 Y90.657
N18985 X77.264 Y90.651
N18990 X77.262 Y90.639
N18995 X77.268 Y90.644
N19000 X77.445 Y90.805
N19005 X77.467 Y90.825
N19010 X77.634 Y90.97
N19015 X77.661 Y90.993
N19020 X77.818 Y91.124
N19025 X77.852 Y91.152
N19030 X78.001 Y91.27
N19035 X78.042 Y91.301
N19040 X78.185 Y91.406
N19045 X78.234 Y91.441
N19050 X78.372 Y91.535
N19055 X78.459 Y91.59
N19060 X78.726 Y91.747
N19065 X78.864 Y91.82
N19070 X79.127 Y91.941
N19075 X79.274 Y92.001
N19080 X79.544 Y92.095
N19085 X79.675 Y92.134
N19090 X79.965 Y92.207
N19095 X80.081 Y92.232
N19100 X80.224 Y92.257
N19105 X80.378 Y92.276
N19110 X80.506 Y92.286
N19115 X80.605 Y92.29
N19120 X80.704 Y92.288
N19125 X80.819 Y92.283
N19130 X80.942 Y92.272
N19135 X81.064 Y92.251
N19140 X81.168 Y92.23
N19145 G2 X81.441 Y92.147 I-0.323 J-1.554
N19150 G1 X81.534 Y92.109
N19155 G2 X81.801 Y91.97 I-0.595 J-1.472
N19160 G1 X81.885 Y91.916
N19165 G2 X82.116 Y91.735 I-0.863 J-1.333
N19170 G1 X82.188 Y91.666
N19175 X82.27 Y91.686
N19180 X82.512 Y91.738
N19185 X82.629 Y91.759
N19190 X82.862 Y91.792
N19195 X82.99 Y91.805
N19200 X83.217 Y91.818
N19205 X83.346 Y91.821
N19210 X83.57 Y91.815
N19215 X83.653 Y91.811
N19220 X83.786 Y91.801
N19225 X83.842 Y91.796
N19230 X83.951 Y91.784
N19235 X84.048 Y91.77
N19240 X84.115 Y91.759
N19245 X84.13 Y91.771
N19250 X84.178 Y91.808
N19255 X84.341 Y91.931
N19260 X84.433 Y91.996
N19265 X84.585 Y92.094
N19270 X84.706 Y92.165
N19275 X84.858 Y92.245
N19280 X84.983 Y92.305
N19285 X85.145 Y92.373
N19290 X85.249 Y92.413
N19295 X85.431 Y92.475
N19300 X85.498 Y92.496
N19305 X85.71 Y92.558
N19310 X85.8 Y92.582
N19315 X86.101 Y92.651
N19320 X86.211 Y92.673
N19325 X86.54 Y92.724
N19330 X86.631 Y92.736
N19335 X86.971 Y92.769
N19340 X87.055 Y92.775
N19345 X87.39 Y92.79
N19350 X87.48 Y92.792
N19355 X87.793 Y92.788
N19360 X87.873 Y92.785
N19365 X88.016 Y92.776
N19370 X88.082 Y92.771
N19375 X88.214 Y92.757
N19380 X88.295 Y92.747
N19385 X88.413 Y92.728
N19390 X88.521 Y92.707
N19395 X88.624 Y92.684
N19400 X88.773 Y92.642
N19405 X88.858 Y92.614
N19410 X88.969 Y92.572
N19415 X89.078 Y92.521
N19420 X89.143 Y92.488
N19425 X89.242 Y92.433
N19430 X89.338 Y92.37
N19435 X89.417 Y92.314
N19440 X89.54 Y92.218
N19445 X89.604 Y92.162
N19450 X89.686 Y92.086
N19455 X89.763 Y92.003
N19460 X89.811 Y91.948
N19465 G2 X89.983 Y91.707 I-1.2 J-1.04
N19470 G1 X90.017 Y91.649
N19475 G2 X90.156 Y91.337 I-1.372 J-0.799
N19480 G1 X90.176 Y91.275
N19485 G2 X90.244 Y90.951 I-1.511 J-0.487
N19490 G1 X90.251 Y90.884
N19495 G2 X90.255 Y90.607 I-1.579 J-0.162
N19500 G1 X90.249 Y90.532
N19505 X90.239 Y90.433
N19510 X90.223 Y90.334
N19515 X90.206 Y90.251
N19520 X90.177 Y90.133
N19525 X90.14 Y90.017
N19530 X90.11 Y89.936
N19535 G2 X89.872 Y89.507 I-1.491 J0.546
N19540 G1 X89.829 Y89.452
N19545 G2 X89.335 Y89.033 I-1.252 J0.976
N19550 G1 X89.276 Y89.001
N19555 G2 X88.805 Y88.834 I-0.758 J1.395
N19560 G1 X88.727 Y88.782
N19565 X88.644 Y88.718
N19570 X88.565 Y88.651
N19575 X88.507 Y88.596
N19580 X88.349 Y88.419
N19585 X88.293 Y88.348
N19590 X88.225 Y88.251
N19595 X88.151 Y88.138
N19600 X88.07 Y88.004
N19605 X87.98 Y87.845
N19610 X87.874 Y87.645
N19615 X87.872 Y87.64
N19620 X87.797 Y87.501
N19625 X87.78 Y87.47
N19630 X87.669 Y87.274
N19635 X87.648 Y87.238
N19640 X87.525 Y87.032
N19645 G2 X87.543 Y86.758 I-1.569 J-0.243
N19650 G1 X87.542 Y86.697
N19655 G2 X87.5 Y86.363 I-1.587 J0.031
N19660 G1 X87.484 Y86.296
N19665 G2 X87.401 Y86.043 I-1.545 J0.366
N19670 G1 X87.371 Y85.971
N19675 X87.331 Y85.884
N19680 X87.286 Y85.801
N19685 G2 X87.458 Y85.578 I-1.165 J-1.079
N19690 G1 X87.514 Y85.491
N19695 G2 X87.639 Y85.254 I-1.337 J-0.857
N19700 G1 X87.663 Y85.196
N19705 X87.711 Y85.068
N19710 X87.727 Y85.019
N19715 G2 X87.789 Y84.75 I-1.51 J-0.491
N19720 G1 X87.795 Y84.709
N19725 G2 X87.8 Y84.304 I-1.572 J-0.222
N19730 G1 X87.796 Y84.266
N19735 G2 X87.681 Y83.832 I-1.577 J0.183
N19740 G1 X87.666 Y83.794
N19745 G2 X87.501 Y83.497 I-1.463 J0.617
N19750 G1 X87.473 Y83.458
N19755 X87.412 Y83.376
N19760 X87.345 Y83.299
N19765 X87.304 Y83.255
N19770 X87.235 Y83.184
N19775 X87.181 Y83.132
N19780 X87.071 Y83.035
N19785 X86.911 Y82.908
N19790 G2 X86.295 Y82.606 I-0.99 J1.241
N19795 G1 X86.278 Y82.597
N19800 X86.152 Y82.525
N19805 X86.019 Y82.444
N19810 X85.9 Y82.367
N19815 X85.804 Y82.299
N19820 X85.741 Y82.25
N19825 X85.832 Y82.202
N19830 X85.92 Y82.148
N19835 X86.009 Y82.089
N19840 G2 X86.21 Y81.931 I-0.875 J-1.324
N19845 G1 X86.288 Y81.859
N19850 G2 X86.475 Y81.654 I-1.077 J-1.167
N19855 G1 X86.537 Y81.573
N19860 G2 X86.71 Y81.287 I-1.263 J-0.961
N19865 G1 X86.751 Y81.201
N19870 G2 X86.88 Y80.784 I-1.436 J-0.676
N19875 G1 X86.895 Y80.696
N19880 G2 X86.908 Y80.272 I-1.566 J-0.26
N19885 G1 X86.903 Y80.225
N19890 X86.892 Y80.145
N19895 X86.878 Y80.065
N19900 X86.864 Y79.998
N19905 X86.845 Y79.919
N19910 X86.823 Y79.834
N19915 X86.809 Y79.783
N19920 X86.779 Y79.684
N19925 X86.763 Y79.632
N19930 X86.686 Y79.404
N19935 X86.665 Y79.346
N19940 X86.571 Y79.1
N19945 X86.536 Y79.014
N19950 X86.336 Y78.569
N19955 X86.28 Y78.457
N19960 X86.052 Y78.039
N19965 X85.984 Y77.928
N19970 X85.728 Y77.538
N19975 X85.649 Y77.43
N19980 X85.365 Y77.069
N19985 X85.277 Y76.966
N19990 X84.966 Y76.635
N19995 X84.868 Y76.539
N20000 X84.532 Y76.237
N20005 X84.425 Y76.149
N20010 X84.064 Y75.877
N20015 X83.951 Y75.8
N20020 X83.903 Y75.77
N20025 X83.9 Y75.753
N20030 X83.894 Y75.716
N20035 G2 X83.813 Y75.418 I-1.565 J0.266
N20040 G1 X83.794 Y75.369
N20045 X83.762 Y75.292
N20050 X83.727 Y75.217
N20055 X83.697 Y75.157
N20060 X83.649 Y75.071
N20065 X83.608 Y75.001
