%
(1001)
(MACHINE)
(  VENDOR AUTODESK)
(  DESCRIPTION GENERIC 3-AXIS)
(T1  D=2.18 CR=1.09 - ZMIN=-3.05 - BALL END MILL)
N10 G90 G94 G17 G91.1
N15 G21
(WHEN USING FUSION 360 FOR PERSONAL USE, THE FEEDRATE OF)
(RAPID MOVES IS REDUCED TO MATCH THE FEEDRATE OF CUTTING)
(MOVES, WHICH CAN INCREASE MACHINING TIME. UNRESTRICTED RAPID)
(MOVES ARE AVAILABLE WITH A FUSION 360 SUBSCRIPTION.)
N20 G53 G0 Z0.
(2D CONTOUR3)
N25 T1 M6
N30 S5000 M3
N35 G54
N40 M8
N45 G0 X51.745 Y76.305
N50 G43 Z15. H1
N55 G1 Z5. F1000.
N60 Z2. F333.33
N65 Z-0.782
N70 X51.752 Y76.303 Z-0.838 F1000.
N75 X51.773 Y76.296 Z-0.891
N80 X51.806 Y76.286 Z-0.936
N85 X51.849 Y76.272 Z-0.971
N90 X51.899 Y76.256 Z-0.993
N95 X51.953 Y76.238 Z-1.
N100 X52.16 Y76.171
N105 G3 X52.434 Y76.312 I0.067 J0.207
N110 G1 X52.465 Y76.408
N115 X52.586 Y76.788
N120 X52.698 Y77.149
N125 X52.799 Y77.483
N130 X52.887 Y77.782
N135 X52.925 Y77.913
N140 X52.958 Y78.032
N145 X52.986 Y78.137
N150 X53.008 Y78.226
N155 X53.024 Y78.293
N160 X53.035 Y78.345
N165 X53.067 Y78.505
N170 X53.105 Y78.7
N175 X53.146 Y78.913
N180 X53.19 Y79.137
N185 X53.278 Y79.594
N190 X53.321 Y79.813
N195 X53.36 Y80.015
N200 X53.362 Y80.027
N205 X53.458 Y80.498
N210 X53.464 Y80.524
N215 X53.565 Y80.964
N220 X53.572 Y80.993
N225 X53.677 Y81.4
N230 X53.686 Y81.433
N235 X53.796 Y81.807
N240 X53.807 Y81.844
N245 X53.92 Y82.184
N250 X53.936 Y82.228
N255 X54.052 Y82.534
N260 X54.073 Y82.585
N265 X54.192 Y82.855
N270 X54.222 Y82.918
N275 X54.343 Y83.152
N280 X54.386 Y83.228
N285 X54.509 Y83.425
N290 X54.575 Y83.518
N295 X54.7 Y83.678
N300 X54.749 Y83.736
N305 X54.802 Y83.791
N310 X54.927 Y83.912
N315 X55.006 Y83.981
N320 X55.09 Y84.042
N325 X55.216 Y84.124
N330 X55.303 Y84.175
N335 X55.394 Y84.217
N340 X55.457 Y84.243
N345 X55.529 Y84.27
N350 X55.604 Y84.292
N355 X55.667 Y84.308
N360 X55.75 Y84.326
N365 X55.834 Y84.338
N370 X55.897 Y84.344
N375 X55.985 Y84.348
N380 X56.073 Y84.346
N385 X56.136 Y84.342
N390 X56.222 Y84.333
N395 X56.307 Y84.317
N400 X56.308 Y84.316
N405 X56.316 Y84.338
N410 X56.39 Y84.553
N415 X56.546 Y85.015
N420 X56.704 Y85.495
N425 X56.856 Y85.972
N430 X56.995 Y86.426
N435 X57.095 Y86.76
N440 X57.096 Y86.764
N445 X57.192 Y87.077
N450 X57.193 Y87.082
N455 X57.283 Y87.373
N460 X57.285 Y87.378
N465 X57.369 Y87.646
N470 X57.371 Y87.652
N475 X57.451 Y87.898
N480 X57.453 Y87.906
N485 X57.527 Y88.129
N490 X57.53 Y88.138
N495 X57.599 Y88.34
N500 X57.602 Y88.351
N505 X57.666 Y88.532
N510 X57.671 Y88.546
N515 X57.73 Y88.706
N520 X57.737 Y88.724
N525 X57.791 Y88.864
N530 X57.8 Y88.886
N535 X57.849 Y89.006
N540 X57.863 Y89.038
N545 X57.908 Y89.137
N550 X57.929 Y89.182
N555 X57.97 Y89.261
N560 X58.006 Y89.326
N565 X58.042 Y89.387
N570 X58.114 Y89.493
N575 X58.146 Y89.534
N580 X58.226 Y89.628
N585 X58.316 Y89.711
N590 X58.344 Y89.734
N595 G2 X58.664 Y89.917 I0.693 J-0.841
N600 G1 X58.731 Y89.941
N605 G2 X59.004 Y90.003 I0.374 J-1.024
N610 G1 X59.078 Y90.01
N615 X59.197 Y90.014
N620 X59.316 Y90.006
N625 X59.395 Y89.996
N630 X59.479 Y89.982
N635 X59.486 Y89.997
N640 X59.57 Y90.18
N645 X59.571 Y90.183
N650 X59.653 Y90.359
N655 X59.655 Y90.364
N660 X59.73 Y90.523
N665 X59.732 Y90.528
N670 X59.8 Y90.671
N675 X59.803 Y90.679
N680 X59.865 Y90.807
N685 X59.87 Y90.816
N690 X59.926 Y90.93
N695 X59.933 Y90.944
N700 X59.986 Y91.046
N705 X59.993 Y91.061
N710 X60.042 Y91.151
N715 X60.059 Y91.182
N720 X60.147 Y91.336
N725 X60.179 Y91.389
N730 X60.261 Y91.513
N735 X60.327 Y91.604
N740 X60.492 Y91.807
N745 X60.546 Y91.869
N750 X60.619 Y91.946
N755 X60.658 Y91.986
N760 X60.722 Y92.046
N765 X60.788 Y92.105
N770 X60.846 Y92.151
N775 X60.9 Y92.193
N780 X60.958 Y92.231
N785 X61.012 Y92.264
N790 X61.09 Y92.309
N795 X61.173 Y92.346
N800 X61.226 Y92.368
N805 X61.319 Y92.401
N810 X61.414 Y92.426
N815 X61.47 Y92.438
N820 X61.526 Y92.448
N825 X61.619 Y92.564
N830 X61.654 Y92.605
N835 X61.789 Y92.757
N840 X61.818 Y92.789
N845 X61.974 Y92.952
N850 X62. Y92.978
N855 X62.178 Y93.151
N860 X62.199 Y93.171
N865 X62.399 Y93.356
N870 X62.418 Y93.373
N875 X62.641 Y93.569
N880 X62.657 Y93.582
N885 X62.903 Y93.791
N890 X62.916 Y93.802
N895 X63.186 Y94.023
N900 X63.201 Y94.035
N905 X63.323 Y94.131
N910 X63.339 Y94.143
N915 X63.472 Y94.244
N920 X63.491 Y94.258
N925 X63.781 Y94.469
N930 X63.801 Y94.484
N935 X64.108 Y94.695
N940 X64.127 Y94.708
N945 X64.431 Y94.909
N950 X64.445 Y94.919
N955 X64.59 Y95.011
N960 X64.602 Y95.018
N965 X64.739 Y95.103
N970 X64.753 Y95.112
N975 X64.88 Y95.188
N980 X64.898 Y95.199
N985 X65.012 Y95.265
N990 X65.037 Y95.278
N995 X65.136 Y95.332
N1000 X65.175 Y95.352
N1005 X65.257 Y95.392
N1010 X65.329 Y95.424
N1015 X65.391 Y95.45
N1020 X65.479 Y95.481
N1025 X65.569 Y95.504
N1030 X65.61 Y95.513
N1035 G2 X65.991 Y95.527 I0.231 J-1.065
N1040 G1 X66.075 Y95.516
N1045 X66.188 Y95.494
N1050 X66.298 Y95.46
N1055 X66.387 Y95.428
N1060 X66.464 Y95.396
N1065 X66.539 Y95.359
N1070 X66.627 Y95.31
N1075 X66.688 Y95.274
N1080 X66.746 Y95.234
N1085 X66.83 Y95.173
N1090 X66.883 Y95.131
N1095 X66.934 Y95.086
N1100 X67.007 Y95.017
N1105 X67.062 Y94.961
N1110 X67.112 Y94.903
N1115 X67.171 Y94.829
N1120 X67.23 Y94.746
N1125 X67.282 Y94.659
N1130 X67.321 Y94.585
N1135 G2 X67.425 Y94.291 I-0.964 J-0.508
N1140 G1 X67.439 Y94.221
N1145 G2 X67.451 Y93.863 I-1.069 J-0.214
N1150 G1 X67.447 Y93.828
N1155 X67.431 Y93.738
N1160 X67.407 Y93.65
N1165 X67.394 Y93.607
N1170 X67.368 Y93.533
N1175 X67.337 Y93.461
N1180 X67.289 Y93.36
N1185 X67.226 Y93.246
N1190 X67.154 Y93.133
N1195 X67.09 Y93.042
N1200 X67.004 Y92.932
N1205 X66.927 Y92.834
N1210 X66.862 Y92.736
N1215 X66.785 Y92.601
N1220 X66.705 Y92.443
N1225 X66.628 Y92.271
N1230 X66.559 Y92.097
N1235 X66.502 Y91.931
N1240 X66.46 Y91.781
N1245 X66.446 Y91.716
N1250 X66.429 Y91.618
N1255 X66.412 Y91.494
N1260 X66.396 Y91.354
N1265 X66.367 Y91.018
N1270 X66.347 Y90.659
N1275 X66.338 Y90.297
N1280 X66.339 Y89.952
N1285 X66.344 Y89.816
N1290 X66.375 Y89.815
N1295 X66.503 Y89.803
N1300 X66.566 Y89.794
N1305 X66.635 Y89.781
N1310 X66.704 Y89.764
N1315 X66.807 Y89.735
N1320 X66.896 Y89.705
N1325 X66.982 Y89.668
N1330 X67.075 Y89.623
N1335 X67.158 Y89.579
N1340 X67.237 Y89.527
N1345 X67.318 Y89.469
N1350 X67.393 Y89.41
N1355 X67.462 Y89.345
N1360 X67.529 Y89.276
N1365 X67.597 Y89.201
N1370 X67.657 Y89.119
N1375 X67.708 Y89.042
N1380 X67.765 Y88.946
N1385 X67.811 Y88.846
N1390 X67.845 Y88.763
N1395 X67.885 Y88.646
N1400 X67.911 Y88.526
N1405 X67.925 Y88.439
N1410 G2 X67.934 Y88.172 I-1.076 J-0.172
N1415 G1 X67.927 Y88.084
N1420 X67.913 Y87.98
N1425 X67.904 Y87.935
N1430 X67.892 Y87.856
N1435 X67.873 Y87.723
N1440 X67.846 Y87.526
N1445 X67.807 Y87.207
N1450 X67.802 Y87.166
N1455 X67.778 Y86.882
N1460 X67.768 Y86.597
N1465 X67.772 Y86.306
N1470 X67.787 Y86.055
N1475 X67.861 Y86.127
N1480 X67.984 Y86.255
N1485 X68.115 Y86.394
N1490 X68.248 Y86.541
N1495 X68.536 Y86.872
N1500 X68.833 Y87.232
N1505 X69.14 Y87.625
N1510 X69.408 Y87.972
N1515 X69.421 Y87.989
N1520 X69.995 Y88.703
N1525 X70.014 Y88.726
N1530 X70.132 Y88.865
N1535 X70.147 Y88.883
N1540 X70.231 Y88.978
N1545 X70.261 Y89.009
N1550 X70.317 Y89.068
N1555 X70.321 Y89.073
N1560 X70.376 Y89.129
N1565 G2 X70.632 Y89.489 I0.998 J-0.438
N1570 G1 X70.672 Y89.526
N1575 G2 X70.955 Y89.717 I0.742 J-0.798
N1580 G1 X71.015 Y89.745
N1585 X71.116 Y89.785
N1590 X71.221 Y89.816
N1595 X71.297 Y89.834
N1600 X71.376 Y89.85
N1605 X71.457 Y89.86
N1610 X71.542 Y89.867
N1615 X71.614 Y89.871
N1620 X71.687 Y89.87
N1625 X71.777 Y89.866
N1630 X71.851 Y89.86
N1635 X71.924 Y89.849
N1640 X72.001 Y89.834
N1645 X72.118 Y90.034
N1650 X72.295 Y90.349
N1655 X72.405 Y90.545
N1660 X72.413 Y90.56
N1665 X72.522 Y90.747
N1670 X72.536 Y90.772
N1675 X72.748 Y91.116
N1680 X72.774 Y91.155
N1685 X72.981 Y91.461
N1690 X73.013 Y91.507
N1695 X73.218 Y91.778
N1700 X73.259 Y91.83
N1705 X73.463 Y92.068
N1710 X73.515 Y92.124
N1715 X73.72 Y92.333
N1720 X73.783 Y92.392
N1725 X73.992 Y92.573
N1730 X74.063 Y92.63
N1735 X74.278 Y92.787
N1740 X74.336 Y92.826
N1745 X74.395 Y92.862
N1750 X74.484 Y92.911
N1755 X74.56 Y92.949
N1760 X74.639 Y92.981
N1765 X74.736 Y93.016
N1770 X74.811 Y93.04
N1775 X74.886 Y93.059
N1780 X74.989 Y93.08
N1785 X75.062 Y93.093
N1790 X75.135 Y93.1
N1795 X75.239 Y93.107
N1800 X75.313 Y93.11
N1805 X75.386 Y93.108
N1810 X75.489 Y93.101
N1815 X75.565 Y93.093
N1820 X75.639 Y93.081
N1825 X75.74 Y93.06
N1830 X75.818 Y93.04
N1835 X75.896 Y93.015
N1840 X75.99 Y92.98
N1845 X76.074 Y92.945
N1850 X76.155 Y92.903
N1855 X76.24 Y92.854
N1860 X76.304 Y92.815
N1865 X76.365 Y92.771
N1870 X76.426 Y92.724
N1875 X76.512 Y92.65
N1880 X76.59 Y92.567
N1885 X76.633 Y92.516
N1890 G2 X76.817 Y92.207 I-0.832 J-0.705
N1895 G1 X76.842 Y92.142
N1900 G2 X76.913 Y91.836 I-1.016 J-0.395
N1905 G1 X76.92 Y91.747
N1910 X76.923 Y91.673
N1915 X76.922 Y91.599
N1920 X76.919 Y91.542
N1925 X76.913 Y91.479
N1930 X76.906 Y91.411
N1935 X76.9 Y91.368
N1940 X76.888 Y91.289
N1945 X76.883 Y91.259
N1950 X76.866 Y91.168
N1955 X76.862 Y91.149
N1960 X76.841 Y91.044
N1965 X76.838 Y91.03
N1970 X76.812 Y90.91
N1975 X76.811 Y90.902
N1980 X76.78 Y90.766
N1985 X76.779 Y90.762
N1990 X76.748 Y90.622
N1995 X76.732 Y90.542
N2000 X76.717 Y90.446
N2005 X76.703 Y90.325
N2010 X76.69 Y90.19
N2015 X76.669 Y89.868
N2020 X76.658 Y89.53
N2025 Y89.394
N2030 X76.773 Y89.496
N2035 X76.898 Y89.611
N2040 X77.036 Y89.74
N2045 X77.189 Y89.886
N2050 X77.391 Y90.079
N2055 X77.401 Y90.088
N2060 X77.59 Y90.265
N2065 X77.602 Y90.276
N2070 X77.779 Y90.436
N2075 X77.794 Y90.45
N2080 X77.961 Y90.595
N2085 X77.979 Y90.611
N2090 X78.137 Y90.742
N2095 X78.16 Y90.761
N2100 X78.309 Y90.879
N2105 X78.337 Y90.9
N2110 X78.48 Y91.006
N2115 X78.514 Y91.03
N2120 X78.652 Y91.123
N2125 X78.712 Y91.161
N2130 X78.978 Y91.318
N2135 X79.073 Y91.368
N2140 X79.336 Y91.49
N2145 X79.437 Y91.531
N2150 X79.707 Y91.625
N2155 X79.797 Y91.652
N2160 X80.087 Y91.725
N2165 X80.167 Y91.742
N2170 X80.309 Y91.767
N2175 X80.415 Y91.78
N2180 X80.544 Y91.79
N2185 X80.611 Y91.793
N2190 X80.679 Y91.791
N2195 X80.795 Y91.786
N2200 X80.879 Y91.778
N2205 X80.963 Y91.764
N2210 X81.067 Y91.743
N2215 X81.162 Y91.719
N2220 X81.254 Y91.686
N2225 X81.347 Y91.648
N2230 X81.441 Y91.605
N2235 X81.531 Y91.553
N2240 X81.614 Y91.499
N2245 X81.697 Y91.44
N2250 X81.773 Y91.374
N2255 X81.847 Y91.303
N2260 X81.909 Y91.24
N2265 X81.964 Y91.172
N2270 X82.02 Y91.099
N2275 X82.051 Y91.108
N2280 X82.305 Y91.182
N2285 X82.376 Y91.2
N2290 X82.618 Y91.252
N2295 X82.698 Y91.267
N2300 X82.931 Y91.299
N2305 X83.019 Y91.308
N2310 X83.246 Y91.322
N2315 X83.335 Y91.323
N2320 X83.559 Y91.318
N2325 X83.616 Y91.315
N2330 X83.749 Y91.305
N2335 X83.787 Y91.302
N2340 X83.896 Y91.29
N2345 X83.963 Y91.28
N2350 X84.053 Y91.265
N2355 X84.158 Y91.241
N2360 X84.232 Y91.22
N2365 X84.243 Y91.217
N2370 X84.244 Y91.218
N2375 X84.339 Y91.299
N2380 X84.356 Y91.313
N2385 X84.445 Y91.385
N2390 X84.477 Y91.411
N2395 X84.64 Y91.534
N2400 X84.704 Y91.578
N2405 X84.856 Y91.677
N2410 X84.939 Y91.725
N2415 X85.09 Y91.806
N2420 X85.177 Y91.847
N2425 X85.338 Y91.915
N2430 X85.41 Y91.942
N2435 X85.592 Y92.004
N2440 X85.638 Y92.019
N2445 X85.85 Y92.081
N2450 X85.911 Y92.097
N2455 X86.213 Y92.167
N2460 X86.288 Y92.181
N2465 X86.618 Y92.233
N2470 X86.68 Y92.241
N2475 X87.02 Y92.274
N2480 X87.078 Y92.278
N2485 X87.412 Y92.293
N2490 X87.474 Y92.295
N2495 X87.788 Y92.291
N2500 X87.842 Y92.289
N2505 X87.986 Y92.28
N2510 X88.031 Y92.276
N2515 X88.162 Y92.262
N2520 X88.218 Y92.255
N2525 X88.336 Y92.237
N2530 X88.411 Y92.222
N2535 X88.513 Y92.199
N2540 X88.615 Y92.17
N2545 X88.7 Y92.142
N2550 X88.777 Y92.113
N2555 X88.851 Y92.079
N2560 X88.916 Y92.045
N2565 X88.985 Y92.007
N2570 X89.05 Y91.964
N2575 X89.13 Y91.908
N2580 X89.214 Y91.842
N2585 X89.277 Y91.787
N2590 X89.334 Y91.734
N2595 X89.387 Y91.677
N2600 X89.435 Y91.622
N2605 X89.498 Y91.542
N2610 X89.553 Y91.456
N2615 X89.587 Y91.399
N2620 X89.64 Y91.294
N2625 X89.682 Y91.184
N2630 X89.702 Y91.123
N2635 X89.731 Y91.013
N2640 X89.749 Y90.9
N2645 X89.756 Y90.833
N2650 X89.761 Y90.738
N2655 X89.759 Y90.643
N2660 X89.753 Y90.568
N2665 X89.746 Y90.5
N2670 X89.735 Y90.432
N2675 X89.718 Y90.349
N2680 X89.698 Y90.268
N2685 X89.673 Y90.188
N2690 X89.643 Y90.108
N2695 G2 X89.48 Y89.813 I-1.023 J0.375
N2700 G1 X89.436 Y89.757
N2705 G2 X89.097 Y89.47 I-0.86 J0.67
N2710 G1 X89.038 Y89.438
N2715 G2 X88.664 Y89.315 I-0.52 J0.958
N2720 G1 X88.638 Y89.312
N2725 X88.621 Y89.303
N2730 X88.538 Y89.254
N2735 X88.437 Y89.186
N2740 X88.332 Y89.106
N2745 X88.232 Y89.021
N2750 X88.149 Y88.942
N2755 X87.967 Y88.739
N2760 X87.895 Y88.645
N2765 X87.814 Y88.532
N2770 X87.729 Y88.403
N2775 X87.64 Y88.255
N2780 X87.544 Y88.084
N2785 X87.435 Y87.878
N2790 X87.433 Y87.875
N2795 X87.358 Y87.735
N2800 X87.347 Y87.714
N2805 X87.236 Y87.518
N2810 X87.222 Y87.493
N2815 X87.019 Y87.156
N2820 X87.002 Y87.128
N2825 X86.998 Y87.121
N2830 X87.005 Y87.093
N2835 X87.018 Y87.037
N2840 G2 X87.046 Y86.768 I-1.062 J-0.247
N2845 G1 X87.045 Y86.707
N2850 X87.036 Y86.591
N2855 X87.016 Y86.477
N2860 X87. Y86.411
N2865 X86.975 Y86.323
N2870 X86.943 Y86.237
N2875 X86.912 Y86.165
N2880 X86.883 Y86.102
N2885 X86.85 Y86.04
N2890 X86.804 Y85.962
N2895 X86.747 Y85.874
N2900 X86.686 Y85.79
N2905 X86.638 Y85.727
N2910 X86.632 Y85.721
N2915 X86.677 Y85.688
N2920 X86.743 Y85.636
N2925 X86.804 Y85.58
N2930 X86.89 Y85.495
N2935 X86.97 Y85.406
N2940 X87.039 Y85.31
N2945 X87.095 Y85.223
N2950 X87.141 Y85.143
N2955 X87.181 Y85.06
N2960 X87.205 Y85.002
N2965 X87.238 Y84.914
N2970 X87.254 Y84.866
N2975 X87.279 Y84.774
N2980 X87.297 Y84.681
N2985 X87.303 Y84.639
N2990 G2 X87.306 Y84.361 I-1.079 J-0.152
N2995 G1 X87.302 Y84.323
N3000 G2 X87.223 Y84.025 I-1.083 J0.125
N3005 G1 X87.207 Y83.988
N3010 X87.156 Y83.883
N3015 X87.094 Y83.784
N3020 X87.066 Y83.744
N3025 X87.024 Y83.688
N3030 X86.978 Y83.635
N3035 X86.938 Y83.591
N3040 X86.89 Y83.542
N3045 X86.836 Y83.491
N3050 X86.761 Y83.424
N3055 X86.601 Y83.297
N3060 G2 X86.14 Y83.081 I-0.68 J0.852
N3065 G1 X86.122 Y83.077
N3070 X86.038 Y83.033
N3075 X85.899 Y82.954
N3080 X85.754 Y82.865
N3085 X85.62 Y82.778
N3090 X85.508 Y82.699
N3095 X85.344 Y82.572
N3100 X85.195 Y82.448
N3105 X85.055 Y82.321
N3110 X84.908 Y82.177
N3115 X84.742 Y82.
N3120 X84.717 Y81.972
N3125 X84.809 Y81.975
N3130 G2 X85.084 Y81.951 I0.043 J-1.089
N3135 G1 X85.181 Y81.93
N3140 X85.286 Y81.902
N3145 X85.388 Y81.863
N3150 X85.483 Y81.821
N3155 X85.566 Y81.78
N3160 X85.646 Y81.733
N3165 X85.735 Y81.674
N3170 X85.806 Y81.622
N3175 X85.873 Y81.565
N3180 X85.951 Y81.493
N3185 X86.018 Y81.426
N3190 X86.079 Y81.353
N3195 X86.141 Y81.271
N3200 X86.205 Y81.176
N3205 X86.26 Y81.075
N3210 X86.3 Y80.989
N3215 G2 X86.39 Y80.703 I-0.986 J-0.464
N3220 G1 X86.404 Y80.615
N3225 G2 X86.413 Y80.324 I-1.075 J-0.178
N3230 G1 X86.408 Y80.277
N3235 X86.391 Y80.167
N3240 X86.377 Y80.099
N3245 X86.364 Y80.045
N3250 X86.342 Y79.96
N3255 X86.332 Y79.925
N3260 X86.303 Y79.827
N3265 X86.291 Y79.79
N3270 X86.214 Y79.563
N3275 X86.2 Y79.523
N3280 X86.106 Y79.277
N3285 X86.082 Y79.218
N3290 X85.882 Y78.773
N3295 X85.844 Y78.696
N3300 X85.615 Y78.278
N3305 X85.569 Y78.202
N3310 X85.312 Y77.812
N3315 X85.259 Y77.738
N3320 X84.974 Y77.377
N3325 X84.914 Y77.306
N3330 X84.603 Y76.975
N3335 X84.536 Y76.909
N3340 X84.199 Y76.607
N3345 X84.126 Y76.547
N3350 X83.765 Y76.275
N3355 X83.687 Y76.222
N3360 X83.425 Y76.058
N3365 X83.423 Y75.947
N3370 X83.41 Y75.837
N3375 X83.404 Y75.8
N3380 X83.381 Y75.696
N3385 X83.348 Y75.595
N3390 X83.329 Y75.546
N3395 X83.283 Y75.442
N3400 X83.253 Y75.382
N3405 X83.22 Y75.323
N3410 X83.179 Y75.253
N3415 X83.154 Y75.212
N3420 X83.102 Y75.132
N3425 X83.083 Y75.104
N3430 X83.022 Y75.016
N3435 X83.008 Y74.996
N3440 X82.938 Y74.9
N3445 X82.925 Y74.883
N3450 X82.846 Y74.779
N3455 X82.832 Y74.76
N3460 X82.652 Y74.533
N3465 X82.636 Y74.514
N3470 X82.43 Y74.266
N3475 X82.417 Y74.251
N3480 X82.189 Y73.986
N3485 X82.178 Y73.974
N3490 X81.934 Y73.699
N3495 X81.918 Y73.682
N3500 X81.4 Y73.123
N3505 X81.385 Y73.107
N3510 X81.121 Y72.834
N3515 X81.11 Y72.822
N3520 X80.849 Y72.561
N3525 X80.843 Y72.554
N3530 X81.096 Y72.537
N3535 X81.519 Y72.532
N3540 X81.95 Y72.56
N3545 X82.392 Y72.621
N3550 X82.84 Y72.717
N3555 X83.302 Y72.85
N3560 X83.378 Y72.876
N3565 X83.493 Y72.915
N3570 X83.514 Y72.922
N3575 X83.619 Y72.954
N3580 X83.664 Y72.967
N3585 X83.848 Y73.016
N3590 X83.942 Y73.037
N3595 X84.096 Y73.064
N3600 X84.171 Y73.074
N3605 X84.247 Y73.079
N3610 X84.376 Y73.084
N3615 X84.487 Y73.082
N3620 X84.597 Y73.068
N3625 X84.705 Y73.05
N3630 G2 X84.968 Y72.969 I-0.185 J-1.074
N3635 G1 X85.061 Y72.927
N3640 G2 X85.29 Y72.788 I-0.447 J-0.994
N3645 G1 X85.372 Y72.723
N3650 X85.45 Y72.655
N3655 X85.521 Y72.58
N3660 X85.598 Y72.491
N3665 X85.656 Y72.418
N3670 X85.699 Y72.358
N3675 X85.755 Y72.272
N3680 X85.785 Y72.221
N3685 X85.839 Y72.118
N3690 X85.881 Y72.01
N3695 X85.897 Y71.96
N3700 G2 X85.951 Y71.669 I-1.035 J-0.342
N3705 G1 X85.954 Y71.612
N3710 X85.955 Y71.533
N3715 X85.95 Y71.453
N3720 X86.234 Y71.396
N3725 X86.245 Y71.394
N3730 X86.642 Y71.309
N3735 X86.651 Y71.307
N3740 X87.099 Y71.207
N3745 X87.108 Y71.205
N3750 X87.613 Y71.089
N3755 X87.62 Y71.087
N3760 X88.191 Y70.95
N3765 X88.195 Y70.949
N3770 X88.328 Y70.917
N3775 X88.671 Y70.835
N3780 X89.198 Y70.712
N3785 X89.767 Y70.585
N3790 X90.019 Y70.532
N3795 X90.194 Y70.496
N3800 X90.314 Y70.474
N3805 X90.326 Y70.472
N3810 X90.33 Y70.471
N3815 X90.453 Y70.449
N3820 X90.471 Y70.445
N3825 X90.584 Y70.423
N3830 X90.617 Y70.416
N3835 X90.816 Y70.37
N3840 X90.88 Y70.353
N3845 X91.043 Y70.305
N3850 X91.138 Y70.272
N3855 X91.269 Y70.22
N3860 X91.337 Y70.191
N3865 X91.402 Y70.157
N3870 X91.505 Y70.099
N3875 X91.59 Y70.046
N3880 X91.669 Y69.985
N3885 X91.747 Y69.92
N3890 X91.838 Y69.834
N3895 X91.918 Y69.739
N3900 X91.974 Y69.666
N3905 G2 X92.101 Y69.447 I-0.871 J-0.655
N3910 G1 X92.138 Y69.363
N3915 X92.175 Y69.265
N3920 X92.203 Y69.164
N3925 X92.22 Y69.09
N3930 G2 X92.241 Y68.75 I-1.064 J-0.238
N3935 G1 X92.235 Y68.683
N3940 G2 X92.102 Y68.255 I-1.085 J0.102
N3945 G1 X92.065 Y68.189
N3950 G2 X91.91 Y67.976 I-0.952 J0.531
N3955 G1 X91.877 Y67.942
N3960 X91.791 Y67.859
N3965 X91.748 Y67.822
N3970 X91.678 Y67.766
N3975 X91.624 Y67.727
N3980 X91.574 Y67.693
N3985 X91.507 Y67.65
N3990 X91.472 Y67.628
N3995 X91.392 Y67.581
N4000 X91.366 Y67.566
N4005 X91.272 Y67.513
N4010 X91.254 Y67.504
N4015 X91.144 Y67.445
N4020 X91.131 Y67.439
N4025 X91.005 Y67.374
N4030 X90.997 Y67.37
N4035 X90.854 Y67.297
N4040 X90.849 Y67.295
N4045 X90.687 Y67.214
N4050 X90.659 Y67.201
N4055 X90.032 Y66.91
N4060 X89.994 Y66.894
N4065 X89.689 Y66.766
N4070 X89.662 Y66.755
N4075 X89.453 Y66.674
N4080 Y66.672
N4085 G2 X89.317 Y66.282 I-1.079 J0.157
N4090 G1 X89.266 Y66.194
N4095 G2 X89.09 Y65.966 I-0.943 J0.547
N4100 G1 X89. Y65.877
N4105 X88.948 Y65.829
N4110 X88.893 Y65.784
N4115 X88.833 Y65.738
N4120 X88.778 Y65.699
N4125 X88.708 Y65.652
N4130 X88.664 Y65.624
N4135 X88.584 Y65.576
N4140 X88.549 Y65.556
N4145 X88.458 Y65.505
N4150 X88.41 Y65.48
N4155 X88.21 Y65.382
N4160 X88.143 Y65.352
N4165 X87.93 Y65.265
N4170 X87.865 Y65.241
N4175 X87.638 Y65.164
N4180 X87.577 Y65.146
N4185 X87.334 Y65.08
N4190 X87.279 Y65.066
N4195 X87.019 Y65.01
N4200 X86.969 Y65.
N4205 X86.693 Y64.953
N4210 X86.647 Y64.947
N4215 X86.462 Y64.924
N4220 X86.403 Y64.816
N4225 X86.344 Y64.721
N4230 X86.27 Y64.618
N4235 X86.227 Y64.564
N4240 X86.189 Y64.519
N4245 X86.136 Y64.46
N4250 X86.108 Y64.43
N4255 X86.045 Y64.365
N4260 X86.026 Y64.345
N4265 X85.953 Y64.274
N4270 X85.938 Y64.259
N4275 X85.855 Y64.181
N4280 X85.845 Y64.172
N4285 X85.751 Y64.085
N4290 X85.713 Y64.052
N4295 X85.527 Y63.896
N4300 X85.449 Y63.836
N4305 X85.249 Y63.697
N4310 X85.165 Y63.643
N4315 X84.945 Y63.519
N4320 X84.862 Y63.476
N4325 X84.618 Y63.364
N4330 X84.543 Y63.333
N4335 X84.269 Y63.231
N4340 X84.205 Y63.21
N4345 X83.91 Y63.12
N4350 X83.906 Y63.051
N4355 X83.897 Y62.982
N4360 X83.887 Y62.924
N4365 X83.872 Y62.848
N4370 X83.852 Y62.774
N4375 X83.833 Y62.712
N4380 X83.79 Y62.598
N4385 X83.761 Y62.532
N4390 X83.721 Y62.45
N4395 X83.682 Y62.379
N4400 X83.647 Y62.319
N4405 X83.599 Y62.243
N4410 X83.572 Y62.202
N4415 X83.515 Y62.121
N4420 X83.481 Y62.074
N4425 X83.38 Y61.944
N4430 X83.331 Y61.886
N4435 X83.222 Y61.764
N4440 X83.166 Y61.706
N4445 X83.048 Y61.592
N4450 X82.988 Y61.539
N4455 X82.86 Y61.432
N4460 X82.797 Y61.384
N4465 X82.659 Y61.285
N4470 X82.595 Y61.243
N4475 X82.445 Y61.151
N4480 X82.383 Y61.116
N4485 X82.221 Y61.03
N4490 X82.161 Y61.001
N4495 X81.985 Y60.921
N4500 X81.931 Y60.899
N4505 X81.741 Y60.825
N4510 X81.691 Y60.807
N4515 X81.486 Y60.738
N4520 X81.442 Y60.725
N4525 X81.221 Y60.661
N4530 X81.182 Y60.651
N4535 X80.944 Y60.592
N4540 X80.91 Y60.584
N4545 X80.655 Y60.53
N4550 X80.625 Y60.525
N4555 X80.352 Y60.474
N4560 X80.327 Y60.47
N4565 X80.035 Y60.424
N4570 X80.012 Y60.42
N4575 X79.7 Y60.377
N4580 X79.695 Y60.376
N4585 X79.473 Y60.347
N4590 X79.272 Y60.318
N4595 X79.087 Y60.289
N4600 X78.919 Y60.26
N4605 X78.766 Y60.232
N4610 X78.628 Y60.203
N4615 X78.506 Y60.174
N4620 X78.438 Y60.157
N4625 X78.473 Y60.118
N4630 X78.517 Y60.067
N4635 X78.614 Y59.945
N4640 X78.676 Y59.86
N4645 X78.735 Y59.77
N4650 X78.789 Y59.678
N4655 X78.833 Y59.581
N4660 X78.858 Y59.52
N4665 G2 X78.931 Y59.218 I-1.011 J-0.406
N4670 G1 X78.933 Y59.205
N4675 G2 X78.912 Y58.866 I-1.085 J-0.104
N4680 G1 X78.905 Y58.832
N4685 G2 X78.767 Y58.493 I-1.064 J0.235
N4690 G1 X78.743 Y58.454
N4695 X78.678 Y58.361
N4700 X78.604 Y58.275
N4705 X78.561 Y58.23
N4710 X78.513 Y58.183
N4715 X78.461 Y58.138
N4720 X78.398 Y58.087
N4725 X78.329 Y58.035
N4730 X78.244 Y57.977
N4735 X78.198 Y57.946
N4740 X78.088 Y57.879
N4745 X78.055 Y57.859
N4750 X77.919 Y57.782
N4755 X77.895 Y57.769
N4760 X77.731 Y57.681
N4765 X77.714 Y57.673
N4770 X77.52 Y57.573
N4775 X77.507 Y57.566
N4780 X77.28 Y57.453
N4785 X77.271 Y57.449
N4790 X77.01 Y57.322
N4795 X77.003 Y57.319
N4800 X76.859 Y57.25
N4805 X76.857 Y57.249
N4810 X76.703 Y57.176
N4815 X76.701 Y57.175
N4820 X76.537 Y57.098
N4825 X76.535 Y57.097
N4830 X76.362 Y57.016
N4835 X76.36 Y57.015
N4840 X76.177 Y56.93
N4845 X76.175 Y56.929
N4850 X75.981 Y56.839
N4855 X75.98 Y56.838
N4860 X75.776 Y56.744
N4865 X75.775
N4870 X75.56 Y56.645
N4875 X75.559 Y56.644
N4880 X75.333 Y56.54
N4885 X75.332
N4890 X75.095 Y56.431
N4895 X74.666 Y56.235
N4900 X74.256 Y56.044
N4905 X73.862 Y55.86
N4910 X73.483 Y55.68
N4915 X73.119 Y55.506
N4920 X72.77 Y55.337
N4925 X72.434 Y55.172
N4930 X72.112 Y55.01
N4935 X71.803 Y54.853
N4940 X71.507 Y54.699
N4945 X71.221 Y54.548
N4950 X70.949 Y54.401
N4955 X70.429 Y54.109
N4960 X69.948 Y53.825
N4965 X69.497 Y53.544
N4970 X69.073 Y53.264
N4975 X68.67 Y52.981
N4980 X68.281 Y52.691
N4985 X67.902 Y52.392
N4990 X67.526 Y52.08
N4995 X67.149 Y51.75
N5000 X66.765 Y51.4
N5005 X66.506 Y51.154
N5010 X66.33 Y50.981
N5015 X66.56 Y50.898
N5020 X66.848 Y50.808
N5025 X67. Y50.766
N5030 X67.173 Y50.722
N5035 X67.361 Y50.676
N5040 X67.569 Y50.628
N5045 X67.799 Y50.577
N5050 X68.052 Y50.524
N5055 X68.33 Y50.466
N5060 X68.632 Y50.406
N5065 X69.028 Y50.331
N5070 X69.404 Y50.266
N5075 X69.766 Y50.213
N5080 X70.12 Y50.169
N5085 X70.469 Y50.135
N5090 X70.819 Y50.111
N5095 X71.175 Y50.096
N5100 X71.542 Y50.091
N5105 X71.924 Y50.096
N5110 X72.326 Y50.11
N5115 X72.753 Y50.135
N5120 X73.208 Y50.169
N5125 X73.696 Y50.214
N5130 X74.221 Y50.27
N5135 X74.496 Y50.301
N5140 X74.784 Y50.335
N5145 X75.082 Y50.372
N5150 X75.393 Y50.412
N5155 X75.76 Y50.459
N5160 X75.763
N5165 X76.12 Y50.504
N5170 X76.123 Y50.505
N5175 X76.468 Y50.547
N5180 X76.471 Y50.548
N5185 X76.806 Y50.588
N5190 X76.809
N5195 X77.133 Y50.626
N5200 X77.136
N5205 X77.449 Y50.662
N5210 X77.453
N5215 X77.754 Y50.696
N5220 X77.758
N5225 X78.049 Y50.727
N5230 X78.054 Y50.728
N5235 X78.334 Y50.756
N5240 X78.339
N5245 X78.608 Y50.783
N5250 X78.613
N5255 X78.872 Y50.807
N5260 X78.878 Y50.808
N5265 X79.126 Y50.829
N5270 X79.132 Y50.83
N5275 X79.37 Y50.849
N5280 X79.376 Y50.85
N5285 X79.603 Y50.867
N5290 X79.611
N5295 X79.827 Y50.882
N5300 X79.835 Y50.883
N5305 X80.041 Y50.895
N5310 X80.051 Y50.896
N5315 X80.247 Y50.906
N5320 X80.256
N5325 X80.442 Y50.914
N5330 X80.454 Y50.915
N5335 X80.629 Y50.92
N5340 X80.641
N5345 X80.806 Y50.924
N5350 X80.821
N5355 X80.975 Y50.925
N5360 X80.992
N5365 X81.137 Y50.924
N5370 X81.155 Y50.923
N5375 X81.289 Y50.92
N5380 X81.312 Y50.919
N5385 X81.436 Y50.913
N5390 X81.462 Y50.912
N5395 X81.577 Y50.903
N5400 X81.608 Y50.901
N5405 X81.712 Y50.89
N5410 X81.748 Y50.886
N5415 X81.843 Y50.874
N5420 X81.887 Y50.867
N5425 X81.972 Y50.852
N5430 X82.059 Y50.833
N5435 X82.199 Y50.796
N5440 X82.286 Y50.77
N5445 X82.37 Y50.736
N5450 X82.472 Y50.69
N5455 X82.542 Y50.655
N5460 X82.61 Y50.615
N5465 X82.683 Y50.569
N5470 X82.734 Y50.534
N5475 X82.796 Y50.49
N5480 X82.876 Y50.427
N5485 X82.926 Y50.383
N5490 X82.981 Y50.331
N5495 X83.033 Y50.275
N5500 X83.071 Y50.231
N5505 X83.138 Y50.147
N5510 X83.195 Y50.056
N5515 X83.221 Y50.01
N5520 G2 X83.325 Y49.758 I-0.948 J-0.539
N5525 G1 X83.339 Y49.71
N5530 G2 X83.377 Y49.429 I-1.051 J-0.287
N5535 G1 Y49.376
N5540 G2 X83.35 Y49.127 I-1.09 J-0.006
N5545 G1 X83.337 Y49.069
N5550 X83.312 Y48.978
N5555 X83.278 Y48.888
N5560 X83.251 Y48.824
N5565 X83.223 Y48.763
N5570 X83.192 Y48.704
N5575 X83.151 Y48.633
N5580 X83.101 Y48.554
N5585 X83.045 Y48.473
N5590 X83.007 Y48.422
N5595 X82.936 Y48.332
N5600 X82.909 Y48.298
N5605 X82.822 Y48.197
N5610 X82.804 Y48.176
N5615 X82.701 Y48.062
N5620 X82.688 Y48.047
N5625 X82.569 Y47.92
N5630 X82.561 Y47.912
N5635 X82.429 Y47.772
N5640 X82.423 Y47.766
N5645 X82.533 Y47.75
N5650 X82.85 Y47.709
N5655 X83.154 Y47.677
N5660 X83.478 Y47.652
N5665 X83.65 Y47.642
N5670 X83.839 Y47.632
N5675 X84.046 Y47.624
N5680 X84.274 Y47.616
N5685 X84.524 Y47.61
N5690 X84.8 Y47.603
N5695 X85.105 Y47.597
N5700 X85.441 Y47.591
N5705 X85.626 Y47.588
N5710 X85.801 Y47.585
N5715 X85.802
N5720 X86.121 Y47.579
N5725 X86.123
N5730 X86.404 Y47.573
N5735 X86.408
N5740 X86.654 Y47.567
N5745 X86.659
N5750 X86.872 Y47.561
N5755 X86.88
N5760 X87.062 Y47.554
N5765 X87.074 Y47.553
N5770 X87.23 Y47.546
N5775 X87.247 Y47.545
N5780 X87.377 Y47.537
N5785 X87.402 Y47.535
N5790 X87.511 Y47.525
N5795 X87.546 Y47.522
N5800 X87.636 Y47.511
N5805 X87.687 Y47.504
N5810 X87.76 Y47.491
N5815 X87.83 Y47.477
N5820 X87.889 Y47.463
N5825 X87.96 Y47.444
N5830 X88.03 Y47.42
N5835 X88.118 Y47.386
N5840 X88.225 Y47.338
N5845 X88.327 Y47.278
N5850 X88.392 Y47.235
N5855 X88.466 Y47.182
N5860 X88.535 Y47.123
N5865 X88.617 Y47.046
N5870 X88.694 Y46.966
N5875 X88.763 Y46.879
N5880 X88.819 Y46.799
N5885 G2 X88.949 Y46.554 I-0.89 J-0.63
N5890 G1 X88.98 Y46.473
N5895 G2 X89.048 Y46.155 I-1.02 J-0.384
N5900 G1 X89.053 Y46.074
N5905 G2 X89.02 Y45.737 I-1.088 J-0.066
N5910 G1 X89. Y45.656
N5915 X88.997 Y45.645
N5920 X89.169 Y45.627
N5925 X89.357 Y45.608
N5930 X89.358
N5935 X89.568 Y45.586
N5940 X89.573 Y45.585
N5945 X89.764 Y45.565
N5950 X89.769 Y45.564
N5955 X89.944 Y45.544
N5960 X89.951 Y45.543
N5965 X90.11 Y45.524
N5970 X90.12 Y45.523
N5975 X90.265 Y45.504
N5980 X90.277 Y45.503
N5985 X90.41 Y45.484
N5990 X90.433 Y45.481
N5995 X90.668 Y45.443
N6000 X90.707 Y45.436
N6005 X90.911 Y45.395
N6010 X90.959 Y45.385
N6015 X91.143 Y45.339
N6020 X91.191 Y45.326
N6025 X91.369 Y45.274
N6030 X91.409 Y45.261
N6035 X91.592 Y45.2
N6040 X91.625 Y45.188
N6045 X91.738 Y45.146
N6050 X91.783 Y45.128
N6055 X91.883 Y45.085
N6060 X91.941 Y45.058
N6065 X92.028 Y45.015
N6070 X92.101 Y44.975
N6075 X92.175 Y44.931
N6080 X92.266 Y44.87
N6085 X92.328 Y44.824
N6090 X92.383 Y44.781
N6095 X92.435 Y44.733
N6100 X92.485 Y44.686
N6105 X92.546 Y44.621
N6110 X92.602 Y44.552
N6115 X92.639 Y44.502
N6120 X92.699 Y44.413
N6125 X92.749 Y44.32
N6130 X92.774 Y44.267
N6135 X92.818 Y44.159
N6140 X92.851 Y44.047
N6145 X92.864 Y43.992
N6150 X92.884 Y43.879
N6155 X92.892 Y43.764
N6160 X92.893 Y43.706
N6165 X92.892 Y43.623
N6170 X92.915
N6175 X93.133 Y43.62
N6180 X93.391 Y43.617
N6185 X93.534 Y43.616
N6190 X93.689
N6195 X93.854 Y43.615
N6200 X94.031
N6205 X94.22 Y43.614
N6210 X94.42
N6215 X94.653 Y43.613
N6220 X94.655
N6225 X94.875 Y43.612
N6230 X94.877
N6235 X95.086 Y43.611
N6240 X95.089
N6245 X95.286 Y43.609
N6250 X95.289
N6255 X95.476 Y43.607
N6260 X95.48
N6265 X95.656 Y43.604
N6270 X95.664
N6275 X95.989 Y43.596
N6280 X96.003
N6285 X96.292 Y43.585
N6290 X96.311
N6295 X96.569 Y43.571
N6300 X96.593 Y43.569
N6305 X96.824 Y43.552
N6310 X96.856 Y43.549
N6315 X97.062 Y43.527
N6320 X97.102 Y43.522
N6325 X97.288 Y43.495
N6330 X97.334 Y43.488
N6335 X97.505 Y43.456
N6340 X97.557 Y43.444
N6345 X97.715 Y43.407
N6350 X97.769 Y43.392
N6355 X97.919 Y43.349
N6360 X97.995 Y43.323
N6365 X98.283 Y43.215
N6370 X98.344 Y43.19
N6375 X98.49 Y43.125
N6380 X98.517 Y43.112
N6385 X98.67 Y43.039
N6390 X98.725 Y43.011
N6395 X98.883 Y42.924
N6400 X98.95 Y42.884
N6405 X99.113 Y42.778
N6410 X99.166 Y42.742
N6415 X99.327 Y42.623
N6420 X99.372 Y42.588
N6425 X99.522 Y42.465
N6430 X99.57 Y42.423
N6435 X99.701 Y42.303
N6440 X99.76 Y42.244
N6445 X99.864 Y42.133
N6450 X99.925 Y42.061
N6455 X99.963 Y42.011
N6460 X100.02 Y41.932
N6465 X100.049 Y41.887
N6470 X100.088 Y41.822
N6475 X100.122 Y41.754
N6480 X100.14 Y41.715
N6485 G2 X100.223 Y41.453 I-0.989 J-0.458
N6490 G1 X100.229 Y41.421
N6495 G2 X100.235 Y41.068 I-1.072 J-0.196
N6500 G1 X100.228 Y41.017
N6505 G2 X100.126 Y40.691 I-1.079 J0.157
N6510 G1 X100.102 Y40.642
N6515 G2 X99.935 Y40.396 I-0.977 J0.483
N6520 G1 X99.893 Y40.349
N6525 X99.817 Y40.273
N6530 X99.734 Y40.205
N6535 X99.671 Y40.157
N6540 X99.615 Y40.118
N6545 X99.556 Y40.082
N6550 X99.47 Y40.034
N6555 X99.392 Y39.994
N6560 X99.281 Y39.942
N6565 X99.232 Y39.921
N6570 X99.093 Y39.865
N6575 X99.061 Y39.852
N6580 X98.894 Y39.791
N6585 X98.847 Y39.773
N6590 X98.799 Y39.754
N6595 X98.655 Y39.693
N6600 X98.479 Y39.614
N6605 X98.278 Y39.521
N6610 X98.059 Y39.417
N6615 X97.836 Y39.307
N6620 X97.377 Y39.073
N6625 X97.142 Y38.95
N6630 X97.138 Y38.948
N6635 X96.919 Y38.835
N6640 X96.913 Y38.832
N6645 X96.712 Y38.729
N6650 X96.705 Y38.725
N6655 X96.52 Y38.633
N6660 X96.512 Y38.629
N6665 X96.342 Y38.545
N6670 X96.331 Y38.539
N6675 X96.174 Y38.465
N6680 X96.161 Y38.458
N6685 X96.015 Y38.392
N6690 X95.999 Y38.384
N6695 X95.863 Y38.325
N6700 X95.833 Y38.312
N6705 X95.583 Y38.211
N6710 X95.535 Y38.193
N6715 X95.302 Y38.111
N6720 X95.252 Y38.095
N6725 X95.176 Y38.072
N6730 X95.159 Y38.025
N6735 G2 X95.031 Y37.773 I-1.027 J0.366
N6740 G1 X94.994 Y37.719
N6745 G2 X94.757 Y37.471 I-0.898 J0.618
N6750 G1 X94.706 Y37.431
N6755 G2 X94.462 Y37.291 I-0.662 J0.866
N6760 G1 X94.399 Y37.265
N6765 X94.307 Y37.231
N6770 X94.199 Y37.198
N6775 X94.129 Y37.178
N6780 X93.948 Y37.135
N6785 X93.896 Y37.123
N6790 X93.844 Y37.113
N6795 X93.79 Y37.102
N6800 X93.708 Y37.084
N6805 X93.593 Y37.056
N6810 X93.456 Y37.021
N6815 X93.301 Y36.98
N6820 X93.138 Y36.936
N6825 X92.832 Y36.851
N6830 X92.822 Y36.762
N6835 X92.811 Y36.688
N6840 G2 X92.716 Y36.379 I-1.078 J0.163
N6845 G1 X92.684 Y36.312
N6850 G2 X92.503 Y36.046 I-0.983 J0.472
N6855 G1 X92.45 Y35.987
N6860 G2 X92.071 Y35.721 I-0.802 J0.738
N6865 G1 X92.032 Y35.704
N6870 X91.937 Y35.669
N6875 X91.839 Y35.643
N6880 X91.761 Y35.626
N6885 X91.688 Y35.613
N6890 X91.57 Y35.596
N6895 X91.531 Y35.591
N6900 X91.372 Y35.573
N6905 X91.349 Y35.571
N6910 X91.147 Y35.554
N6915 X91.131 Y35.552
N6920 X90.885 Y35.535
N6925 X90.872 Y35.534
N6930 X90.577 Y35.516
N6935 X90.567 Y35.515
N6940 X90.219 Y35.498
N6945 X90.211
N6950 X89.971 Y35.487
N6955 X89.3 Y35.453
N6960 X88.978 Y35.432
N6965 X88.67 Y35.409
N6970 X88.391 Y35.386
N6975 X88.149 Y35.363
N6980 X88.05 Y35.352
N6985 X87.964 Y35.341
N6990 X87.898 Y35.332
N6995 X87.855 Y35.326
N7000 X87.597 Y35.276
N7005 X87.385 Y35.228
N7010 X87.417 Y35.188
N7015 X87.508 Y35.077
N7020 X87.609 Y34.959
N7025 X87.721 Y34.831
N7030 X87.844 Y34.695
N7035 X87.977 Y34.549
N7040 X88.123 Y34.395
N7045 X88.282 Y34.228
N7050 X88.387 Y34.118
N7055 X88.391 Y34.114
N7060 X88.487 Y34.012
N7065 X88.493 Y34.006
N7070 X88.58 Y33.913
N7075 X88.586 Y33.906
N7080 X88.664 Y33.821
N7085 X88.673 Y33.811
N7090 X88.742 Y33.734
N7095 X88.753 Y33.722
N7100 X88.814 Y33.651
N7105 X88.836 Y33.625
N7110 X88.935 Y33.503
N7115 X88.978 Y33.447
N7120 X89.048 Y33.348
N7125 X89.112 Y33.248
N7130 X89.157 Y33.167
N7135 X89.2 Y33.08
N7140 X89.236 Y32.99
N7145 X89.259 Y32.923
N7150 G2 X89.315 Y32.639 I-1.031 J-0.354
N7155 G1 X89.319 Y32.583
N7160 G2 X89.293 Y32.266 I-1.088 J-0.07
N7165 G1 X89.268 Y32.161
N7170 G2 X89.126 Y31.823 I-1.062 J0.247
N7175 G1 X89.071 Y31.737
N7180 G2 X88.878 Y31.51 I-0.919 J0.585
N7185 G1 X88.838 Y31.473
N7190 X88.771 Y31.418
N7195 X88.699 Y31.368
N7200 X88.65 Y31.336
N7205 X88.585 Y31.298
N7210 X88.518 Y31.264
N7215 X88.458 Y31.237
N7220 X88.35 Y31.194
N7225 X88.279 Y31.17
N7230 X88.189 Y31.144
N7235 X88.107 Y31.124
N7240 X88.036 Y31.109
N7245 X87.941 Y31.092
N7250 X87.888 Y31.084
N7255 X87.781 Y31.071
N7260 X87.737 Y31.067
N7265 X87.616 Y31.057
N7270 X87.583 Y31.054
N7275 X87.448 Y31.047
N7280 X87.422 Y31.046
N7285 X87.273 Y31.042
N7290 X87.253 Y31.041
N7295 X87.088 Y31.04
N7300 X87.072
N7305 X86.891
N7310 X86.881
N7315 X86.744 Y31.042
N7320 X86.736
N7325 X86.61 Y31.045
N7330 X86.592
N7335 X86.366 Y31.054
N7340 X86.331 Y31.055
N7345 X86.132 Y31.069
N7350 X86.084 Y31.073
N7355 X85.901 Y31.094
N7360 X85.847 Y31.102
N7365 X85.668 Y31.131
N7370 X85.618 Y31.14
N7375 X85.433 Y31.18
N7380 X85.393 Y31.189
N7385 X85.189 Y31.24
N7390 X85.165 Y31.247
N7395 X84.93 Y31.312
N7400 X84.925 Y31.313
N7405 X84.543 Y31.421
N7410 X84.194 Y31.518
N7415 X83.876 Y31.604
N7420 X83.589 Y31.68
N7425 X83.466 Y31.711
N7430 X83.396 Y31.601
N7435 X83.369 Y31.564
N7440 G2 X83.093 Y31.298 I-0.882 J0.641
N7445 G1 X83.049 Y31.269
N7450 G2 X82.8 Y31.145 I-0.606 J0.906
N7455 G1 X82.763 Y31.132
N7460 X82.657 Y31.102
N7465 X82.608 Y31.09
N7470 X82.539 Y31.076
N7475 X82.476 Y31.066
N7480 X82.428 Y31.059
N7485 X82.35 Y31.049
N7490 X82.318 Y31.045
N7495 X82.224 Y31.037
N7500 X82.2 Y31.035
N7505 X82.088 Y31.027
N7510 X82.07 Y31.026
N7515 X81.939 Y31.018
N7520 X81.927
N7525 X81.774 Y31.011
N7530 X81.765
N7535 X81.589 Y31.004
N7540 X81.583
N7545 X81.383 Y30.998
N7550 X81.378
N7555 X81.153 Y30.992
N7560 X81.149
N7565 X80.897 Y30.987
N7570 X80.895
N7575 X80.614 Y30.981
N7580 X80.612
N7585 X80.302 Y30.976
N7590 X80.014 Y30.971
N7595 X79.75 Y30.966
N7600 X79.508 Y30.96
N7605 X79.288 Y30.954
N7610 X79.088 Y30.948
N7615 X78.908 Y30.941
N7620 X78.747 Y30.934
N7625 X78.605 Y30.927
N7630 X78.48 Y30.919
N7635 X78.373 Y30.911
N7640 X78.283 Y30.902
N7645 X78.211 Y30.894
N7650 X78.156 Y30.887
N7655 X78.131 Y30.882
N7660 X78.078 Y30.87
N7665 X77.96 Y30.833
N7670 X77.839 Y30.79
N7675 X77.732 Y30.747
N7680 X77.641 Y30.705
N7685 X77.563 Y30.664
N7690 X77.499 Y30.626
N7695 X77.449 Y30.59
N7700 X77.409 Y30.558
N7705 X77.377 Y30.528
N7710 X77.354 Y30.502
N7715 X77.335 Y30.477
N7720 X77.319 Y30.451
N7725 X77.304 Y30.423
N7730 X77.29 Y30.39
N7735 X77.277 Y30.349
N7740 X77.264 Y30.3
N7745 X77.254 Y30.238
N7750 X77.245 Y30.158
N7755 X77.24 Y30.061
N7760 Y29.948
N7765 X77.246 Y29.819
N7770 X77.258 Y29.677
N7775 X77.277 Y29.523
N7780 X77.302 Y29.357
N7785 X77.334 Y29.181
N7790 X77.373 Y29.
N7795 X77.474 Y28.592
N7800 X77.601 Y28.158
N7805 X77.755 Y27.696
N7810 X77.935 Y27.208
N7815 X78.14 Y26.699
N7820 X78.37 Y26.171
N7825 X78.623 Y25.628
N7830 X78.898 Y25.072
N7835 X79.195 Y24.506
N7840 X79.513 Y23.933
N7845 X79.854 Y23.347
N7850 X79.942 Y23.199
N7855 X79.947 Y23.19
N7860 X80.027 Y23.053
N7865 X80.035 Y23.039
N7870 X80.105 Y22.914
N7875 X80.115 Y22.896
N7880 X80.175 Y22.783
N7885 X80.188 Y22.758
N7890 X80.239 Y22.657
N7895 X80.255 Y22.623
N7900 X80.296 Y22.533
N7905 X80.316 Y22.486
N7910 X80.349 Y22.406
N7915 X80.373 Y22.34
N7920 X80.396 Y22.269
N7925 X80.421 Y22.182
N7930 X80.436 Y22.119
N7935 X80.458 Y21.996
N7940 X80.465 Y21.94
N7945 G2 X80.466 Y21.687 I-1.082 J-0.132
N7950 G1 X80.456 Y21.595
N7955 G2 X80.32 Y21.177 I-1.083 J0.121
N7960 G1 X80.279 Y21.105
N7965 G2 X80.025 Y20.803 I-0.947 J0.539
N7970 G1 X79.955 Y20.746
N7975 G2 X79.671 Y20.577 I-0.693 J0.842
N7980 G1 X79.578 Y20.539
N7985 G2 X79.281 Y20.466 I-0.408 J1.011
N7990 G1 X79.228 Y20.46
N7995 X79.132 Y20.455
N8000 X79.037 Y20.457
N8005 X78.977 Y20.462
N8010 X78.9 Y20.47
N8015 X78.824 Y20.484
N8020 X78.756 Y20.499
N8025 X78.64 Y20.531
N8030 X78.562 Y20.557
N8035 X78.48 Y20.588
N8040 X78.391 Y20.626
N8045 X78.33 Y20.655
N8050 X78.229 Y20.706
N8055 X78.186 Y20.729
N8060 X78.071 Y20.793
N8065 X78.04 Y20.812
N8070 X77.91 Y20.89
N8075 X77.887 Y20.905
N8080 X77.741 Y20.998
N8085 X77.725 Y21.009
N8090 X77.562 Y21.118
N8095 X77.549 Y21.127
N8100 X77.367 Y21.252
N8105 X77.357 Y21.259
N8110 X77.154 Y21.402
N8115 X77.148 Y21.406
N8120 X76.923 Y21.567
N8125 X76.919 Y21.57
N8130 X76.676 Y21.746
N8135 X76.411 Y21.933
N8140 X76.177 Y22.086
N8145 X75.964 Y22.214
N8150 X75.764 Y22.319
N8155 X75.572 Y22.408
N8160 X75.378 Y22.485
N8165 X75.173 Y22.553
N8170 X74.933 Y22.62
N8175 X74.782 Y22.661
N8180 X74.762 Y22.666
N8185 X74.549 Y22.728
N8190 X74.53 Y22.734
N8195 X74.21 Y22.832
N8200 X74.182 Y22.841
N8205 X74.098 Y22.87
N8210 G2 X73.914 Y22.676 I-0.877 J0.647
N8215 G1 X73.88 Y22.648
N8220 X73.812 Y22.596
N8225 X73.74 Y22.55
N8230 X73.695 Y22.523
N8235 X73.611 Y22.479
N8240 X73.525 Y22.442
N8245 X73.455 Y22.416
N8250 X73.351 Y22.382
N8255 X73.244 Y22.36
N8260 X73.159 Y22.346
N8265 X73.082 Y22.337
N8270 X73.004 Y22.333
N8275 X72.905 Y22.331
N8280 X72.793 Y22.335
N8285 X72.68 Y22.345
N8290 X72.596 Y22.355
N8295 X72.472 Y22.376
N8300 X72.406 Y22.389
N8305 X72.272 Y22.42
N8310 X72.218 Y22.434
N8315 X72.076 Y22.474
N8320 X72.029 Y22.489
N8325 X71.881 Y22.538
N8330 X71.821 Y22.56
N8335 X71.51 Y22.685
N8340 X71.44 Y22.715
N8345 X71.122 Y22.869
N8350 X71.055 Y22.905
N8355 X70.742 Y23.084
N8360 X70.673 Y23.127
N8365 X70.377 Y23.327
N8370 X70.333 Y23.358
N8375 X70.247 Y23.422
N8380 X70.239 Y23.429
N8385 X70.119 Y23.52
N8390 X70.115 Y23.524
N8395 X69.954 Y23.648
N8400 X69.95 Y23.651
N8405 X69.735 Y23.819
N8410 X69.731 Y23.822
N8415 X69.41 Y24.075
N8420 X69.405 Y24.079
N8425 X69.116 Y24.309
N8430 X68.956 Y24.436
N8435 X68.934 Y24.453
N8440 X68.878 Y24.371
N8445 X68.819 Y24.292
N8450 G2 X68.507 Y24.011 I-0.872 J0.654
N8455 G1 X68.429 Y23.964
N8460 G2 X68.115 Y23.838 I-0.559 J0.936
N8465 G1 X68.069 Y23.827
N8470 X67.973 Y23.81
N8475 X67.877 Y23.8
N8480 X67.824 Y23.798
N8485 X67.743 Y23.797
N8490 X67.662 Y23.802
N8495 X67.603 Y23.808
N8500 X67.475 Y23.828
N8505 X67.41 Y23.843
N8510 X67.315 Y23.869
N8515 X67.242 Y23.892
N8520 X67.17 Y23.918
N8525 X67.09 Y23.95
N8530 X67.034 Y23.974
N8535 X66.947 Y24.015
N8540 X66.904 Y24.035
N8545 X66.809 Y24.085
N8550 X66.775 Y24.103
N8555 X66.671 Y24.162
N8560 X66.646 Y24.177
N8565 X66.533 Y24.245
N8570 X66.512 Y24.258
N8575 X66.391 Y24.335
N8580 X66.375 Y24.345
N8585 X66.251 Y24.426
N8590 X65.812 Y24.705
N8595 X65.36 Y24.963
N8600 X64.879 Y25.21
N8605 X64.368 Y25.446
N8610 X63.826 Y25.671
N8615 X63.253 Y25.885
N8620 X62.647 Y26.088
N8625 X62.001 Y26.283
N8630 X61.773 Y26.347
N8635 X61.562 Y26.407
N8640 X61.373 Y26.458
N8645 X61.205 Y26.503
N8650 X61.056 Y26.541
N8655 X60.925 Y26.573
N8660 X60.81 Y26.598
N8665 X60.715 Y26.618
N8670 X60.538 Y26.647
N8675 X60.384 Y26.664
N8680 X60.221 Y26.673
N8685 X60.022 Y26.676
N8690 X59.873 Y26.675
N8695 X59.763 Y26.671
N8700 X59.702 Y26.667
N8705 X59.669 Y26.657
N8710 X59.652 Y26.648
N8715 X59.615 Y26.625
N8720 X59.612 Y26.613
N8725 X59.604 Y26.557
N8730 X59.596 Y26.48
N8735 X59.589 Y26.384
N8740 X59.585 Y26.268
N8745 X59.584 Y26.145
N8750 X59.593 Y25.876
N8755 X59.617 Y25.639
N8760 X59.664 Y25.392
N8765 X59.693 Y25.278
N8770 X59.733 Y25.143
N8775 X59.781 Y24.997
N8780 X59.84 Y24.837
N8785 X59.909 Y24.662
N8790 X59.991 Y24.471
N8795 X60.084 Y24.262
N8800 X60.19 Y24.034
N8805 X60.31 Y23.785
N8810 X60.443 Y23.515
N8815 X60.554 Y23.296
N8820 X60.66 Y23.089
N8825 X60.762 Y22.895
N8830 X60.859 Y22.716
N8835 X61.049 Y22.379
N8840 X61.229 Y22.081
N8845 X61.406 Y21.81
N8850 X61.586 Y21.556
N8855 X61.773 Y21.311
N8860 X61.981 Y21.057
N8865 X62.083 Y20.936
N8870 X62.087 Y20.931
N8875 X62.231 Y20.758
N8880 X62.235 Y20.753
N8885 X62.442 Y20.502
N8890 X62.448 Y20.494
N8895 X62.858 Y19.986
N8900 X62.878 Y19.961
N8905 X63.068 Y19.712
N8910 X63.095 Y19.675
N8915 X63.263 Y19.433
N8920 X63.29 Y19.392
N8925 X63.438 Y19.159
N8930 X63.466 Y19.112
N8935 X63.591 Y18.89
N8940 X63.619 Y18.837
N8945 X63.723 Y18.628
N8950 X63.751 Y18.564
N8955 X63.832 Y18.37
N8960 X63.862 Y18.289
N8965 X63.92 Y18.111
N8970 X63.949 Y18.008
N8975 X63.984 Y17.848
N8980 X63.997 Y17.778
N8985 X64.006 Y17.707
N8990 X64.018 Y17.567
N8995 X64.022 Y17.467
N9000 X64.016 Y17.366
N9005 X64.005 Y17.249
N9010 G2 X63.939 Y16.969 I-1.085 J0.107
N9015 G1 X63.904 Y16.876
N9020 G2 X63.701 Y16.541 I-1.019 J0.387
N9025 G1 X63.642 Y16.474
N9030 G2 X63.291 Y16.21 I-0.817 J0.722
N9035 G1 X63.207 Y16.171
N9040 G2 X62.842 Y16.071 I-0.466 J0.985
N9045 G1 X62.733 Y16.061
N9050 X62.626 Y16.056
N9055 X62.52 Y16.062
N9060 X62.456 Y16.068
N9065 X62.349 Y16.085
N9070 X62.38 Y15.903
N9075 X62.437 Y15.689
N9080 X62.515 Y15.47
N9085 X62.612 Y15.253
N9090 X62.736 Y15.029
N9095 X62.741 Y15.02
N9100 X62.763 Y14.988
N9105 X62.836 Y14.881
N9110 X62.931 Y14.748
N9115 X63.046 Y14.592
N9120 X63.173 Y14.423
N9125 X63.307 Y14.247
N9130 X63.595 Y13.882
N9135 X63.736 Y13.704
N9140 X63.746 Y13.691
N9145 X63.879 Y13.518
N9150 X63.889 Y13.504
N9155 X64.009 Y13.343
N9160 X64.021 Y13.327
N9165 X64.126 Y13.18
N9170 X64.141 Y13.159
N9175 X64.227 Y13.032
N9180 X64.248 Y13.
N9185 X64.314 Y12.896
N9190 X64.349 Y12.836
N9195 X64.39 Y12.76
N9200 X64.442 Y12.652
N9205 X64.453 Y12.625
N9210 X64.486 Y12.53
N9215 X64.511 Y12.432
N9220 X64.515 Y12.414
N9225 G2 X64.521 Y12.008 I-1.068 J-0.219
N9230 G1 X64.512 Y11.957
N9235 G2 X64.415 Y11.66 I-1.074 J0.187
N9240 G1 X64.391 Y11.611
N9245 X64.332 Y11.506
N9250 X64.261 Y11.409
N9255 X64.223 Y11.361
N9260 X64.16 Y11.29
N9265 X64.09 Y11.224
N9270 X64.041 Y11.181
N9275 X63.976 Y11.129
N9280 X63.908 Y11.082
N9285 X63.85 Y11.046
N9290 X63.781 Y11.006
N9295 X63.71 Y10.971
N9300 X63.646 Y10.943
N9305 X63.561 Y10.91
N9310 X63.582 Y10.803
N9315 X63.687 Y10.423
N9320 X63.836 Y10.01
N9325 X63.857 Y9.957
N9330 X63.901 Y9.855
N9335 X63.958 Y9.729
N9340 X64.027 Y9.581
N9345 X64.105 Y9.415
N9350 X64.191 Y9.237
N9355 X64.282 Y9.049
N9360 X64.478 Y8.653
N9365 X64.678 Y8.258
N9370 X64.871 Y7.886
N9375 X64.959 Y7.719
N9380 X65.04 Y7.568
N9385 X65.112 Y7.437
N9390 X65.177 Y7.322
N9395 X65.239 Y7.213
N9400 X65.246 Y7.202
N9405 X65.329 Y7.05
N9410 X65.334 Y7.042
N9415 X65.444 Y6.838
N9420 X65.448 Y6.83
N9425 X65.603 Y6.54
N9430 X65.608 Y6.529
N9435 X65.878 Y6.009
N9440 X65.884 Y5.997
N9445 X65.963 Y5.839
N9450 X65.968 Y5.828
N9455 X66.037 Y5.687
N9460 X66.045 Y5.671
N9465 X66.104 Y5.545
N9470 X66.115 Y5.519
N9475 X66.164 Y5.409
N9480 X66.179 Y5.371
N9485 X66.217 Y5.275
N9490 X66.237 Y5.218
N9495 X66.265 Y5.134
N9500 X66.289 Y5.052
N9505 X66.306 Y4.98
N9510 X66.33 Y4.851
N9515 X66.337 Y4.79
N9520 X66.344 Y4.698
N9525 Y4.606
N9530 X66.341 Y4.555
N9535 G2 X66.297 Y4.295 I-1.089 J0.053
N9540 G1 X66.284 Y4.252
N9545 G2 X66.15 Y3.966 I-1.044 J0.313
N9550 G1 X66.128 Y3.932
N9555 G2 X65.917 Y3.696 I-0.911 J0.599
N9560 G1 X65.885 Y3.668
N9565 G2 X65.673 Y3.529 I-0.7 J0.835
N9570 G1 X65.631 Y3.508
N9575 X65.549 Y3.471
N9580 X65.464 Y3.441
N9585 X65.411 Y3.425
N9590 X65.298 Y3.396
N9595 X65.235 Y3.384
N9600 X65.162 Y3.372
N9605 X65.09 Y3.364
N9610 X64.989 Y3.356
N9615 X64.921 Y3.354
N9620 X64.84
N9625 X64.759 Y3.361
N9630 X64.688 Y3.369
N9635 X64.608 Y3.382
N9640 X64.529 Y3.4
N9645 X64.452 Y3.421
N9650 X64.384 Y3.442
N9655 X64.318 Y3.467
N9660 X64.232 Y3.502
N9665 X64.131 Y3.551
N9670 X64.035 Y3.603
N9675 X63.962 Y3.647
N9680 X63.852 Y3.718
N9685 X63.801 Y3.754
N9690 X63.676 Y3.845
N9695 X63.639 Y3.873
N9700 X63.496 Y3.988
N9705 X63.47 Y4.009
N9710 X63.307 Y4.149
N9715 X63.289 Y4.165
N9720 X63.102 Y4.331
N9725 X63.089 Y4.343
N9730 X62.878 Y4.538
N9735 X62.87 Y4.544
N9740 X62.754 Y4.653
N9745 X62.75 Y4.657
N9750 X62.627 Y4.774
N9755 X62.623 Y4.777
N9760 X62.492 Y4.903
N9765 X62.49 Y4.905
N9770 X62.351 Y5.039
N9775 X62.349 Y5.041
N9780 X62.202 Y5.183
N9785 X62.2 Y5.185
N9790 X62.044 Y5.337
N9795 X62.043 Y5.338
N9800 X61.879 Y5.499
N9805 X61.877 Y5.5
N9810 X61.704 Y5.67
N9815 X61.703 Y5.671
N9820 X61.52 Y5.851
N9825 X61.327 Y6.041
N9830 X61.141 Y6.225
N9835 X60.964 Y6.4
N9840 X60.796 Y6.565
N9845 X60.636 Y6.722
N9850 X60.485 Y6.871
N9855 X60.341 Y7.011
N9860 X60.205 Y7.144
N9865 X60.076 Y7.268
N9870 X59.838 Y7.497
N9875 X59.626 Y7.699
N9880 X59.438 Y7.875
N9885 X59.271 Y8.028
N9890 X59.124 Y8.161
N9895 X58.993 Y8.274
N9900 X58.878 Y8.37
N9905 X58.78 Y8.448
N9910 X58.591 Y8.587
N9915 X58.459 Y8.675
N9920 X58.358 Y8.637
N9925 X58.254 Y8.61
N9930 X58.148 Y8.587
N9935 G2 X57.846 Y8.566 I-0.226 J1.066
N9940 G1 X57.792 Y8.57
N9945 X57.693 Y8.582
N9950 X57.596 Y8.602
N9955 X57.539 Y8.617
N9960 X57.457 Y8.641
N9965 X57.377 Y8.672
N9970 X57.316 Y8.698
N9975 X57.255 Y8.727
N9980 X57.196 Y8.759
N9985 X57.13 Y8.798
N9990 X57.045 Y8.853
N9995 X56.973 Y8.905
N10000 X56.914 Y8.951
N10005 X56.835 Y9.017
N10010 X56.793 Y9.053
N10015 X56.706 Y9.133
N10020 X56.677 Y9.161
N10025 X56.581 Y9.257
N10030 X56.561 Y9.277
N10035 X56.454 Y9.389
N10040 X56.44 Y9.403
N10045 X56.322 Y9.531
N10050 X56.312 Y9.542
N10055 X56.182 Y9.688
N10060 X56.175 Y9.695
N10065 X56.033 Y9.856
N10070 X55.684 Y10.249
N10075 X55.347 Y10.613
N10080 X55.025 Y10.948
N10085 X54.941 Y11.032
N10090 X54.905 Y10.968
N10095 X54.883 Y10.932
N10100 G2 X54.623 Y10.642 I-0.929 J0.57
N10105 G1 X54.568 Y10.599
N10110 G2 X54.333 Y10.459 I-0.67 J0.86
N10115 G1 X54.27 Y10.432
N10120 G2 X54.02 Y10.357 I-0.435 J0.999
N10125 G1 X53.948 Y10.345
N10130 X53.838 Y10.331
N10135 X53.727 Y10.329
N10140 X53.649 Y10.332
N10145 X53.557 Y10.339
N10150 X53.466 Y10.353
N10155 X53.381 Y10.371
N10160 X53.311 Y10.388
N10165 X53.243 Y10.409
N10170 X53.151 Y10.44
N10175 X53.043 Y10.485
N10180 X52.946 Y10.531
N10185 X52.862 Y10.575
N10190 X52.761 Y10.634
N10195 X52.694 Y10.676
N10200 X52.588 Y10.749
N10205 X52.535 Y10.788
N10210 X52.424 Y10.874
N10215 X52.38 Y10.91
N10220 X52.266 Y11.009
N10225 X52.23 Y11.042
N10230 X52.113 Y11.153
N10235 X52.081 Y11.185
N10240 X51.962 Y11.307
N10245 X51.934 Y11.338
N10250 X51.813 Y11.472
N10255 X51.789 Y11.5
N10260 X51.667 Y11.646
N10265 X51.644 Y11.674
N10270 X51.521 Y11.831
N10275 X51.502 Y11.855
N10280 X51.459 Y11.914
N10285 X51.446 Y11.931
N10290 X51.397 Y12.
N10295 X51.385 Y12.018
N10300 X51.272 Y12.184
N10305 X51.261 Y12.2
N10310 X51.132 Y12.397
N10315 X51.124 Y12.409
N10320 X50.984 Y12.63
N10325 X50.977 Y12.641
N10330 X50.83 Y12.879
N10335 X50.824 Y12.888
N10340 X50.674 Y13.136
N10345 X50.665 Y13.15
N10350 X50.374 Y13.649
N10355 X50.368 Y13.658
N10360 X50.216 Y13.924
N10365 X50.078 Y14.164
N10370 X49.951 Y14.381
N10375 X49.834 Y14.577
N10380 X49.727 Y14.754
N10385 X49.629 Y14.911
N10390 X49.538 Y15.052
N10395 X49.456 Y15.174
N10400 X49.299 Y15.395
N10405 X49.153 Y15.581
N10410 X49.001 Y15.756
N10415 X48.888 Y15.875
N10420 X48.869 Y15.82
N10425 X48.862 Y15.803
N10430 X48.637 Y15.194
N10435 X48.615 Y15.138
N10440 X48.395 Y14.633
N10445 X48.371 Y14.58
N10450 X48.196 Y14.231
N10455 X48.168 Y14.179
N10460 X48.019 Y13.916
N10465 X47.983 Y13.858
N10470 X47.851 Y13.657
N10475 X47.822 Y13.615
N10480 X47.793 Y13.574
N10485 X47.776 Y13.551
N10490 X47.711 Y13.467
N10495 X47.676 Y13.423
N10500 X47.618 Y13.356
N10505 X47.558 Y13.291
N10510 X47.505 Y13.238
N10515 X47.407 Y13.151
N10520 X47.357 Y13.111
N10525 X47.285 Y13.06
N10530 X47.209 Y13.014
N10535 X47.158 Y12.986
N10540 X47.071 Y12.943
N10545 X46.98 Y12.908
N10550 X46.926 Y12.89
N10555 X46.843 Y12.866
N10560 X46.758 Y12.848
N10565 X46.699 Y12.838
N10570 X46.633 Y12.83
N10575 X46.567 Y12.825
N10580 X46.501 Y12.822
N10585 X46.434 Y12.821
N10590 X46.367 Y12.825
N10595 X46.26 Y12.833
N10600 X46.142 Y12.849
N10605 X46.027 Y12.878
N10610 X45.93 Y12.908
N10615 G2 X45.681 Y13.02 I0.321 J1.042
N10620 G1 X45.589 Y13.077
N10625 X45.492 Y13.144
N10630 X45.402 Y13.221
N10635 X45.311 Y13.31
N10640 X45.222 Y13.406
N10645 X45.175 Y13.464
N10650 X45.136 Y13.515
N10655 X45.087 Y13.583
N10660 X45.057 Y13.626
N10665 X45.006 Y13.705
N10670 X44.986 Y13.737
N10675 X44.931 Y13.827
N10680 X44.916 Y13.854
N10685 X44.858 Y13.957
N10690 X44.847 Y13.976
N10695 X44.785 Y14.091
N10700 X44.778 Y14.105
N10705 X44.711 Y14.234
N10710 X44.705 Y14.245
N10715 X44.633 Y14.388
N10720 X44.622 Y14.411
N10725 X44.472 Y14.726
N10730 X44.455 Y14.764
N10735 X44.311 Y15.099
N10740 X44.296 Y15.136
N10745 X44.155 Y15.501
N10750 X44.146 Y15.526
N10755 X44.076 Y15.723
N10760 X44.07 Y15.739
N10765 X43.999 Y15.948
N10770 X43.994 Y15.961
N10775 X43.922 Y16.183
N10780 X43.918 Y16.195
N10785 X43.844 Y16.431
N10790 X43.841 Y16.442
N10795 X43.765 Y16.693
N10800 X43.762 Y16.702
N10805 X43.684 Y16.971
N10810 X43.682 Y16.979
N10815 X43.601 Y17.265
N10820 X43.599 Y17.272
N10825 X43.514 Y17.578
N10830 X43.513 Y17.584
N10835 X43.424 Y17.911
N10840 X43.423 Y17.916
N10845 X43.331 Y18.264
N10850 X43.204 Y18.739
N10855 X43.085 Y19.174
N10860 X42.971 Y19.572
N10865 X42.862 Y19.936
N10870 X42.757 Y20.269
N10875 X42.655 Y20.573
N10880 X42.555 Y20.85
N10885 X42.457 Y21.103
N10890 X42.36 Y21.335
N10895 X42.262 Y21.548
N10900 X42.163 Y21.746
N10905 X42.066 Y21.925
N10910 X41.842 Y22.29
N10915 X41.592 Y22.644
N10920 X41.471 Y22.796
N10925 X41.359 Y22.921
N10930 X41.26 Y23.016
N10935 X41.177 Y23.084
N10940 X41.113 Y23.127
N10945 X41.069 Y23.15
N10950 X41.047 Y23.158
N10955 X41.044
N10960 X41.035 Y23.156
N10965 X41.006 Y23.145
N10970 X40.955 Y23.118
N10975 X40.883 Y23.069
N10980 X40.793 Y22.995
N10985 X40.686 Y22.893
N10990 X40.598 Y22.795
N10995 X40.499 Y22.675
N11000 X40.394 Y22.534
N11005 X40.285 Y22.374
N11010 X40.173 Y22.196
N11015 X40.059 Y22.003
N11020 X39.944 Y21.794
N11025 X39.829 Y21.571
N11030 X39.716 Y21.335
N11035 X39.606 Y21.094
N11040 X39.387 Y20.563
N11045 X39.184 Y20.005
N11050 X38.995 Y19.41
N11055 X38.941 Y19.228
N11060 X38.938 Y19.218
N11065 X38.886 Y19.05
N11070 X38.88 Y19.034
N11075 X38.833 Y18.888
N11080 X38.823 Y18.86
N11085 X38.779 Y18.735
N11090 X38.763 Y18.693
N11095 X38.72 Y18.588
N11100 X38.692 Y18.525
N11105 X38.651 Y18.438
N11110 X38.602 Y18.347
N11115 X38.56 Y18.278
N11120 X38.519 Y18.214
N11125 X38.473 Y18.153
N11130 X38.43 Y18.101
N11135 X38.358 Y18.021
N11140 X38.279 Y17.948
N11145 X38.234 Y17.911
N11150 G2 X37.999 Y17.763 I-0.694 J0.84
N11155 G1 X37.951 Y17.741
N11160 G2 X37.672 Y17.655 I-0.459 J0.989
N11165 G1 X37.621 Y17.646
N11170 G2 X37.366 Y17.634 I-0.18 J1.075
N11175 G1 X37.309 Y17.637
N11180 X37.216 Y17.648
N11185 X37.124 Y17.666
N11190 X37.061 Y17.682
N11195 X36.943 Y17.718
N11200 X36.873 Y17.744
N11205 X36.804 Y17.773
N11210 X36.726 Y17.808
N11215 X36.687 Y17.826
N11220 X36.6 Y17.87
N11225 X36.528 Y17.909
N11230 X36.352 Y18.015
N11235 X36.292 Y18.053
N11240 X36.234 Y18.096
N11245 X36.072 Y18.224
N11250 X36.019 Y18.27
N11255 X35.969 Y18.318
N11260 X35.819 Y18.471
N11265 X35.735 Y18.569
N11270 X35.597 Y18.749
N11275 X35.533 Y18.842
N11280 X35.405 Y19.051
N11285 X35.358 Y19.135
N11290 X35.24 Y19.373
N11295 X35.207 Y19.446
N11300 X35.097 Y19.715
N11305 X35.074 Y19.777
N11310 X34.971 Y20.079
N11315 X34.964 Y20.101
N11320 X34.884 Y20.354
N11325 X34.813 Y20.572
N11330 X34.749 Y20.758
N11335 X34.693 Y20.913
N11340 X34.644 Y21.037
N11345 X34.616 Y21.099
N11350 X34.459 Y21.134
N11355 X34.356 Y21.162
N11360 X34.257 Y21.199
N11365 X34.107 Y21.264
N11370 G2 X33.883 Y21.396 I0.436 J0.999
N11375 G1 X33.77 Y21.482
N11380 G2 X33.553 Y21.703 I0.66 J0.867
N11385 G1 X33.476 Y21.807
N11390 G2 X33.321 Y22.103 I0.877 J0.647
N11395 G1 X33.28 Y22.223
N11400 G2 X33.223 Y22.529 I1.032 J0.351
N11405 G1 X33.217 Y22.656
N11410 X33.218 Y22.755
N11415 X33.227 Y22.853
N11420 X33.248 Y23.003
N11425 X33.26 Y23.075
N11430 X33.278 Y23.146
N11435 X33.313 Y23.271
N11440 X33.35 Y23.38
N11445 X33.398 Y23.485
N11450 X33.401 Y23.49
N11455 X33.406 Y23.503
N11460 X33.435 Y23.582
N11465 X33.476 Y23.696
N11470 X33.523 Y23.836
N11475 X33.575 Y23.993
N11480 X33.691 Y24.349
N11485 X33.808 Y24.723
N11490 X33.916 Y25.082
N11495 X33.936 Y25.149
N11500 X33.932 Y25.151
N11505 G2 X33.651 Y25.293 I0.348 J1.033
N11510 G1 X33.539 Y25.372
N11515 X33.46 Y25.433
N11520 X33.387 Y25.502
N11525 X33.35 Y25.539
N11530 X33.282 Y25.617
N11535 X33.22 Y25.701
N11540 X33.144 Y25.817
N11545 G2 X33.025 Y26.057 I0.91 J0.6
N11550 G1 X32.979 Y26.189
N11555 X32.95 Y26.283
N11560 X32.931 Y26.38
N11565 X32.92 Y26.445
N11570 X32.911 Y26.522
N11575 X32.907 Y26.599
N11580 X32.906 Y26.66
N11585 X32.909 Y26.757
N11590 X32.921 Y26.853
N11595 X32.93 Y26.908
N11600 X32.957 Y27.029
N11605 X32.997 Y27.146
N11610 X33.015 Y27.229
N11615 X33.042 Y27.36
N11620 X33.073 Y27.523
N11625 X33.107 Y27.708
N11630 X33.143 Y27.911
N11635 X33.18 Y28.123
N11640 X33.246 Y28.537
N11645 X33.308 Y28.979
N11650 X33.367 Y29.457
N11655 X33.424 Y29.976
N11660 X33.452 Y30.249
N11665 X33.479 Y30.535
N11670 X33.506 Y30.833
N11675 X33.532 Y31.143
N11680 X33.558 Y31.466
N11685 X33.584 Y31.802
N11690 X33.609 Y32.151
N11695 X33.634 Y32.517
N11700 X33.635 Y32.524
N11705 X33.653 Y32.764
N11710 X33.654 Y32.778
N11715 X33.677 Y33.037
N11720 X33.679 Y33.054
N11725 X33.735 Y33.597
N11730 X33.737 Y33.613
N11735 X33.769 Y33.88
N11740 X33.771 Y33.891
N11745 X33.804 Y34.145
N11750 X33.805 Y34.159
N11755 X33.839 Y34.39
N11760 X33.841 Y34.409
N11765 X33.874 Y34.609
N11770 X33.908 Y34.824
N11775 X33.924 Y34.948
N11780 X33.588 Y34.588
N11785 X33.567 Y34.567
N11790 X33.215 Y34.21
N11795 X33.195 Y34.191
N11800 X32.83 Y33.84
N11805 X32.813 Y33.824
N11810 X32.435 Y33.476
N11815 X32.42 Y33.462
N11820 X32.028 Y33.115
N11825 X32.016 Y33.104
N11830 X31.609 Y32.754
N11835 X31.6 Y32.746
N11840 X31.178 Y32.391
N11845 X31.172 Y32.386
N11850 X30.734 Y32.022
N11855 X30.731 Y32.019
N11860 X30.278 Y31.647
N11865 X30.276 Y31.645
N11870 X29.81 Y31.263
N11875 X29.332 Y30.871
N11880 X28.846 Y30.471
N11885 X27.855 Y29.651
N11890 X26.859 Y28.815
N11895 X25.872 Y27.975
N11900 X24.897 Y27.13
N11905 X23.92 Y26.266
N11910 X23.426 Y25.821
N11915 X22.922 Y25.362
N11920 X22.408 Y24.887
N11925 X21.881 Y24.393
N11930 X21.343 Y23.879
N11935 X20.792 Y23.344
N11940 X20.234 Y22.789
N11945 X19.673 Y22.217
N11950 X19.115 Y21.63
N11955 X18.568 Y21.034
N11960 X18.039 Y20.434
N11965 X17.537 Y19.836
N11970 X17.066 Y19.244
N11975 X16.629 Y18.662
N11980 X16.428 Y18.382
N11985 X16.235 Y18.104
N11990 X16.051 Y17.83
N11995 X15.876 Y17.561
N12000 X15.709 Y17.297
N12005 X15.551 Y17.04
N12010 X15.245 Y16.53
N12015 X14.955 Y16.045
N12020 X14.944 Y16.028
N12025 X14.661 Y15.572
N12030 X14.636 Y15.534
N12035 X14.345 Y15.108
N12040 X14.305 Y15.053
N12045 X13.997 Y14.658
N12050 X13.943 Y14.593
N12055 X13.609 Y14.227
N12060 X13.548 Y14.166
N12065 X13.188 Y13.828
N12070 X13.129 Y13.777
N12075 X12.748 Y13.468
N12080 X12.702 Y13.433
N12085 X12.315 Y13.152
N12090 X12.292 Y13.135
N12095 X12.104 Y13.006
N12100 X12.095 Y13.
N12105 X11.915 Y12.879
N12110 X11.91 Y12.875
N12115 X11.74 Y12.762
N12120 X11.739 Y12.761
N12125 X11.583 Y12.658
N12130 X11.442 Y12.564
N12135 X11.439 Y12.562
N12140 X11.316 Y12.481
N12145 X11.303 Y12.472
N12150 X11.197 Y12.405
N12155 X11.157 Y12.381
N12160 X11.069 Y12.329
N12165 X10.961 Y12.274
N12170 X10.887 Y12.242
N12175 G2 X10.627 Y12.164 I-0.439 J0.998
N12180 G1 X10.564 Y12.154
N12185 G2 X10.103 Y12.176 I-0.179 J1.075
N12190 G1 X10.047 Y12.191
N12195 G2 X9.649 Y12.392 I0.282 J1.053
N12200 G1 X9.595 Y12.436
N12205 G2 X9.418 Y12.615 I0.68 J0.852
N12210 G1 X9.359 Y12.689
N12215 X9.292 Y12.785
N12220 X9.225 Y12.891
N12225 X9.198 Y12.938
N12230 X9.122 Y13.075
N12235 X9.109 Y13.098
N12240 X9.022 Y13.263
N12245 X9.016 Y13.275
N12250 X8.919 Y13.465
N12255 X8.915 Y13.474
N12260 X8.811 Y13.682
N12265 X8.803 Y13.698
N12270 X8.59 Y14.145
N12275 X8.578 Y14.171
N12280 X8.478 Y14.396
N12285 X8.465 Y14.424
N12290 X8.375 Y14.642
N12295 X8.359 Y14.685
N12300 X8.284 Y14.889
N12305 X8.263 Y14.955
N12310 X8.208 Y15.142
N12315 X8.183 Y15.245
N12320 X8.151 Y15.41
N12325 X8.139 Y15.491
N12330 X8.133 Y15.573
N12335 X8.128 Y15.714
N12340 X8.13 Y15.835
N12345 X8.145 Y15.955
N12350 X8.167 Y16.072
N12355 G2 X8.267 Y16.367 I1.072 J-0.2
N12360 G1 X8.317 Y16.464
N12365 G2 X8.497 Y16.719 I0.971 J-0.495
N12370 G1 X8.572 Y16.798
N12375 X8.656 Y16.878
N12380 X8.748 Y16.948
N12385 X8.847 Y17.016
N12390 X8.903 Y17.052
N12395 X8.962 Y17.085
N12400 X9.082 Y17.147
N12405 X9.13 Y17.17
N12410 X9.267 Y17.233
N12415 X9.399 Y17.294
N12420 X9.515 Y17.352
N12425 X9.625 Y17.416
N12430 X9.735 Y17.491
N12435 X9.852 Y17.583
N12440 X9.976 Y17.695
N12445 X10.107 Y17.831
N12450 X10.245 Y17.992
N12455 X10.389 Y18.176
N12460 X10.537 Y18.383
N12465 X10.687 Y18.609
N12470 X10.837 Y18.847
N12475 X11.468 Y19.919
N12480 X11.473 Y19.928
N12485 X11.786 Y20.448
N12490 X11.8 Y20.471
N12495 X11.957 Y20.717
N12500 X11.97 Y20.738
N12505 X12.128 Y20.973
N12510 X12.144 Y20.997
N12515 X12.303 Y21.22
N12520 X12.321 Y21.246
N12525 X12.481 Y21.458
N12530 X12.511 Y21.497
N12535 X12.837 Y21.893
N12540 X12.878 Y21.939
N12545 X13.214 Y22.302
N12550 X13.248 Y22.337
N12555 X13.595 Y22.681
N12560 X13.615 Y22.7
N12565 X13.975 Y23.039
N12570 X13.978 Y23.042
N12575 X14.347 Y23.386
N12580 X14.721 Y23.744
N12585 X15.105 Y24.126
N12590 X15.503 Y24.54
N12595 X15.916 Y24.986
N12600 X16.345 Y25.46
N12605 X16.789 Y25.958
N12610 X16.791 Y25.961
N12615 X17.708 Y26.985
N12620 X17.72 Y26.998
N12625 X18.189 Y27.505
N12630 X18.203 Y27.52
N12635 X18.678 Y28.015
N12640 X18.695 Y28.032
N12645 X19.175 Y28.511
N12650 X19.194 Y28.529
N12655 X19.679 Y28.991
N12660 X19.698 Y29.008
N12665 X20.187 Y29.453
N12670 X20.205 Y29.468
N12675 X20.699 Y29.898
N12680 X20.72 Y29.915
N12685 X21.721 Y30.743
N12690 X21.736 Y30.755
N12695 X22.755 Y31.569
N12700 X23.79 Y32.397
N12705 X24.311 Y32.821
N12710 X24.835 Y33.254
N12715 X25.9 Y34.148
N12720 X26.975 Y35.065
N12725 X28.048 Y35.98
N12730 X28.051 Y35.983
N12735 X28.58 Y36.43
N12740 X28.583 Y36.433
N12745 X29.103 Y36.87
N12750 X29.107 Y36.873
N12755 X29.614 Y37.296
N12760 X29.618 Y37.299
N12765 X30.11 Y37.705
N12770 X30.113 Y37.707
N12775 X30.585 Y38.094
N12780 X30.588 Y38.096
N12785 X31.036 Y38.461
N12790 X31.037 Y38.462
N12795 X31.458 Y38.803
N12800 X31.657 Y38.964
N12805 X31.848 Y39.119
N12810 X32.029 Y39.266
N12815 X32.202 Y39.406
N12820 X32.34 Y39.519
N12825 X32.26 Y39.559
N12830 X32.023 Y39.666
N12835 X31.759 Y39.776
N12840 X31.475 Y39.886
N12845 X31.176 Y39.994
N12850 X30.866 Y40.096
N12855 X30.477 Y40.215
N12860 X30.082 Y40.326
N12865 X29.68 Y40.43
N12870 X29.268 Y40.526
N12875 X28.845 Y40.615
N12880 X28.41 Y40.697
N12885 X27.96 Y40.773
N12890 X27.495 Y40.842
N12895 X27.011 Y40.904
N12900 X26.509 Y40.961
N12905 X25.986 Y41.011
N12910 X25.442 Y41.056
N12915 X24.873 Y41.094
N12920 X24.28 Y41.127
N12925 X23.66 Y41.155
N12930 X23.011 Y41.177
N12935 X22.743 Y41.185
N12940 X22.741
N12945 X22.504 Y41.192
N12950 X22.501 Y41.193
N12955 X22.294 Y41.2
N12960 X22.289
N12965 X22.11 Y41.207
N12970 X22.101
N12975 X21.946 Y41.215
N12980 X21.933
N12985 X21.802 Y41.223
N12990 X21.781 Y41.224
N12995 X21.671 Y41.233
N13000 X21.64 Y41.236
N13005 X21.548 Y41.246
N13010 X21.505 Y41.251
N13015 X21.428 Y41.263
N13020 X21.368 Y41.273
N13025 X21.305 Y41.286
N13030 X21.238 Y41.302
N13035 X21.173 Y41.322
N13040 X21.078 Y41.355
N13045 X20.966 Y41.4
N13050 X20.859 Y41.457
N13055 X20.789 Y41.5
N13060 X20.713 Y41.552
N13065 X20.642 Y41.609
N13070 X20.578 Y41.665
N13075 X20.508 Y41.732
N13080 X20.434 Y41.809
N13085 X20.384 Y41.864
N13090 X20.339 Y41.923
N13095 X20.285 Y41.997
N13100 X20.228 Y42.083
N13105 X20.18 Y42.175
N13110 X20.168 Y42.201
N13115 X20.151 Y42.203
N13120 X20.131 Y42.206
N13125 X19.939 Y42.231
N13130 X19.913 Y42.235
N13135 X19.517 Y42.297
N13140 X19.49 Y42.302
N13145 X19.298 Y42.337
N13150 X19.277 Y42.341
N13155 X19.097 Y42.378
N13160 X19.093 Y42.379
N13165 X18.921 Y42.415
N13170 X18.748 Y42.448
N13175 X18.377 Y42.513
N13180 X18.205 Y42.54
N13185 X18.045 Y42.562
N13190 X17.909 Y42.579
N13195 X17.791 Y42.591
N13200 X17.645 Y42.605
N13205 X17.616 Y42.608
N13210 X17.487 Y42.624
N13215 X17.446 Y42.629
N13220 X17.335 Y42.647
N13225 X17.277 Y42.658
N13230 X17.184 Y42.678
N13235 X17.107 Y42.698
N13240 X17.029 Y42.721
N13245 X16.923 Y42.758
N13250 X16.859 Y42.784
N13255 X16.793 Y42.814
N13260 X16.729 Y42.848
N13265 X16.677 Y42.878
N13270 X16.599 Y42.927
N13275 X16.526 Y42.983
N13280 X16.485 Y43.017
N13285 X16.411 Y43.084
N13290 X16.344 Y43.157
N13295 X16.287 Y43.225
N13300 X16.224 Y43.309
N13305 X16.169 Y43.399
N13310 X16.151 Y43.431
N13315 X16.065 Y43.439
N13320 X15.98 Y43.453
N13325 X15.847 Y43.482
N13330 X15.74 Y43.511
N13335 X15.636 Y43.55
N13340 X15.514 Y43.604
N13345 X15.412 Y43.655
N13350 X15.316 Y43.717
N13355 X15.211 Y43.793
N13360 G2 X15.026 Y43.962 I0.638 J0.884
N13365 G1 X14.944 Y44.056
N13370 G2 X14.787 Y44.294 I0.823 J0.715
N13375 G1 X14.734 Y44.404
N13380 G2 X14.637 Y44.712 I0.98 J0.477
N13385 G1 X14.618 Y44.833
N13390 G2 X14.627 Y45.222 I1.077 J0.169
N13395 G1 X14.637 Y45.267
N13400 G2 X14.727 Y45.53 I1.068 J-0.22
N13405 G1 X14.754 Y45.585
N13410 X14.792 Y45.654
N13415 X14.834 Y45.721
N13420 X14.879 Y45.785
N13425 X14.938 Y45.863
N13430 X14.999 Y45.937
N13435 X15.043 Y45.987
N13440 X15.119 Y46.068
N13445 X15.154 Y46.103
N13450 X15.245 Y46.192
N13455 X15.272 Y46.218
N13460 X15.378 Y46.313
N13465 X15.401 Y46.333
N13470 X15.519 Y46.435
N13475 X15.539 Y46.452
N13480 X15.67 Y46.559
N13485 X15.687 Y46.573
N13490 X15.83 Y46.684
N13495 X15.845 Y46.696
N13500 X15.998 Y46.812
N13505 X16.013 Y46.823
N13510 X16.176 Y46.942
N13515 X16.196 Y46.956
N13520 X16.548 Y47.201
N13525 X16.574 Y47.218
N13530 X16.956 Y47.468
N13535 X16.966 Y47.475
N13540 X17.194 Y47.621
N13545 X17.399 Y47.754
N13550 X17.583 Y47.875
N13555 X17.747 Y47.987
N13560 X17.892 Y48.088
N13565 X18.018 Y48.179
N13570 X18.125 Y48.26
N13575 X18.214 Y48.332
N13580 X18.285 Y48.393
N13585 X18.315 Y48.42
N13590 X18.265 Y48.458
N13595 X18.193 Y48.508
N13600 X18.1 Y48.569
N13605 X17.984 Y48.639
N13610 X17.845 Y48.719
N13615 X17.681 Y48.81
N13620 X17.491 Y48.911
N13625 X17.274 Y49.023
N13630 X17.029 Y49.148
N13635 X16.754 Y49.285
N13640 X16.448 Y49.435
N13645 X16.11 Y49.6
N13650 X15.786 Y49.756
N13655 X15.487 Y49.899
N13660 X15.21 Y50.028
N13665 X14.954 Y50.145
N13670 X14.717 Y50.25
N13675 X14.499 Y50.344
N13680 X14.298 Y50.427
N13685 X14.111 Y50.5
N13690 X13.939 Y50.564
N13695 X13.787 Y50.617
N13700 X13.49 Y50.708
N13705 X13.224 Y50.774
N13710 X12.936 Y50.829
N13715 X12.728 Y50.868
N13720 X12.654 Y50.885
N13725 X12.482 Y50.93
N13730 X12.367 Y50.968
N13735 X12.23 Y51.021
N13740 X12.147 Y51.057
N13745 X12.068 Y51.099
N13750 X11.961 Y51.162
N13755 X11.857 Y51.232
N13760 X11.762 Y51.313
N13765 X11.683 Y51.388
N13770 G2 X11.5 Y51.619 I0.753 J0.788
N13775 G1 X11.447 Y51.708
N13780 G2 X11.335 Y51.967 I0.937 J0.557
N13785 G1 X11.322 Y52.015
N13790 X11.247 Y52.047
N13795 X11.112 Y52.103
N13800 X10.952 Y52.167
N13805 X10.768 Y52.24
N13810 X10.752 Y52.246
N13815 X10.531 Y52.338
N13820 X10.486 Y52.357
N13825 X10.3 Y52.445
N13830 X10.238 Y52.476
N13835 X10.084 Y52.561
N13840 X9.999 Y52.613
N13845 X9.876 Y52.695
N13850 X9.819 Y52.737
N13855 X9.765 Y52.782
N13860 X9.672 Y52.864
N13865 X9.6 Y52.933
N13870 X9.535 Y53.008
N13875 X9.471 Y53.09
N13880 G2 X9.334 Y53.316 I0.857 J0.673
N13885 G1 X9.296 Y53.4
N13890 G2 X9.211 Y53.694 I0.994 J0.447
N13895 G1 X9.199 Y53.78
N13900 X9.189 Y53.9
N13905 X9.192 Y54.02
N13910 X9.198 Y54.095
N13915 X9.214 Y54.214
N13920 X9.242 Y54.33
N13925 X9.262 Y54.393
N13930 G2 X9.4 Y54.681 I1.042 J-0.321
N13935 G1 X9.435 Y54.733
N13940 G2 X9.655 Y54.973 I0.904 J-0.609
N13945 G1 X9.709 Y55.016
N13950 G2 X9.926 Y55.152 I0.683 J-0.849
N13955 G1 X10. Y55.187
N13960 X10.078 Y55.22
N13965 X10.157 Y55.247
N13970 X10.254 Y55.276
N13975 X10.357 Y55.301
N13980 X10.478 Y55.324
N13985 X10.542 Y55.334
N13990 X10.669 Y55.351
N13995 X10.774 Y55.369
N14000 X10.861 Y55.394
N14005 X10.96 Y55.432
N14010 X11.058 Y55.479
N14015 X11.143 Y55.529
N14020 X11.202 Y55.572
N14025 X11.222 Y55.59
N14030 X11.248 Y55.633
N14035 X11.273 Y55.684
N14040 X11.287 Y55.721
N14045 X11.295 Y55.754
N14050 X11.301 Y55.798
N14055 X11.302 Y55.865
N14060 X11.296 Y55.961
N14065 X11.277 Y56.097
N14070 X11.255 Y56.221
N14075 X11.233 Y56.317
N14080 X11.17 Y56.521
N14085 X11.145 Y56.58
N14090 X11.106 Y56.656
N14095 X11.057 Y56.739
N14100 X10.993 Y56.835
N14105 X10.909 Y56.946
N14110 X10.803 Y57.074
N14115 X10.673 Y57.22
N14120 X10.516 Y57.386
N14125 X10.332 Y57.573
N14130 X10.119 Y57.783
N14135 X9.877 Y58.015
N14140 X9.604 Y58.273
N14145 X9.446 Y58.42
N14150 X9.298 Y58.556
N14155 X9.018 Y58.807
N14160 X8.756 Y59.03
N14165 X8.498 Y59.239
N14170 X8.232 Y59.443
N14175 X7.943 Y59.652
N14180 X7.618 Y59.877
N14185 X7.441 Y59.996
N14190 X7.248 Y60.125
N14195 X7.246 Y60.126
N14200 X7.049 Y60.258
N14205 X7.04 Y60.264
N14210 X6.859 Y60.387
N14215 X6.849 Y60.395
N14220 X6.683 Y60.511
N14225 X6.67 Y60.52
N14230 X6.519 Y60.629
N14235 X6.503 Y60.641
N14240 X6.367 Y60.743
N14245 X6.348 Y60.757
N14250 X6.226 Y60.853
N14255 X6.203 Y60.872
N14260 X6.095 Y60.962
N14265 X6.068 Y60.985
N14270 X5.973 Y61.07
N14275 X5.94 Y61.1
N14280 X5.857 Y61.179
N14285 X5.819 Y61.218
N14290 X5.749 Y61.293
N14295 X5.703 Y61.344
N14300 X5.645 Y61.414
N14305 X5.593 Y61.483
N14310 X5.547 Y61.549
N14315 X5.49 Y61.639
N14320 X5.454 Y61.702
N14325 X5.397 Y61.819
N14330 X5.372 Y61.878
N14335 X5.344 Y61.951
N14340 X5.322 Y62.026
N14345 X5.308 Y62.083
N14350 X5.289 Y62.171
N14355 X5.277 Y62.26
N14360 X5.273 Y62.314
N14365 X5.269 Y62.39
N14370 X5.27 Y62.467
N14375 X5.274 Y62.546
N14380 X5.286 Y62.66
N14385 X5.31 Y62.772
N14390 X5.327 Y62.834
N14395 G2 X5.51 Y63.209 I1.052 J-0.284
N14400 G1 X5.546 Y63.255
N14405 G2 X5.878 Y63.546 I0.869 J-0.658
N14410 G1 X5.938 Y63.58
N14415 G2 X6.2 Y63.686 I0.537 J-0.949
N14420 G1 X6.292 Y63.71
N14425 X6.406 Y63.733
N14430 X6.465 Y63.742
N14435 X6.513 Y63.748
N14440 X6.533 Y63.751
N14445 X6.455 Y63.845
N14450 X6.327 Y63.995
N14455 X6.184 Y64.156
N14460 X6.026 Y64.328
N14465 X5.854 Y64.512
N14470 X5.663 Y64.71
N14475 X5.409 Y64.975
N14480 X5.4 Y64.984
N14485 X5.172 Y65.227
N14490 X5.161 Y65.24
N14495 X4.959 Y65.462
N14500 X4.944 Y65.479
N14505 X4.768 Y65.68
N14510 X4.749 Y65.703
N14515 X4.598 Y65.886
N14520 X4.574 Y65.917
N14525 X4.448 Y66.082
N14530 X4.417 Y66.124
N14535 X4.314 Y66.272
N14540 X4.275 Y66.333
N14545 X4.197 Y66.464
N14550 X4.149 Y66.553
N14555 X4.093 Y66.67
N14560 X4.064 Y66.735
N14565 X4.04 Y66.803
N14570 X4.006 Y66.905
N14575 X3.979 Y67.004
N14580 X3.962 Y67.104
N14585 X3.95 Y67.194
N14590 G2 Y67.472 I1.081 J0.139
N14595 G1 X3.96 Y67.549
N14600 G2 X4.055 Y67.874 I1.081 J-0.14
N14605 G1 X4.086 Y67.939
N14610 G2 X4.236 Y68.174 I0.986 J-0.465
N14615 G1 X4.123 Y68.348
N14620 X3.992 Y68.539
N14625 X3.846 Y68.741
N14630 X3.687 Y68.951
N14635 X3.521 Y69.163
N14640 X3.152 Y69.604
N14645 X2.75 Y70.047
N14650 X2.461 Y70.356
N14655 X2.452 Y70.366
N14660 X2.178 Y70.666
N14665 X2.168 Y70.678
N14670 X1.914 Y70.964
N14675 X1.902 Y70.978
N14680 X1.668 Y71.251
N14685 X1.655 Y71.267
N14690 X1.441 Y71.528
N14695 X1.425 Y71.547
N14700 X1.229 Y71.797
N14705 X1.212 Y71.819
N14710 X1.034 Y72.059
N14715 X1.015 Y72.085
N14720 X0.854 Y72.315
N14725 X0.834 Y72.345
N14730 X0.69 Y72.567
N14735 X0.668 Y72.601
N14740 X0.54 Y72.815
N14745 X0.518 Y72.854
N14750 X0.405 Y73.062
N14755 X0.382 Y73.107
N14760 X0.283 Y73.309
N14765 X0.261 Y73.358
N14770 X0.177 Y73.556
N14775 X0.156 Y73.609
N14780 X0.085 Y73.803
N14785 X0.066 Y73.86
N14790 X0.007 Y74.052
N14795 X-0.009 Y74.111
N14800 X-0.055 Y74.3
N14805 X-0.105 Y74.506
N14810 X-0.118 Y74.546
N14815 X-0.13 Y74.572
N14820 X-0.15 Y74.615
N14825 G2 X-0.244 Y75.062 I0.995 J0.445
N14830 G1 Y75.119
N14835 G2 X-0.212 Y75.381 I1.09 J-0.002
N14840 G1 X-0.196 Y75.447
N14845 X-0.17 Y75.533
N14850 X-0.138 Y75.616
N14855 X-0.108 Y75.686
N14860 X-0.076 Y75.753
N14865 X-0.04 Y75.817
N14870 X0.001 Y75.885
N14875 X0.042 Y75.948
N14880 X0.088 Y76.009
N14885 X0.137 Y76.069
N14890 X0.198 Y76.138
N14895 X0.265 Y76.201
N14900 X0.319 Y76.248
N14905 G2 X0.538 Y76.397 I0.717 J-0.821
N14910 G1 X0.594 Y76.426
N14915 G2 X0.898 Y76.529 I0.498 J-0.969
N14920 G1 X0.966 Y76.541
N14925 G2 X1.249 Y76.555 I0.194 J-1.073
N14930 G1 X1.323 Y76.549
N14935 X1.444 Y76.533
N14940 X1.563 Y76.502
N14945 X1.646 Y76.476
N14950 X1.731 Y76.446
N14955 X1.813 Y76.408
N14960 X1.907 Y76.36
N14965 X2.012 Y76.298
N14970 X2.121 Y76.227
N14975 X2.185 Y76.181
N14980 X2.312 Y76.084
N14985 X2.352 Y76.051
N14990 X2.498 Y75.927
N14995 X2.523 Y75.905
N15000 X2.686 Y75.759
N15005 X2.781 Y75.676
N15010 X2.872 Y75.606
N15015 X2.989 Y75.526
N15020 X3.148 Y75.428
N15025 X3.239 Y75.376
N15030 X3.346 Y75.316
N15035 X3.467 Y75.25
N15040 X3.602 Y75.179
N15045 X3.752 Y75.101
N15050 X3.918 Y75.016
N15055 X4.1 Y74.925
N15060 X4.301 Y74.825
N15065 X4.305 Y74.823
N15070 X4.657 Y74.646
N15075 X4.67 Y74.64
N15080 X4.999 Y74.47
N15085 X5.013 Y74.462
N15090 X5.318 Y74.298
N15095 X5.335 Y74.289
N15100 X5.617 Y74.131
N15105 X5.636 Y74.12
N15110 X5.896 Y73.967
N15115 X5.918 Y73.954
N15120 X6.157 Y73.806
N15125 X6.181 Y73.79
N15130 X6.4 Y73.647
N15135 X6.428 Y73.628
N15140 X6.627 Y73.488
N15145 X6.635 Y73.483
N15150 X6.852 Y73.328
N15155 X7.044 Y73.196
N15160 X7.216 Y73.084
N15165 X7.31 Y73.026
N15170 X7.321 Y73.038
N15175 G2 X7.611 Y73.266 I0.809 J-0.731
N15180 G1 X7.663 Y73.294
N15185 G2 X7.975 Y73.406 I0.519 J-0.959
N15190 G1 X8.041 Y73.419
N15195 G2 X8.292 Y73.437 I0.206 J-1.07
N15200 G1 X8.373 Y73.434
N15205 X8.459 Y73.427
N15210 X8.545 Y73.413
N15215 X8.642 Y73.394
N15220 X8.759 Y73.363
N15225 X8.872 Y73.326
N15230 X8.952 Y73.298
N15235 X9.083 Y73.244
N15240 X9.14 Y73.218
N15245 X9.289 Y73.147
N15250 X9.33 Y73.126
N15255 X9.499 Y73.037
N15260 X9.53 Y73.02
N15265 X9.719 Y72.911
N15270 X9.742 Y72.898
N15275 X9.953 Y72.77
N15280 X9.971 Y72.759
N15285 X10.204 Y72.612
N15290 X10.218 Y72.603
N15295 X10.474 Y72.436
N15300 X10.485 Y72.428
N15305 X10.766 Y72.24
N15310 X10.774 Y72.235
N15315 X11.08 Y72.026
N15320 X11.087 Y72.021
N15325 X11.418 Y71.791
N15330 X11.651 Y71.629
N15335 X11.971 Y71.412
N15340 X12.742 Y70.908
N15345 X12.904 Y70.807
N15350 X12.992 Y70.753
N15355 X13.233 Y70.618
N15360 X13.28 Y70.712
N15365 X13.32 Y70.783
N15370 G2 X13.563 Y71.079 I0.95 J-0.534
N15375 G1 X13.62 Y71.127
N15380 G2 X13.891 Y71.296 I0.706 J-0.83
N15385 G1 X13.966 Y71.329
N15390 X14.076 Y71.369
N15395 X14.189 Y71.398
N15400 X14.282 Y71.417
N15405 X14.365 Y71.43
N15410 X14.448 Y71.437
N15415 X14.558 Y71.442
N15420 X14.68 Y71.44
N15425 X14.805 Y71.431
N15430 X14.898 Y71.421
N15435 X15.036 Y71.399
N15440 X15.109 Y71.385
N15445 X15.26 Y71.351
N15450 X15.319 Y71.336
N15455 X15.48 Y71.29
N15460 X15.529 Y71.274
N15465 X15.699 Y71.217
N15470 X15.743 Y71.201
N15475 X15.92 Y71.132
N15480 X15.959 Y71.116
N15485 X16.142 Y71.037
N15490 X16.178 Y71.021
N15495 X16.365 Y70.932
N15500 X16.416 Y70.906
N15505 X16.798 Y70.699
N15510 X16.862 Y70.662
N15515 X17.244 Y70.42
N15520 X17.29 Y70.39
N15525 X17.473 Y70.261
N15530 X17.504 Y70.238
N15535 X17.688 Y70.098
N15540 X17.719 Y70.074
N15545 X17.914 Y69.915
N15550 X17.933 Y69.899
N15555 X18.038 Y69.809
N15560 X18.05 Y69.799
N15565 X18.161 Y69.701
N15570 X18.171 Y69.692
N15575 X18.29 Y69.584
N15580 X18.298 Y69.577
N15585 X18.427 Y69.458
N15590 X18.433 Y69.452
N15595 X18.572 Y69.322
N15600 X18.578 Y69.317
N15605 X18.729 Y69.173
N15610 X18.733 Y69.169
N15615 X18.897 Y69.012
N15620 X18.9 Y69.009
N15625 X19.079 Y68.836
N15630 X19.081 Y68.833
N15635 X19.276 Y68.644
N15640 X19.278 Y68.642
N15645 X19.489 Y68.435
N15650 X19.638 Y68.289
N15655 X19.778 Y68.153
N15660 X20.038 Y67.902
N15665 X20.275 Y67.679
N15670 X20.49 Y67.483
N15675 X20.689 Y67.309
N15680 X20.876 Y67.154
N15685 X21.056 Y67.013
N15690 X21.234 Y66.883
N15695 X21.418 Y66.759
N15700 X21.613 Y66.636
N15705 X21.826 Y66.51
N15710 X22.061 Y66.38
N15715 X22.324 Y66.24
N15720 X22.62 Y66.089
N15725 X22.952 Y65.924
N15730 X23.131 Y65.836
N15735 X23.322 Y65.743
N15740 X23.588 Y65.614
N15745 X23.826 Y65.5
N15750 X24.036 Y65.401
N15755 X24.22 Y65.315
N15760 X24.379 Y65.243
N15765 X24.514 Y65.184
N15770 X24.629 Y65.136
N15775 X24.721 Y65.1
N15780 X24.793 Y65.075
N15785 X24.834 Y65.062
N15790 X24.916 Y65.044
N15795 X24.972 Y65.037
N15800 X24.99 Y65.036
N15805 X24.989 Y65.046
N15810 X24.983 Y65.116
N15815 X24.974 Y65.205
N15820 X24.963 Y65.308
N15825 X24.952 Y65.415
N15830 X24.9 Y65.796
N15835 X24.829 Y66.198
N15840 X24.738 Y66.629
N15845 X24.629 Y67.081
N15850 X24.502 Y67.549
N15855 X24.362 Y68.025
N15860 X24.208 Y68.504
N15865 X24.043 Y68.981
N15870 X23.87 Y69.45
N15875 X23.689 Y69.906
N15880 X23.504 Y70.343
N15885 X23.317 Y70.754
N15890 X23.129 Y71.135
N15895 X22.945 Y71.478
N15900 X22.765 Y71.783
N15905 X22.685 Y71.908
N15910 X22.594 Y72.039
N15915 X22.588 Y72.048
N15920 X22.492 Y72.192
N15925 X22.448 Y72.262
N15930 X22.378 Y72.387
N15935 X22.321 Y72.503
N15940 X22.276 Y72.61
N15945 X22.24 Y72.707
N15950 X22.214 Y72.806
N15955 X22.195 Y72.898
N15960 G2 X22.175 Y73.208 I1.066 J0.225
N15965 G1 X22.181 Y73.286
N15970 G2 X22.285 Y73.672 I1.087 J-0.085
N15975 G1 X22.316 Y73.737
N15980 G2 X22.537 Y74.046 I0.983 J-0.471
N15985 G1 X22.594 Y74.101
N15990 G2 X22.815 Y74.268 I0.762 J-0.78
N15995 G1 X22.897 Y74.314
N16000 X22.961 Y74.348
N16005 X23.027 Y74.378
N16010 X23.084 Y74.401
N16015 X23.148 Y74.424
N16020 X23.214 Y74.444
N16025 X23.267 Y74.458
N16030 X23.364 Y74.479
N16035 X23.462 Y74.491
N16040 X23.514 Y74.495
N16045 X23.581 Y74.499
N16050 X23.647 Y74.498
N16055 X23.575 Y74.625
N16060 X23.46 Y74.814
N16065 X23.323 Y75.026
N16070 X23.162 Y75.259
N16075 X22.98 Y75.515
N16080 X22.77 Y75.799
N16085 X22.54 Y76.111
N16090 X22.524 Y76.133
N16095 X21.963 Y76.934
N16100 X21.939 Y76.969
N16105 X21.861 Y77.09
N16110 X21.841 Y77.122
N16115 X21.793 Y77.203
N16120 X21.774 Y77.236
N16125 X21.769 Y77.245
N16130 X21.745 Y77.291
N16135 X21.677 Y77.429
N16140 X21.65 Y77.49
N16145 X21.581 Y77.655
N16150 X21.558 Y77.717
N16155 X21.429 Y78.088
N16160 X21.412 Y78.143
N16165 X21.358 Y78.328
N16170 X21.347 Y78.37
N16175 X21.305 Y78.542
N16180 X21.292 Y78.601
N16185 X21.264 Y78.749
N16190 X21.253 Y78.82
N16195 X21.246 Y78.881
N16200 X21.239 Y78.959
N16205 X21.237 Y79.01
N16210 X21.236 Y79.107
N16215 X21.244 Y79.204
N16220 X21.254 Y79.275
N16225 G2 X21.324 Y79.543 I1.081 J-0.141
N16230 G1 X21.351 Y79.609
N16235 G2 X21.474 Y79.833 I1.01 J-0.41
N16240 G1 X21.516 Y79.891
N16245 X21.587 Y79.98
N16250 X21.667 Y80.061
N16255 X21.723 Y80.113
N16260 X21.782 Y80.163
N16265 X21.767 Y80.185
N16270 X21.62 Y80.404
N16275 X21.446 Y80.649
N16280 X21.245 Y80.919
N16285 X21.014 Y81.218
N16290 X20.864 Y81.411
N16295 X20.857 Y81.42
N16300 X20.723 Y81.596
N16305 X20.714 Y81.608
N16310 X20.596 Y81.768
N16315 X20.583 Y81.785
N16320 X20.482 Y81.929
N16325 X20.466 Y81.952
N16330 X20.38 Y82.08
N16335 X20.359 Y82.112
N16340 X20.288 Y82.226
N16345 X20.26 Y82.273
N16350 X20.204 Y82.374
N16355 X20.171 Y82.44
N16360 X20.13 Y82.528
N16365 X20.089 Y82.628
N16370 X20.061 Y82.705
N16375 X20.039 Y82.777
N16380 X20.021 Y82.85
N16385 X20.007 Y82.917
N16390 X19.991 Y83.023
N16395 X19.986 Y83.131
N16400 X19.985 Y83.188
N16405 G2 X20.021 Y83.468 I1.09 J0.004
N16410 G1 X20.034 Y83.517
N16415 G2 X20.162 Y83.816 I1.054 J-0.276
N16420 G1 X20.188 Y83.857
N16425 G2 X20.381 Y84.089 I0.926 J-0.575
N16430 G1 X20.419 Y84.123
N16435 X20.476 Y84.171
N16440 X20.538 Y84.216
N16445 X20.521 Y84.267
N16450 X20.455 Y84.448
N16455 X20.415 Y84.55
N16460 X20.366 Y84.667
N16465 X20.311 Y84.797
N16470 X20.248 Y84.94
N16475 X20.179 Y85.095
N16480 X20.101 Y85.265
N16485 X20.1 Y85.267
N16490 X20.001 Y85.486
N16495 X19.997 Y85.496
N16500 X19.908 Y85.696
N16505 X19.902 Y85.71
N16510 X19.824 Y85.894
N16515 X19.817 Y85.912
N16520 X19.749 Y86.08
N16525 X19.74 Y86.104
N16530 X19.682 Y86.258
N16535 X19.671 Y86.289
N16540 X19.622 Y86.43
N16545 X19.61 Y86.469
N16550 X19.571 Y86.599
N16555 X19.558 Y86.646
N16560 X19.527 Y86.766
N16565 X19.514 Y86.825
N16570 X19.492 Y86.937
N16575 X19.481 Y87.006
N16580 X19.467 Y87.111
N16585 X19.458 Y87.229
N16590 X19.455 Y87.423
N16595 X19.456 Y87.509
N16600 X19.465 Y87.595
N16605 X19.49 Y87.778
N16610 X19.503 Y87.853
N16615 X19.522 Y87.928
N16620 X19.574 Y88.109
N16625 X19.603 Y88.196
N16630 X19.627 Y88.259
N16635 X19.664 Y88.345
N16640 X19.688 Y88.395
N16645 X19.725 Y88.465
N16650 X19.766 Y88.531
N16655 X19.792 Y88.57
N16660 X19.859 Y88.659
N16665 X19.935 Y88.741
N16670 X19.965 Y88.77
N16675 G2 X20.177 Y88.932 I0.762 J-0.78
N16680 G1 X20.212 Y88.953
N16685 X20.322 Y89.008
N16690 X20.437 Y89.052
N16695 X20.479 Y89.065
N16700 X20.567 Y89.088
N16705 X20.657 Y89.104
N16710 X20.708 Y89.111
N16715 X20.817 Y89.121
N16720 X20.879 Y89.123
N16725 X20.958 Y89.122
N16730 X21.037 Y89.117
N16735 X21.152 Y89.104
N16740 X21.231 Y89.092
N16745 X21.308 Y89.075
N16750 X21.376 Y89.057
N16755 X21.462 Y89.031
N16760 X21.538 Y89.004
N16765 X21.601 Y88.979
N16770 X21.689 Y88.942
N16775 X21.737 Y88.92
N16780 X21.837 Y88.872
N16785 X21.873 Y88.853
N16790 X21.989 Y88.792
N16795 X22.015 Y88.778
N16800 X22.148 Y88.703
N16805 X22.167 Y88.692
N16810 X22.319 Y88.602
N16815 X22.334 Y88.593
N16820 X22.507 Y88.487
N16825 X22.517 Y88.481
N16830 X22.714 Y88.358
N16835 X22.722 Y88.353
N16840 X22.943 Y88.211
N16845 X22.949 Y88.207
N16850 X23.198 Y88.046
N16855 X23.202 Y88.043
N16860 X23.48 Y87.862
N16865 X23.483 Y87.859
N16870 X23.792 Y87.655
N16875 X23.794 Y87.654
N16880 X23.96 Y87.544
N16885 X24.136 Y87.428
N16890 X24.361 Y87.278
N16895 X24.576 Y87.138
N16900 X24.783 Y87.004
N16905 X24.979 Y86.879
N16910 X25.352 Y86.647
N16915 X25.693 Y86.443
N16920 X26.006 Y86.265
N16925 X26.293 Y86.112
N16930 X26.557 Y85.982
N16935 X26.799 Y85.874
N16940 X27.024 Y85.785
N16945 X27.234 Y85.714
N16950 X27.434 Y85.657
N16955 X27.629 Y85.613
N16960 X27.824 Y85.58
N16965 X28.025 Y85.557
N16970 X28.238 Y85.542
N16975 X28.467 Y85.536
N16980 X28.636 Y85.537
N16985 X28.633 Y85.797
N16990 Y85.798
N16995 X28.631 Y86.012
N17000 Y86.015
N17005 X28.63 Y86.205
N17010 Y86.211
N17015 X28.629 Y86.381
N17020 Y86.39
N17025 X28.63 Y86.543
N17030 Y86.557
N17035 X28.633 Y86.695
N17040 Y86.713
N17045 X28.637 Y86.839
N17050 X28.639 Y86.876
N17055 X28.655 Y87.104
N17060 X28.661 Y87.166
N17065 X28.688 Y87.38
N17070 X28.698 Y87.439
N17075 X28.738 Y87.663
N17080 X28.745 Y87.696
N17085 X28.771 Y87.818
N17090 X28.775 Y87.834
N17095 X28.806 Y87.967
N17100 X28.808 Y87.977
N17105 X28.843 Y88.124
N17110 X28.845 Y88.131
N17115 X28.884 Y88.29
N17120 X28.934 Y88.498
N17125 X28.978 Y88.691
N17130 X29.017 Y88.869
N17135 X29.05 Y89.034
N17140 X29.079 Y89.186
N17145 X29.101 Y89.32
N17150 X29.136 Y89.574
N17155 X29.154 Y89.786
N17160 X29.159 Y89.974
N17165 X29.152 Y90.151
N17170 X29.132 Y90.348
N17175 X29.116 Y90.481
N17180 X29.113 Y90.508
N17185 X29.102 Y90.626
N17190 X29.098 Y90.674
N17195 X29.093 Y90.769
N17200 X29.092 Y90.851
N17205 X29.094 Y90.927
N17210 X29.098 Y90.994
N17215 X29.106 Y91.061
N17220 X29.114 Y91.121
N17225 X29.133 Y91.215
N17230 X29.159 Y91.307
N17235 X29.175 Y91.355
N17240 G2 X29.325 Y91.646 I1.033 J-0.347
N17245 G1 X29.38 Y91.723
N17250 G2 X29.572 Y91.927 I0.884 J-0.637
N17255 G1 X29.639 Y91.982
N17260 X29.678 Y92.013
N17265 X29.676 Y92.029
N17270 X29.672 Y92.103
N17275 X29.666 Y92.445
N17280 X29.668 Y92.533
N17285 X29.69 Y92.869
N17290 X29.699 Y92.96
N17295 X29.75 Y93.303
N17300 X29.762 Y93.367
N17305 X29.799 Y93.545
N17310 X29.808 Y93.584
N17315 X29.853 Y93.768
N17320 X29.862 Y93.802
N17325 X29.917 Y93.994
N17330 X29.925 Y94.024
N17335 X29.988 Y94.226
N17340 X29.997 Y94.252
N17345 X30.069 Y94.465
N17350 X30.076 Y94.486
N17355 X30.158 Y94.713
N17360 X30.165 Y94.73
N17365 X30.257 Y94.971
N17370 X30.262 Y94.985
N17375 X30.364 Y95.241
N17380 X30.447 Y95.451
N17385 X30.647 Y96.009
N17390 X30.648 Y96.011
N17395 X30.683 Y96.108
N17400 X30.714 Y96.186
N17405 X30.752 Y96.261
N17410 X30.796 Y96.343
N17415 X30.848 Y96.428
N17420 X30.907 Y96.508
N17425 X30.961 Y96.574
N17430 X31.039 Y96.66
N17435 X31.126 Y96.737
N17440 X31.187 Y96.786
N17445 G2 X31.407 Y96.922 I0.68 J-0.852
N17450 G1 X31.476 Y96.954
N17455 G2 X31.734 Y97.037 I0.46 J-0.988
N17460 G1 X31.808 Y97.051
N17465 G2 X32.068 Y97.068 I0.202 J-1.071
N17470 G1 X32.147 Y97.064
N17475 X32.265 Y97.052
N17480 X32.38 Y97.026
N17485 X32.464 Y97.003
N17490 X32.546 Y96.977
N17495 X32.626 Y96.944
N17500 X32.713 Y96.905
N17505 X32.783 Y96.869
N17510 X32.851 Y96.829
N17515 X32.93 Y96.778
N17520 X32.998 Y96.73
N17525 X33.062 Y96.677
N17530 X33.135 Y96.613
N17535 X33.191 Y96.559
N17540 X33.243 Y96.502
N17545 X33.312 Y96.421
N17550 X33.387 Y96.321
N17555 X33.454 Y96.221
N17560 X33.489 Y96.163
N17565 X33.501 Y96.314
N17570 Y96.315
N17575 X33.519 Y96.546
N17580 X33.52 Y96.556
N17585 X33.539 Y96.773
N17590 X33.54 Y96.785
N17595 X33.56 Y96.988
N17600 X33.562 Y97.002
N17605 X33.583 Y97.193
N17610 X33.585 Y97.208
N17615 X33.607 Y97.388
N17620 X33.61 Y97.406
N17625 X33.634 Y97.574
N17630 X33.639 Y97.606
N17635 X33.692 Y97.912
N17640 X33.702 Y97.964
N17645 X33.762 Y98.234
N17650 X33.779 Y98.298
N17655 X33.848 Y98.539
N17660 X33.871 Y98.611
N17665 X33.95 Y98.827
N17670 X33.981 Y98.904
N17675 X34.071 Y99.102
N17680 X34.095 Y99.152
N17685 X34.154 Y99.267
N17690 X34.174 Y99.303
N17695 X34.225 Y99.394
N17700 X34.268 Y99.463
N17705 X34.315 Y99.533
N17710 X34.355 Y99.59
N17715 X34.399 Y99.643
N17720 X34.444 Y99.695
N17725 X34.513 Y99.768
N17730 X34.588 Y99.833
N17735 X34.634 Y99.87
N17740 X34.731 Y99.939
N17745 X34.835 Y99.997
N17750 X34.886 Y100.022
N17755 X34.982 Y100.063
N17760 X35.082 Y100.095
N17765 X35.14 Y100.111
N17770 X35.207 Y100.126
N17775 X35.275 Y100.138
N17780 X35.343 Y100.147
N17785 X35.427 Y100.155
N17790 X35.512 Y100.157
N17795 X35.601 Y100.155
N17800 X35.71 Y100.147
N17805 X35.818 Y100.129
N17810 X35.91 Y100.108
N17815 X35.998 Y100.085
N17820 X36.084 Y100.054
N17825 X36.166 Y100.02
N17830 X36.228 Y100.092
N17835 X36.359 Y100.254
N17840 X36.491 Y100.424
N17845 X36.768 Y100.809
N17850 X37.036 Y101.22
N17855 X37.204 Y101.499
N17860 X37.377 Y101.803
N17865 X37.718 Y102.445
N17870 X37.862 Y102.74
N17875 X37.989 Y103.013
N17880 X38.039 Y103.127
N17885 X38.081 Y103.229
N17890 X38.114 Y103.315
N17895 X38.133 Y103.371
N17900 X38.18 Y103.531
N17905 X38.23 Y103.734
N17910 X38.278 Y103.967
N17915 X38.323 Y104.213
N17920 X38.36 Y104.459
N17925 X38.389 Y104.686
N17930 X38.406 Y104.885
N17935 X38.41 Y104.955
N17940 X38.411 Y105.028
N17945 X38.412 Y105.137
N17950 X38.414 Y105.177
N17955 X38.418 Y105.27
N17960 X38.423 Y105.335
N17965 X38.432 Y105.411
N17970 X38.45 Y105.522
N17975 X38.462 Y105.582
N17980 X38.482 Y105.661
N17985 X38.508 Y105.738
N17990 X38.526 Y105.786
N17995 X38.573 Y105.893
N18000 X38.632 Y105.994
N18005 X38.656 Y106.031
N18010 G2 X38.897 Y106.295 I0.914 J-0.593
N18015 G1 X38.966 Y106.349
N18020 X39.052 Y106.411
N18025 X39.144 Y106.463
N18030 X39.199 Y106.491
N18035 X39.251 Y106.516
N18040 X39.298 Y106.537
N18045 G2 X39.538 Y106.612 I0.443 J-0.996
N18050 G1 X39.622 Y106.628
N18055 G2 X40. Y106.633 I0.203 J-1.071
N18060 G1 X40.092 Y106.618
N18065 X40.176 Y106.601
N18070 X40.258 Y106.578
N18075 X40.316 Y106.559
N18080 X40.381 Y106.535
N18085 X40.451 Y106.507
N18090 X40.519 Y106.477
N18095 X40.585 Y106.442
N18100 X40.71 Y106.371
N18105 G2 X40.944 Y106.192 I-0.539 J-0.947
N18110 G1 X41.047 Y106.089
N18115 G2 X41.214 Y105.871 I-0.774 J-0.768
N18120 G1 X41.292 Y105.737
N18125 X41.347 Y105.63
N18130 X41.39 Y105.517
N18135 X41.442 Y105.353
N18140 X41.468 Y105.255
N18145 X41.485 Y105.155
N18150 X41.509 Y104.962
N18155 X41.517 Y104.852
N18160 Y104.807
N18165 X41.518 Y104.805
N18170 X41.529 Y104.718
N18175 X41.551 Y104.587
N18180 X41.582 Y104.421
N18185 X41.622 Y104.229
N18190 X41.668 Y104.024
N18195 X41.776 Y103.576
N18200 X41.824 Y103.388
N18205 X41.826 Y103.381
N18210 X41.87 Y103.205
N18215 X41.871 Y103.2
N18220 X41.91 Y103.042
N18225 X41.913 Y103.029
N18230 X41.947 Y102.884
N18235 X41.953 Y102.853
N18240 X42.007 Y102.585
N18245 X42.016 Y102.532
N18250 X42.056 Y102.27
N18255 X42.061 Y102.23
N18260 X42.077 Y102.092
N18265 X42.079 Y102.068
N18270 X42.092 Y101.92
N18275 X42.094 Y101.899
N18280 X42.106 Y101.736
N18285 X42.107 Y101.721
N18290 X42.117 Y101.541
N18295 Y101.531
N18300 X42.127 Y101.33
N18305 Y101.323
N18310 X42.137 Y101.096
N18315 Y101.091
N18320 X42.146 Y100.835
N18325 Y100.833
N18330 X42.157 Y100.545
N18335 X42.166 Y100.276
N18340 X42.176 Y100.036
N18345 X42.184 Y99.847
N18350 X42.243 Y99.871
N18355 X42.331 Y99.901
N18360 X42.409 Y99.925
N18365 X42.517 Y99.951
N18370 X42.59 Y99.965
N18375 X42.656 Y99.975
N18380 X42.722 Y99.982
N18385 X42.79 Y99.987
N18390 X42.905 Y99.988
N18395 X43.019 Y99.978
N18400 X43.146 Y99.96
N18405 G2 X43.438 Y99.875 I-0.156 J-1.079
N18410 G1 X43.556 Y99.821
N18415 X43.662 Y99.767
N18420 X43.76 Y99.701
N18425 X43.877 Y99.614
N18430 G2 X44.11 Y99.376 I-0.652 J-0.874
N18435 G1 X44.156 Y99.313
N18440 G2 X44.3 Y99.036 I-0.885 J-0.636
N18445 G1 X44.335 Y98.936
N18450 X44.36 Y98.854
N18455 X44.378 Y98.771
N18460 X44.403 Y98.632
N18465 X44.417 Y98.529
N18470 X44.432 Y98.351
N18475 X44.435 Y98.283
N18480 X44.44 Y98.067
N18485 Y98.019
N18490 X44.434 Y97.763
N18495 X44.433 Y97.727
N18500 X44.416 Y97.432
N18505 X44.414 Y97.404
N18510 X44.386 Y97.069
N18515 X44.384 Y97.046
N18520 X44.344 Y96.669
N18525 X44.343 Y96.654
N18530 X44.317 Y96.441
N18535 X44.287 Y96.17
N18540 X44.267 Y95.922
N18545 X44.254 Y95.689
N18550 X44.248 Y95.472
N18555 X44.25 Y95.27
N18560 X44.259 Y95.085
N18565 X44.274 Y94.917
N18570 X44.295 Y94.765
N18575 X44.32 Y94.632
N18580 X44.349 Y94.516
N18585 X44.361 Y94.48
N18590 X44.402 Y94.51
N18595 X44.609 Y94.69
N18600 X44.65 Y94.731
N18605 X44.671 Y94.75
N18610 X44.905 Y94.968
N18615 X44.967 Y95.021
N18620 X45.079 Y95.11
N18625 X45.174 Y95.178
N18630 X45.235 Y95.217
N18635 G2 X45.485 Y95.334 I0.585 J-0.92
N18640 G1 X45.509 Y95.342
N18645 G2 X46. Y95.384 I0.336 J-1.037
N18650 G1 X46.065 Y95.375
N18655 X46.164 Y95.356
N18660 X46.26 Y95.328
N18665 X46.337 Y95.302
N18670 X46.417 Y95.271
N18675 X46.496 Y95.234
N18680 X46.661 Y95.147
N18685 X46.72 Y95.113
N18690 X46.776 Y95.076
N18695 X46.854 Y95.022
N18700 X46.935 Y94.959
N18705 X47.001 Y94.903
N18710 X47.053 Y94.856
N18715 X47.102 Y94.805
N18720 X47.152 Y94.751
N18725 G2 X47.3 Y94.544 I-0.807 J-0.733
N18730 G1 X47.328 Y94.494
N18735 G2 X47.432 Y94.226 I-0.955 J-0.526
N18740 G1 X47.447 Y94.165
N18745 X47.46 Y94.101
N18750 X47.477 Y94.007
N18755 X47.482 Y93.978
N18760 X47.501 Y93.856
N18765 X47.503 Y93.838
N18770 X47.523 Y93.691
N18775 X47.525 Y93.68
N18780 X47.546 Y93.513
N18785 X47.547 Y93.504
N18790 X47.568 Y93.321
N18795 X47.569 Y93.311
N18800 X47.611 Y92.915
N18805 X47.612 Y92.903
N18810 X47.651 Y92.494
N18815 X47.652 Y92.481
N18820 X47.684 Y92.094
N18825 X47.685 Y92.082
N18830 X47.698 Y91.907
N18835 Y91.895
N18840 X47.708 Y91.739
N18845 X47.709 Y91.722
N18850 X47.715 Y91.588
N18855 Y91.56
N18860 X47.718 Y91.453
N18865 X47.717 Y91.404
N18870 X47.714 Y91.285
N18875 X47.713 Y91.25
N18880 X47.704 Y91.099
N18885 X47.703 Y91.076
N18890 X47.689 Y90.898
N18895 X47.688 Y90.882
N18900 X47.669 Y90.684
N18905 X47.667 Y90.664
N18910 X47.619 Y90.231
N18915 X47.616 Y90.207
N18920 X47.558 Y89.767
N18925 X47.556 Y89.756
N18930 X47.531 Y89.584
N18935 X47.536 Y89.583
N18940 X47.635 Y89.553
N18945 X47.73 Y89.515
N18950 X47.849 Y89.461
N18955 X47.955 Y89.405
N18960 X48.054 Y89.339
N18965 X48.151 Y89.265
N18970 G2 X48.345 Y89.076 I-0.658 J-0.869
N18975 G1 X48.417 Y88.985
N18980 G2 X48.569 Y88.731 I-0.852 J-0.68
N18985 G1 X48.614 Y88.624
N18990 G2 X48.692 Y88.338 I-1.003 J-0.426
N18995 G1 X48.707 Y88.217
N19000 G2 X48.693 Y87.853 I-1.081 J-0.14
N19005 G1 X48.688 Y87.83
N19010 X48.66 Y87.722
N19015 X48.62 Y87.617
N19020 X48.606 Y87.586
N19025 X48.575 Y87.52
N19030 X48.539 Y87.456
N19035 X48.488 Y87.373
N19040 X48.431 Y87.289
N19045 X48.357 Y87.189
N19050 X48.311 Y87.131
N19055 X48.225 Y87.031
N19060 X48.181 Y86.978
N19065 X48.144 Y86.926
N19070 X48.092 Y86.845
N19075 X48.032 Y86.741
N19080 X47.967 Y86.619
N19085 X47.902 Y86.488
N19090 X47.763 Y86.178
N19095 X47.634 Y85.853
N19100 X47.524 Y85.531
N19105 X47.459 Y85.302
N19110 X47.467 Y85.304
N19115 X47.683 Y85.351
N19120 X47.918 Y85.413
N19125 X48.162 Y85.487
N19130 X48.398 Y85.569
N19135 X48.608 Y85.652
N19140 X48.797 Y85.739
N19145 X48.943 Y85.811
N19150 X48.976 Y85.827
N19155 X49.106 Y85.886
N19160 X49.174 Y85.914
N19165 X49.28 Y85.954
N19170 X49.405 Y85.992
N19175 X49.495 Y86.014
N19180 X49.587 Y86.032
N19185 X49.68 Y86.042
N19190 X49.761 Y86.047
N19195 X49.87 Y86.049
N19200 X49.979 Y86.04
N19205 X50.056 Y86.029
N19210 X50.145 Y86.014
N19215 X50.232 Y85.991
N19220 X50.313 Y85.966
N19225 X50.415 Y85.929
N19230 X50.506 Y85.89
N19235 X50.599 Y85.845
N19240 X50.688 Y85.792
N19245 X50.754 Y85.748
N19250 X50.852 Y85.674
N19255 X50.942 Y85.59
N19260 X51.005 Y85.523
N19265 X51.059 Y85.46
N19270 X51.109 Y85.393
N19275 X51.166 Y85.312
N19280 X51.202 Y85.255
N19285 X51.235 Y85.196
N19290 X51.281 Y85.107
N19295 X51.311 Y85.046
N19300 X51.337 Y84.983
N19305 X51.37 Y84.894
N19310 X51.397 Y84.811
N19315 X51.417 Y84.726
N19320 X51.433 Y84.645
N19325 G2 X51.451 Y84.365 I-1.069 J-0.21
N19330 G1 X51.447 Y84.3
N19335 G2 X51.289 Y83.801 I-1.088 J0.07
N19340 G1 X51.286 Y83.794
N19345 X51.255 Y83.699
N19350 X51.215 Y83.575
N19355 X51.171 Y83.429
N19360 X51.123 Y83.266
N19365 X51.074 Y83.095
N19370 X50.873 Y82.347
N19375 X50.83 Y82.178
N19380 X50.792 Y82.018
N19385 X50.759 Y81.877
N19390 X50.734 Y81.758
N19395 X50.69 Y81.529
N19400 X50.653 Y81.32
N19405 X50.626 Y81.135
N19410 X50.606 Y80.972
N19415 X50.595 Y80.834
N19420 X50.593 Y80.788
N19425 X50.674 Y80.745
N19430 X50.77 Y80.688
N19435 X50.865 Y80.624
N19440 X50.952 Y80.56
N19445 X51.049 Y80.478
N19450 X51.121 Y80.409
N19455 X51.176 Y80.354
N19460 X51.226 Y80.295
N19465 X51.282 Y80.225
N19470 X51.344 Y80.139
N19475 X51.396 Y80.048
N19480 X51.432 Y79.979
N19485 G2 X51.535 Y79.684 I-0.968 J-0.501
N19490 G1 X51.547 Y79.619
N19495 G2 X51.545 Y79.192 I-1.07 J-0.207
N19500 G1 X51.539 Y79.162
N19505 X51.511 Y79.054
N19510 X51.472 Y78.95
N19515 X51.454 Y78.91
N19520 X51.404 Y78.808
N19525 X51.376 Y78.759
N19530 X51.34 Y78.699
N19535 X51.304 Y78.643
N19540 X51.261 Y78.582
N19545 X51.167 Y78.457
N19550 X51.117 Y78.395
N19555 X51.002 Y78.263
N19560 X50.996 Y78.256
N19565 X50.856 Y78.098
N19570 X50.737 Y77.949
N19575 X50.624 Y77.792
N19580 X50.519 Y77.63
N19585 X50.426 Y77.47
N19590 X50.347 Y77.317
N19595 X50.285 Y77.178
N19600 X50.235 Y77.041
N19605 X50.178 Y76.858
N19610 X50.129 Y76.683
N19615 X50.109 Y76.6
N19620 X50.087 Y76.494
N19625 X50.062 Y76.364
N19630 X50.034 Y76.205
N19635 X50.003 Y76.011
N19640 X49.968 Y75.777
N19645 X49.948 Y75.645
N19650 X49.927 Y75.501
N19655 X49.905 Y75.344
N19660 X49.881 Y75.174
N19665 X49.856 Y74.991
N19670 X49.828 Y74.794
N19675 X49.799 Y74.582
N19680 X49.768 Y74.354
N19685 X49.735 Y74.11
N19690 X49.699 Y73.85
N19695 X49.662 Y73.572
N19700 X49.623 Y73.283
N19705 X49.615 Y73.221
N19710 X49.607 Y73.147
N19715 X49.6 Y73.054
N19720 X49.592 Y72.947
N19725 X49.584 Y72.827
N19730 X49.577 Y72.697
N19735 X49.564 Y72.402
N19740 X49.553 Y72.078
N19745 X49.545 Y71.733
N19750 X49.538 Y70.994
N19755 Y70.73
N19760 Y70.544
N19765 X49.657 Y70.687
N19770 X49.85 Y70.929
N19775 X50.031 Y71.16
N19780 X50.197 Y71.375
N19785 X50.348 Y71.576
N19790 X50.486 Y71.764
N19795 X50.611 Y71.939
N19800 X50.724 Y72.104
N19805 X50.823 Y72.254
N19810 X51.005 Y72.551
N19815 X51.159 Y72.829
N19820 X51.297 Y73.111
N19825 X51.431 Y73.418
N19830 X51.464 Y73.501
N19835 X51.505 Y73.606
N19840 X51.551 Y73.725
N19845 X51.599 Y73.855
N19850 X51.707 Y74.153
N19855 X51.825 Y74.486
N19860 X51.95 Y74.847
N19865 X52.078 Y75.226
N19870 X52.339 Y76.016
N19875 X52.434 Y76.312
N19880 G3 X52.294 Y76.586 I-0.207 J0.067
N19885 G1 X52.086 Y76.653
N19890 X52.033 Y76.671 Z-0.993
N19895 X51.983 Y76.687 Z-0.971
N19900 X51.94 Y76.701 Z-0.936
N19905 X51.907 Y76.711 Z-0.891
N19910 X51.886 Y76.718 Z-0.838
N19915 X51.879 Y76.72 Z-0.782
N19920 Z5.
N19925 X51.745 Y76.305
N19930 Z1.848 F333.33
N19935 Z-1.782
N19940 X51.752 Y76.303 Z-1.838 F1000.
N19945 X51.773 Y76.296 Z-1.891
N19950 X51.806 Y76.286 Z-1.936
N19955 X51.849 Y76.272 Z-1.971
N19960 X51.899 Y76.256 Z-1.993
N19965 X51.953 Y76.238 Z-2.
N19970 X52.16 Y76.171
N19975 G3 X52.434 Y76.312 I0.067 J0.207
N19980 G1 X52.465 Y76.408
N19985 X52.586 Y76.788
N19990 X52.698 Y77.149
N19995 X52.799 Y77.483
N20000 X52.887 Y77.782
N20005 X52.925 Y77.913
N20010 X52.958 Y78.032
N20015 X52.986 Y78.137
N20020 X53.008 Y78.226
N20025 X53.024 Y78.293
N20030 X53.035 Y78.345
N20035 X53.067 Y78.505
N20040 X53.105 Y78.7
N20045 X53.146 Y78.913
N20050 X53.19 Y79.137
N20055 X53.278 Y79.594
N20060 X53.321 Y79.813
N20065 X53.36 Y80.015
N20070 X53.362 Y80.027
N20075 X53.458 Y80.498
N20080 X53.464 Y80.524
N20085 X53.565 Y80.964
N20090 X53.572 Y80.993
N20095 X53.677 Y81.4
N20100 X53.686 Y81.433
N20105 X53.796 Y81.807
N20110 X53.807 Y81.844
N20115 X53.92 Y82.184
N20120 X53.936 Y82.228
N20125 X54.052 Y82.534
N20130 X54.073 Y82.585
N20135 X54.192 Y82.855
N20140 X54.222 Y82.918
N20145 X54.343 Y83.152
N20150 X54.386 Y83.228
N20155 X54.509 Y83.425
N20160 X54.575 Y83.518
N20165 X54.7 Y83.678
N20170 X54.749 Y83.736
N20175 X54.802 Y83.791
N20180 X54.927 Y83.912
N20185 X55.006 Y83.981
N20190 X55.09 Y84.042
N20195 X55.216 Y84.124
N20200 X55.303 Y84.175
N20205 X55.394 Y84.217
N20210 X55.457 Y84.243
N20215 X55.529 Y84.27
N20220 X55.604 Y84.292
N20225 X55.667 Y84.308
N20230 X55.75 Y84.326
N20235 X55.834 Y84.338
N20240 X55.897 Y84.344
N20245 X55.985 Y84.348
N20250 X56.073 Y84.346
N20255 X56.136 Y84.342
N20260 X56.222 Y84.333
N20265 X56.307 Y84.317
N20270 X56.308 Y84.316
N20275 X56.316 Y84.338
N20280 X56.39 Y84.553
N20285 X56.546 Y85.015
N20290 X56.704 Y85.495
N20295 X56.856 Y85.972
N20300 X56.995 Y86.426
N20305 X57.095 Y86.76
N20310 X57.096 Y86.764
N20315 X57.192 Y87.077
N20320 X57.193 Y87.082
N20325 X57.283 Y87.373
N20330 X57.285 Y87.378
N20335 X57.369 Y87.646
N20340 X57.371 Y87.652
N20345 X57.451 Y87.898
N20350 X57.453 Y87.906
N20355 X57.527 Y88.129
N20360 X57.53 Y88.138
N20365 X57.599 Y88.34
N20370 X57.602 Y88.351
N20375 X57.666 Y88.532
N20380 X57.671 Y88.546
N20385 X57.73 Y88.706
N20390 X57.737 Y88.724
N20395 X57.791 Y88.864
N20400 X57.8 Y88.886
N20405 X57.849 Y89.006
N20410 X57.863 Y89.038
N20415 X57.908 Y89.137
N20420 X57.929 Y89.182
N20425 X57.97 Y89.261
N20430 X58.006 Y89.326
N20435 X58.042 Y89.387
N20440 X58.114 Y89.493
N20445 X58.146 Y89.534
N20450 X58.226 Y89.628
N20455 X58.316 Y89.711
N20460 X58.344 Y89.734
N20465 G2 X58.664 Y89.917 I0.693 J-0.841
N20470 G1 X58.731 Y89.941
N20475 G2 X59.004 Y90.003 I0.374 J-1.024
N20480 G1 X59.078 Y90.01
N20485 X59.197 Y90.014
N20490 X59.316 Y90.006
N20495 X59.395 Y89.996
N20500 X59.479 Y89.982
N20505 X59.486 Y89.997
N20510 X59.57 Y90.18
N20515 X59.571 Y90.183
N20520 X59.653 Y90.359
N20525 X59.655 Y90.364
N20530 X59.73 Y90.523
N20535 X59.732 Y90.528
N20540 X59.8 Y90.671
N20545 X59.803 Y90.679
N20550 X59.865 Y90.807
N20555 X59.87 Y90.816
N20560 X59.926 Y90.93
N20565 X59.933 Y90.944
N20570 X59.986 Y91.046
N20575 X59.993 Y91.061
N20580 X60.042 Y91.151
N20585 X60.059 Y91.182
N20590 X60.147 Y91.336
N20595 X60.179 Y91.389
N20600 X60.261 Y91.513
N20605 X60.327 Y91.604
N20610 X60.492 Y91.807
N20615 X60.546 Y91.869
N20620 X60.619 Y91.946
N20625 X60.658 Y91.986
N20630 X60.722 Y92.046
N20635 X60.788 Y92.105
N20640 X60.846 Y92.151
N20645 X60.9 Y92.193
N20650 X60.958 Y92.231
N20655 X61.012 Y92.264
N20660 X61.09 Y92.309
N20665 X61.173 Y92.346
N20670 X61.226 Y92.368
N20675 X61.319 Y92.401
N20680 X61.414 Y92.426
N20685 X61.47 Y92.438
N20690 X61.526 Y92.448
N20695 X61.619 Y92.564
N20700 X61.654 Y92.605
N20705 X61.789 Y92.757
N20710 X61.818 Y92.789
N20715 X61.974 Y92.952
N20720 X62. Y92.978
N20725 X62.178 Y93.151
N20730 X62.199 Y93.171
N20735 X62.399 Y93.356
N20740 X62.418 Y93.373
N20745 X62.641 Y93.569
N20750 X62.657 Y93.582
N20755 X62.903 Y93.791
N20760 X62.916 Y93.802
N20765 X63.186 Y94.023
N20770 X63.201 Y94.035
N20775 X63.323 Y94.131
N20780 X63.339 Y94.143
N20785 X63.472 Y94.244
N20790 X63.491 Y94.258
N20795 X63.781 Y94.469
N20800 X63.801 Y94.484
N20805 X64.108 Y94.695
N20810 X64.127 Y94.708
N20815 X64.431 Y94.909
N20820 X64.445 Y94.919
N20825 X64.59 Y95.011
N20830 X64.602 Y95.018
N20835 X64.739 Y95.103
N20840 X64.753 Y95.112
N20845 X64.88 Y95.188
N20850 X64.898 Y95.199
N20855 X65.012 Y95.265
N20860 X65.037 Y95.278
N20865 X65.136 Y95.332
N20870 X65.175 Y95.352
N20875 X65.257 Y95.392
N20880 X65.329 Y95.424
N20885 X65.391 Y95.45
N20890 X65.479 Y95.481
