%
(LEATHERTRAYMOLDV1)
(T6  D=4.762 CR=0. - ZMIN=-19.05 - FLAT END MILL)
N10 G90 G94 G17 G91.1
N15 G21
(WHEN USING FUSION 360 FOR PERSONAL USE, THE FEEDRATE OF)
(RAPID MOVES IS REDUCED TO MATCH THE FEEDRATE OF CUTTING)
(MOVES, WHICH CAN INCREASE MACHINING TIME. UNRESTRICTED RAPID)
(MOVES ARE AVAILABLE WITH A FUSION 360 SUBSCRIPTION.)
N20 G53 G0 Z0.
(POCKET1)
N25 T6 M6
N30 S6500 M3
N35 G54
N40 G64 P0.1 Q0.1
N45 G0 X174.106 Y18.274
N50 G43 Z15. H6
N55 G1 Z2. F2000.
N60 Z1.526 F333.33
N65 X174.114 Y18.261 Z1.405
N70 X174.139 Y18.222 Z1.293
N75 X174.179 Y18.162 Z1.195
N80 X174.235 Y18.085 Z1.119
N85 X174.305 Y17.999 Z1.07
N90 X174.384 Y17.909 Z1.05
N95 G3 X177.685 Y21.004 Z0.802 I1.65 J1.547
N100 X174.384 Y17.909 Z0.554 I-1.65 J-1.547
N105 X177.685 Y21.004 Z0.305 I1.65 J1.547
N110 X174.384 Y17.909 Z0.057 I-1.65 J-1.547
N115 X177.685 Y21.004 Z-0.191 I1.65 J1.547
N120 X174.384 Y17.909 Z-0.439 I-1.65 J-1.547
N125 X177.685 Y21.004 Z-0.687 I1.65 J1.547
N130 X174.384 Y17.909 Z-0.935 I-1.65 J-1.547
N135 X176.035 Y17.194 Z-1. I1.65 J1.547
N140 Y20.625 I0. J1.716
N145 G1 X49.019 Y20.633 F2000.
N150 G2 X43.42 Y21.371 I2.313 J39.149
N155 X38.138 Y23.366 I3.619 J17.569
N160 X31.181 Y28.908 I14.44 J25.263
N165 X26.736 Y36.611 I14.896 J13.73
N170 X25.979 Y39.183 I80.47 J25.075
N175 X25.539 Y41.829 I12.282 J3.403
N180 G3 X25.444 Y43.159 I-54.973 J-3.272
N185 G2 X25.388 Y44.492 I15.89 J1.333
N190 G1 X25.395 Y120.854
N195 G2 X26.135 Y126.455 I39.257 J-2.336
N200 X28.135 Y131.738 I17.501 J-3.606
N205 X33.68 Y138.686 I25.326 J-14.524
N210 X41.38 Y143.129 I13.728 J-14.902
N215 X43.955 Y143.885 I24.743 J-79.403
N220 X46.602 Y144.325 I3.399 J-12.29
N225 G3 X47.932 Y144.419 I-3.266 J55.27
N230 G2 X49.264 Y144.475 I1.332 J-15.994
N235 G1 X176.406 Y144.467
N240 G3 X177.867 Y144.41 I2.173 J36.768
N245 G2 X179.322 Y144.265 I-0.176 J-9.111
N250 X186.187 Y142.161 I-5.485 J-30.156
N255 X192.224 Y138.274 I-9.235 J-20.976
N260 X198.017 Y130.275 I-15.442 J-17.279
N265 X200.037 Y120.607 I-22.122 J-9.668
N270 G1 X200.03 Y44.245
N275 G2 X199.29 Y38.645 I-39.26 J2.337
N280 X197.29 Y33.362 I-17.499 J3.606
N285 X191.745 Y26.414 I-25.328 J14.526
N290 X184.045 Y21.971 I-13.728 J14.901
N295 X181.47 Y21.215 I-24.745 J79.409
N300 X178.823 Y20.775 I-3.399 J12.29
N305 G3 X177.493 Y20.681 I3.266 J-55.271
N310 G2 X176.161 Y20.625 I-1.332 J15.994
N315 G1 X176.035
N320 G2 X173.999 Y21.983 I0. J2.206
N325 G3 X171.963 Y23.34 I-2.036 J-0.848
N330 G1 X49.264
N335 X49.179 Y23.342
N340 X46.762 Y23.485
N345 X46.675 Y23.493
N350 X46.589 Y23.506
N355 X44.776 Y23.836
N360 X44.752 Y23.84
N365 X44.148 Y23.961
N370 X44.074 Y23.978
N375 X44.001 Y23.998
N380 X42.188 Y24.563
N385 X42.125 Y24.584
N390 X41.521 Y24.804
N395 X41.421 Y24.844
N400 X39.608 Y25.66
N405 X39.485 Y25.723
N410 X38.88 Y26.068
N415 X38.85 Y26.086
N420 X37.423 Y26.949
N425 X37.325 Y27.014
N430 X36.939 Y27.293
N435 X36.894 Y27.327
N440 X35.685 Y28.273
N445 X35.638 Y28.312
N450 X35.034 Y28.829
N455 X34.951 Y28.905
N460 X33.673 Y30.183
N465 X33.596 Y30.267
N470 X33.061 Y30.893
N475 X33.023 Y30.94
N480 X32.094 Y32.126
N485 X32.062 Y32.168
N490 X31.782 Y32.553
N495 X31.715 Y32.654
N500 X30.853 Y34.081
N505 X30.836 Y34.11
N510 X30.489 Y34.714
N515 X30.425 Y34.839
N520 X29.61 Y36.652
N525 X29.57 Y36.749
N530 X29.35 Y37.353
N535 X29.328 Y37.418
N540 X28.763 Y39.231
N545 X28.741 Y39.308
N550 X28.724 Y39.386
N555 X28.512 Y40.483
N560 X28.51 Y40.498
N565 X28.27 Y41.818
N570 X28.257 Y41.904
N575 X28.249 Y41.99
N580 X28.105 Y44.406
N585 X28.102 Y44.492
N590 Y120.607
N595 X28.105 Y120.693
N600 X28.249 Y123.109
N605 X28.257 Y123.196
N610 X28.27 Y123.282
N615 X28.6 Y125.094
N620 X28.605 Y125.12
N625 X28.726 Y125.724
N630 X28.763 Y125.869
N635 X29.328 Y127.681
N640 X29.35 Y127.746
N645 X29.57 Y128.35
N650 X29.61 Y128.448
N655 X30.426 Y130.262
N660 X30.49 Y130.387
N665 X30.835 Y130.99
N670 X30.852 Y131.018
N675 X31.715 Y132.446
N680 X31.782 Y132.547
N685 X32.061 Y132.931
N690 X32.093 Y132.974
N695 X33.04 Y134.182
N700 X33.079 Y134.23
N705 X33.597 Y134.834
N710 X33.672 Y134.916
N715 X34.951 Y136.195
N720 X35.035 Y136.273
N725 X35.662 Y136.806
N730 X35.708 Y136.844
N735 X36.894 Y137.773
N740 X36.938 Y137.807
N745 X37.324 Y138.085
N750 X37.423 Y138.151
N755 X38.85 Y139.014
N760 X38.88 Y139.032
N765 X39.485 Y139.377
N770 X39.608 Y139.44
N775 X41.421 Y140.256
N780 X41.521 Y140.296
N785 X42.125 Y140.516
N790 X42.188 Y140.537
N795 X44.001 Y141.102
N800 X44.079 Y141.124
N805 X44.159 Y141.141
N810 X45.367 Y141.373
N815 X45.381 Y141.375
N820 X46.59 Y141.594
N825 X46.675 Y141.607
N830 X46.762 Y141.615
N835 X49.179 Y141.758
N840 X49.264 Y141.76
N845 X176.161
N850 X176.246 Y141.758
N855 X178.663 Y141.615
N860 X178.75 Y141.607
N865 X178.836 Y141.594
N870 X180.649 Y141.264
N875 X180.673 Y141.26
N880 X181.277 Y141.139
N885 X181.351 Y141.122
N890 X181.424 Y141.102
N895 X183.237 Y140.537
N900 X183.3 Y140.516
N905 X183.904 Y140.296
N910 X184.004 Y140.256
N915 X185.817 Y139.44
N920 X185.941 Y139.377
N925 X186.545 Y139.032
N930 X186.575 Y139.014
N935 X188.002 Y138.151
N940 X188.101 Y138.085
N945 X188.487 Y137.807
N950 X188.531 Y137.773
N955 X189.74 Y136.827
N960 X189.787 Y136.788
N965 X190.391 Y136.271
N970 X190.474 Y136.195
N975 X191.753 Y134.916
N980 X191.83 Y134.833
N985 X192.364 Y134.207
N990 X192.402 Y134.16
N995 X193.332 Y132.974
N1000 X193.364 Y132.931
N1005 X193.643 Y132.547
N1010 X193.71 Y132.446
N1015 X194.573 Y131.018
N1020 X194.59 Y130.989
N1025 X194.936 Y130.385
N1030 X195. Y130.26
N1035 X195.815 Y128.448
N1040 X195.855 Y128.35
N1045 X196.075 Y127.746
N1050 X196.097 Y127.681
N1055 X196.662 Y125.869
N1060 X196.684 Y125.791
N1065 X196.701 Y125.713
N1070 X196.913 Y124.617
N1075 X196.915 Y124.602
N1080 X197.156 Y123.281
N1085 X197.168 Y123.196
N1090 X197.176 Y123.109
N1095 X197.32 Y120.693
N1100 X197.323 Y120.607
N1105 Y44.492
N1110 X197.32 Y44.406
N1115 X197.176 Y41.99
N1120 X197.168 Y41.903
N1125 X197.155 Y41.817
N1130 X196.825 Y40.005
N1135 X196.82 Y39.98
N1140 X196.699 Y39.376
N1145 X196.662 Y39.231
N1150 X196.097 Y37.418
N1155 X196.075 Y37.353
N1160 X195.855 Y36.749
N1165 X195.815 Y36.652
N1170 X194.999 Y34.838
N1175 X194.935 Y34.713
N1180 X194.589 Y34.11
N1185 X194.572 Y34.081
N1190 X193.71 Y32.654
N1195 X193.643 Y32.553
N1200 X193.363 Y32.168
N1205 X193.331 Y32.126
N1210 X192.385 Y30.918
N1215 X192.345 Y30.869
N1220 X191.828 Y30.265
N1225 X191.752 Y30.183
N1230 X190.474 Y28.905
N1235 X190.39 Y28.827
N1240 X189.763 Y28.293
N1245 X189.717 Y28.256
N1250 X188.531 Y27.327
N1255 X188.486 Y27.293
N1260 X188.1 Y27.014
N1265 X188.002 Y26.949
N1270 X186.575 Y26.086
N1275 X186.544 Y26.068
N1280 X185.939 Y25.723
N1285 X185.816 Y25.66
N1290 X184.004 Y24.844
N1295 X183.904 Y24.804
N1300 X183.3 Y24.584
N1305 X183.237 Y24.563
N1310 X181.424 Y23.998
N1315 X181.346 Y23.976
N1320 X181.266 Y23.959
N1325 X180.058 Y23.727
N1330 X180.044 Y23.725
N1335 X178.835 Y23.506
N1340 X178.75 Y23.493
N1345 X178.663 Y23.485
N1350 X176.246 Y23.342
N1355 X176.161 Y23.34
N1360 X171.963
N1365 G3 X171.908 Y22.87 I0. J-0.238
N1370 G1 X181.528 Y20.572
N1375 X181.579 Y20.566
N1380 X181.631 Y20.571
N1385 G3 X182.167 Y20.683 I-7.247 J35.975
N1390 X187.582 Y22.72 I-4.213 J19.412
N1395 X194.359 Y28.082 I-12.88 J23.244
N1400 X198.993 Y35.378 I-18.649 J16.964
N1405 X200.249 Y39.724 I-18.652 J7.746
N1410 X200.757 Y44.218 I-39.454 J6.738
N1415 G1 Y120.881
N1420 G3 X199.978 Y126.613 I-36.528 J-2.05
N1425 X197.938 Y132.026 I-19.438 J-4.231
N1430 X192.574 Y138.802 I-23.221 J-12.871
N1435 X185.277 Y143.434 I-16.971 J-18.674
N1440 X180.93 Y144.688 I-7.727 J-18.615
N1445 X176.434 Y145.195 I-6.743 J-39.639
N1450 G1 X48.991
N1455 G3 X43.258 Y144.417 I2.05 J-36.634
N1460 X37.843 Y142.38 I4.214 J-19.415
N1465 X31.065 Y137.017 I12.879 J-23.241
N1470 X26.432 Y129.722 I18.651 J-16.964
N1475 X25.176 Y125.376 I18.65 J-7.744
N1480 X24.668 Y120.881 I39.465 J-6.738
N1485 G1 Y44.218
N1490 G2 X24.721 Y42.963 I-45.149 J-2.534
N1495 G3 X24.809 Y41.709 I15.071 J0.426
N1500 X28.214 Y31.835 I23.73 J2.661
N1505 X35.361 Y24.218 I22.27 J13.735
N1510 X40.467 Y21.569 I12.121 J17.113
N1515 X46.034 Y20.121 I11.107 J31.288
N1520 X47.703 Y19.944 I2.268 J13.402
N1525 X49.38 Y19.883 I4.583 J103.847
N1530 G1 X176.434 Y19.905
N1535 G3 X181.631 Y20.571 I-2.051 J36.64
N1540 G2 X183.86 Y19.722 I0.442 J-2.192
N1545 G3 X186.16 Y19.094 I1.555 J1.168
N1550 G1 X188.065 Y19.884
N1555 X190.75 Y21.372
N1560 X193.232 Y23.135
N1565 X195.488 Y25.151
N1570 X197.524 Y27.427
N1575 X199.326 Y29.97
N1580 X200.776 Y32.593
N1585 X201.954 Y35.43
N1590 X202.808 Y38.394
N1595 X203.318 Y41.406
N1600 X203.494 Y44.532
N1605 Y120.567
N1610 X203.318 Y123.693
N1615 X202.808 Y126.705
N1620 X201.954 Y129.67
N1625 X200.776 Y132.506
N1630 X199.288 Y135.19
N1635 X197.525 Y137.672
N1640 X195.488 Y139.948
N1645 X193.233 Y141.963
N1650 X190.689 Y143.766
N1655 X188.066 Y145.215
N1660 X185.229 Y146.393
N1665 X182.261 Y147.246
N1670 X179.248 Y147.756
N1675 X176.121 Y147.931
N1680 X49.304
N1685 X46.177 Y147.756
N1690 X43.164 Y147.246
N1695 X40.196 Y146.393
N1700 X37.36 Y145.216
N1705 X34.675 Y143.728
N1710 X32.193 Y141.964
N1715 X29.937 Y139.948
N1720 X27.901 Y137.672
N1725 X26.099 Y135.129
N1730 X24.649 Y132.507
N1735 X23.471 Y129.67
N1740 X22.617 Y126.705
N1745 X22.107 Y123.693
N1750 X21.931 Y120.567
N1755 Y44.532
N1760 X22.107 Y41.406
N1765 X22.283 Y40.361
N1770 X22.617 Y38.395
N1775 X23.471 Y35.43
N1780 X24.649 Y32.594
N1785 X26.137 Y29.909
N1790 X27.9 Y27.428
N1795 X29.937 Y25.151
N1800 X32.192 Y23.136
N1805 X34.736 Y21.334
N1810 X37.36 Y19.884
N1815 X40.197 Y18.707
N1820 X43.164 Y17.854
N1825 X46.177 Y17.344
N1830 X49.304 Y17.169
N1835 X176.121
N1840 X179.248 Y17.344
N1845 X182.261 Y17.854
N1850 X185.228 Y18.707
N1855 X186.16 Y19.094
N1860 G3 X186.093 Y19.356 I-0.052 J0.126
N1865 G1 X185.677 Y19.308
N1870 X185.633 Y19.296
N1875 X185.117 Y19.051
N1880 X185.095 Y19.036
N1885 X184.816 Y18.799
N1890 X184.792 Y18.769
N1895 X184.781 Y18.734
N1900 X184.784 Y18.696
N1905 X184.8 Y18.662
N1910 X184.828 Y18.636
N1915 X184.863 Y18.623
N1920 X184.9
N1925 G3 X184.056 Y23.067 Z-1.248 I-0.422 J2.222 F333.33
N1930 X184.9 Y18.623 Z-1.496 I0.422 J-2.222
N1935 X184.056 Y23.067 Z-1.745 I-0.422 J2.222
N1940 X182.278 Y20.321 Z-1.872 I0.422 J-2.222
N1945 X185.103 Y18.671 Z-2. I2.201 J0.524
N1950 G1 X185.228 Y18.707 F2000.
N1955 X188.065 Y19.884
N1960 X190.75 Y21.372
N1965 X193.232 Y23.135
N1970 X195.488 Y25.151
N1975 X196.803 Y26.621
N1980 X197.524 Y27.427
N1985 X199.326 Y29.97
N1990 X200.776 Y32.593
N1995 X201.954 Y35.43
N2000 X202.808 Y38.394
N2005 X203.318 Y41.406
N2010 X203.494 Y44.532
N2015 Y120.567
N2020 X203.318 Y123.693
N2025 X202.808 Y126.705
N2030 X201.954 Y129.67
N2035 X200.776 Y132.506
N2040 X199.288 Y135.19
N2045 X197.525 Y137.672
N2050 X195.488 Y139.948
N2055 X193.233 Y141.963
N2060 X190.689 Y143.766
N2065 X188.066 Y145.215
N2070 X185.229 Y146.393
N2075 X182.261 Y147.246
N2080 X179.248 Y147.756
N2085 X176.121 Y147.931
N2090 X49.304
N2095 X46.177 Y147.756
N2100 X43.164 Y147.246
N2105 X40.196 Y146.393
N2110 X37.36 Y145.216
N2115 X34.675 Y143.728
N2120 X32.193 Y141.964
N2125 X29.937 Y139.948
N2130 X27.901 Y137.672
N2135 X26.099 Y135.129
N2140 X24.649 Y132.507
N2145 X23.471 Y129.67
N2150 X22.617 Y126.705
N2155 X22.107 Y123.693
N2160 X21.931 Y120.567
N2165 Y44.532
N2170 X22.107 Y41.406
N2175 X22.283 Y40.361
N2180 X22.617 Y38.395
N2185 X23.471 Y35.43
N2190 X24.649 Y32.594
N2195 X26.137 Y29.909
N2200 X27.9 Y27.428
N2205 X29.937 Y25.151
N2210 X32.192 Y23.136
N2215 X34.736 Y21.334
N2220 X37.36 Y19.884
N2225 X40.197 Y18.707
N2230 X43.164 Y17.854
N2235 X46.177 Y17.344
N2240 X49.304 Y17.169
N2245 X176.121
N2250 X179.248 Y17.344
N2255 X182.261 Y17.854
N2260 X185.103 Y18.671
N2265 G3 X185.266 Y18.968 I-0.066 J0.229
N2270 G1 X184.097 Y22.889
N2275 G3 X183.798 Y23.049 I-0.228 J-0.068
N2280 G1 X182.031 Y22.494
N2285 X181.943 Y22.47
N2290 X181.339 Y22.321
N2295 X181.255 Y22.303
N2300 X179.227 Y21.932
N2305 X179.139 Y21.918
N2310 X178.75 Y21.872
N2315 X178.662 Y21.864
N2320 X176.245 Y21.723
N2325 X176.161 Y21.721
N2330 X49.264
N2335 X49.18 Y21.723
N2340 X46.763 Y21.864
N2345 X46.675 Y21.872
N2350 X46.286 Y21.918
N2355 X46.198 Y21.932
N2360 X44.17 Y22.303
N2365 X44.086 Y22.321
N2370 X43.482 Y22.47
N2375 X43.394 Y22.494
N2380 X41.201 Y23.183
N2385 X41.12 Y23.21
N2390 X41.041 Y23.243
N2395 X39.004 Y24.159
N2400 X38.917 Y24.202
N2405 X38.313 Y24.525
N2410 X38.246 Y24.563
N2415 X36.433 Y25.659
N2420 X36.358 Y25.707
N2425 X36.24 Y25.789
N2430 X36.171 Y25.839
N2435 X34.477 Y27.167
N2440 X34.4 Y27.232
N2445 X33.796 Y27.777
N2450 X33.742 Y27.828
N2455 X32.534 Y29.036
N2460 X32.478 Y29.095
N2465 X31.993 Y29.638
N2470 X31.933 Y29.709
N2475 X30.606 Y31.404
N2480 X30.559 Y31.466
N2485 X30.477 Y31.584
N2490 X30.424 Y31.665
N2495 X29.298 Y33.528
N2500 X29.258 Y33.599
N2505 X28.965 Y34.153
N2510 X28.925 Y34.236
N2515 X28.009 Y36.271
N2520 X27.976 Y36.35
N2525 X27.948 Y36.43
N2530 X27.259 Y38.623
N2535 X27.235 Y38.71
N2540 X27.086 Y39.314
N2545 X27.067 Y39.4
N2550 X26.697 Y41.42
N2555 X26.684 Y41.503
N2560 X26.635 Y41.899
N2565 X26.627 Y41.992
N2570 X26.486 Y44.408
N2575 X26.483 Y44.492
N2580 Y120.607
N2585 X26.486 Y120.692
N2590 X26.627 Y123.108
N2595 X26.635 Y123.201
N2600 X26.684 Y123.597
N2605 X26.697 Y123.68
N2610 X27.067 Y125.7
N2615 X27.086 Y125.785
N2620 X27.235 Y126.389
N2625 X27.259 Y126.476
N2630 X27.948 Y128.67
N2635 X27.976 Y128.75
N2640 X28.009 Y128.829
N2645 X28.924 Y130.864
N2650 X28.968 Y130.953
N2655 X29.291 Y131.557
N2660 X29.329 Y131.622
N2665 X30.424 Y133.435
N2670 X30.476 Y133.515
N2675 X30.559 Y133.633
N2680 X30.606 Y133.696
N2685 X31.933 Y135.39
N2690 X31.998 Y135.468
N2695 X32.545 Y136.072
N2700 X32.594 Y136.124
N2705 X33.803 Y137.333
N2710 X33.862 Y137.389
N2715 X34.406 Y137.874
N2720 X34.477 Y137.933
N2725 X36.171 Y139.26
N2730 X36.239 Y139.31
N2735 X36.358 Y139.393
N2740 X36.433 Y139.441
N2745 X38.295 Y140.567
N2750 X38.368 Y140.609
N2755 X38.923 Y140.901
N2760 X39.004 Y140.941
N2765 X41.04 Y141.856
N2770 X41.119 Y141.889
N2775 X41.2 Y141.917
N2780 X43.394 Y142.606
N2785 X43.482 Y142.63
N2790 X44.086 Y142.779
N2795 X44.17 Y142.797
N2800 X46.195 Y143.168
N2805 X46.283 Y143.181
N2810 X46.674 Y143.228
N2815 X46.763 Y143.236
N2820 X49.18 Y143.377
N2825 X49.264 Y143.379
N2830 X176.161
N2835 X176.245 Y143.377
N2840 X178.662 Y143.236
N2845 X178.751 Y143.228
N2850 X179.142 Y143.181
N2855 X179.23 Y143.168
N2860 X181.255 Y142.797
N2865 X181.339 Y142.779
N2870 X181.943 Y142.63
N2875 X182.031 Y142.606
N2880 X184.225 Y141.917
N2885 X184.306 Y141.889
N2890 X184.385 Y141.856
N2895 X186.421 Y140.941
N2900 X186.508 Y140.898
N2905 X187.112 Y140.575
N2910 X187.179 Y140.537
N2915 X188.992 Y139.441
N2920 X189.067 Y139.393
N2925 X189.186 Y139.31
N2930 X189.254 Y139.26
N2935 X190.948 Y137.933
N2940 X191.025 Y137.868
N2945 X191.629 Y137.323
N2950 X191.683 Y137.272
N2955 X192.891 Y136.064
N2960 X192.947 Y136.005
N2965 X193.432 Y135.462
N2970 X193.492 Y135.39
N2975 X194.819 Y133.696
N2980 X194.866 Y133.633
N2985 X194.949 Y133.515
N2990 X195.001 Y133.435
N2995 X196.127 Y131.572
N3000 X196.167 Y131.501
N3005 X196.46 Y130.946
N3010 X196.501 Y130.864
N3015 X197.416 Y128.829
N3020 X197.449 Y128.75
N3025 X197.477 Y128.67
N3030 X198.166 Y126.476
N3035 X198.19 Y126.389
N3040 X198.339 Y125.785
N3045 X198.358 Y125.7
N3050 X198.728 Y123.68
N3055 X198.741 Y123.597
N3060 X198.79 Y123.201
N3065 X198.798 Y123.108
N3070 X198.939 Y120.692
N3075 X198.942 Y120.607
N3080 Y44.492
N3085 X198.939 Y44.408
N3090 X198.798 Y41.992
N3095 X198.79 Y41.899
N3100 X198.741 Y41.503
N3105 X198.728 Y41.42
N3110 X198.358 Y39.4
N3115 X198.339 Y39.314
N3120 X198.19 Y38.71
N3125 X198.166 Y38.623
N3130 X197.477 Y36.43
N3135 X197.449 Y36.35
N3140 X197.416 Y36.271
N3145 X196.5 Y34.236
N3150 X196.457 Y34.147
N3155 X196.133 Y33.543
N3160 X196.096 Y33.477
N3165 X195.001 Y31.665
N3170 X194.948 Y31.584
N3175 X194.866 Y31.466
N3180 X194.819 Y31.404
N3185 X193.492 Y29.709
N3190 X193.426 Y29.632
N3195 X192.88 Y29.027
N3200 X192.83 Y28.975
N3205 X191.622 Y27.767
N3210 X191.562 Y27.711
N3215 X191.018 Y27.226
N3220 X190.948 Y27.167
N3225 X189.254 Y25.839
N3230 X189.185 Y25.789
N3235 X189.067 Y25.707
N3240 X188.992 Y25.659
N3245 X187.129 Y24.532
N3250 X187.056 Y24.491
N3255 X186.502 Y24.199
N3260 X186.421 Y24.159
N3265 X184.384 Y23.243
N3270 X184.305 Y23.21
N3275 X184.224 Y23.183
N3280 X183.798 Y23.049
N3285 G3 X183.639 Y22.76 I0.071 J-0.227
N3290 G1 X184.071 Y21.148
N3295 X184.079 Y21.088
N3300 X184.072 Y21.028
N3305 X184.05 Y20.972
N3310 X184.015 Y20.923
N3315 X183.153 Y20.001
N3320 X183.123 Y19.961
N3325 X183.102 Y19.915
N3330 X183.091 Y19.865
N3335 Y19.815
N3340 X183.101 Y19.765
N3345 G3 X186.257 Y20.784 Z-2.182 I1.578 J0.509 F333.33
N3350 X183.101 Y19.765 Z-2.364 I-1.578 J-0.509
N3355 X186.257 Y20.784 Z-2.546 I1.578 J0.509
N3360 X183.101 Y19.765 Z-2.728 I-1.578 J-0.509
N3365 X186.257 Y20.784 Z-2.91 I1.578 J0.509
N3370 X184.187 Y21.858 Z-3. I-1.578 J-0.509
N3375 G1 X182.027 Y21.188 F2000.
N3380 X181.944 Y21.165
N3385 X181.861 Y21.147
N3390 X179.443 Y20.702
N3395 X179.343 Y20.687
N3400 X178.739 Y20.619
N3405 X178.662 Y20.613
N3410 X176.245 Y20.472
N3415 X176.161 Y20.469
N3420 X49.264
N3425 X49.18 Y20.472
N3430 X46.763 Y20.613
N3435 X46.686 Y20.619
N3440 X46.082 Y20.687
N3445 X45.982 Y20.702
N3450 X43.564 Y21.147
N3455 X43.481 Y21.165
N3460 X43.398 Y21.188
N3465 X40.868 Y21.973
N3470 X40.728 Y22.025
N3475 X40.236 Y22.235
N3480 X40.213 Y22.246
N3485 X38.4 Y23.062
N3490 X38.35 Y23.085
N3495 X37.984 Y23.267
N3500 X37.88 Y23.324
N3505 X35.829 Y24.564
N3510 X35.721 Y24.636
N3515 X35.117 Y25.079
N3520 X35.08 Y25.108
N3525 X33.377 Y26.444
N3530 X33.311 Y26.5
N3535 X33.249 Y26.559
N3540 X31.325 Y28.481
N3545 X31.266 Y28.544
N3550 X31.211 Y28.61
N3555 X29.874 Y30.312
N3560 X29.847 Y30.348
N3565 X29.402 Y30.952
N3570 X29.33 Y31.061
N3575 X28.09 Y33.112
N3580 X28.034 Y33.214
N3585 X27.852 Y33.579
N3590 X27.827 Y33.631
N3595 X27.011 Y35.444
N3600 X27.002 Y35.465
N3605 X26.791 Y35.954
N3610 X26.763 Y36.024
N3615 X26.738 Y36.096
N3620 X25.952 Y38.628
N3625 X25.929 Y38.71
N3630 X25.911 Y38.794
N3635 X25.489 Y41.084
N3640 X25.465 Y41.212
N3645 X25.451 Y41.309
N3650 X25.382 Y41.913
N3655 X25.376 Y41.992
N3660 X25.234 Y44.408
N3665 X25.232 Y44.492
N3670 Y120.607
N3675 X25.234 Y120.692
N3680 X25.376 Y123.108
N3685 X25.382 Y123.186
N3690 X25.451 Y123.79
N3695 X25.466 Y123.889
N3700 X25.911 Y126.305
N3705 X25.929 Y126.389
N3710 X25.952 Y126.472
N3715 X26.738 Y129.003
N3720 X26.765 Y129.082
N3725 X26.796 Y129.158
N3730 X27.279 Y130.251
N3735 X27.283 Y130.26
N3740 X27.827 Y131.468
N3745 X27.851 Y131.521
N3750 X28.034 Y131.886
N3755 X28.09 Y131.988
N3760 X29.33 Y134.039
N3765 X29.408 Y134.155
N3770 X29.981 Y134.923
N3775 X30.003 Y134.952
N3780 X31.211 Y136.49
N3785 X31.266 Y136.556
N3790 X31.325 Y136.619
N3795 X33.248 Y138.541
N3800 X33.311 Y138.6
N3805 X33.377 Y138.655
N3810 X35.08 Y139.992
N3815 X35.117 Y140.021
N3820 X35.721 Y140.464
N3825 X35.829 Y140.536
N3830 X37.879 Y141.775
N3835 X37.983 Y141.832
N3840 X38.35 Y142.015
N3845 X38.4 Y142.038
N3850 X40.213 Y142.854
N3855 X40.236 Y142.865
N3860 X40.726 Y143.075
N3865 X40.866 Y143.126
N3870 X43.398 Y143.912
N3875 X43.481 Y143.935
N3880 X43.564 Y143.953
N3885 X45.982 Y144.398
N3890 X46.082 Y144.413
N3895 X46.686 Y144.481
N3900 X46.763 Y144.487
N3905 X49.18 Y144.628
N3910 X49.264 Y144.631
N3915 X176.161
N3920 X176.245 Y144.628
N3925 X178.662 Y144.487
N3930 X178.739 Y144.481
N3935 X179.343 Y144.413
N3940 X179.443 Y144.398
N3945 X181.861 Y143.953
N3950 X181.944 Y143.935
N3955 X182.027 Y143.912
N3960 X184.559 Y143.126
N3965 X184.699 Y143.075
N3970 X185.189 Y142.865
N3975 X185.212 Y142.854
N3980 X187.025 Y142.038
N3985 X187.075 Y142.015
N3990 X187.442 Y141.832
N3995 X187.546 Y141.775
N4000 X189.596 Y140.536
N4005 X189.704 Y140.464
N4010 X190.308 Y140.021
N4015 X190.345 Y139.992
N4020 X192.048 Y138.655
N4025 X192.114 Y138.6
N4030 X192.177 Y138.541
N4035 X194.1 Y136.619
N4040 X194.159 Y136.556
N4045 X194.214 Y136.49
N4050 X195.551 Y134.787
N4055 X195.579 Y134.751
N4060 X196.023 Y134.147
N4065 X196.095 Y134.039
N4070 X197.335 Y131.988
N4075 X197.391 Y131.886
N4080 X197.574 Y131.521
N4085 X197.598 Y131.468
N4090 X198.414 Y129.656
N4095 X198.423 Y129.635
N4100 X198.634 Y129.146
N4105 X198.662 Y129.076
N4110 X198.687 Y129.004
N4115 X199.473 Y126.472
N4120 X199.496 Y126.389
N4125 X199.514 Y126.305
N4130 X199.959 Y123.889
N4135 X199.974 Y123.79
N4140 X200.043 Y123.186
N4145 X200.049 Y123.108
N4150 X200.191 Y120.692
N4155 X200.193 Y120.607
N4160 Y44.492
N4165 X200.191 Y44.408
N4170 X200.049 Y41.992
N4175 X200.043 Y41.913
N4180 X199.974 Y41.309
N4185 X199.959 Y41.211
N4190 X199.514 Y38.794
N4195 X199.496 Y38.71
N4200 X199.473 Y38.628
N4205 X198.687 Y36.096
N4210 X198.66 Y36.018
N4215 X198.629 Y35.942
N4220 X198.146 Y34.849
N4225 X198.142 Y34.839
N4230 X197.598 Y33.631
N4235 X197.573 Y33.579
N4240 X197.391 Y33.214
N4245 X197.335 Y33.112
N4250 X196.095 Y31.061
N4255 X196.017 Y30.945
N4260 X195.444 Y30.177
N4265 X195.422 Y30.148
N4270 X194.214 Y28.61
N4275 X194.159 Y28.544
N4280 X194.1 Y28.481
N4285 X192.176 Y26.559
N4290 X192.114 Y26.5
N4295 X192.048 Y26.444
N4300 X190.345 Y25.108
N4305 X190.308 Y25.079
N4310 X189.704 Y24.636
N4315 X189.596 Y24.564
N4320 X187.545 Y23.324
N4325 X187.441 Y23.267
N4330 X187.075 Y23.085
N4335 X187.025 Y23.062
N4340 X185.212 Y22.246
N4345 X185.189 Y22.235
N4350 X184.697 Y22.025
N4355 X184.557 Y21.973
N4360 X184.187 Y21.858
N4365 G3 X184.03 Y21.563 I0.071 J-0.227
N4370 G1 X184.834 Y18.839
N4375 G3 X185.128 Y18.678 I0.228 J0.067
N4380 G1 X185.228 Y18.707
N4385 X188.065 Y19.884
N4390 X190.75 Y21.372
N4395 X193.232 Y23.135
N4400 X195.488 Y25.151
N4405 X197.524 Y27.427
N4410 X199.326 Y29.97
N4415 X200.776 Y32.593
N4420 X201.954 Y35.43
N4425 X202.808 Y38.394
N4430 X203.318 Y41.406
N4435 X203.494 Y44.532
N4440 Y120.567
N4445 X203.318 Y123.693
N4450 X202.808 Y126.705
N4455 X201.954 Y129.67
N4460 X200.776 Y132.506
N4465 X199.288 Y135.19
N4470 X197.525 Y137.672
N4475 X195.488 Y139.948
N4480 X193.233 Y141.963
N4485 X190.689 Y143.766
N4490 X188.066 Y145.215
N4495 X185.229 Y146.393
N4500 X182.261 Y147.246
N4505 X179.248 Y147.756
N4510 X176.121 Y147.931
N4515 X49.304
N4520 X46.177 Y147.756
N4525 X43.164 Y147.246
N4530 X40.196 Y146.393
N4535 X37.36 Y145.216
N4540 X34.675 Y143.728
N4545 X32.193 Y141.964
N4550 X29.937 Y139.948
N4555 X27.901 Y137.672
N4560 X26.099 Y135.129
N4565 X24.649 Y132.507
N4570 X23.471 Y129.67
N4575 X22.617 Y126.705
N4580 X22.107 Y123.693
N4585 X21.931 Y120.567
N4590 Y44.532
N4595 X22.107 Y41.406
N4600 X22.283 Y40.361
N4605 X22.617 Y38.395
N4610 X23.471 Y35.43
N4615 X24.649 Y32.594
N4620 X26.137 Y29.909
N4625 X27.9 Y27.428
N4630 X29.937 Y25.151
N4635 X32.192 Y23.136
N4640 X34.736 Y21.334
N4645 X37.36 Y19.884
N4650 X40.197 Y18.707
N4655 X43.164 Y17.854
N4660 X46.177 Y17.344
N4665 X49.304 Y17.169
N4670 X176.121
N4675 X179.248 Y17.344
N4680 X182.261 Y17.854
N4685 X185.128 Y18.678
N4690 X185.161 Y18.695
N4695 X185.186 Y18.723
N4700 X185.198 Y18.758
N4705 X185.196 Y18.795
N4710 X185.181 Y18.829
N4715 X185.154 Y18.855
N4720 X185.12 Y18.869
N4725 X184.779 Y18.937
N4730 X184.752 Y18.938
N4735 X166.459 Y17.486
N4740 X166.43 Y17.479
N4745 X166.129 Y17.357
N4750 X166.097 Y17.336
N4755 X166.076 Y17.305
N4760 X166.068 Y17.267
N4765 X166.075 Y17.23
N4770 X166.097 Y17.198
N4775 X166.128 Y17.176
N4780 X166.166 Y17.169
N4785 X176.121 Z-3.348 F333.33
N4790 X179.248 Y17.344 Z-3.457
N4795 X182.261 Y17.854 Z-3.564
N4800 X185.228 Y18.707 Z-3.672
N4805 X188.065 Y19.884 Z-3.779
N4810 X190.75 Y21.372 Z-3.886
N4815 X193.232 Y23.135 Z-3.992
N4820 X193.396 Y23.282 Z-4.
N4825 X195.488 Y25.151 F2000.
N4830 X197.524 Y27.427
N4835 X199.326 Y29.97
N4840 X200.776 Y32.593
N4845 X201.954 Y35.43
N4850 X202.808 Y38.394
N4855 X203.318 Y41.406
N4860 X203.494 Y44.532
N4865 Y120.567
N4870 X203.318 Y123.693
N4875 X202.808 Y126.705
N4880 X201.954 Y129.67
N4885 X200.776 Y132.506
N4890 X199.288 Y135.19
N4895 X197.525 Y137.672
N4900 X195.488 Y139.948
N4905 X193.233 Y141.963
N4910 X190.689 Y143.766
N4915 X188.066 Y145.215
N4920 X185.229 Y146.393
N4925 X182.261 Y147.246
N4930 X179.248 Y147.756
N4935 X176.121 Y147.931
N4940 X49.304
N4945 X46.177 Y147.756
N4950 X43.164 Y147.246
N4955 X40.196 Y146.393
N4960 X37.36 Y145.216
N4965 X34.675 Y143.728
N4970 X32.193 Y141.964
N4975 X29.937 Y139.948
N4980 X27.901 Y137.672
N4985 X26.099 Y135.129
N4990 X24.649 Y132.507
N4995 X23.471 Y129.67
N5000 X22.617 Y126.705
N5005 X22.107 Y123.693
N5010 X21.931 Y120.567
N5015 Y44.532
N5020 X22.107 Y41.406
N5025 X22.283 Y40.361
N5030 X22.617 Y38.395
N5035 X23.471 Y35.43
N5040 X24.649 Y32.594
N5045 X26.137 Y29.909
N5050 X27.9 Y27.428
N5055 X29.937 Y25.151
N5060 X32.192 Y23.136
N5065 X34.736 Y21.334
N5070 X37.36 Y19.884
N5075 X40.197 Y18.707
N5080 X43.164 Y17.854
N5085 X46.177 Y17.344
N5090 X49.304 Y17.169
N5095 X176.121
N5100 X179.248 Y17.344
N5105 X182.261 Y17.854
N5110 X185.228 Y18.707
N5115 X188.065 Y19.884
N5120 X190.75 Y21.372
N5125 X193.232 Y23.135
N5130 X193.396 Y23.282
N5135 G3 X193.407 Y23.627 I-0.159 J0.178
N5140 G1 X192.103 Y24.952
N5145 G3 X191.786 Y24.972 I-0.17 J-0.167
N5150 G1 X191.361 Y24.635
N5155 X191.355 Y24.631
N5160 X190.584 Y24.027
N5165 X190.511 Y23.973
N5170 X190.27 Y23.808
N5175 X190.201 Y23.763
N5180 X188.388 Y22.667
N5185 X188.361 Y22.651
N5190 X187.756 Y22.304
N5195 X187.629 Y22.239
N5200 X185.212 Y21.151
N5205 X185.136 Y21.119
N5210 X185.058 Y21.092
N5215 X183.85 Y20.707
N5220 X183.841 Y20.704
N5225 X182.633 Y20.328
N5230 X182.557 Y20.307
N5235 X181.898 Y20.14
N5240 X181.805 Y20.12
N5245 X179.442 Y19.687
N5250 X179.308 Y19.669
N5255 X178.704 Y19.616
N5260 X178.662 Y19.613
N5265 X176.245 Y19.472
N5270 X176.161 Y19.469
N5275 X49.264
N5280 X49.18 Y19.472
N5285 X46.763 Y19.613
N5290 X46.721 Y19.616
N5295 X46.117 Y19.669
N5300 X45.983 Y19.687
N5305 X43.566 Y20.13
N5310 X43.464 Y20.152
N5315 X42.86 Y20.309
N5320 X42.792 Y20.328
N5325 X40.98 Y20.893
N5330 X40.962 Y20.898
N5335 X40.358 Y21.095
N5340 X40.285 Y21.121
N5345 X40.213 Y21.151
N5350 X37.796 Y22.239
N5355 X37.665 Y22.306
N5360 X36.974 Y22.706
N5365 X36.95 Y22.72
N5370 X35.224 Y23.763
N5375 X35.155 Y23.808
N5380 X34.914 Y23.973
N5385 X34.841 Y24.027
N5390 X33.268 Y25.259
N5395 X33.256 Y25.269
N5400 X32.652 Y25.752
N5405 X32.592 Y25.804
N5410 X32.534 Y25.858
N5415 X30.625 Y27.767
N5420 X30.568 Y27.827
N5425 X30.515 Y27.891
N5430 X29.557 Y29.099
N5435 X29.552 Y29.105
N5440 X28.793 Y30.074
N5445 X28.741 Y30.145
N5450 X28.576 Y30.384
N5455 X28.529 Y30.457
N5460 X27.433 Y32.269
N5465 X27.418 Y32.295
N5470 X27.07 Y32.899
N5475 X27.004 Y33.027
N5480 X25.917 Y35.444
N5485 X25.885 Y35.519
N5490 X25.858 Y35.597
N5495 X25.472 Y36.805
N5500 X25.469 Y36.814
N5505 X25.093 Y38.023
N5510 X25.072 Y38.095
N5515 X24.905 Y38.75
N5520 X24.884 Y38.846
N5525 X24.451 Y41.212
N5530 X24.433 Y41.344
N5535 X24.379 Y41.948
N5540 X24.376 Y41.989
N5545 X24.259 Y43.92
N5550 X24.258 Y43.935
N5555 X24.234 Y44.42
N5560 X24.232 Y44.492
N5565 Y120.607
N5570 X24.234 Y120.692
N5575 X24.376 Y123.108
N5580 X24.379 Y123.152
N5585 X24.433 Y123.756
N5590 X24.451 Y123.888
N5595 X24.893 Y126.304
N5600 X24.916 Y126.408
N5605 X25.074 Y127.012
N5610 X25.092 Y127.077
N5615 X25.657 Y128.889
N5620 X25.663 Y128.908
N5625 X25.861 Y129.512
N5630 X25.887 Y129.585
N5635 X25.916 Y129.656
N5640 X27.004 Y132.072
N5645 X27.071 Y132.204
N5650 X27.472 Y132.895
N5655 X27.486 Y132.917
N5660 X28.529 Y134.643
N5665 X28.575 Y134.715
N5670 X28.741 Y134.955
N5675 X28.793 Y135.026
N5680 X30.025 Y136.598
N5685 X30.035 Y136.611
N5690 X30.52 Y137.215
N5695 X30.57 Y137.275
N5700 X30.625 Y137.333
N5705 X32.534 Y139.242
N5710 X32.595 Y139.299
N5715 X32.659 Y139.353
N5720 X34.064 Y140.464
N5725 X34.069 Y140.468
N5730 X34.84 Y141.072
N5735 X34.913 Y141.126
N5740 X35.154 Y141.292
N5745 X35.224 Y141.337
N5750 X37.037 Y142.433
N5755 X37.064 Y142.449
N5760 X37.669 Y142.796
N5765 X37.796 Y142.861
N5770 X40.213 Y143.949
N5775 X40.289 Y143.981
N5780 X40.367 Y144.008
N5785 X41.575 Y144.393
N5790 X41.584 Y144.396
N5795 X42.792 Y144.772
N5800 X42.867 Y144.793
N5805 X43.524 Y144.959
N5810 X43.618 Y144.98
N5815 X45.983 Y145.413
N5820 X46.117 Y145.432
N5825 X46.721 Y145.484
N5830 X46.763 Y145.487
N5835 X49.18 Y145.628
N5840 X49.264 Y145.631
N5845 X176.161
N5850 X176.245 Y145.628
N5855 X178.662 Y145.487
N5860 X178.704 Y145.484
N5865 X179.308 Y145.432
N5870 X179.442 Y145.413
N5875 X181.859 Y144.97
N5880 X181.961 Y144.948
N5885 X182.565 Y144.791
N5890 X182.633 Y144.772
N5895 X184.445 Y144.207
N5900 X184.463 Y144.202
N5905 X185.067 Y144.005
N5910 X185.14 Y143.979
N5915 X185.212 Y143.949
N5920 X187.629 Y142.861
N5925 X187.76 Y142.794
N5930 X188.452 Y142.393
N5935 X188.476 Y142.379
N5940 X190.201 Y141.337
N5945 X190.271 Y141.292
N5950 X190.512 Y141.126
N5955 X190.585 Y141.072
N5960 X192.157 Y139.841
N5965 X192.169 Y139.831
N5970 X192.773 Y139.348
N5975 X192.833 Y139.296
N5980 X192.891 Y139.242
N5985 X194.8 Y137.333
N5990 X194.857 Y137.272
N5995 X194.911 Y137.209
N6000 X195.868 Y136.001
N6005 X195.874 Y135.994
N6010 X196.632 Y135.026
N6015 X196.684 Y134.955
N6020 X196.85 Y134.715
N6025 X196.896 Y134.643
N6030 X197.992 Y132.83
N6035 X198.007 Y132.805
N6040 X198.356 Y132.201
N6045 X198.421 Y132.072
N6050 X199.509 Y129.656
N6055 X199.54 Y129.58
N6060 X199.567 Y129.503
N6065 X199.953 Y128.295
N6070 X199.956 Y128.285
N6075 X200.333 Y127.077
N6080 X200.353 Y127.004
N6085 X200.52 Y126.35
N6090 X200.541 Y126.254
N6095 X200.974 Y123.888
N6100 X200.992 Y123.756
N6105 X201.046 Y123.152
N6110 X201.049 Y123.108
N6115 X201.191 Y120.692
N6120 X201.193 Y120.607
N6125 Y44.492
N6130 X201.191 Y44.408
N6135 X201.049 Y41.992
N6140 X201.046 Y41.948
N6145 X200.992 Y41.344
N6150 X200.974 Y41.212
N6155 X200.532 Y38.796
N6160 X200.509 Y38.692
N6165 X200.351 Y38.088
N6170 X200.332 Y38.023
N6175 X199.768 Y36.21
N6180 X199.762 Y36.191
N6185 X199.564 Y35.587
N6190 X199.538 Y35.515
N6195 X199.508 Y35.444
N6200 X198.421 Y33.027
N6205 X198.353 Y32.895
N6210 X197.953 Y32.205
N6215 X197.939 Y32.183
N6220 X196.896 Y30.457
N6225 X196.849 Y30.384
N6230 X196.684 Y30.145
N6235 X196.632 Y30.074
N6240 X195.4 Y28.501
N6245 X195.39 Y28.488
N6250 X194.905 Y27.884
N6255 X194.854 Y27.824
N6260 X194.8 Y27.767
N6265 X192.891 Y25.858
N6270 X192.83 Y25.801
N6275 X192.766 Y25.747
N6280 X191.786 Y24.972
N6285 X191.74 Y24.93 Z-3.992
N6290 X191.7 Y24.883 Z-3.984
N6295 X191.668 Y24.836 Z-3.96
N6300 X191.643 Y24.784 Z-3.936
N6305 X191.626 Y24.738 Z-3.898
N6310 X191.614 Y24.69 Z-3.861
N6315 X191.605 Y24.615 Z-3.762
N6320 X191.606 Y24.567 Z-3.647
N6325 X191.607 Y24.551 Z-3.524
N6330 Z5.
N6335 X57.612 Y18.705
N6340 Z-2.474 F333.33
N6345 G18 G3 X57.137 Z-2.95 I-0.476 K0.
N6350 G1 X49.264 Z-2.964
N6355 X49.18 Y18.708
N6360 X46.763 Y18.848 Z-2.968
N6365 X46.746 Y18.849
N6370 X46.142 Y18.891 Z-2.969
N6375 X46.061 Y18.899 Z-2.97
N6380 X45.981 Y18.912
N6385 X43.111 Y19.441 Z-2.975
N6390 X43.026 Y19.46
N6395 X42.942 Y19.483
N6400 X40.148 Y20.357 Z-2.98
N6405 X40.066 Y20.385
N6410 X39.986 Y20.418 Z-2.981
N6415 X37.326 Y21.616 Z-2.986
N6420 X37.248 Y21.654
N6425 X37.174 Y21.696
N6430 X35.226 Y22.871 Z-2.99
N6435 X35.213 Y22.878
N6440 X34.609 Y23.251 Z-2.991
N6445 X34.542 Y23.295
N6450 X34.477 Y23.343 Z-2.992
N6455 X32.235 Y25.1 Z-2.997
N6460 X32.17 Y25.155
N6465 X32.107 Y25.213
N6470 X30.119 Y27.194 Z-3.002
N6475 X30.092 Y27.221
N6480 X29.956 Y27.364
N6485 X29.866 Y27.469
N6490 X28.11 Y29.709 Z-3.007
N6495 X28.059 Y29.778 Z-3.008
N6500 X28.013 Y29.849
N6505 X26.884 Y31.703 Z-3.012
N6510 X26.879 Y31.71
N6515 X26.461 Y32.407 Z-3.013
N6520 X26.419 Y32.481
N6525 X26.382 Y32.557
N6530 X25.216 Y35.14 Z-3.018
N6535 X25.192 Y35.198
N6540 X25.131 Y35.349 Z-3.019
N6545 X25.094 Y35.455
N6550 X24.247 Y38.174 Z-3.024
N6555 X24.224 Y38.256
N6560 X24.206 Y38.34
N6565 X23.676 Y41.207 Z-3.029
N6570 X23.663 Y41.292 Z-3.03
N6575 X23.655 Y41.378
N6580 X23.502 Y43.797 Z-3.034
N6585 X23.501 Y43.813
N6590 X23.47 Y44.417 Z-3.035
N6595 X23.468 Y44.492
N6600 Y120.607 Z-3.169
N6605 X23.47 Y120.691
N6610 X23.611 Y123.108 Z-3.174
N6615 X23.612 Y123.126
N6620 X23.656 Y123.734 Z-3.175
N6625 X23.664 Y123.814
N6630 X23.676 Y123.893
N6635 X24.206 Y126.759 Z-3.18
N6640 X24.224 Y126.843
N6645 X24.247 Y126.926
N6650 X25.093 Y129.644 Z-3.185
N6655 X25.118 Y129.717 Z-3.186
N6660 X25.147 Y129.788
N6665 X25.343 Y130.241 Z-3.187
N6670 X25.352 Y130.262
N6675 X26.382 Y132.543 Z-3.191
N6680 X26.42 Y132.62
N6685 X26.462 Y132.694
N6690 X27.636 Y134.642 Z-3.195
N6695 X27.644 Y134.655
N6700 X28.018 Y135.259 Z-3.197
N6705 X28.062 Y135.326
N6710 X28.109 Y135.39
N6715 X29.866 Y137.631 Z-3.202
N6720 X29.92 Y137.697
N6725 X29.979 Y137.759
N6730 X31.96 Y139.747 Z-3.207
N6735 X31.989 Y139.775
N6740 X32.132 Y139.911 Z-3.208
N6745 X32.235 Y140.
N6750 X34.477 Y141.757 Z-3.213
N6755 X34.546 Y141.807
N6760 X34.617 Y141.854
N6765 X37.034 Y143.323 Z-3.218
N6770 X37.056 Y143.336
N6775 X37.191 Y143.414
N6780 X37.326 Y143.484 Z-3.219
N6785 X39.986 Y144.682 Z-3.224
N6790 X40.066 Y144.715
N6795 X40.148 Y144.743
N6800 X42.942 Y145.617 Z-3.229
N6805 X43.026 Y145.64
N6810 X43.111 Y145.659 Z-3.23
N6815 X45.981 Y146.188 Z-3.235
N6820 X46.066 Y146.201
N6825 X46.152 Y146.209
N6830 X48.569 Y146.361 Z-3.239
N6835 X48.586 Y146.362
N6840 X49.19 Y146.393 Z-3.24
N6845 X49.264 Y146.395
N6850 X176.161 Z-3.464
N6855 X176.245 Y146.392
N6860 X178.662 Y146.252 Z-3.468
N6865 X178.679 Y146.251
N6870 X179.286 Y146.208 Z-3.469
N6875 X179.367 Y146.2 Z-3.47
N6880 X179.447 Y146.188
N6885 X182.314 Y145.659 Z-3.475
N6890 X182.399 Y145.64
N6895 X182.483 Y145.617
N6900 X185.277 Y144.743 Z-3.48
N6905 X185.359 Y144.715
N6910 X185.439 Y144.682 Z-3.481
N6915 X188.099 Y143.484 Z-3.486
N6920 X188.177 Y143.446
N6925 X188.252 Y143.404
N6930 X190.199 Y142.229 Z-3.49
N6935 X190.212 Y142.222
N6940 X190.816 Y141.849 Z-3.491
N6945 X190.883 Y141.805
N6950 X190.948 Y141.757 Z-3.492
N6955 X193.19 Y140. Z-3.497
N6960 X193.256 Y139.945
N6965 X193.318 Y139.886
N6970 X195.306 Y137.906 Z-3.502
N6975 X195.333 Y137.879
N6980 X195.469 Y137.736
N6985 X195.559 Y137.631
N6990 X197.316 Y135.39 Z-3.507
N6995 X197.366 Y135.322 Z-3.508
N7000 X197.412 Y135.251
N7005 X198.541 Y133.397 Z-3.512
N7010 X198.546 Y133.39
N7015 X198.965 Y132.692 Z-3.513
N7020 X199.006 Y132.619
N7025 X199.043 Y132.543
N7030 X200.209 Y129.959 Z-3.518
N7035 X200.234 Y129.901
N7040 X200.294 Y129.75 Z-3.519
N7045 X200.332 Y129.644
N7050 X201.178 Y126.926 Z-3.524
N7055 X201.201 Y126.843
N7060 X201.219 Y126.759
N7065 X201.749 Y123.89 Z-3.529
N7070 X201.763 Y123.804 Z-3.53
N7075 X201.771 Y123.719
N7080 X201.923 Y121.302 Z-3.534
N7085 X201.924 Y121.287
N7090 X201.955 Y120.682 Z-3.535
N7095 X201.957 Y120.607
N7100 Y44.492 Z-3.669
N7105 X201.955 Y44.408
N7110 X201.814 Y41.992 Z-3.674
N7115 X201.813 Y41.973
N7120 X201.769 Y41.366 Z-3.675
N7125 X201.761 Y41.286
N7130 X201.749 Y41.207
N7135 X201.219 Y38.34 Z-3.68
N7140 X201.201 Y38.256
N7145 X201.178 Y38.174
N7150 X200.331 Y35.455 Z-3.685
N7155 X200.307 Y35.383 Z-3.686
N7160 X200.278 Y35.311
N7165 X200.082 Y34.858 Z-3.687
N7170 X200.073 Y34.838
N7175 X199.043 Y32.557 Z-3.691
N7180 X199.005 Y32.48
N7185 X198.963 Y32.405
N7190 X197.789 Y30.458 Z-3.695
N7195 X197.78 Y30.445
N7200 X197.407 Y29.84 Z-3.697
N7205 X197.363 Y29.774
N7210 X197.315 Y29.709
N7215 X195.559 Y27.469 Z-3.702
N7220 X195.504 Y27.403
N7225 X195.446 Y27.341
N7230 X193.464 Y25.352 Z-3.707
N7235 X193.435 Y25.324
N7240 X193.292 Y25.189 Z-3.708
N7245 X193.19 Y25.1
N7250 X190.948 Y23.343 Z-3.713
N7255 X190.879 Y23.293
N7260 X190.808 Y23.246
N7265 X188.391 Y21.777 Z-3.718
N7270 X188.368 Y21.764
N7275 X188.233 Y21.685
N7280 X188.099 Y21.616 Z-3.719
N7285 X185.439 Y20.418 Z-3.724
N7290 X185.359 Y20.385
N7295 X185.277 Y20.357
N7300 X182.483 Y19.483 Z-3.729
N7305 X182.399 Y19.46
N7310 X182.314 Y19.441 Z-3.73
N7315 X179.443 Y18.912 Z-3.735
N7320 X179.358 Y18.899
N7325 X179.272 Y18.891
N7330 X176.856 Y18.739 Z-3.739
N7335 X176.839 Y18.738
N7340 X176.235 Y18.707 Z-3.74
N7345 X176.161 Y18.705
N7350 X49.264 Z-3.964
N7355 X49.18 Y18.708
N7360 X46.763 Y18.848 Z-3.968
N7365 X46.746 Y18.849
N7370 X46.142 Y18.891 Z-3.969
N7375 X46.061 Y18.899 Z-3.97
N7380 X45.981 Y18.912
N7385 X43.111 Y19.441 Z-3.975
N7390 X43.026 Y19.46
N7395 X42.942 Y19.483
N7400 X40.148 Y20.357 Z-3.98
N7405 X40.066 Y20.385
N7410 X39.986 Y20.418 Z-3.981
N7415 X37.326 Y21.616 Z-3.986
N7420 X37.248 Y21.654
N7425 X37.174 Y21.696
N7430 X35.226 Y22.871 Z-3.99
N7435 X35.213 Y22.878
N7440 X34.609 Y23.251 Z-3.991
N7445 X34.542 Y23.295
N7450 X34.477 Y23.343 Z-3.992
N7455 X32.235 Y25.1 Z-3.997
N7460 X32.17 Y25.155
N7465 X32.107 Y25.213
N7470 X30.119 Y27.194 Z-4.002
N7475 X30.092 Y27.221
N7480 X29.956 Y27.364
N7485 X29.866 Y27.469
N7490 X28.11 Y29.709 Z-4.007
N7495 X28.059 Y29.778 Z-4.008
N7500 X28.013 Y29.849
N7505 X26.884 Y31.703 Z-4.012
N7510 X26.879 Y31.71
N7515 X26.461 Y32.407 Z-4.013
N7520 X26.419 Y32.481
N7525 X26.382 Y32.557
N7530 X25.216 Y35.14 Z-4.018
N7535 X25.192 Y35.198
N7540 X25.131 Y35.349 Z-4.019
N7545 X25.094 Y35.455
N7550 X24.247 Y38.174 Z-4.024
N7555 X24.224 Y38.256
N7560 X24.206 Y38.34
N7565 X23.676 Y41.207 Z-4.029
N7570 X23.663 Y41.292 Z-4.03
N7575 X23.655 Y41.378
N7580 X23.502 Y43.797 Z-4.034
N7585 X23.501 Y43.813
N7590 X23.47 Y44.417 Z-4.035
N7595 X23.468 Y44.492
N7600 Y120.607 Z-4.169
N7605 X23.47 Y120.691
N7610 X23.611 Y123.108 Z-4.174
N7615 X23.612 Y123.126
N7620 X23.656 Y123.734 Z-4.175
N7625 X23.664 Y123.814
N7630 X23.676 Y123.893
N7635 X24.206 Y126.759 Z-4.18
N7640 X24.224 Y126.843
N7645 X24.247 Y126.926
N7650 X25.093 Y129.644 Z-4.185
N7655 X25.118 Y129.717 Z-4.186
N7660 X25.147 Y129.788
N7665 X25.343 Y130.241 Z-4.187
N7670 X25.352 Y130.262
N7675 X26.382 Y132.543 Z-4.191
N7680 X26.42 Y132.62
N7685 X26.462 Y132.694
N7690 X27.636 Y134.642 Z-4.195
N7695 X27.644 Y134.655
N7700 X28.018 Y135.259 Z-4.197
N7705 X28.062 Y135.326
N7710 X28.109 Y135.39
N7715 X29.866 Y137.631 Z-4.202
N7720 X29.92 Y137.697
N7725 X29.979 Y137.759
N7730 X31.96 Y139.747 Z-4.207
N7735 X31.989 Y139.775
N7740 X32.132 Y139.911 Z-4.208
N7745 X32.235 Y140.
N7750 X34.477 Y141.757 Z-4.213
N7755 X34.546 Y141.807
N7760 X34.617 Y141.854
N7765 X37.034 Y143.323 Z-4.218
N7770 X37.056 Y143.336
N7775 X37.191 Y143.414
N7780 X37.326 Y143.484 Z-4.219
N7785 X39.986 Y144.682 Z-4.224
N7790 X40.066 Y144.715
N7795 X40.148 Y144.743
N7800 X42.942 Y145.617 Z-4.229
N7805 X43.026 Y145.64
N7810 X43.111 Y145.659 Z-4.23
N7815 X45.981 Y146.188 Z-4.235
N7820 X46.066 Y146.201
N7825 X46.152 Y146.209
N7830 X48.569 Y146.361 Z-4.239
N7835 X48.586 Y146.362
N7840 X49.19 Y146.393 Z-4.24
N7845 X49.264 Y146.395
N7850 X176.161 Z-4.464
N7855 X176.245 Y146.392
N7860 X178.662 Y146.252 Z-4.468
N7865 X178.679 Y146.251
N7870 X179.286 Y146.208 Z-4.469
N7875 X179.367 Y146.2 Z-4.47
N7880 X179.447 Y146.188
N7885 X182.314 Y145.659 Z-4.475
N7890 X182.399 Y145.64
N7895 X182.483 Y145.617
N7900 X185.277 Y144.743 Z-4.48
N7905 X185.359 Y144.715
N7910 X185.439 Y144.682 Z-4.481
N7915 X188.099 Y143.484 Z-4.486
N7920 X188.177 Y143.446
N7925 X188.252 Y143.404
N7930 X190.199 Y142.229 Z-4.49
N7935 X190.212 Y142.222
N7940 X190.816 Y141.849 Z-4.491
N7945 X190.883 Y141.805
N7950 X190.948 Y141.757 Z-4.492
N7955 X193.19 Y140. Z-4.497
N7960 X193.256 Y139.945
N7965 X193.318 Y139.886
N7970 X195.306 Y137.906 Z-4.502
N7975 X195.333 Y137.879
N7980 X195.469 Y137.736
N7985 X195.559 Y137.631
N7990 X197.316 Y135.39 Z-4.507
N7995 X197.366 Y135.322 Z-4.508
N8000 X197.412 Y135.251
N8005 X198.541 Y133.397 Z-4.512
N8010 X198.546 Y133.39
N8015 X198.965 Y132.692 Z-4.513
N8020 X199.006 Y132.619
N8025 X199.043 Y132.543
N8030 X200.209 Y129.959 Z-4.518
N8035 X200.234 Y129.901
N8040 X200.294 Y129.75 Z-4.519
N8045 X200.332 Y129.644
N8050 X201.178 Y126.926 Z-4.524
N8055 X201.201 Y126.843
N8060 X201.219 Y126.759
N8065 X201.749 Y123.89 Z-4.529
N8070 X201.763 Y123.804 Z-4.53
N8075 X201.771 Y123.719
N8080 X201.923 Y121.302 Z-4.534
N8085 X201.924 Y121.287
N8090 X201.955 Y120.682 Z-4.535
N8095 X201.957 Y120.607
N8100 Y44.492 Z-4.669
N8105 X201.955 Y44.408
N8110 X201.814 Y41.992 Z-4.674
N8115 X201.813 Y41.973
N8120 X201.769 Y41.366 Z-4.675
N8125 X201.761 Y41.286
N8130 X201.749 Y41.207
N8135 X201.219 Y38.34 Z-4.68
N8140 X201.201 Y38.256
N8145 X201.178 Y38.174
N8150 X200.331 Y35.455 Z-4.685
N8155 X200.307 Y35.383 Z-4.686
N8160 X200.278 Y35.311
N8165 X200.082 Y34.858 Z-4.687
N8170 X200.073 Y34.838
N8175 X199.043 Y32.557 Z-4.691
N8180 X199.005 Y32.48
N8185 X198.963 Y32.405
N8190 X197.789 Y30.458 Z-4.695
N8195 X197.78 Y30.445
N8200 X197.407 Y29.84 Z-4.697
N8205 X197.363 Y29.774
N8210 X197.315 Y29.709
N8215 X195.559 Y27.469 Z-4.702
N8220 X195.504 Y27.403
N8225 X195.446 Y27.341
N8230 X193.464 Y25.352 Z-4.707
N8235 X193.435 Y25.324
N8240 X193.292 Y25.189 Z-4.708
N8245 X193.19 Y25.1
N8250 X190.948 Y23.343 Z-4.713
N8255 X190.879 Y23.293
N8260 X190.808 Y23.246
N8265 X188.391 Y21.777 Z-4.718
N8270 X188.368 Y21.764
N8275 X188.233 Y21.685
N8280 X188.099 Y21.616 Z-4.719
N8285 X185.439 Y20.418 Z-4.724
N8290 X185.359 Y20.385
N8295 X185.277 Y20.357
N8300 X182.483 Y19.483 Z-4.729
N8305 X182.399 Y19.46
N8310 X182.314 Y19.441 Z-4.73
N8315 X179.443 Y18.912 Z-4.735
N8320 X179.358 Y18.899
N8325 X179.272 Y18.891
N8330 X176.856 Y18.739 Z-4.739
N8335 X176.839 Y18.738
N8340 X176.235 Y18.707 Z-4.74
N8345 X176.161 Y18.705
N8350 X49.264 Z-4.964
N8355 X49.18 Y18.708
N8360 X46.763 Y18.848 Z-4.968
N8365 X46.746 Y18.849
N8370 X46.142 Y18.891 Z-4.969
N8375 X46.061 Y18.899 Z-4.97
N8380 X45.981 Y18.912
N8385 X43.111 Y19.441 Z-4.975
N8390 X43.026 Y19.46
N8395 X42.942 Y19.483
N8400 X40.148 Y20.357 Z-4.98
N8405 X40.066 Y20.385
N8410 X39.986 Y20.418 Z-4.981
N8415 X37.326 Y21.616 Z-4.986
N8420 X37.248 Y21.654
N8425 X37.174 Y21.696
N8430 X35.226 Y22.871 Z-4.99
N8435 X35.213 Y22.878
N8440 X34.609 Y23.251 Z-4.991
N8445 X34.542 Y23.295
N8450 X34.477 Y23.343 Z-4.992
N8455 X32.235 Y25.1 Z-4.997
N8460 X32.17 Y25.155
N8465 X32.107 Y25.213
N8470 X30.848 Y26.468 Z-5.
N8475 X30.119 Y27.194 F2000.
N8480 X30.092 Y27.221
N8485 X29.956 Y27.364
N8490 X29.866 Y27.469
N8495 X28.11 Y29.709
N8500 X28.059 Y29.778
N8505 X28.013 Y29.849
N8510 X26.884 Y31.703
N8515 X26.879 Y31.71
N8520 X26.461 Y32.407
N8525 X26.419 Y32.481
N8530 X26.382 Y32.557
N8535 X25.216 Y35.14
N8540 X25.192 Y35.198
N8545 X25.131 Y35.349
N8550 X25.094 Y35.455
N8555 X24.247 Y38.174
N8560 X24.224 Y38.256
N8565 X24.206 Y38.34
N8570 X23.676 Y41.207
N8575 X23.663 Y41.292
N8580 X23.655 Y41.378
N8585 X23.502 Y43.797
N8590 X23.501 Y43.813
N8595 X23.47 Y44.417
N8600 X23.468 Y44.492
N8605 Y120.607
N8610 X23.47 Y120.691
N8615 X23.611 Y123.108
N8620 X23.612 Y123.126
N8625 X23.656 Y123.734
N8630 X23.664 Y123.814
N8635 X23.676 Y123.893
N8640 X24.206 Y126.759
N8645 X24.224 Y126.843
N8650 X24.247 Y126.926
N8655 X25.093 Y129.644
N8660 X25.118 Y129.717
N8665 X25.147 Y129.788
N8670 X25.343 Y130.241
N8675 X25.352 Y130.262
N8680 X26.382 Y132.543
N8685 X26.42 Y132.62
N8690 X26.462 Y132.694
N8695 X27.636 Y134.642
N8700 X27.644 Y134.655
N8705 X28.018 Y135.259
N8710 X28.062 Y135.326
N8715 X28.109 Y135.39
N8720 X29.866 Y137.631
N8725 X29.92 Y137.697
N8730 X29.979 Y137.759
N8735 X31.96 Y139.747
N8740 X31.989 Y139.775
N8745 X32.132 Y139.911
N8750 X32.235 Y140.
N8755 X34.477 Y141.757
N8760 X34.546 Y141.807
N8765 X34.617 Y141.854
N8770 X37.034 Y143.323
N8775 X37.056 Y143.336
N8780 X37.191 Y143.414
N8785 X37.326 Y143.484
N8790 X39.986 Y144.682
N8795 X40.066 Y144.715
N8800 X40.148 Y144.743
N8805 X42.942 Y145.617
N8810 X43.026 Y145.64
N8815 X43.111 Y145.659
N8820 X45.981 Y146.188
N8825 X46.066 Y146.201
N8830 X46.152 Y146.209
N8835 X48.569 Y146.361
N8840 X48.586 Y146.362
N8845 X49.19 Y146.393
N8850 X49.264 Y146.395
N8855 X176.161
N8860 X176.245 Y146.392
N8865 X178.662 Y146.252
N8870 X178.679 Y146.251
N8875 X179.286 Y146.208
N8880 X179.367 Y146.2
N8885 X179.447 Y146.188
N8890 X182.314 Y145.659
N8895 X182.399 Y145.64
N8900 X182.483 Y145.617
N8905 X185.277 Y144.743
N8910 X185.359 Y144.715
N8915 X185.439 Y144.682
N8920 X188.099 Y143.484
N8925 X188.177 Y143.446
N8930 X188.252 Y143.404
N8935 X190.199 Y142.229
N8940 X190.212 Y142.222
N8945 X190.816 Y141.849
N8950 X190.883 Y141.805
N8955 X190.948 Y141.757
N8960 X193.19 Y140.
N8965 X193.256 Y139.945
N8970 X193.318 Y139.886
N8975 X195.306 Y137.906
N8980 X195.333 Y137.879
N8985 X195.469 Y137.736
N8990 X195.559 Y137.631
N8995 X197.316 Y135.39
N9000 X197.366 Y135.322
N9005 X197.412 Y135.251
N9010 X198.541 Y133.397
N9015 X198.546 Y133.39
N9020 X198.965 Y132.692
N9025 X199.006 Y132.619
N9030 X199.043 Y132.543
N9035 X200.209 Y129.959
N9040 X200.234 Y129.901
N9045 X200.294 Y129.75
N9050 X200.332 Y129.644
N9055 X201.178 Y126.926
N9060 X201.201 Y126.843
N9065 X201.219 Y126.759
N9070 X201.749 Y123.89
N9075 X201.763 Y123.804
N9080 X201.771 Y123.719
N9085 X201.923 Y121.302
N9090 X201.924 Y121.287
N9095 X201.955 Y120.682
N9100 X201.957 Y120.607
N9105 Y44.492
N9110 X201.955 Y44.408
N9115 X201.814 Y41.992
N9120 X201.813 Y41.973
N9125 X201.769 Y41.366
N9130 X201.761 Y41.286
N9135 X201.749 Y41.207
N9140 X201.219 Y38.34
N9145 X201.201 Y38.256
N9150 X201.178 Y38.174
N9155 X200.331 Y35.455
N9160 X200.307 Y35.383
N9165 X200.278 Y35.311
N9170 X200.082 Y34.858
N9175 X200.073 Y34.838
N9180 X199.043 Y32.557
N9185 X199.005 Y32.48
N9190 X198.963 Y32.405
N9195 X197.789 Y30.458
N9200 X197.78 Y30.445
N9205 X197.407 Y29.84
N9210 X197.363 Y29.774
N9215 X197.315 Y29.709
N9220 X195.559 Y27.469
N9225 X195.504 Y27.403
N9230 X195.446 Y27.341
N9235 X193.464 Y25.352
N9240 X193.435 Y25.324
N9245 X193.292 Y25.189
N9250 X193.19 Y25.1
N9255 X190.948 Y23.343
N9260 X190.879 Y23.293
N9265 X190.808 Y23.246
N9270 X188.391 Y21.777
N9275 X188.368 Y21.764
N9280 X188.233 Y21.685
N9285 X188.099 Y21.616
N9290 X185.439 Y20.418
N9295 X185.359 Y20.385
N9300 X185.277 Y20.357
N9305 X182.483 Y19.483
N9310 X182.399 Y19.46
N9315 X182.314 Y19.441
N9320 X179.443 Y18.912
N9325 X179.358 Y18.899
N9330 X179.272 Y18.891
N9335 X176.856 Y18.739
N9340 X176.839 Y18.738
N9345 X176.235 Y18.707
N9350 X176.161 Y18.705
N9355 X49.264
N9360 X49.18 Y18.708
N9365 X46.763 Y18.848
N9370 X46.746 Y18.849
N9375 X46.142 Y18.891
N9380 X46.061 Y18.899
N9385 X45.981 Y18.912
N9390 X43.111 Y19.441
N9395 X43.026 Y19.46
N9400 X42.942 Y19.483
N9405 X40.148 Y20.357
N9410 X40.066 Y20.385
N9415 X39.986 Y20.418
N9420 X37.326 Y21.616
N9425 X37.248 Y21.654
N9430 X37.174 Y21.696
N9435 X35.226 Y22.871
N9440 X35.213 Y22.878
N9445 X34.609 Y23.251
N9450 X34.542 Y23.295
N9455 X34.477 Y23.343
N9460 X32.235 Y25.1
N9465 X32.17 Y25.155
N9470 X32.107 Y25.213
N9475 X30.848 Y26.468
N9480 G17 G3 X30.478 Y26.427 I-0.168 J-0.169
N9485 G1 X29.878 Y25.477
N9490 G3 X29.902 Y25.191 I0.201 J-0.127
N9495 G1 X29.937 Y25.151
N9500 X32.192 Y23.136
N9505 X34.736 Y21.334
N9510 X37.36 Y19.884
N9515 X40.197 Y18.707
N9520 X43.164 Y17.854
N9525 X46.177 Y17.344
N9530 X49.098 Y17.18
N9535 X49.304 Y17.169
N9540 X176.121
N9545 X179.248 Y17.344
N9550 X182.261 Y17.854
N9555 X185.228 Y18.707
N9560 X188.065 Y19.884
N9565 X190.75 Y21.372
N9570 X193.232 Y23.135
N9575 X195.488 Y25.151
N9580 X197.524 Y27.427
N9585 X199.326 Y29.97
N9590 X200.776 Y32.593
N9595 X201.954 Y35.43
N9600 X202.808 Y38.394
N9605 X203.318 Y41.406
N9610 X203.494 Y44.532
N9615 Y120.567
N9620 X203.318 Y123.693
N9625 X202.808 Y126.705
N9630 X201.954 Y129.67
N9635 X200.776 Y132.506
N9640 X199.288 Y135.19
N9645 X197.525 Y137.672
N9650 X195.488 Y139.948
N9655 X193.233 Y141.963
N9660 X190.689 Y143.766
N9665 X188.066 Y145.215
N9670 X185.229 Y146.393
N9675 X182.261 Y147.246
N9680 X179.248 Y147.756
N9685 X176.121 Y147.931
N9690 X49.304
N9695 X46.177 Y147.756
N9700 X43.164 Y147.246
N9705 X40.196 Y146.393
N9710 X37.36 Y145.216
N9715 X34.675 Y143.728
N9720 X32.193 Y141.964
N9725 X29.937 Y139.948
N9730 X27.901 Y137.672
N9735 X26.099 Y135.129
N9740 X24.649 Y132.507
N9745 X23.471 Y129.67
N9750 X22.617 Y126.705
N9755 X22.107 Y123.693
N9760 X21.931 Y120.567
N9765 Y44.532
N9770 X22.107 Y41.406
N9775 X22.283 Y40.361
N9780 X22.617 Y38.395
N9785 X23.471 Y35.43
N9790 X24.649 Y32.594
N9795 X26.137 Y29.909
N9800 X27.9 Y27.428
N9805 X29.902 Y25.191
N9810 X29.946 Y25.148 Z-4.992
N9815 X29.995 Y25.111 Z-4.984
N9820 X30.045 Y25.082 Z-4.96
N9825 X30.098 Y25.06 Z-4.936
N9830 X30.145 Y25.046 Z-4.898
N9835 X30.193 Y25.037 Z-4.861
N9840 X30.269 Y25.032 Z-4.762
N9845 X30.316 Y25.036 Z-4.647
N9850 X30.332 Y25.038 Z-4.524
N9855 Z5.
N9860 X165.532 Y17.169
N9865 Z-3.474 F333.33
N9870 G18 G2 X166.007 Z-3.95 I0.476 K0.
N9875 G1 X176.121 Z-3.968
N9880 X179.248 Y17.344 Z-3.973
N9885 X182.261 Y17.854 Z-3.978
N9890 X185.228 Y18.707 Z-3.984
N9895 X188.065 Y19.884 Z-3.989
N9900 X190.75 Y21.372 Z-3.994
N9905 X193.232 Y23.135 Z-3.999
N9910 X195.488 Y25.151 Z-4.005
N9915 X197.524 Y27.427 Z-4.01
N9920 X199.326 Y29.97 Z-4.015
N9925 X200.776 Y32.593 Z-4.021
N9930 X201.954 Y35.43 Z-4.026
N9935 X202.808 Y38.394 Z-4.031
N9940 X203.318 Y41.406 Z-4.037
N9945 X203.494 Y44.532 Z-4.042
N9950 Y120.567 Z-4.174
N9955 X203.318 Y123.693 Z-4.179
N9960 X202.808 Y126.705 Z-4.184
N9965 X201.954 Y129.67 Z-4.19
N9970 X200.776 Y132.506 Z-4.195
N9975 X199.288 Y135.19 Z-4.2
N9980 X197.525 Y137.672 Z-4.206
N9985 X195.488 Y139.948 Z-4.211
N9990 X193.233 Y141.963 Z-4.216
N9995 X190.689 Y143.766 Z-4.221
N10000 X188.066 Y145.215 Z-4.227
N10005 X185.229 Y146.393 Z-4.232
N10010 X182.261 Y147.246 Z-4.237
N10015 X179.248 Y147.756 Z-4.243
N10020 X176.121 Y147.931 Z-4.248
N10025 X49.304 Z-4.468
N10030 X46.177 Y147.756 Z-4.473
N10035 X43.164 Y147.246 Z-4.478
N10040 X40.196 Y146.393 Z-4.484
N10045 X37.36 Y145.216 Z-4.489
N10050 X34.675 Y143.728 Z-4.494
N10055 X32.193 Y141.964 Z-4.499
N10060 X29.937 Y139.948 Z-4.505
N10065 X27.901 Y137.672 Z-4.51
N10070 X26.099 Y135.129 Z-4.515
N10075 X24.649 Y132.507 Z-4.521
N10080 X23.471 Y129.67 Z-4.526
N10085 X22.617 Y126.705 Z-4.531
N10090 X22.107 Y123.693 Z-4.537
N10095 X21.931 Y120.567 Z-4.542
N10100 Y44.532 Z-4.674
N10105 X22.107 Y41.406 Z-4.679
N10110 X22.283 Y40.361 Z-4.681
N10115 X22.617 Y38.395 Z-4.684
N10120 X23.471 Y35.43 Z-4.69
N10125 X24.649 Y32.594 Z-4.695
N10130 X26.137 Y29.909 Z-4.7
N10135 X27.9 Y27.428 Z-4.706
N10140 X29.937 Y25.151 Z-4.711
N10145 X32.192 Y23.136 Z-4.716
N10150 X34.736 Y21.334 Z-4.721
N10155 X37.36 Y19.884 Z-4.727
N10160 X40.197 Y18.707 Z-4.732
N10165 X43.164 Y17.854 Z-4.737
N10170 X46.177 Y17.344 Z-4.743
N10175 X49.304 Y17.169 Z-4.748
N10180 X176.121 Z-4.968
N10185 X179.248 Y17.344 Z-4.973
N10190 X182.261 Y17.854 Z-4.978
N10195 X185.228 Y18.707 Z-4.984
N10200 X188.065 Y19.884 Z-4.989
N10205 X190.75 Y21.372 Z-4.994
N10210 X193.232 Y23.135 Z-4.999
N10215 X195.488 Y25.151 Z-5.005
N10220 X197.524 Y27.427 Z-5.01
N10225 X199.326 Y29.97 Z-5.015
N10230 X200.776 Y32.593 Z-5.021
N10235 X201.954 Y35.43 Z-5.026
N10240 X202.808 Y38.394 Z-5.031
N10245 X203.318 Y41.406 Z-5.037
N10250 X203.494 Y44.532 Z-5.042
N10255 Y120.567 Z-5.174
N10260 X203.318 Y123.693 Z-5.179
N10265 X202.808 Y126.705 Z-5.184
N10270 X201.954 Y129.67 Z-5.19
N10275 X200.776 Y132.506 Z-5.195
N10280 X199.288 Y135.19 Z-5.2
N10285 X197.525 Y137.672 Z-5.206
N10290 X195.488 Y139.948 Z-5.211
N10295 X193.233 Y141.963 Z-5.216
N10300 X190.689 Y143.766 Z-5.221
N10305 X188.066 Y145.215 Z-5.227
N10310 X185.229 Y146.393 Z-5.232
N10315 X182.261 Y147.246 Z-5.237
N10320 X179.248 Y147.756 Z-5.243
N10325 X176.121 Y147.931 Z-5.248
N10330 X49.304 Z-5.468
N10335 X46.177 Y147.756 Z-5.473
N10340 X43.164 Y147.246 Z-5.478
N10345 X40.196 Y146.393 Z-5.484
N10350 X37.36 Y145.216 Z-5.489
N10355 X34.675 Y143.728 Z-5.494
N10360 X32.193 Y141.964 Z-5.499
N10365 X29.937 Y139.948 Z-5.505
N10370 X27.901 Y137.672 Z-5.51
N10375 X26.099 Y135.129 Z-5.515
N10380 X24.649 Y132.507 Z-5.521
N10385 X23.471 Y129.67 Z-5.526
N10390 X22.617 Y126.705 Z-5.531
N10395 X22.107 Y123.693 Z-5.537
N10400 X21.931 Y120.567 Z-5.542
N10405 Y44.532 Z-5.674
N10410 X22.107 Y41.406 Z-5.679
N10415 X22.283 Y40.361 Z-5.681
N10420 X22.617 Y38.395 Z-5.684
N10425 X23.471 Y35.43 Z-5.69
N10430 X24.649 Y32.594 Z-5.695
N10435 X26.137 Y29.909 Z-5.7
N10440 X27.9 Y27.428 Z-5.706
N10445 X29.937 Y25.151 Z-5.711
N10450 X32.192 Y23.136 Z-5.716
N10455 X34.736 Y21.334 Z-5.721
N10460 X37.36 Y19.884 Z-5.727
N10465 X40.197 Y18.707 Z-5.732
N10470 X43.164 Y17.854 Z-5.737
N10475 X46.177 Y17.344 Z-5.743
N10480 X49.304 Y17.169 Z-5.748
N10485 X176.121 Z-5.968
N10490 X179.248 Y17.344 Z-5.973
N10495 X182.261 Y17.854 Z-5.978
N10500 X185.228 Y18.707 Z-5.984
N10505 X188.065 Y19.884 Z-5.989
N10510 X190.75 Y21.372 Z-5.994
N10515 X193.232 Y23.135 Z-5.999
N10520 X193.463 Y23.342 Z-6.
N10525 X195.488 Y25.151 F2000.
N10530 X197.524 Y27.427
N10535 X199.326 Y29.97
N10540 X200.776 Y32.593
N10545 X201.954 Y35.43
N10550 X202.808 Y38.394
N10555 X203.318 Y41.406
N10560 X203.494 Y44.532
N10565 Y120.567
N10570 X203.318 Y123.693
N10575 X202.808 Y126.705
N10580 X201.954 Y129.67
N10585 X200.776 Y132.506
N10590 X199.288 Y135.19
N10595 X197.525 Y137.672
N10600 X195.488 Y139.948
N10605 X193.233 Y141.963
N10610 X190.689 Y143.766
N10615 X188.066 Y145.215
N10620 X185.229 Y146.393
N10625 X182.261 Y147.246
N10630 X179.248 Y147.756
N10635 X176.121 Y147.931
N10640 X49.304
N10645 X46.177 Y147.756
N10650 X43.164 Y147.246
N10655 X40.196 Y146.393
N10660 X37.36 Y145.216
N10665 X34.675 Y143.728
N10670 X32.193 Y141.964
N10675 X29.937 Y139.948
N10680 X27.901 Y137.672
N10685 X26.099 Y135.129
N10690 X24.649 Y132.507
N10695 X23.471 Y129.67
N10700 X22.617 Y126.705
N10705 X22.107 Y123.693
N10710 X21.931 Y120.567
N10715 Y44.532
N10720 X22.107 Y41.406
N10725 X22.283 Y40.361
N10730 X22.617 Y38.395
N10735 X23.471 Y35.43
N10740 X24.649 Y32.594
N10745 X26.137 Y29.909
N10750 X27.9 Y27.428
N10755 X29.937 Y25.151
N10760 X32.192 Y23.136
N10765 X34.736 Y21.334
N10770 X37.36 Y19.884
N10775 X40.197 Y18.707
N10780 X43.164 Y17.854
N10785 X46.177 Y17.344
N10790 X49.304 Y17.169
N10795 X176.121
N10800 X179.248 Y17.344
N10805 X182.261 Y17.854
N10810 X185.228 Y18.707
N10815 X188.065 Y19.884
N10820 X190.75 Y21.372
N10825 X193.232 Y23.135
N10830 X193.463 Y23.342
N10835 G17 G3 X193.364 Y23.75 I-0.159 J0.178
N10840 G1 X192.901 Y23.869
N10845 X192.847 Y23.877
N10850 X192.793 Y23.872
N10855 X192.741 Y23.854
N10860 X192.695 Y23.826
N10865 X192.16 Y23.404
N10870 X192.153 Y23.399
N10875 X191.293 Y22.729
N10880 X191.225 Y22.679
N10885 X191.154 Y22.634
N10890 X188.691 Y21.142
N10895 X188.648 Y21.117
N10900 X188.497 Y21.033
N10905 X188.384 Y20.976
N10910 X185.671 Y19.757
N10915 X185.591 Y19.724
N10920 X185.509 Y19.696
N10925 X182.633 Y18.799
N10930 X182.55 Y18.775
N10935 X182.465 Y18.757
N10940 X180.028 Y18.308
N10945 X180.012 Y18.305
N10950 X179.428 Y18.204
N10955 X179.348 Y18.192
N10960 X179.267 Y18.185
N10965 X176.246 Y18.007
N10970 X176.161 Y18.005
N10975 X49.264
N10980 X49.179 Y18.007
N10985 X46.158 Y18.185
N10990 X46.072 Y18.193
N10995 X45.986 Y18.206
N11000 X43.569 Y18.643
N11005 X43.559 Y18.645
N11010 X42.954 Y18.758
N11015 X42.873 Y18.776
N11020 X42.792 Y18.799
N11025 X39.916 Y19.696
N11030 X39.834 Y19.724
N11035 X39.754 Y19.757
N11040 X37.041 Y20.976
N11045 X36.965 Y21.013
N11050 X36.892 Y21.054
N11055 X35.834 Y21.686
N11060 X35.827 Y21.69
N11065 X34.27 Y22.634
N11070 X34.199 Y22.68
N11075 X34.13 Y22.731
N11080 X32.061 Y24.347
N11085 X32.045 Y24.361
N11090 X31.694 Y24.643
N11095 X31.635 Y24.693
N11100 X31.579 Y24.747
N11105 X29.513 Y26.812
N11110 X29.455 Y26.873
N11115 X29.402 Y26.937
N11120 X28.646 Y27.891
N11125 X28.64 Y27.899
N11130 X27.496 Y29.364
N11135 X27.445 Y29.432
N11140 X27.399 Y29.504
N11145 X25.908 Y31.966
N11150 X25.885 Y32.005
N11155 X25.8 Y32.156
N11160 X25.741 Y32.273
N11165 X24.522 Y34.985
N11170 X24.489 Y35.065
N11175 X24.461 Y35.147
N11180 X23.563 Y38.022
N11185 X23.54 Y38.105
N11190 X23.522 Y38.189
N11195 X23.072 Y40.625
N11200 X23.069 Y40.639
N11205 X22.967 Y41.224
N11210 X22.956 Y41.305
N11215 X22.948 Y41.387
N11220 X22.77 Y44.407
N11225 X22.767 Y44.492
N11230 Y120.607
N11235 X22.77 Y120.692
N11240 X22.948 Y123.713
N11245 X22.956 Y123.8
N11250 X22.969 Y123.887
N11255 X23.521 Y126.907
N11260 X23.539 Y126.993
N11265 X23.563 Y127.078
N11270 X24.46 Y129.953
N11275 X24.489 Y130.035
N11280 X24.522 Y130.115
N11285 X25.741 Y132.827
N11290 X25.779 Y132.904
N11295 X25.821 Y132.979
N11300 X27.324 Y135.477
N11305 X27.337 Y135.498
N11310 X27.41 Y135.614
N11315 X27.496 Y135.737
N11320 X29.113 Y137.805
N11325 X29.127 Y137.823
N11330 X29.41 Y138.174
N11335 X29.46 Y138.232
N11340 X29.513 Y138.288
N11345 X31.578 Y140.353
N11350 X31.64 Y140.411
N11355 X31.705 Y140.466
N11360 X33.265 Y141.696
N11365 X33.272 Y141.701
N11370 X34.131 Y142.37
N11375 X34.199 Y142.42
N11380 X34.27 Y142.466
N11385 X36.734 Y143.958
N11390 X36.777 Y143.983
N11395 X36.928 Y144.067
N11400 X37.041 Y144.124
N11405 X39.754 Y145.343
N11410 X39.834 Y145.376
N11415 X39.915 Y145.404
N11420 X42.792 Y146.301
N11425 X42.875 Y146.325
N11430 X42.96 Y146.343
N11435 X45.394 Y146.792
N11440 X45.41 Y146.795
N11445 X45.997 Y146.896
N11450 X46.077 Y146.908
N11455 X46.158 Y146.915
N11460 X49.179 Y147.093
N11465 X49.264 Y147.095
N11470 X176.161
N11475 X176.246 Y147.093
N11480 X179.267 Y146.915
N11485 X179.353 Y146.907
N11490 X179.439 Y146.894
N11495 X181.856 Y146.457
N11500 X181.866 Y146.455
N11505 X182.471 Y146.342
N11510 X182.552 Y146.324
N11515 X182.633 Y146.301
N11520 X185.51 Y145.404
N11525 X185.591 Y145.376
N11530 X185.671 Y145.343
N11535 X188.384 Y144.124
N11540 X188.46 Y144.087
N11545 X188.533 Y144.046
N11550 X189.591 Y143.414
N11555 X189.598 Y143.41
N11560 X191.155 Y142.466
N11565 X191.227 Y142.419
N11570 X191.296 Y142.369
N11575 X193.364 Y140.753
N11580 X193.38 Y140.739
N11585 X193.732 Y140.456
N11590 X193.791 Y140.406
N11595 X193.847 Y140.353
N11600 X195.912 Y138.288
N11605 X195.97 Y138.227
N11610 X196.023 Y138.163
N11615 X196.78 Y137.208
N11620 X196.786 Y137.201
N11625 X197.929 Y135.736
N11630 X197.98 Y135.667
N11635 X198.026 Y135.596
N11640 X199.517 Y133.133
N11645 X199.54 Y133.095
N11650 X199.625 Y132.943
N11655 X199.684 Y132.827
N11660 X200.903 Y130.114
N11665 X200.936 Y130.035
N11670 X200.965 Y129.953
N11675 X201.862 Y127.078
N11680 X201.886 Y126.993
N11685 X201.904 Y126.907
N11690 X202.456 Y123.887
N11695 X202.469 Y123.8
N11700 X202.477 Y123.713
N11705 X202.655 Y120.692
N11710 X202.658 Y120.607
N11715 Y44.492
N11720 X202.655 Y44.407
N11725 X202.477 Y41.387
N11730 X202.469 Y41.299
N11735 X202.456 Y41.213
N11740 X201.904 Y38.192
N11745 X201.885 Y38.106
N11750 X201.862 Y38.022
N11755 X200.964 Y35.147
N11760 X200.936 Y35.065
N11765 X200.903 Y34.985
N11770 X199.684 Y32.273
N11775 X199.646 Y32.195
N11780 X199.604 Y32.12
N11785 X198.101 Y29.623
N11790 X198.087 Y29.602
N11795 X198.015 Y29.486
N11800 X197.929 Y29.363
N11805 X196.312 Y27.294
N11810 X196.298 Y27.277
N11815 X196.015 Y26.926
N11820 X195.965 Y26.868
N11825 X195.912 Y26.812
N11830 X193.846 Y24.747
N11835 X193.785 Y24.688
N11840 X193.72 Y24.634
N11845 X192.695 Y23.826
N11850 X192.63 Y23.775 Z-5.993
N11855 X192.567 Y23.725 Z-5.971
N11860 X192.508 Y23.678 Z-5.936
N11865 X192.454 Y23.636 Z-5.889
N11870 X192.408 Y23.6 Z-5.83
N11875 X192.371 Y23.57 Z-5.762
N11880 X192.343 Y23.549 Z-5.687
N11885 X192.326 Y23.535 Z-5.606
N11890 X192.321 Y23.531 Z-5.524
N11895 Z5.
N11900 X168.372 Y147.585
N11905 Z-4.474 F333.33
N11910 G18 G2 X168.848 Z-4.95 I0.476 K0.
N11915 G1 X176.161 Z-4.963
N11920 X176.246 Y147.582
N11925 X179.267 Y147.405 Z-4.968
N11930 X179.33 Y147.4
N11935 X179.481 Y147.384
N11940 X179.594 Y147.368 Z-4.969
N11945 X182.568 Y146.821 Z-4.974
N11950 X182.653 Y146.803
N11955 X182.736 Y146.78
N11960 X185.653 Y145.873 Z-4.98
N11965 X185.735 Y145.845
N11970 X185.815 Y145.812
N11975 X188.534 Y144.593 Z-4.985
N11980 X188.579 Y144.572
N11985 X188.73 Y144.498
N11990 X188.841 Y144.437 Z-4.986
N11995 X191.409 Y142.885 Z-4.991
N12000 X191.481 Y142.838
N12005 X191.551 Y142.787
N12010 X193.968 Y140.9 Z-4.996
N12015 X194.034 Y140.845 Z-4.997
N12020 X194.097 Y140.785
N12025 X195.91 Y138.982 Z-5.001
N12030 X195.922 Y138.969
N12035 X196.352 Y138.531 Z-5.002
N12040 X196.407 Y138.471
N12045 X196.459 Y138.409 Z-5.003
N12050 X198.347 Y135.993 Z-5.008
N12055 X198.398 Y135.923
N12060 X198.444 Y135.851
N12065 X199.997 Y133.284 Z-5.013
N12070 X200.037 Y133.212 Z-5.014
N12075 X200.074 Y133.139
N12080 X200.433 Y132.355 Z-5.015
N12085 X200.438 Y132.343
N12090 X201.372 Y130.258 Z-5.019
N12095 X201.405 Y130.178
N12100 X201.433 Y130.097 Z-5.02
N12105 X202.341 Y127.179 Z-5.025
N12110 X202.365 Y127.095
N12115 X202.383 Y127.01
N12120 X202.94 Y123.962 Z-5.03
N12125 X202.953 Y123.876 Z-5.031
N12130 X202.961 Y123.789
N12135 X203.145 Y120.693 Z-5.036
N12140 X203.147 Y120.607
N12145 Y44.492 Z-5.169
N12150 X203.145 Y44.407
N12155 X202.961 Y41.311 Z-5.174
N12160 X202.953 Y41.224
N12165 X202.94 Y41.137
N12170 X202.383 Y38.09 Z-5.18
N12175 X202.365 Y38.005
N12180 X202.341 Y37.921
N12185 X201.433 Y35.003 Z-5.185
N12190 X201.405 Y34.921 Z-5.186
N12195 X201.372 Y34.841
N12200 X200.153 Y32.123 Z-5.191
N12205 X200.13 Y32.073
N12210 X200.055 Y31.922
N12215 X199.997 Y31.816 Z-5.192
N12220 X198.444 Y29.248 Z-5.197
N12225 X198.397 Y29.176
N12230 X198.346 Y29.107
N12235 X196.459 Y26.691 Z-5.202
N12240 X196.403 Y26.624
N12245 X196.344 Y26.561 Z-5.203
N12250 X194.54 Y24.749 Z-5.207
N12255 X194.527 Y24.736
N12260 X194.089 Y24.307 Z-5.208
N12265 X194.03 Y24.252
N12270 X193.968 Y24.2
N12275 X191.551 Y22.313 Z-5.214
N12280 X191.481 Y22.262
N12285 X191.409 Y22.215
N12290 X188.841 Y20.663 Z-5.219
N12295 X188.768 Y20.622
N12300 X188.693 Y20.585 Z-5.22
N12305 X187.636 Y20.103 Z-5.222
N12310 X187.626 Y20.098
N12315 X185.814 Y19.288 Z-5.225
N12320 X185.734 Y19.255
N12325 X185.653 Y19.227
N12330 X182.735 Y18.32 Z-5.231
N12335 X182.652 Y18.297
N12340 X182.568 Y18.278
N12345 X179.594 Y17.732 Z-5.236
N12350 X179.446 Y17.712 Z-5.237
N12355 X179.08 Y17.684
N12360 X179.053 Y17.682
N12365 X176.245 Y17.518 Z-5.242
N12370 X176.161 Y17.515
N12375 X49.264 Z-5.463
N12380 X49.179 Y17.518
N12385 X46.158 Y17.695 Z-5.468
N12390 X46.095 Y17.7
N12395 X45.944 Y17.716
N12400 X45.831 Y17.732 Z-5.469
N12405 X42.857 Y18.278 Z-5.474
N12410 X42.773 Y18.297
N12415 X42.69 Y18.32
N12420 X39.772 Y19.227 Z-5.48
N12425 X39.69 Y19.255
N12430 X39.61 Y19.288
N12435 X36.891 Y20.507 Z-5.485
N12440 X36.846 Y20.528
N12445 X36.695 Y20.602
N12450 X36.584 Y20.663 Z-5.486
N12455 X34.016 Y22.215 Z-5.491
N12460 X33.944 Y22.262
N12465 X33.874 Y22.313
N12470 X31.457 Y24.2 Z-5.496
N12475 X31.391 Y24.255 Z-5.497
N12480 X31.328 Y24.315
N12485 X29.515 Y26.118 Z-5.501
N12490 X29.503 Y26.131
N12495 X29.073 Y26.569 Z-5.502
N12500 X29.018 Y26.628
N12505 X28.966 Y26.691 Z-5.503
N12510 X27.079 Y29.107 Z-5.508
N12515 X27.028 Y29.176
N12520 X26.981 Y29.248
N12525 X25.428 Y31.816 Z-5.513
N12530 X25.388 Y31.887 Z-5.514
N12535 X25.352 Y31.961
N12540 X24.992 Y32.745 Z-5.515
N12545 X24.987 Y32.757
N12550 X24.053 Y34.842 Z-5.519
N12555 X24.02 Y34.921
N12560 X23.992 Y35.003 Z-5.52
N12565 X23.084 Y37.921 Z-5.525
N12570 X23.06 Y38.005
N12575 X23.042 Y38.09
N12580 X22.485 Y41.137 Z-5.53
N12585 X22.473 Y41.219 Z-5.531
N12590 X22.465 Y41.301
N12595 X22.447 Y41.575
N12600 X22.446 Y41.585
N12605 X22.28 Y44.408 Z-5.536
N12610 X22.278 Y44.492
N12615 Y120.607 Z-5.669
N12620 X22.28 Y120.693
N12625 X22.464 Y123.789 Z-5.674
N12630 X22.472 Y123.876
N12635 X22.485 Y123.962
N12640 X23.042 Y127.01 Z-5.68
N12645 X23.06 Y127.095
N12650 X23.084 Y127.179
N12655 X23.992 Y130.097 Z-5.685
N12660 X24.02 Y130.178 Z-5.686
N12665 X24.053 Y130.258
N12670 X25.272 Y132.977 Z-5.691
N12675 X25.295 Y133.026
N12680 X25.37 Y133.177
N12685 X25.428 Y133.284 Z-5.692
N12690 X26.981 Y135.851 Z-5.697
N12695 X27.027 Y135.923
N12700 X27.078 Y135.993
N12705 X28.966 Y138.409 Z-5.702
N12710 X29.021 Y138.475
N12715 X29.08 Y138.538 Z-5.703
N12720 X30.884 Y140.351 Z-5.707
N12725 X30.897 Y140.363
N12730 X31.336 Y140.793 Z-5.708
N12735 X31.395 Y140.848
N12740 X31.457 Y140.9
N12745 X33.874 Y142.787 Z-5.714
N12750 X33.944 Y142.838
N12755 X34.016 Y142.885
N12760 X36.584 Y144.437 Z-5.719
N12765 X36.657 Y144.478
N12770 X36.732 Y144.515 Z-5.72
N12775 X37.789 Y144.997 Z-5.722
N12780 X37.799 Y145.002
N12785 X39.611 Y145.812 Z-5.725
N12790 X39.691 Y145.845
N12795 X39.772 Y145.873
N12800 X42.689 Y146.78 Z-5.731
N12805 X42.772 Y146.803
N12810 X42.857 Y146.821
N12815 X45.831 Y147.368 Z-5.736
N12820 X45.979 Y147.388 Z-5.737
N12825 X46.336 Y147.416
N12830 X46.364 Y147.417
N12835 X49.18 Y147.582 Z-5.742
N12840 X49.264 Y147.585
N12845 X176.161 Z-5.963
N12850 X176.246 Y147.582
N12855 X179.267 Y147.405 Z-5.968
N12860 X179.33 Y147.4
N12865 X179.481 Y147.384
N12870 X179.594 Y147.368 Z-5.969
N12875 X182.568 Y146.821 Z-5.974
N12880 X182.653 Y146.803
N12885 X182.736 Y146.78
N12890 X185.653 Y145.873 Z-5.98
N12895 X185.735 Y145.845
N12900 X185.815 Y145.812
N12905 X188.534 Y144.593 Z-5.985
N12910 X188.579 Y144.572
N12915 X188.73 Y144.498
N12920 X188.841 Y144.437 Z-5.986
N12925 X191.409 Y142.885 Z-5.991
N12930 X191.481 Y142.838
N12935 X191.551 Y142.787
N12940 X193.968 Y140.9 Z-5.996
N12945 X194.034 Y140.845 Z-5.997
N12950 X194.097 Y140.785
N12955 X195.91 Y138.982 Z-6.001
N12960 X195.922 Y138.969
N12965 X196.352 Y138.531 Z-6.002
N12970 X196.407 Y138.471
N12975 X196.459 Y138.409 Z-6.003
N12980 X198.347 Y135.993 Z-6.008
N12985 X198.398 Y135.923
N12990 X198.444 Y135.851
N12995 X199.997 Y133.284 Z-6.013
N13000 X200.037 Y133.212 Z-6.014
N13005 X200.074 Y133.139
N13010 X200.433 Y132.355 Z-6.015
N13015 X200.438 Y132.343
N13020 X201.372 Y130.258 Z-6.019
N13025 X201.405 Y130.178
N13030 X201.433 Y130.097 Z-6.02
N13035 X202.341 Y127.179 Z-6.025
N13040 X202.365 Y127.095
N13045 X202.383 Y127.01
N13050 X202.94 Y123.962 Z-6.03
N13055 X202.953 Y123.876 Z-6.031
N13060 X202.961 Y123.789
N13065 X203.145 Y120.693 Z-6.036
N13070 X203.147 Y120.607
N13075 Y44.492 Z-6.169
N13080 X203.145 Y44.407
N13085 X202.961 Y41.311 Z-6.174
N13090 X202.953 Y41.224
N13095 X202.94 Y41.137
N13100 X202.383 Y38.09 Z-6.18
N13105 X202.365 Y38.005
N13110 X202.341 Y37.921
N13115 X201.433 Y35.003 Z-6.185
N13120 X201.405 Y34.921 Z-6.186
N13125 X201.372 Y34.841
N13130 X200.153 Y32.123 Z-6.191
N13135 X200.13 Y32.073
N13140 X200.055 Y31.922
N13145 X199.997 Y31.816 Z-6.192
N13150 X198.444 Y29.248 Z-6.197
N13155 X198.397 Y29.176
N13160 X198.346 Y29.107
N13165 X196.459 Y26.691 Z-6.202
N13170 X196.403 Y26.624
N13175 X196.344 Y26.561 Z-6.203
N13180 X194.54 Y24.749 Z-6.207
N13185 X194.527 Y24.736
N13190 X194.089 Y24.307 Z-6.208
N13195 X194.03 Y24.252
N13200 X193.968 Y24.2
N13205 X191.551 Y22.313 Z-6.214
N13210 X191.481 Y22.262
N13215 X191.409 Y22.215
N13220 X188.841 Y20.663 Z-6.219
N13225 X188.768 Y20.622
N13230 X188.693 Y20.585 Z-6.22
N13235 X187.636 Y20.103 Z-6.222
N13240 X187.626 Y20.098
N13245 X185.814 Y19.288 Z-6.225
N13250 X185.734 Y19.255
N13255 X185.653 Y19.227
N13260 X182.735 Y18.32 Z-6.231
N13265 X182.652 Y18.297
N13270 X182.568 Y18.278
N13275 X179.594 Y17.732 Z-6.236
N13280 X179.446 Y17.712 Z-6.237
N13285 X179.08 Y17.684
N13290 X179.053 Y17.682
N13295 X176.245 Y17.518 Z-6.242
N13300 X176.161 Y17.515
N13305 X49.264 Z-6.463
N13310 X49.179 Y17.518
N13315 X46.158 Y17.695 Z-6.468
N13320 X46.095 Y17.7
N13325 X45.944 Y17.716
N13330 X45.831 Y17.732 Z-6.469
N13335 X42.857 Y18.278 Z-6.474
N13340 X42.773 Y18.297
N13345 X42.69 Y18.32
N13350 X39.772 Y19.227 Z-6.48
N13355 X39.69 Y19.255
N13360 X39.61 Y19.288
N13365 X36.891 Y20.507 Z-6.485
N13370 X36.846 Y20.528
N13375 X36.695 Y20.602
N13380 X36.584 Y20.663 Z-6.486
N13385 X34.016 Y22.215 Z-6.491
N13390 X33.944 Y22.262
N13395 X33.874 Y22.313
N13400 X31.457 Y24.2 Z-6.496
N13405 X31.391 Y24.255 Z-6.497
N13410 X31.328 Y24.315
N13415 X29.515 Y26.118 Z-6.501
N13420 X29.503 Y26.131
N13425 X29.073 Y26.569 Z-6.502
N13430 X29.018 Y26.628
N13435 X28.966 Y26.691 Z-6.503
N13440 X27.079 Y29.107 Z-6.508
N13445 X27.028 Y29.176
N13450 X26.981 Y29.248
N13455 X25.428 Y31.816 Z-6.513
N13460 X25.388 Y31.887 Z-6.514
N13465 X25.352 Y31.961
N13470 X24.992 Y32.745 Z-6.515
N13475 X24.987 Y32.757
N13480 X24.053 Y34.842 Z-6.519
N13485 X24.02 Y34.921
N13490 X23.992 Y35.003 Z-6.52
N13495 X23.084 Y37.921 Z-6.525
N13500 X23.06 Y38.005
N13505 X23.042 Y38.09
N13510 X22.485 Y41.137 Z-6.53
N13515 X22.473 Y41.219 Z-6.531
N13520 X22.465 Y41.301
N13525 X22.447 Y41.575
N13530 X22.446 Y41.585
N13535 X22.28 Y44.408 Z-6.536
N13540 X22.278 Y44.492
N13545 Y120.607 Z-6.669
N13550 X22.28 Y120.693
N13555 X22.464 Y123.789 Z-6.674
N13560 X22.472 Y123.876
N13565 X22.485 Y123.962
N13570 X23.042 Y127.01 Z-6.68
N13575 X23.06 Y127.095
N13580 X23.084 Y127.179
N13585 X23.992 Y130.097 Z-6.685
N13590 X24.02 Y130.178 Z-6.686
N13595 X24.053 Y130.258
N13600 X25.272 Y132.977 Z-6.691
N13605 X25.295 Y133.026
N13610 X25.37 Y133.177
N13615 X25.428 Y133.284 Z-6.692
N13620 X26.981 Y135.851 Z-6.697
N13625 X27.027 Y135.923
N13630 X27.078 Y135.993
N13635 X28.966 Y138.409 Z-6.702
N13640 X29.021 Y138.475
N13645 X29.08 Y138.538 Z-6.703
N13650 X30.884 Y140.351 Z-6.707
N13655 X30.897 Y140.363
N13660 X31.336 Y140.793 Z-6.708
N13665 X31.395 Y140.848
N13670 X31.457 Y140.9
N13675 X33.874 Y142.787 Z-6.714
N13680 X33.944 Y142.838
N13685 X34.016 Y142.885
N13690 X36.584 Y144.437 Z-6.719
N13695 X36.657 Y144.478
N13700 X36.732 Y144.515 Z-6.72
N13705 X37.789 Y144.997 Z-6.722
N13710 X37.799 Y145.002
N13715 X39.611 Y145.812 Z-6.725
N13720 X39.691 Y145.845
N13725 X39.772 Y145.873
N13730 X42.689 Y146.78 Z-6.731
N13735 X42.772 Y146.803
N13740 X42.857 Y146.821
N13745 X45.831 Y147.368 Z-6.736
N13750 X45.979 Y147.388 Z-6.737
N13755 X46.336 Y147.416
N13760 X46.364 Y147.417
N13765 X49.18 Y147.582 Z-6.742
N13770 X49.264 Y147.585
N13775 X176.161 Z-6.963
N13780 X176.246 Y147.582
N13785 X179.267 Y147.405 Z-6.968
N13790 X179.33 Y147.4
N13795 X179.481 Y147.384
N13800 X179.594 Y147.368 Z-6.969
N13805 X182.568 Y146.821 Z-6.974
N13810 X182.653 Y146.803
N13815 X182.736 Y146.78
N13820 X185.653 Y145.873 Z-6.98
N13825 X185.735 Y145.845
N13830 X185.815 Y145.812
N13835 X188.534 Y144.593 Z-6.985
N13840 X188.579 Y144.572
N13845 X188.73 Y144.498
N13850 X188.841 Y144.437 Z-6.986
N13855 X191.409 Y142.885 Z-6.991
N13860 X191.481 Y142.838
N13865 X191.551 Y142.787
N13870 X193.968 Y140.9 Z-6.996
N13875 X194.034 Y140.845 Z-6.997
N13880 X194.097 Y140.785
N13885 X195.417 Y139.472 Z-7.
N13890 X195.91 Y138.982 F2000.
N13895 X195.922 Y138.969
N13900 X196.352 Y138.531
N13905 X196.407 Y138.471
N13910 X196.459 Y138.409
N13915 X198.347 Y135.993
N13920 X198.398 Y135.923
N13925 X198.444 Y135.851
N13930 X199.997 Y133.284
N13935 X200.037 Y133.212
N13940 X200.074 Y133.139
N13945 X200.433 Y132.355
N13950 X200.438 Y132.343
N13955 X201.372 Y130.258
N13960 X201.405 Y130.178
N13965 X201.433 Y130.097
N13970 X202.341 Y127.179
N13975 X202.365 Y127.095
N13980 X202.383 Y127.01
N13985 X202.94 Y123.962
N13990 X202.953 Y123.876
N13995 X202.961 Y123.789
N14000 X203.145 Y120.693
N14005 X203.147 Y120.607
N14010 Y44.492
N14015 X203.145 Y44.407
N14020 X202.961 Y41.311
N14025 X202.953 Y41.224
N14030 X202.94 Y41.137
N14035 X202.383 Y38.09
N14040 X202.365 Y38.005
N14045 X202.341 Y37.921
N14050 X201.433 Y35.003
N14055 X201.405 Y34.921
N14060 X201.372 Y34.841
N14065 X200.153 Y32.123
N14070 X200.13 Y32.073
N14075 X200.055 Y31.922
N14080 X199.997 Y31.816
N14085 X198.444 Y29.248
N14090 X198.397 Y29.176
N14095 X198.346 Y29.107
N14100 X196.459 Y26.691
N14105 X196.403 Y26.624
N14110 X196.344 Y26.561
N14115 X194.54 Y24.749
N14120 X194.527 Y24.736
N14125 X194.089 Y24.307
N14130 X194.03 Y24.252
N14135 X193.968 Y24.2
N14140 X191.551 Y22.313
N14145 X191.481 Y22.262
N14150 X191.409 Y22.215
N14155 X188.841 Y20.663
N14160 X188.768 Y20.622
N14165 X188.693 Y20.585
N14170 X187.636 Y20.103
N14175 X187.626 Y20.098
N14180 X185.814 Y19.288
N14185 X185.734 Y19.255
N14190 X185.653 Y19.227
N14195 X182.735 Y18.32
N14200 X182.652 Y18.297
N14205 X182.568 Y18.278
N14210 X179.594 Y17.732
N14215 X179.446 Y17.712
N14220 X179.08 Y17.684
N14225 X179.053 Y17.682
N14230 X176.245 Y17.518
N14235 X176.161 Y17.515
N14240 X49.264
N14245 X49.179 Y17.518
N14250 X46.158 Y17.695
N14255 X46.095 Y17.7
N14260 X45.944 Y17.716
N14265 X45.831 Y17.732
N14270 X42.857 Y18.278
N14275 X42.773 Y18.297
N14280 X42.69 Y18.32
N14285 X39.772 Y19.227
N14290 X39.69 Y19.255
N14295 X39.61 Y19.288
N14300 X36.891 Y20.507
N14305 X36.846 Y20.528
N14310 X36.695 Y20.602
N14315 X36.584 Y20.663
N14320 X34.016 Y22.215
N14325 X33.944 Y22.262
N14330 X33.874 Y22.313
N14335 X31.457 Y24.2
N14340 X31.391 Y24.255
N14345 X31.328 Y24.315
N14350 X29.515 Y26.118
N14355 X29.503 Y26.131
N14360 X29.073 Y26.569
N14365 X29.018 Y26.628
N14370 X28.966 Y26.691
N14375 X27.079 Y29.107
N14380 X27.028 Y29.176
N14385 X26.981 Y29.248
N14390 X25.428 Y31.816
N14395 X25.388 Y31.887
N14400 X25.352 Y31.961
N14405 X24.992 Y32.745
N14410 X24.987 Y32.757
N14415 X24.053 Y34.842
N14420 X24.02 Y34.921
N14425 X23.992 Y35.003
N14430 X23.084 Y37.921
N14435 X23.06 Y38.005
N14440 X23.042 Y38.09
N14445 X22.485 Y41.137
N14450 X22.473 Y41.219
N14455 X22.465 Y41.301
N14460 X22.447 Y41.575
N14465 X22.446 Y41.585
N14470 X22.28 Y44.408
N14475 X22.278 Y44.492
N14480 Y120.607
N14485 X22.28 Y120.693
N14490 X22.464 Y123.789
N14495 X22.472 Y123.876
N14500 X22.485 Y123.962
N14505 X23.042 Y127.01
N14510 X23.06 Y127.095
N14515 X23.084 Y127.179
N14520 X23.992 Y130.097
N14525 X24.02 Y130.178
N14530 X24.053 Y130.258
N14535 X25.272 Y132.977
N14540 X25.295 Y133.026
N14545 X25.37 Y133.177
N14550 X25.428 Y133.284
N14555 X26.981 Y135.851
N14560 X27.027 Y135.923
N14565 X27.078 Y135.993
N14570 X28.966 Y138.409
N14575 X29.021 Y138.475
N14580 X29.08 Y138.538
N14585 X30.884 Y140.351
N14590 X30.897 Y140.363
N14595 X31.336 Y140.793
N14600 X31.395 Y140.848
N14605 X31.457 Y140.9
N14610 X33.874 Y142.787
N14615 X33.944 Y142.838
N14620 X34.016 Y142.885
N14625 X36.584 Y144.437
N14630 X36.657 Y144.478
N14635 X36.732 Y144.515
N14640 X37.789 Y144.997
N14645 X37.799 Y145.002
N14650 X39.611 Y145.812
N14655 X39.691 Y145.845
N14660 X39.772 Y145.873
N14665 X42.689 Y146.78
N14670 X42.772 Y146.803
N14675 X42.857 Y146.821
N14680 X45.831 Y147.368
N14685 X45.979 Y147.388
N14690 X46.336 Y147.416
N14695 X46.364 Y147.417
N14700 X49.18 Y147.582
N14705 X49.264 Y147.585
N14710 X176.161
N14715 X176.246 Y147.582
N14720 X179.267 Y147.405
N14725 X179.33 Y147.4
N14730 X179.481 Y147.384
N14735 X179.594 Y147.368
N14740 X182.568 Y146.821
N14745 X182.653 Y146.803
N14750 X182.736 Y146.78
N14755 X185.653 Y145.873
N14760 X185.735 Y145.845
N14765 X185.815 Y145.812
N14770 X188.534 Y144.593
N14775 X188.579 Y144.572
N14780 X188.73 Y144.498
N14785 X188.841 Y144.437
N14790 X191.409 Y142.885
N14795 X191.481 Y142.838
N14800 X191.551 Y142.787
N14805 X193.968 Y140.9
N14810 X194.034 Y140.845
N14815 X194.097 Y140.785
N14820 X195.417 Y139.472
N14825 X195.44 Y139.458
N14830 X195.467 Y139.455
N14835 X195.493 Y139.464
N14840 X195.513 Y139.483
N14845 X195.522 Y139.509
N14850 X195.519 Y139.537
N14855 X195.468 Y139.68
N14860 X195.455 Y139.702
N14865 X195.44 Y139.727
N14870 X195.438 Y139.757
N14875 X195.45 Y139.785
N14880 X195.502 Y139.855
N14885 X195.514 Y139.882
N14890 X195.513 Y139.911
N14895 X195.499 Y139.937
N14900 X195.488 Y139.948
N14905 X193.233 Y141.963
N14910 X190.689 Y143.766
N14915 X188.066 Y145.215
N14920 X185.229 Y146.393
N14925 X182.261 Y147.246
N14930 X179.248 Y147.756
N14935 X176.121 Y147.931
N14940 X49.304
N14945 X46.177 Y147.756
N14950 X43.164 Y147.246
N14955 X40.196 Y146.393
N14960 X37.36 Y145.216
N14965 X34.675 Y143.728
N14970 X32.193 Y141.964
N14975 X29.937 Y139.948
N14980 X27.901 Y137.672
N14985 X26.099 Y135.129
N14990 X24.649 Y132.507
N14995 X23.471 Y129.67
N15000 X22.617 Y126.705
N15005 X22.107 Y123.693
N15010 X21.931 Y120.567
N15015 Y44.532
N15020 X22.107 Y41.406
N15025 X22.283 Y40.361
N15030 X22.617 Y38.395
N15035 X23.471 Y35.43
N15040 X24.649 Y32.594
N15045 X26.137 Y29.909
N15050 X27.9 Y27.428
N15055 X29.937 Y25.151
N15060 X32.192 Y23.136
N15065 X34.736 Y21.334
N15070 X37.36 Y19.884
N15075 X40.197 Y18.707
N15080 X43.164 Y17.854
N15085 X46.177 Y17.344
N15090 X49.304 Y17.169
N15095 X176.121
N15100 X179.248 Y17.344
N15105 X182.261 Y17.854
N15110 X185.228 Y18.707
N15115 X188.065 Y19.884
N15120 X190.75 Y21.372
N15125 X193.232 Y23.135
N15130 X195.488 Y25.151
N15135 X197.524 Y27.427
N15140 X199.326 Y29.97
N15145 X200.776 Y32.593
N15150 X201.954 Y35.43
N15155 X202.808 Y38.394
N15160 X203.318 Y41.406
N15165 X203.494 Y44.532
N15170 Y120.567
N15175 X203.318 Y123.693
N15180 X202.808 Y126.705
N15185 X201.954 Y129.67
N15190 X200.776 Y132.506
N15195 X199.288 Y135.19
N15200 X197.525 Y137.672
N15205 X195.499 Y139.937
N15210 X195.488 Y139.948
N15215 X195.428 Y140.002 Z-6.99
N15220 X195.37 Y140.054 Z-6.967
N15225 X195.315 Y140.103 Z-6.931
N15230 X195.267 Y140.146 Z-6.883
N15235 X195.224 Y140.184 Z-6.824
N15240 X195.19 Y140.214 Z-6.757
N15245 X195.165 Y140.237 Z-6.683
N15250 X195.15 Y140.25 Z-6.605
N15255 X195.145 Y140.255 Z-6.524
N15260 Z15.
N15265 G17
(WHEN USING FUSION 360 FOR PERSONAL USE, THE FEEDRATE OF)
(RAPID MOVES IS REDUCED TO MATCH THE FEEDRATE OF CUTTING)
(MOVES, WHICH CAN INCREASE MACHINING TIME. UNRESTRICTED RAPID)
(MOVES ARE AVAILABLE WITH A FUSION 360 SUBSCRIPTION.)
(PARALLEL1)
N15270 G64 P0.01 Q0.01
N15275 G0 X176.525 Y16.675
N15280 G1 Z15. F2000.
N15285 Z2.
N15290 Z-10.69 F333.33
N15295 X176.242 Z-10.494 F2000.
N15300 X176.211 Z-10.488
N15305 X49.19 Z-10.491
N15310 X49.09 Z-10.557
N15315 X48.9 Z-10.69
N15320 X45.291 Y17.866 Z-6.
N15325 X44.978 Z-6.115
N15330 X44.11 Z-6.517
N15335 X43.895 Z-6.639
N15340 X43.07 Z-7.196
N15345 X42.809 Z-7.416
N15350 X42.334 Z-7.883
N15355 X41.785 Z-8.583
N15360 X41.625 Z-8.894
N15365 X41.435 Z-9.288
N15370 X41.232 Z-9.988
N15375 X41.163 Z-10.7
N15380 Z-17.05
N15385 Z-5.82
N15390 X41.16 Y17.871 Z-5.767
N15395 X41.152 Y17.886 Z-5.717
N15400 X41.138 Y17.911 Z-5.672
N15405 X41.12 Y17.944 Z-5.634
N15410 X41.098 Y17.984 Z-5.606
N15415 X41.074 Y18.028 Z-5.588
N15420 X41.048 Y18.074 Z-5.582
N15425 X40.622 Y18.848
N15430 X40.596 Y18.894 Z-5.588
N15435 X40.572 Y18.938 Z-5.606
N15440 X40.55 Y18.978 Z-5.634
N15445 X40.532 Y19.011 Z-5.672
N15450 X40.519 Y19.036 Z-5.717
N15455 X40.51 Y19.051 Z-5.767
N15460 X40.507 Y19.056 Z-5.82
N15465 X40.502 Z-5.871
N15470 X40.486 Z-5.919
N15475 X40.459 Z-5.963
N15480 X40.425 Z-6.001
N15485 X39.833 Z-6.511
N15490 X39.232 Z-7.201
N15495 X38.75 Z-7.884
N15500 X38.554 Z-8.269
N15505 X38.4 Z-8.581
N15510 X38.154 Z-9.282
N15515 X38.007 Z-9.98
N15520 X37.956 Z-10.7
N15525 Z-17.05
N15530 Z-5.845
N15535 X37.954 Y19.062 Z-5.792
N15540 X37.949 Y19.079 Z-5.741
N15545 X37.941 Y19.106 Z-5.696
N15550 X37.93 Y19.142 Z-5.658
N15555 X37.917 Y19.186 Z-5.63
N15560 X37.902 Y19.234 Z-5.612
N15565 X37.887 Y19.284 Z-5.606
N15570 X37.665 Y20.019
N15575 X37.65 Y20.07 Z-5.612
N15580 X37.635 Y20.118 Z-5.63
N15585 X37.622 Y20.162 Z-5.658
N15590 X37.611 Y20.198 Z-5.696
N15595 X37.603 Y20.225 Z-5.741
N15600 X37.598 Y20.242 Z-5.792
N15605 X37.596 Y20.247 Z-5.845
N15610 X37.59 Z-5.901
N15615 X37.57 Z-5.954
N15620 X37.538 Z-6.001
N15625 X37.085 Z-6.521
N15630 X36.826 Z-6.883
N15635 X36.61 Z-7.205
N15640 X36.239 Z-7.886
N15645 X35.946 Z-8.584
N15650 X35.735 Z-9.296
N15655 X35.613 Z-10.008
N15660 X35.582 Z-10.567
N15665 Z5.
N15670 X43.408 Y19.056
N15675 Z1.006
N15680 Z-3.632 F333.33
N15685 G18 G2 X44.047 Z-4.079 I0.476 K0. F2000.
N15690 G1 X44.054 Z-4.077
N15695 X44.288 Z-4.
N15700 G2 X44.452 Z-3.774 I-0.074 K0.226
N15705 G1 Z-1.915
N15710 X44.457 Y19.062 Z-1.813
N15715 X44.47 Y19.079 Z-1.714
N15720 X44.491 Y19.108 Z-1.618
N15725 X44.521 Y19.147 Z-1.529
N15730 X44.558 Y19.195 Z-1.447
N15735 X44.602 Y19.252 Z-1.375
N15740 X44.651 Y19.317 Z-1.314
N15745 X44.706 Y19.388 Z-1.265
N15750 X44.764 Y19.464 Z-1.23
N15755 X44.824 Y19.543 Z-1.208
N15760 X44.886 Y19.624 Z-1.201
N15765 X44.928 Y19.68
N15770 X44.99 Y19.76 Z-1.208
N15775 X45.05 Y19.84 Z-1.23
N15780 X45.108 Y19.915 Z-1.265
N15785 X45.163 Y19.987 Z-1.314
N15790 X45.212 Y20.051 Z-1.375
N15795 X45.256 Y20.109 Z-1.447
N15800 X45.293 Y20.157 Z-1.529
N15805 X45.323 Y20.196 Z-1.618
N15810 X45.344 Y20.224 Z-1.714
N15815 X45.357 Y20.242 Z-1.813
N15820 X45.362 Y20.247 Z-1.915
N15825 G2 X45.634 Z-2.151 I0.238 K0.
N15830 G1 X46.293 Z-2.055
N15835 X46.803 Z-2.
N15840 G2 X47.228 Z-1.527 I-0.051 K0.473
N15845 G1 Z5.
N15850 X42.593
N15855 Z-1.944
N15860 Z-2.556 F333.33
N15865 G3 X42.288 Z-3. I-0.476 K0. F2000.
N15870 G1 X42.166 Z-3.047
N15875 X42.091 Z-3.063
N15880 X42.015 Z-3.054
N15885 X41.945 Z-3.02
N15890 X41.861 Z-2.984
N15895 X41.77 Z-2.981
N15900 X41.684 Z-3.013
N15905 X40.086 Z-4.001
N15910 X39.86 Z-4.141
N15915 G3 X39.496 Z-3.938 I-0.125 K0.203
N15920 G1 Z-2.79
N15925 X39.494 Y20.255 Z-2.693
N15930 X39.488 Y20.277 Z-2.598
N15935 X39.477 Y20.312 Z-2.508
N15940 X39.462 Y20.361 Z-2.424
N15945 X39.444 Y20.422 Z-2.35
N15950 X39.423 Y20.493 Z-2.287
N15955 X39.399 Y20.573 Z-2.236
N15960 X39.373 Y20.659 Z-2.199
N15965 X39.346 Y20.75 Z-2.176
N15970 X39.318 Y20.843 Z-2.168
N15975 X39.29 Y20.936 Z-2.176
N15980 X39.263 Y21.027 Z-2.199
N15985 X39.237 Y21.113 Z-2.236
N15990 X39.213 Y21.193 Z-2.287
N15995 X39.192 Y21.264 Z-2.35
N16000 X39.173 Y21.325 Z-2.424
N16005 X39.159 Y21.373 Z-2.508
N16010 X39.148 Y21.409 Z-2.598
N16015 X39.142 Y21.431 Z-2.693
N16020 X39.139 Y21.438 Z-2.79
N16025 X39.134 Z-2.841
N16030 X39.117 Z-2.89
N16035 X39.091 Z-2.934
N16040 X39.056 Z-2.971
N16045 X39.013 Z-3.
N16050 X38.909 Z-3.055
N16055 X38.82 Z-3.082
N16060 X38.726 Z-3.073
N16065 X38.65 Z-3.062
N16070 X38.574 Z-3.076
N16075 X38.507 Z-3.114
N16080 X37.398 Z-4.
N16085 X37.237 Z-4.129
N16090 X37.153 Z-4.172
N16095 X37.059 Z-4.18
N16100 X36.97 Z-4.15
N16105 X36.889 Z-4.122
N16110 X36.803 Z-4.124
N16115 X36.724 Z-4.156
N16120 X36.661 Z-4.215
N16125 X35.333 Z-6.001
N16130 X35.044 Z-6.39
N16135 X34.948 Z-6.529
N16140 X34.553 Z-7.201
N16145 X34.224 Z-7.892
N16150 X33.968 Z-8.593
N16155 X33.789 Z-9.297
N16160 X33.686 Z-9.999
N16165 X33.656 Z-10.618
N16170 Z-5.871
N16175 X33.655 Y21.444 Z-5.818
N16180 X33.654 Y21.462 Z-5.768
N16185 X33.652 Y21.49 Z-5.722
N16190 X33.649 Y21.528 Z-5.685
N16195 X33.645 Y21.573 Z-5.656
N16200 X33.642 Y21.623 Z-5.639
N16205 X33.638 Y21.676 Z-5.633
N16210 X33.583 Y22.392
N16215 X33.579 Y22.445 Z-5.639
N16220 X33.575 Y22.495 Z-5.656
N16225 X33.571 Y22.54 Z-5.685
N16230 X33.568 Y22.577 Z-5.722
N16235 X33.566 Y22.606 Z-5.768
N16240 X33.565 Y22.623 Z-5.818
N16245 Y22.629 Z-5.871
N16250 X33.56 Z-5.917
N16255 X33.547 Z-5.96
N16260 X33.526 Z-6.001
N16265 X33.237 Z-6.444
N16270 X33.179 Z-6.542
N16275 X32.83 Z-7.206
N16280 X32.54 Z-7.889
N16285 X32.312 Z-8.586
N16290 X32.149 Z-9.284
N16295 X32.05 Z-9.993
N16300 X32.025 Z-10.552
N16305 Z-3.903
N16310 G3 X32.263 Z-3.665 I0.238 K0.
N16315 G1 X34.605
N16320 G3 X34.843 Z-3.903 I0. K-0.238
N16325 G2 X35.242 Z-4.079 I0.238 K0.
N16330 G1 X35.328 Z-4.
N16335 X35.361 Z-3.963
N16340 X35.385 Z-3.92
N16345 X35.4 Z-3.873
N16350 X35.405 Z-3.824
N16355 X35.4 Y22.631 Z-3.771
N16360 X35.383 Y22.637 Z-3.721
N16365 X35.356 Y22.646 Z-3.676
N16370 X35.321 Y22.659 Z-3.638
N16375 X35.278 Y22.674 Z-3.61
N16380 X35.231 Y22.691 Z-3.592
N16385 X35.181 Y22.708 Z-3.586
N16390 X32.251 Y23.741
N16395 X32.201 Y23.759 Z-3.592
N16400 X32.154 Y23.775 Z-3.61
N16405 X32.111 Y23.79 Z-3.638
N16410 X32.075 Y23.803 Z-3.676
N16415 X32.049 Y23.812 Z-3.721
N16420 X32.032 Y23.818 Z-3.771
N16425 X32.026 Y23.82 Z-3.824
N16430 Z-5.879
N16435 X32.023 Z-5.921
N16440 X32.011 Z-5.963
N16445 X31.993 Z-6.001
N16450 X31.677 Z-6.53
N16455 X31.358 Z-7.188
N16460 X31.084 Z-7.898
N16465 X30.879 Z-8.586
N16470 X30.729 Z-9.301
N16475 X30.644 Z-9.978
N16480 X30.613 Z-10.679
N16485 Z5.
N16490 X40.274 Y21.438
N16495 Z-1.581
N16500 Z-1.699 F333.33
N16505 G2 X40.906 Z-2.149 I0.476 K0. F2000.
N16510 G1 X41.335 Z-2.
N16515 X41.412 Z-1.957
N16520 X41.467 Z-1.888
N16525 X41.494 Z-1.804
N16530 X41.515 Z-1.73
N16535 X41.56 Z-1.667
N16540 X41.622 Z-1.621
N16545 X41.695 Z-1.598
N16550 X44.703 Z-1.151
N16555 X45.391 Z-1.049
N16560 X45.765 Z-1.
N16565 G2 X45.972 Z-0.764 I-0.031 K0.236
N16570 G1 Z0.045
N16575 X45.967 Y21.444 Z0.147
N16580 X45.952 Y21.459 Z0.247
N16585 X45.928 Y21.485 Z0.342
N16590 X45.894 Y21.521 Z0.432
N16595 X45.853 Y21.566 Z0.513
N16600 X45.803 Y21.618 Z0.585
N16605 X45.748 Y21.678 Z0.646
N16610 X45.686 Y21.743 Z0.695
N16615 X45.621 Y21.813 Z0.731
N16620 X45.553 Y21.885 Z0.753
N16625 X45.484 Y21.96 Z0.76
N16630 X45.345 Y22.108
N16635 X45.275 Y22.182 Z0.753
N16640 X45.207 Y22.255 Z0.731
N16645 X45.142 Y22.324 Z0.695
N16650 X45.081 Y22.39 Z0.646
N16655 X45.025 Y22.449 Z0.585
N16660 X44.976 Y22.502 Z0.513
N16665 X44.934 Y22.546 Z0.432
N16670 X44.901 Y22.582 Z0.342
N16675 X44.876 Y22.608 Z0.247
N16680 X44.862 Y22.624 Z0.147
N16685 X44.857 Y22.629 Z0.045
N16690 G2 X45.122 Z-0.191 I0.238 K0.
N16695 G1 X45.678 Z-0.126
N16700 X46.55 Z-0.044
N16705 X47.187 Z0.
N16710 G2 X47.631 Z0.475 I-0.033 K0.475
N16715 G1 Z5.
N16720 X41.463
N16725 Z-0.424
N16730 Z-0.545 F333.33
N16735 G3 X41.126 Z-1. I-0.476 K0. F2000.
N16740 G1 X40.531 Z-1.183
N16745 X40.459 Z-1.194
N16750 X40.388 Z-1.182
N16755 X40.301 Z-1.171
N16760 X40.216 Z-1.193
N16765 X38.468 Z-2.
N16770 X38.132 Z-2.155
N16775 X38.067 Z-2.175
N16780 X38.
N16785 X37.914 Z-2.179
N16790 X37.835 Z-2.213
N16795 X36.665 Z-3.
N16800 X36.595 Z-3.047
N16805 G3 X36.224 Z-2.849 I-0.133 K0.198
N16810 G1 Z-1.793
N16815 X36.225 Y22.636 Z-1.698
N16820 X36.229 Y22.658 Z-1.606
N16825 X36.236 Y22.694 Z-1.518
N16830 X36.245 Y22.743 Z-1.437
N16835 X36.256 Y22.804 Z-1.365
N16840 X36.27 Y22.875 Z-1.303
N16845 X36.285 Y22.954 Z-1.253
N16850 X36.301 Y23.041 Z-1.217
N16855 X36.318 Y23.131 Z-1.195
N16860 X36.335 Y23.225 Z-1.187
N16865 X36.353 Y23.318 Z-1.195
N16870 X36.37 Y23.409 Z-1.217
N16875 X36.386 Y23.495 Z-1.253
N16880 X36.401 Y23.575 Z-1.303
N16885 X36.414 Y23.646 Z-1.365
N16890 X36.425 Y23.706 Z-1.437
N16895 X36.434 Y23.755 Z-1.518
N16900 X36.441 Y23.791 Z-1.606
N16905 X36.445 Y23.813 Z-1.698
N16910 X36.447 Y23.82 Z-1.793
N16915 X36.441 Z-1.843
N16920 X36.426 Z-1.891
N16925 X36.401 Z-1.934
N16930 X36.367 Z-1.971
N16935 X36.326 Z-2.
N16940 X36.096 Z-2.131
N16945 X36.038 Z-2.155
N16950 X35.976 Z-2.162
N16955 X35.899 Z-2.175
N16960 X35.83 Z-2.211
N16965 X34.791 Z-3.001
N16970 X34.65 Z-3.108
N16975 X34.59 Z-3.141
N16980 X34.522 Z-3.156
N16985 X34.439 Z-3.177
N16990 X34.369 Z-3.227
N16995 X33.612 Z-4.001
N17000 X33.52 Z-4.096
N17005 G3 X33.112 Z-3.929 I-0.17 K0.166
N17010 G1 Z-2.818
N17015 X33.113 Y23.827 Z-2.724
N17020 X33.116 Y23.849 Z-2.632
N17025 X33.122 Y23.885 Z-2.544
N17030 X33.13 Y23.934 Z-2.463
N17035 X33.14 Y23.994 Z-2.391
N17040 X33.152 Y24.066 Z-2.33
N17045 X33.165 Y24.145 Z-2.28
N17050 X33.179 Y24.232 Z-2.244
N17055 X33.194 Y24.322 Z-2.222
N17060 X33.209 Y24.416 Z-2.215
N17065 X33.225 Y24.509 Z-2.222
N17070 X33.24 Y24.6 Z-2.244
N17075 X33.254 Y24.686 Z-2.28
N17080 X33.267 Y24.765 Z-2.33
N17085 X33.279 Y24.837 Z-2.391
N17090 X33.289 Y24.897 Z-2.463
N17095 X33.297 Y24.946 Z-2.544
N17100 X33.302 Y24.982 Z-2.632
N17105 X33.306 Y25.004 Z-2.724
N17110 X33.307 Y25.011 Z-2.818
N17115 X33.302 Z-2.869
N17120 X33.285 Z-2.918
N17125 X33.258 Z-2.963
N17130 X33.223 Z-3.
N17135 X33.131 Z-3.077
N17140 X33.072 Z-3.114
N17145 X33.004 Z-3.132
N17150 X32.921 Z-3.157
N17155 X32.853 Z-3.21
N17160 X32.151 Z-4.001
N17165 X32.029 Z-4.138
N17170 X31.968 Z-4.188
N17175 X31.894 Z-4.214
N17180 X31.815 Z-4.215
N17185 X31.719 Z-4.221
N17190 X31.633 Z-4.263
N17195 X31.57 Z-4.337
N17200 X30.66 Z-6.001
N17205 X30.372 Z-6.527
N17210 X30.062 Z-7.206
N17215 X29.806 Z-7.901
N17220 X29.616 Z-8.587
N17225 X29.478 Z-9.3
N17230 X29.399 Z-9.978
N17235 X29.371 Z-10.688
N17240 Z-5.894
N17245 Y25.017 Z-5.841
N17250 X29.373 Y25.034 Z-5.791
N17255 X29.377 Y25.063 Z-5.745
N17260 X29.381 Y25.1 Z-5.708
N17265 X29.386 Y25.145 Z-5.679
N17270 X29.392 Y25.195 Z-5.662
N17275 X29.398 Y25.248 Z-5.656
N17280 X29.48 Y25.965
N17285 X29.486 Y26.018 Z-5.662
N17290 X29.491 Y26.068 Z-5.679
N17295 X29.496 Y26.113 Z-5.708
N17300 X29.501 Y26.15 Z-5.745
N17305 X29.504 Y26.178 Z-5.791
N17310 X29.506 Y26.196 Z-5.841
N17315 X29.507 Y26.202 Z-5.894
N17320 X29.5 Z-5.949
N17325 X29.481 Z-6.002
N17330 X29.213 Z-6.528
N17335 X28.926 Z-7.205
N17340 X28.691 Z-7.893
N17345 X28.505 Z-8.595
N17350 X28.374 Z-9.3
N17355 X28.298 Z-9.976
N17360 X28.27 Z-10.7
N17365 Z-17.05
N17370 Z5.
N17375 X37.374 Y23.82
N17380 Z-0.727
N17385 G2 X38.026 Z-1.169 I0.476 K0.
N17390 G1 X38.45 Z-1.
N17395 X38.527 Z-0.951
N17400 X38.579 Z-0.877
N17405 X38.618 Z-0.817
N17410 X38.673 Z-0.772
N17415 X38.739 Z-0.744
N17420 X40.947 Z-0.207
N17425 X41.372 Z-0.103
N17430 X41.817 Z0.
N17435 G2 X42.001 Z0.232 I-0.054 K0.232
N17440 G1 Z0.977
N17445 X42.002 Y23.827 Z1.071
N17450 X42.005 Y23.849 Z1.163
N17455 X42.01 Y23.885 Z1.25
N17460 X42.016 Y23.934 Z1.33
N17465 X42.024 Y23.994 Z1.402
N17470 X42.033 Y24.066 Z1.463
N17475 X42.043 Y24.145 Z1.512
N17480 X42.054 Y24.232 Z1.548
N17485 X42.065 Y24.322 Z1.57
N17490 X42.077 Y24.416 Z1.577
N17495 X42.089 Y24.509 Z1.57
N17500 X42.101 Y24.6 Z1.548
N17505 X42.112 Y24.686 Z1.512
N17510 X42.122 Y24.765 Z1.463
N17515 X42.131 Y24.837 Z1.402
N17520 X42.139 Y24.897 Z1.33
N17525 X42.145 Y24.946 Z1.25
N17530 X42.149 Y24.982 Z1.163
N17535 X42.152 Y25.004 Z1.071
N17540 X42.153 Y25.011 Z0.977
N17545 G2 X42.426 Z0.741 I0.238 K0.
N17550 G1 X42.735 Z0.787
N17555 X43.569 Z0.898
N17560 X44.447 Z1.
N17565 G2 X44.868 Z1.473 I-0.055 K0.473
N17570 G1 Z5.
N17575 X39.425
N17580 Z0.454
N17585 G3 X39.092 Z0. I-0.476 K0.
N17590 G1 X38.476 Z-0.194
N17595 X38.398 Z-0.205
N17600 X38.321 Z-0.19
N17605 X38.229 Z-0.176
N17610 X38.137 Z-0.198
N17615 X36.422 Z-1.
N17620 X36.057 Z-1.171
N17625 X36.001 Z-1.19
N17630 X35.942 Z-1.194
N17635 X35.867 Z-1.201
N17640 X35.799 Z-1.231
N17645 X34.593 Z-2.001
N17650 X34.367 Z-2.145
N17655 G3 X34.001 Z-1.944 I-0.128 K0.201
N17660 G1 Z-0.953
N17665 X34.002 Y25.018 Z-0.859
N17670 X34.004 Y25.04 Z-0.768
N17675 X34.008 Y25.076 Z-0.681
N17680 X34.012 Y25.125 Z-0.601
N17685 X34.018 Y25.185 Z-0.53
N17690 X34.025 Y25.256 Z-0.469
N17695 X34.033 Y25.336 Z-0.42
N17700 X34.041 Y25.422 Z-0.384
N17705 X34.05 Y25.513 Z-0.362
N17710 X34.059 Y25.606 Z-0.354
N17715 X34.069 Y25.7 Z-0.362
N17720 X34.077 Y25.79 Z-0.384
N17725 X34.086 Y25.877 Z-0.42
N17730 X34.094 Y25.956 Z-0.469
N17735 X34.101 Y26.027 Z-0.53
N17740 X34.107 Y26.088 Z-0.601
N17745 X34.111 Y26.137 Z-0.681
N17750 X34.115 Y26.173 Z-0.768
N17755 X34.117 Y26.195 Z-0.859
N17760 X34.118 Y26.202 Z-0.953
N17765 G2 X34.468 Z-1.163 I0.238 K0.
N17770 G1 X34.771 Z-1.
N17775 X34.828 Z-0.958
N17780 X34.869 Z-0.901
N17785 X34.922 Z-0.834
N17790 X34.996 Z-0.789
N17795 X36.512 Z-0.213
N17800 X37.072 Z0.
N17805 X37.153 Z0.051
N17810 X37.207 Z0.13
N17815 X37.248 Z0.195
N17820 X37.307 Z0.243
N17825 X37.378 Z0.27
N17830 X39.65 Z0.736
N17835 X40.179 Z0.844
N17840 X40.993 Z1.
N17845 X41.024 Z1.008
N17850 X41.053 Z1.02
N17855 X41.104 Z1.038
N17860 X41.158 Z1.044
N17865 G17 G3 Y27.393 I0. J0.595
N17870 G1 X38.898
N17875 X38.844 Z1.038
N17880 X38.793 Z1.02
N17885 X38.789 Z1.018
N17890 X38.74 Z1.
N17895 X37.674 Z0.741
N17900 X37.656 Z0.735
N17905 X33.131 Y26.202 Z-2.
N17910 X32.9 Z-2.163
N17915 X32.852 Z-2.189
N17920 X32.8 Z-2.204
N17925 X32.733 Z-2.224
N17930 X32.675 Z-2.264
N17935 X31.875 Z-3.
N17940 X31.824 Z-3.047
N17945 X31.763 Z-3.088
N17950 X31.692 Z-3.109
N17955 X31.607 Z-3.136
N17960 X31.538 Z-3.194
N17965 X30.878 Z-4.
N17970 X30.831 Z-4.058
N17975 G18 G3 X30.408 Z-3.908 I-0.184 K0.151
N17980 G1 Z-2.901
N17985 X30.407 Y26.209 Z-2.806
N17990 X30.404 Y26.231 Z-2.714
N17995 X30.398 Y26.267 Z-2.627
N18000 X30.391 Y26.316 Z-2.546
N18005 X30.381 Y26.376 Z-2.474
N18010 X30.37 Y26.447 Z-2.413
N18015 X30.357 Y26.527 Z-2.364
N18020 X30.344 Y26.613 Z-2.327
N18025 X30.33 Y26.704 Z-2.305
N18030 X30.315 Y26.797 Z-2.298
N18035 X30.3 Y26.89 Z-2.305
N18040 X30.286 Y26.981 Z-2.327
N18045 X30.273 Y27.068 Z-2.364
N18050 X30.26 Y27.147 Z-2.413
N18055 X30.249 Y27.218 Z-2.474
N18060 X30.239 Y27.279 Z-2.546
N18065 X30.232 Y27.328 Z-2.627
N18070 X30.226 Y27.364 Z-2.714
N18075 X30.223 Y27.385 Z-2.806
N18080 X30.222 Y27.393 Z-2.901
N18085 G2 X30.627 Z-3.07 I0.238 K0.
N18090 G1 X30.697 Z-3.
N18095 X30.733 Z-2.956
N18100 X30.756 Z-2.904
N18105 X30.788 Z-2.84
N18110 X30.838 Z-2.788
N18115 X31.707 Z-2.126
N18120 X31.871 Z-2.
N18125 X31.917 Z-1.955
N18130 X31.948 Z-1.899
N18135 X31.989 Z-1.831
N18140 X32.05 Z-1.78
N18145 X33.123 Z-1.152
N18150 X33.383 Z-1.
N18155 X33.437 Z-0.957
N18160 X33.476 Z-0.901
N18165 X33.526 Z-0.833
N18170 X33.596 Z-0.787
N18175 X34.971 Z-0.204
N18180 X35.453 Z0.
N18185 G2 X35.598 Z0.219 I-0.093 K0.219
N18190 G1 Z0.966
N18195 X35.6 Y27.4 Z1.06
N18200 X35.603 Y27.422 Z1.152
N18205 X35.608 Y27.458 Z1.239
N18210 X35.615 Y27.506 Z1.32
N18215 X35.624 Y27.567 Z1.392
N18220 X35.635 Y27.638 Z1.453
N18225 X35.646 Y27.718 Z1.502
N18230 X35.659 Y27.804 Z1.539
N18235 X35.672 Y27.895 Z1.561
N18240 X35.686 Y27.988 Z1.568
N18245 X35.7 Y28.081 Z1.561
N18250 X35.713 Y28.172 Z1.539
N18255 X35.726 Y28.259 Z1.502
N18260 X35.737 Y28.338 Z1.453
N18265 X35.748 Y28.409 Z1.392
N18270 X35.757 Y28.47 Z1.32
N18275 X35.764 Y28.519 Z1.239
N18280 X35.769 Y28.554 Z1.152
N18285 X35.772 Y28.576 Z1.06
N18290 X35.773 Y28.584 Z0.966
N18295 G2 X36.077 Z0.737 I0.238 K0.
N18300 G1 X36.251 Z0.787
N18305 X37.015 Z1.
N18310 G2 X37.364 Z1.459 I-0.128 K0.459
N18315 G1 Z5.
N18320 X34.372
N18325 Z0.432
N18330 G3 X34.095 Z0. I-0.476 K0.
N18335 G1 X33.693 Z-0.187
N18340 X33.632 Z-0.206
N18345 X33.567 Z-0.207
N18350 X33.489 Z-0.212
N18355 X33.416 Z-0.242
N18360 X32.19 Z-1.
N18365 X31.93 Z-1.161
N18370 X29.769 Y27.393 Z-4.001
N18375 X29.663 Z-4.136
N18380 X29.609 Z-4.186
N18385 X29.543 Z-4.217
N18390 X29.471 Z-4.227
N18395 X29.382 Z-4.242
N18400 X29.306 Z-4.289
N18405 X29.252 Z-4.36
N18410 X28.45 Z-6.
N18415 X28.188 Z-6.534
N18420 X27.912 Z-7.209
N18425 X27.683 Z-7.901
N18430 X27.504 Z-8.619
N18435 X27.385 Z-9.306
N18440 X27.314 Z-9.974
N18445 X27.29 Z-10.616
N18450 Z-5.9
N18455 X27.292 Y27.399 Z-5.847
N18460 X27.295 Y27.416 Z-5.797
N18465 X27.301 Y27.444 Z-5.751
N18470 X27.309 Y27.48 Z-5.714
N18475 X27.318 Y27.525 Z-5.685
N18480 X27.329 Y27.574 Z-5.668
N18485 X27.34 Y27.626 Z-5.662
N18490 X27.494 Y28.351
N18495 X27.505 Y28.403 Z-5.668
N18500 X27.516 Y28.452 Z-5.685
N18505 X27.525 Y28.496 Z-5.714
N18510 X27.533 Y28.533 Z-5.751
N18515 X27.539 Y28.561 Z-5.797
N18520 X27.542 Y28.578 Z-5.847
N18525 X27.544 Y28.584 Z-5.9
N18530 X27.538 Z-5.952
N18535 X27.521 Z-6.001
N18540 X27.273 Z-6.53
N18545 X27.011 Z-7.207
N18550 X26.796 Z-7.898
N18555 X26.627 Z-8.603
N18560 X26.508 Z-9.305
N18565 X26.438 Z-10.002
N18570 X26.414 Z-10.7
N18575 Z-17.05
N18580 Z-3.95
N18585 G3 X26.652 Z-3.712 I0.238 K0.
N18590 G1 X28.05
N18595 G3 X28.288 Z-3.95 I0. K-0.238
N18600 G2 X28.717 Z-4.091 I0.238 K0.
N18605 G1 X28.785 Z-4.
N18610 X28.824 Z-3.917
N18615 X28.847 Z-3.859
N18620 X28.884 Z-3.809
N18625 X29.606 Z-3.068
N18630 X29.671 Z-3.001
N18635 X29.708 Z-2.951
N18640 X29.731 Z-2.894
N18645 X29.762 Z-2.824
N18650 X29.813 Z-2.767
N18655 X30.579 Z-2.155
N18660 X30.774 Z-2.
N18665 X30.811 Z-1.962
N18670 X30.84 Z-1.917
N18675 X30.857 Z-1.867
N18680 X30.863 Z-1.814
N18685 Z-0.961
N18690 X30.861 Y28.591 Z-0.864
N18695 X30.856 Y28.613 Z-0.77
N18700 X30.846 Y28.649 Z-0.681
N18705 X30.833 Y28.697 Z-0.598
N18710 X30.816 Y28.758 Z-0.525
N18715 X30.797 Y28.829 Z-0.462
N18720 X30.776 Y28.909 Z-0.412
N18725 X30.753 Y28.995 Z-0.375
N18730 X30.728 Y29.086 Z-0.352
N18735 X30.703 Y29.179 Z-0.344
N18740 X30.678 Y29.272 Z-0.352
N18745 X30.654 Y29.363 Z-0.375
N18750 X30.631 Y29.449 Z-0.412
N18755 X30.609 Y29.529 Z-0.462
N18760 X30.59 Y29.6 Z-0.525
N18765 X30.574 Y29.661 Z-0.598
N18770 X30.561 Y29.71 Z-0.681
N18775 X30.551 Y29.745 Z-0.77
N18780 X30.545 Y29.767 Z-0.864
N18785 X30.543 Y29.775 Z-0.961
N18790 G2 X30.912 Z-1.16 I0.238 K0.
N18795 G1 X31.157 Z-1.
N18800 X31.206 Z-0.957
N18805 X31.242 Z-0.903
N18810 X31.287 Z-0.839
N18815 X31.35 Z-0.793
N18820 X32.537 Z-0.2
N18825 X32.937 Z0.
N18830 X33.004 Z0.05
N18835 X33.049 Z0.12
N18840 X33.085 Z0.179
N18845 X33.136 Z0.225
N18850 X33.198 Z0.254
N18855 X34.789 Z0.748
N18860 X35.601 Z1.
N18865 X35.602
N18870 X35.636 Z1.014
N18875 X35.689 Z1.033
N18880 X35.745 Z1.04
N18885 G17 G3 Y30.965 I0. J0.595
N18890 G1 X34.565
N18895 X34.508 Z1.033
N18900 X34.455 Z1.014
N18905 X34.452 Z1.012
N18910 X34.422 Z1.
N18915 X33.648 Z0.74
N18920 X29.816 Y29.775 Z-2.001
N18925 X29.641 Z-2.148
N18930 X29.597 Z-2.177
N18935 X29.548 Z-2.196
N18940 X29.486 Z-2.223
N18945 X29.434 Z-2.265
N18950 X28.759 Z-3.001
N18955 X28.673 Z-3.094
N18960 X28.628 Z-3.133
N18965 X28.574 Z-3.159
N18970 X28.509 Z-3.193
N18975 X28.457 Z-3.246
N18980 X27.915 Z-4.
N18985 X27.823 Z-4.129
N18990 X27.773 Z-4.18
N18995 X27.71 Z-4.214
N19000 X27.641 Z-4.228
N19005 X27.556 Z-4.248
N19010 X27.484 Z-4.297
N19015 X27.435 Z-4.368
N19020 X26.701 Z-6.001
N19025 X26.462 Z-6.534
N19030 X26.208 Z-7.211
N19035 X26. Z-7.896
N19040 X25.837 Z-8.591
N19045 X25.721 Z-9.289
N19050 X25.65 Z-9.998
N19055 X25.629 Z-10.627
N19060 X25.538 Y29.922 Z-10.628
N19065 X25.357 Y30.216 Z-10.63
N19070 X25.269 Y30.365
N19075 X24.927 Y30.965 Z-10.634
N19080 X24.947 Z-10.009
N19085 X25.015 Z-9.288
N19090 X25.12 Z-8.63
