%
(LEATHERMOLDCONTOUR)
(T6  D=4.762 CR=0. - ZMIN=-19.05 - FLAT END MILL)
N10 G90 G94 G17 G91.1
N15 G21
(WHEN USING FUSION 360 FOR PERSONAL USE, THE FEEDRATE OF)
(RAPID MOVES IS REDUCED TO MATCH THE FEEDRATE OF CUTTING)
(MOVES, WHICH CAN INCREASE MACHINING TIME. UNRESTRICTED RAPID)
(MOVES ARE AVAILABLE WITH A FUSION 360 SUBSCRIPTION.)
N20 G53 G0 Z0.
(2D CONTOUR1)
N25 T6 M6
N30 S6500 M3
N35 G54
N40 G64 P0.01 Q0.01
N45 G0 X87.313 Y143.669
N50 G43 Z15. H6
N55 G1 Z5. F2000.
N60 Z3.5 F333.33
N65 Z-2.5
N70 X49.212 F2000.
N75 G3 X26.194 Y120.65 I0. J-23.019
N80 G1 Y44.45
N85 G3 X49.213 Y21.431 I23.019 J0.
N90 G1 X176.213
N95 G3 X199.232 Y44.45 I0. J23.019
N100 G1 Y120.65
N105 G3 X176.213 Y143.669 I-23.019 J0.
N110 G1 X87.313
N115 Z-5. F333.33
N120 X49.212 F2000.
N125 G3 X26.194 Y120.65 I0. J-23.019
N130 G1 Y44.45
N135 G3 X49.213 Y21.431 I23.019 J0.
N140 G1 X176.213
N145 G3 X199.232 Y44.45 I0. J23.019
N150 G1 Y120.65
N155 G3 X176.213 Y143.669 I-23.019 J0.
N160 G1 X87.313
N165 Z-7.5 F333.33
N170 X49.212 F2000.
N175 G3 X26.194 Y120.65 I0. J-23.019
N180 G1 Y44.45
N185 G3 X49.213 Y21.431 I23.019 J0.
N190 G1 X176.213
N195 G3 X199.232 Y44.45 I0. J23.019
N200 G1 Y120.65
N205 G3 X176.213 Y143.669 I-23.019 J0.
N210 G1 X87.313
N215 Z-10. F333.33
N220 X49.212 F2000.
N225 G3 X26.194 Y120.65 I0. J-23.019
N230 G1 Y44.45
N235 G3 X49.213 Y21.431 I23.019 J0.
N240 G1 X176.213
N245 G3 X199.232 Y44.45 I0. J23.019
N250 G1 Y120.65
N255 G3 X176.213 Y143.669 I-23.019 J0.
N260 G1 X87.313
N265 Z-12.5 F333.33
N270 X49.212 F2000.
N275 G3 X26.194 Y120.65 I0. J-23.019
N280 G1 Y44.45
N285 G3 X49.213 Y21.431 I23.019 J0.
N290 G1 X176.213
N295 G3 X199.232 Y44.45 I0. J23.019
N300 G1 Y120.65
N305 G3 X176.213 Y143.669 I-23.019 J0.
N310 G1 X87.313
N315 Z-15. F333.33
N320 X49.212 F2000.
N325 G3 X26.194 Y120.65 I0. J-23.019
N330 G1 Y44.45
N335 G3 X49.213 Y21.431 I23.019 J0.
N340 G1 X176.213
N345 G3 X199.232 Y44.45 I0. J23.019
N350 G1 Y120.65
N355 G3 X176.213 Y143.669 I-23.019 J0.
N360 G1 X87.313
N365 Z-17.5 F333.33
N370 X49.212 F2000.
N375 G3 X26.194 Y120.65 I0. J-23.019
N380 G1 Y44.45
N385 G3 X49.213 Y21.431 I23.019 J0.
N390 G1 X176.213
N395 G3 X199.232 Y44.45 I0. J23.019
N400 G1 Y120.65
N405 G3 X176.213 Y143.669 I-23.019 J0.
N410 G1 X87.313
N415 Z-19.05 F333.33
N420 X86.917 F2000.
N425 Z-17.859
N430 X77.392
N435 Z-19.05 F333.33
N440 X60.946 F2000.
N445 Z-17.859
N450 X51.421
N455 Z-19.05 F333.33
N460 X49.212 F2000.
N465 G3 X26.194 Y120.65 I0. J-23.019
N470 G1 Y101.473
N475 Z-17.859
N480 Y91.948
N485 Z-19.05 F333.33
N490 Y77.738 F2000.
N495 Z-17.859
N500 Y68.213
N505 Z-19.05 F333.33
N510 Y55.086 F2000.
N515 Z-17.859
N520 Y45.561
N525 Z-19.05 F333.33
N530 Y44.45 F2000.
N535 G3 X49.213 Y21.431 I23.019 J0.
N540 G1 X71.458
N545 Z-17.859
N550 X80.983
N555 Z-19.05 F333.33
N560 X100.824 F2000.
N565 Z-17.859
N570 X110.349
N575 Z-19.05 F333.33
N580 X132.73 F2000.
N585 Z-17.859
N590 X142.255
N595 Z-19.05 F333.33
N600 X162.411 F2000.
N605 Z-17.859
N610 X171.936
N615 Z-19.05 F333.33
N620 X176.213 F2000.
N625 G3 X199.232 Y44.45 I0. J23.019
N630 G1 Y57.764
N635 Z-17.859
N640 Y67.289
N645 Z-19.05 F333.33
N650 Y73.813 F2000.
N655 Z-17.859
N660 Y83.338
N665 Z-19.05 F333.33
N670 Y94.214 F2000.
N675 Z-17.859
N680 Y103.739
N685 Z-19.05 F333.33
N690 Y120.65 F2000.
N695 G3 X176.213 Y143.669 I-23.019 J0.
N700 G1 X151.26
N705 Z-17.859
N710 X141.736
N715 Z-19.05 F333.33
N720 X118.136 F2000.
N725 Z-17.859
N730 X108.612
N735 Z-19.05 F333.33
N740 X87.313 F2000.
N745 Z15.
N750 G53 G0 Z0.
N755 M30
%
