%
(Header)
(Generated by gcodetools from Inkscape.)
(Using default header. To add your own header create file "header" in the output dir.)
M3
(Header end.)
G21 (All units in mm)

(Start cutting path id: path240)
(Change tool to Default tool)

G00 Z5.000000
G00 X83.947889 Y151.954954

G01 Z-0.125000 F100.0(Penetrate)
G03 X83.977416 Y152.382543 Z-0.125000 I-0.090790 J0.221084 F400.000000
G03 X82.892261 Y152.569996 Z-0.125000 I-0.794252 J-1.363210
G02 X81.869436 Y152.597763 Z-0.125000 I-0.447091 J2.383205
G02 X81.053846 Y153.019353 Z-0.125000 I0.463547 J1.896457
G02 X80.473240 Y153.678464 Z-0.125000 I2.150817 J2.479917
G02 X80.491509 Y153.862925 Z-0.125000 I0.121642 J0.081088
G03 X80.620249 Y154.083166 Z-0.125000 I-0.355626 J0.355626
G03 X80.770882 Y154.862438 Z-0.125000 I-4.688441 J1.310468
G03 X80.468891 Y155.315488 Z-0.125000 I-0.421429 J0.046262
G03 X78.162028 Y155.628424 Z-0.125000 I-2.183468 J-7.436621
G03 X75.577431 Y155.383910 Z-0.125000 I0.263861 J-16.571363
G03 X75.160029 Y155.104682 Z-0.125000 I0.106583 J-0.610915
G02 X74.986739 Y155.081770 Z-0.125000 I-0.096213 J0.060903
G02 X74.850475 Y155.389355 Z-0.125000 I0.285504 J0.310457
G03 X74.671188 Y155.979547 Z-0.125000 I-1.085338 J-0.007374
G03 X74.345635 Y156.154817 Z-0.125000 I-0.325553 J-0.214711
G02 X74.077754 Y156.314112 Z-0.125000 I0.000000 J0.304891
G02 X74.052773 Y156.693651 Z-0.125000 I0.398983 J0.216852
G02 X74.289772 Y156.966588 Z-0.125000 I0.493952 J-0.189548
G02 X74.467354 Y156.923989 Z-0.125000 I0.065584 J-0.118043
G03 X75.444302 Y156.166110 Z-0.125000 I1.638869 J1.103984
G03 X75.701924 Y156.485080 Z-0.125000 I0.072786 J0.204735
G02 X75.647803 Y156.807211 Z-0.125000 I0.368003 J0.227440
G02 X75.926532 Y157.486329 Z-0.125000 I2.131858 J-0.478215
G03 X75.823563 Y158.068897 Z-0.125000 I-0.374889 J0.234122
G03 X74.435657 Y158.649779 Z-0.125000 I-1.758772 J-2.253737
G03 X72.911083 Y158.636281 Z-0.125000 I-0.714026 J-5.457533
G03 X72.309370 Y158.333201 Z-0.125000 I0.158278 J-1.063071
G02 X71.939242 Y158.183442 Z-0.125000 I-0.361715 J0.361712
G02 X71.783416 Y158.341853 Z-0.125000 I0.002606 J0.158410
G03 X71.662846 Y158.755895 Z-0.125000 I-0.771208 J0.000000
G03 X71.443210 Y158.876464 Z-0.125000 I-0.219637 J-0.139769
G02 X71.206059 Y158.979517 Z-0.125000 I-0.000000 J0.324397
G02 X71.103004 Y159.240969 Z-0.125000 I0.280124 J0.261452
G03 X70.673196 Y160.013143 Z-0.125000 I-0.908531 J0.000000
G03 X68.813027 Y160.660679 Z-0.125000 I-2.378032 J-3.835732
G02 X66.493967 Y161.831154 Z-0.125000 I0.431797 J3.738131
G02 X65.846996 Y163.838334 Z-0.125000 I1.812970 J1.692231
G03 X65.664697 Y164.708798 Z-0.125000 I-1.346296 J0.172369
G03 X65.150201 Y165.000166 Z-0.125000 I-0.514496 J-0.308563
G02 X64.407926 Y165.186417 Z-0.125000 I0.000000 J1.572231
G02 X63.879729 Y165.680578 Z-0.125000 I0.663098 J1.238140
G03 X63.380800 Y166.227519 Z-0.125000 I-1.741452 J-1.087546
G03 X62.984676 Y166.360990 Z-0.125000 I-0.396124 J-0.521084
G03 X62.826507 Y166.214492 Z-0.125000 I-0.000000 J-0.158635
G03 X62.944888 Y165.842460 Z-0.125000 I0.518694 J-0.039801
G02 X62.852047 Y165.436336 Z-0.125000 I-0.201860 J-0.167528
G02 X62.169401 Y165.488128 Z-0.125000 I-0.294402 J0.644328
G02 X61.615513 Y166.184234 Z-0.125000 I0.778124 J1.187565
G02 X61.280714 Y167.896754 Z-0.125000 I5.125036 J1.890935
G02 X61.641484 Y169.326938 Z-0.125000 I2.669397 J0.087228
G02 X62.151213 Y169.393199 Z-0.125000 I0.280372 J-0.163096
G03 X62.494559 Y169.250980 Z-0.125000 I0.343346 J0.343346
G03 X62.749642 Y169.393199 Z-0.125000 I0.000000 J0.299868
G03 X62.734318 Y169.627062 Z-0.125000 I-0.171796 J0.106176
G03 X62.447835 Y169.763046 Z-0.125000 I-0.286483 J-0.233780
G02 X62.069786 Y169.915385 Z-0.125000 I0.000000 J0.545259
G02 X61.917449 Y170.273355 Z-0.125000 I0.344422 J0.357971
G02 X62.100471 Y170.600641 Z-0.125000 I0.384142 J0.000000
G02 X62.747885 Y170.783664 Z-0.125000 I0.647414 J-1.053546
G03 X63.510579 Y170.905164 Z-0.125000 I-0.000000 J2.454584
G03 X63.788580 Y171.123870 Z-0.125000 I-0.159987 J0.489402
G02 X64.068327 Y171.342818 Z-0.125000 I0.436875 J-0.270001
G02 X64.914325 Y171.485640 Z-0.125000 I0.916549 J-2.852111
G03 X65.137208 Y171.632750 Z-0.125000 I-0.005924 J0.251372
G03 X65.064352 Y171.814882 Z-0.125000 I-0.123453 J0.056254
G02 X64.375646 Y172.174434 Z-0.125000 I1.466422 J3.648229
G02 X64.298889 Y172.316505 Z-0.125000 I0.093101 J0.142071
G02 X64.384289 Y172.417391 Z-0.125000 I0.102290 J0.000000
G02 X65.064352 Y172.444658 Z-0.125000 I0.447826 J-2.674806
G03 X66.629972 Y172.702104 Z-0.125000 I0.275967 J3.211016
G03 X67.020533 Y173.298809 Z-0.125000 I-0.260546 J0.596705
G02 X67.582141 Y174.326788 Z-0.125000 I1.221622 J0.000000
G02 X68.472265 Y174.230895 Z-0.125000 I0.385538 J-0.600480
G02 X68.539574 Y173.913558 Z-0.125000 I-0.210439 J-0.210442
G02 X68.075171 Y173.199125 Z-0.125000 I-1.916393 J0.737557
G03 X67.453352 Y172.446331 Z-0.125000 I3.639478 J-3.639478
G03 X67.360739 Y172.144486 Z-0.125000 I0.445580 J-0.301844
G02 X67.244158 Y171.920863 Z-0.125000 I-0.272765 J0.000000
G02 X66.873639 Y171.804283 Z-0.125000 I-0.370519 J0.530506
G03 X66.198304 Y171.117339 Z-0.125000 I0.000000 J-0.675433
G03 X66.907535 Y169.815735 Z-0.125000 I1.599005 J0.027254
G02 X67.548744 Y168.848871 Z-0.125000 I-0.838320 J-1.252014
G02 X67.179960 Y168.402224 Z-0.125000 I-0.368784 J-0.071076
G02 X66.828211 Y168.550107 Z-0.125000 I0.000000 J0.492270
G02 X66.680329 Y168.912533 Z-0.125000 I0.370174 J0.362426
G03 X66.566316 Y169.308826 Z-0.125000 I-0.745729 J0.000000
G03 X66.360200 Y169.422840 Z-0.125000 I-0.206116 J-0.129302
G03 X65.839027 Y169.077608 Z-0.125000 I-0.000000 J-0.566005
G03 X65.999917 Y168.572327 Z-0.125000 I0.374995 J-0.158850
G02 X66.200001 Y168.319511 Z-0.125000 I-0.248703 J-0.402411
G02 X66.170020 Y168.062018 Z-0.125000 I-0.290134 J-0.096711
G03 X66.136544 Y167.803700 Z-0.125000 I0.268874 J-0.166172
G03 X66.322163 Y167.562808 Z-0.125000 I0.412124 J0.125601
G02 X66.401741 Y167.327240 Z-0.125000 I-0.102502 J-0.165851
G02 X65.987508 Y166.688787 Z-0.125000 I-1.705819 J0.653142
G03 X65.628823 Y165.791938 Z-0.125000 I0.866831 J-0.866831
G03 X66.016242 Y165.515655 Z-0.125000 I0.297419 J0.007285
G02 X66.682488 Y165.580530 Z-0.125000 I0.485109 J-1.528427
G02 X67.132317 Y165.388772 Z-0.125000 I-0.096660 J-0.850233
G03 X67.598563 Y165.173596 Z-0.125000 I0.637001 J0.767537
G03 X69.018680 Y165.061001 Z-0.125000 I1.314175 J7.563245
G01 X70.485702 Y165.081242 Z-0.125000
G01 X69.518580 Y165.718871 Z-0.125000
G02 X69.077000 Y166.199880 Z-0.125000 I0.740240 J1.122758
G02 X69.171119 Y166.358741 Z-0.125000 I0.094508 J0.051319
G02 X69.740420 Y166.238815 Z-0.125000 I0.005379 J-1.385693
G02 X70.292435 Y165.859328 Z-0.125000 I-0.748448 J-1.679951
G03 X70.865395 Y165.569573 Z-0.125000 I0.727813 J0.727813
G03 X72.264512 Y165.559216 Z-0.125000 I0.735366 J4.832230
G02 X73.650308 Y165.581241 Z-0.125000 I0.783977 J-5.719799
G02 X73.969972 Y165.380459 Z-0.125000 I-0.044644 J-0.425936
G03 X75.291875 Y164.695186 Z-0.125000 I1.233904 J0.762598
G03 X76.430769 Y165.530020 Z-0.125000 I-0.079148 J1.302240
G02 X76.723878 Y165.858291 Z-0.125000 I0.579384 J-0.222333
G02 X77.103458 Y165.879769 Z-0.125000 I0.213649 J-0.410921
G03 X77.573005 Y165.818647 Z-0.125000 I0.361326 J0.941619
G03 X78.420380 Y166.021901 Z-0.125000 I-0.366517 J3.396021
G02 X79.136481 Y166.153518 Z-0.125000 I0.716542 J-1.884659
G02 X79.267942 Y166.022086 Z-0.125000 I0.000029 J-0.131433
G02 X79.137829 Y165.799492 Z-0.125000 I-0.255459 J0.000000
G02 X78.162274 Y165.399466 Z-0.125000 I-2.096226 J3.722561
G03 X78.152654 Y165.234796 Z-0.125000 I0.022820 J-0.083949
G03 X79.000732 Y165.062512 Z-0.125000 I0.892895 J2.221829
G03 X80.902762 Y165.424398 Z-0.125000 I0.088267 J4.715444
G03 X80.938199 Y165.869694 Z-0.125000 I-0.096547 J0.231741
G02 X80.819455 Y166.105830 Z-0.125000 I0.132647 J0.214627
G02 X80.980863 Y166.368335 Z-0.125000 I0.341716 J-0.029237
G03 X81.119248 Y166.689792 Z-0.125000 I-0.160429 J0.259579
G03 X80.725485 Y167.601580 Z-0.125000 I-2.406435 J-0.498320
G02 X80.361731 Y168.963269 Z-0.125000 I1.682731 J1.178946
G02 X80.939109 Y169.993897 Z-0.125000 I1.437691 J-0.128380
G03 X81.096110 Y170.343063 Z-0.125000 I-0.233838 J0.315024
G03 X80.883920 Y170.625658 Z-0.125000 I-0.333019 J-0.029092
G02 X80.239074 Y171.469821 Z-0.125000 I0.368108 J0.949569
G02 X80.713817 Y172.260334 Z-0.125000 I0.763275 J0.079425
G03 X80.886607 Y172.471691 Z-0.125000 I-0.107053 J0.263828
G03 X80.798867 Y172.713943 Z-0.125000 I-0.249261 J0.046737
G02 X79.744799 Y174.811206 Z-0.125000 I1.855580 J2.246115
G02 X80.663768 Y175.354804 Z-0.125000 I0.602044 J0.030800
G03 X80.820219 Y175.405377 Z-0.125000 I0.056728 J0.091789
G03 X80.835681 Y175.770752 Z-0.125000 I-0.493319 J0.203892
G02 X80.841458 Y176.380684 Z-0.125000 I0.933104 J0.296156
G02 X81.364622 Y177.333977 Z-0.125000 I2.947290 J-0.997262
G02 X82.090124 Y177.830997 Z-0.125000 I1.187702 J-0.955676
G02 X82.502956 Y177.696160 Z-0.125000 I0.112722 J-0.354284
G03 X82.989271 Y177.411507 Z-0.125000 I0.570741 J0.417335
G03 X83.978803 Y177.518662 Z-0.125000 I0.263404 J2.190130
G02 X84.914831 Y177.700292 Z-0.125000 I1.095338 J-3.142084
G02 X85.051438 Y177.570075 Z-0.125000 I0.006241 J-0.130217
G03 X85.166008 Y177.362137 Z-0.125000 I0.245984 J0.000000
G03 X85.561747 Y177.247567 Z-0.125000 I0.395740 J0.626184
G03 X85.953457 Y177.366167 Z-0.125000 I0.000000 J0.706164
G03 X86.072057 Y177.587773 Z-0.125000 I-0.147737 J0.221606
G03 X85.966736 Y177.822660 Z-0.125000 I-0.314583 J0.000000
G03 X85.690195 Y177.927979 Z-0.125000 I-0.276542 J-0.310403
G02 X85.574841 Y178.053133 Z-0.125000 I0.000000 J0.115737
G02 X85.731851 Y178.438289 Z-0.125000 I0.688847 J-0.056229
G03 X85.810919 Y178.786842 Z-0.125000 I-0.303850 J0.252172
G03 X85.603403 Y178.948598 Z-0.125000 I-0.207515 J-0.052232
G02 X85.193006 Y179.376235 Z-0.125000 I0.000000 J0.410744
G02 X85.660662 Y180.339632 Z-0.125000 I1.339762 J-0.055147
G02 X86.318404 Y180.647702 Z-0.125000 I0.885293 J-1.033950
G02 X87.227178 Y180.605247 Z-0.125000 I0.357014 J-2.105549
G03 X88.123227 Y180.594862 Z-0.125000 I0.468383 J1.751351
G03 X88.893443 Y181.009736 Z-0.125000 I-0.407612 J1.679124
G02 X89.655716 Y181.534837 Z-0.125000 I2.156620 J-2.314870
G02 X90.238752 Y181.670244 Z-0.125000 I0.583036 J-1.187512
G03 X90.629574 Y181.807128 Z-0.125000 I0.000000 J0.626365
G03 X90.664834 Y182.010448 Z-0.125000 I-0.097048 J0.121547
G02 X90.640030 Y182.247257 Z-0.125000 I0.233214 J0.144131
G02 X90.787034 Y182.350654 Z-0.125000 I0.147004 J-0.052803
G03 X91.112663 Y182.387527 Z-0.125000 I-0.000000 J1.456241
G03 X91.613726 Y182.540309 Z-0.125000 I-0.832085 J3.626935
G02 X92.207479 Y182.136883 Z-0.125000 I0.156618 J-0.408141
G02 X91.632485 Y180.800446 Z-0.125000 I-1.795599 J-0.019367
G03 X91.040355 Y180.088729 Z-0.125000 I2.437565 J-2.630167
G03 X91.106137 Y179.969214 Z-0.125000 I0.065782 J-0.041654
G02 X91.301326 Y179.809091 Z-0.125000 I0.000000 J-0.199029
G02 X91.360433 Y178.693442 Z-0.125000 I-3.822354 J-0.761899
G02 X91.219207 Y177.445003 Z-0.125000 I-28.758382 J2.621003
G01 X91.187930 Y177.417670 Z-0.125000
G01 X91.156383 Y177.390444 Z-0.125000
G03 X91.021063 Y176.289060 Z-0.125000 I22.371967 J-3.307695
G02 X90.023395 Y173.840522 Z-0.125000 I-4.613451 J0.452251
G02 X89.102048 Y173.897044 Z-0.125000 I-0.440717 J0.353568
G03 X88.823006 Y174.017503 Z-0.125000 I-0.225751 J-0.139521
G03 X88.289958 Y173.730582 Z-0.125000 I0.211416 J-1.031385
G02 X87.670704 Y173.294912 Z-0.125000 I-1.561399 J1.561412
G02 X87.091289 Y173.165099 Z-0.125000 I-0.579415 J1.228198
G03 X86.196398 Y172.537218 Z-0.125000 I-0.000000 J-0.951664
G03 X86.413673 Y171.292256 Z-0.125000 I1.195967 J-0.432716
G02 X86.559693 Y170.802594 Z-0.125000 I-0.501402 J-0.416124
G02 X86.271677 Y170.042165 Z-0.125000 I-1.639557 J0.186233
G03 X85.836652 Y169.238385 Z-0.125000 I3.263847 J-2.286083
G03 X85.731840 Y168.695078 Z-0.125000 I1.355744 J-0.543307
G02 X85.608139 Y168.207871 Z-0.125000 I-1.021301 J0.000000
G02 X85.349891 Y167.991398 Z-0.125000 I-0.403387 J0.218954
G03 X85.121700 Y167.750168 Z-0.125000 I0.111266 J-0.333795
G03 X84.931000 Y166.455219 Z-0.125000 I5.274388 J-1.438245
G03 X85.135429 Y165.152718 Z-0.125000 I3.642963 J-0.095526
G03 X85.658143 Y164.383669 Z-0.125000 I1.710404 J0.600376
G02 X86.195698 Y163.664352 Z-0.125000 I-1.381640 J-1.593038
G02 X86.210738 Y163.169849 Z-0.125000 I-0.582524 J-0.265197
G03 X86.195042 Y162.753302 Z-0.125000 I0.602697 J-0.231280
G03 X86.375853 Y162.618720 Z-0.125000 I0.180812 J0.054170
G03 X86.644607 Y162.726571 Z-0.125000 I-0.000000 J0.388778
G03 X86.752458 Y162.979006 Z-0.125000 I-0.241495 J0.252435
G02 X86.867206 Y163.133475 Z-0.125000 I0.161344 J0.000000
G02 X87.144200 Y163.097176 Z-0.125000 I0.098211 J-0.325571
G02 X87.242450 Y162.843644 Z-0.125000 I-0.118487 J-0.191720
G02 X86.953740 Y162.429348 Z-0.125000 I-0.747542 J0.213193
G03 X86.668537 Y162.015188 Z-0.125000 I0.449638 J-0.614914
G03 X86.770135 Y161.757280 Z-0.125000 I0.223293 J-0.061002
G03 X87.137505 Y161.669578 Z-0.125000 I0.316353 J0.511877
G03 X87.385854 Y161.809673 Z-0.125000 I-0.029076 J0.341718
G02 X87.704423 Y162.000041 Z-0.125000 I0.382121 J-0.277718
G02 X89.377408 Y162.145383 Z-0.125000 I2.340289 J-17.237082
G02 X91.020214 Y162.120981 Z-0.125000 I0.592381 J-15.430777
G02 X91.175132 Y161.955141 Z-0.125000 I-0.011307 J-0.165840
G03 X91.282435 Y161.839611 Z-0.125000 I0.115845 J0.000000
G03 X92.280801 Y161.873379 Z-0.125000 I0.342908 J4.637159
G01 X93.386470 Y162.030812 Z-0.125000
G01 X92.738381 Y161.304148 Z-0.125000
G03 X92.582573 Y160.798060 Z-0.125000 I0.474365 J-0.423070
G03 X92.834110 Y160.577486 Z-0.125000 I0.251537 J0.033137
G03 X93.476846 Y160.724541 Z-0.125000 I-0.000000 J1.478134
G03 X93.747099 Y161.018342 Z-0.125000 I-0.235596 J0.487909
G02 X94.033432 Y161.265547 Z-0.125000 I0.373677 J-0.143394
G02 X95.100399 Y161.320959 Z-0.125000 I0.696740 J-3.115824
G02 X95.692768 Y160.913504 Z-0.125000 I-0.089193 J-0.764000
G02 X95.489330 Y160.577486 Z-0.125000 I-0.203438 J-0.106424
G03 X92.992244 Y160.133722 Z-0.125000 I0.000000 J-7.247512
G03 X91.603344 Y159.151267 Z-0.125000 I1.123574 J-3.061373
G03 X91.138082 Y157.518329 Z-0.125000 I1.627136 J-1.346360
G03 X91.920518 Y156.835462 Z-0.125000 I0.782768 J0.107209
G02 X92.436217 Y156.728407 Z-0.125000 I-0.000543 J-1.298235
G02 X92.706057 Y156.495018 Z-0.125000 I-0.236867 J-0.546549
G03 X92.989122 Y156.283878 Z-0.125000 I0.408682 J0.252583
G03 X94.001908 Y156.143991 Z-0.125000 I1.052917 J3.886901
G02 X96.106230 Y155.595208 Z-0.125000 I-0.044617 J-4.480011
G02 X96.199923 Y154.942498 Z-0.125000 I-0.197575 J-0.361441
G02 X95.966045 Y154.811712 Z-0.125000 I-0.348239 J0.348231
G02 X93.758267 Y154.359574 Z-0.125000 I-8.088876 J33.881429
G03 X91.744837 Y153.781847 Z-0.125000 I1.613941 J-9.422085
G03 X91.515339 Y153.439672 Z-0.125000 I0.140338 J-0.342175
G02 X90.840098 Y151.972197 Z-0.125000 I-1.932224 J0.000000
G02 X89.961784 Y152.108954 Z-0.125000 I-0.380616 J0.444353
G03 X89.693636 Y152.305263 Z-0.125000 I-0.376100 J-0.232442
G03 X89.280483 Y152.280497 Z-0.125000 I-0.167452 J-0.665065
G02 X88.865208 Y152.249433 Z-0.125000 I-0.259355 J0.675855
G02 X88.614406 Y152.427406 Z-0.125000 I0.085035 J0.385536
G03 X87.934158 Y152.792050 Z-0.125000 I-0.654782 J-0.404677
G03 X86.304834 Y152.350958 Z-0.125000 I0.121804 J-3.679706
G02 X85.534388 Y152.041038 Z-0.125000 I-1.747972 J3.232775
G02 X84.541121 Y151.864302 Z-0.125000 I-1.442683 J5.228488
G02 X83.956314 Y151.884393 Z-0.125000 I-0.207155 J2.491505
G01 X83.947878 Y151.954949 Z-0.125000
G01 X83.947889 Y151.954954 Z-0.125000
G00 Z5.000000

(End cutting path id: path240)


(Start cutting path id: path201)
(Change tool to Default tool)

G00 Z5.000000
G00 X89.474115 Y146.969260

G01 Z-0.125000 F100.0(Penetrate)
G03 X89.377520 Y147.212870 Z-0.125000 I-0.355484 J-0.000000 F400.000000
G03 X89.153986 Y147.309466 Z-0.125000 I-0.223534 J-0.210342
G03 X88.878831 Y147.228804 Z-0.125000 I0.000000 J-0.509634
G03 X88.623600 Y146.969260 Z-0.125000 I0.443452 J-0.691350
G03 X88.644932 Y146.758174 Z-0.125000 I0.148273 J-0.091637
G03 X88.943727 Y146.629054 Z-0.125000 I0.298795 J0.281160
G03 X89.353878 Y146.749291 Z-0.125000 I0.000000 J0.759671
G03 X89.474115 Y146.969260 Z-0.125000 I-0.141094 J0.219969
G01 X89.474115 Y146.969260 Z-0.125000
G00 Z5.000000

(End cutting path id: path201)


(Start cutting path id: path240)
(Change tool to Default tool)

G00 Z5.000000
G00 X91.923595 Y155.202239

G01 Z-0.125000 F100.0(Penetrate)
G03 X91.515348 Y155.371341 Z-0.125000 I-0.408247 J-0.408247 F400.000000
G03 X91.107103 Y155.202239 Z-0.125000 I-0.000000 J-0.577343
G03 X91.107102 Y154.963095 Z-0.125000 I0.119572 J-0.119573
G03 X91.515349 Y154.793993 Z-0.125000 I0.408247 J0.408246
G03 X91.923596 Y154.963094 Z-0.125000 I0.000000 J0.577348
G03 X91.923595 Y155.202239 Z-0.125000 I-0.119572 J0.119572
G01 X91.923595 Y155.202239 Z-0.125000
G00 Z5.000000

(End cutting path id: path240)


(Start cutting path id: path240)
(Change tool to Default tool)

G00 Z5.000000
G00 X83.010204 Y165.680578

G01 Z-0.125000 F100.0(Penetrate)
G03 X82.880257 Y166.231043 Z-0.125000 I-1.230877 J-0.000000 F400.000000
G03 X82.669998 Y166.360990 Z-0.125000 I-0.210259 J-0.105129
G03 X82.386655 Y166.304127 Z-0.125000 I-0.000000 J-0.734365
G03 X82.329792 Y166.218711 Z-0.125000 I0.035723 J-0.085416
G02 X82.309243 Y166.080241 Z-0.125000 I-0.476806 J0.000000
G02 X82.123293 Y165.538298 Z-0.125000 I-7.643413 J2.319713
G03 X82.160015 Y165.167349 Z-0.125000 I0.387981 J-0.148884
G03 X82.463499 Y165.000166 Z-0.125000 I0.303484 J0.191862
G03 X82.833065 Y165.177305 Z-0.125000 I0.000000 J0.474082
G03 X83.010204 Y165.680578 Z-0.125000 I-0.626358 J0.503273
G01 X83.010204 Y165.680578 Z-0.125000
G00 Z5.000000

(End cutting path id: path240)


(Start cutting path id: path240)
(Change tool to Default tool)

G00 Z5.000000
G00 X84.711232 Y167.758211

G01 Z-0.125000 F100.0(Penetrate)
G03 X84.293936 Y168.179498 Z-0.125000 I-0.421307 J0.000000 F400.000000
G03 X83.549840 Y167.769270 Z-0.125000 I-0.008234 J-0.865022
G03 X83.474245 Y167.488780 Z-0.125000 I0.431627 J-0.266760
G03 X83.563016 Y167.282400 Z-0.125000 I0.303379 J0.008213
G03 X84.295986 Y167.136663 Z-0.125000 I0.475522 J0.475522
G03 X84.711224 Y167.758216 Z-0.125000 I-0.257569 J0.621553
G01 X84.711232 Y167.758211 Z-0.125000
G00 Z5.000000

(End cutting path id: path240)


(Start cutting path id: path240)
(Change tool to Default tool)

G00 Z5.000000
G00 X88.113291 Y174.055297

G01 Z-0.125000 F100.0(Penetrate)
G03 X88.051896 Y174.124037 Z-0.125000 I-0.069180 J0.000000 F400.000000
G03 X87.007622 Y174.180513 Z-0.125000 I-1.002305 J-8.850315
G03 X86.375103 Y174.039237 Z-0.125000 I0.007162 J-1.518658
G03 X86.364871 Y173.882005 Z-0.125000 I0.037808 J-0.081409
G03 X87.674784 Y173.571178 Z-0.125000 I1.106076 J1.745733
G03 X88.113291 Y174.055297 Z-0.125000 I-0.047984 J0.484118
G01 X88.113291 Y174.055297 Z-0.125000
G00 Z5.000000

(End cutting path id: path240)


(Start cutting path id: path240)
(Change tool to Default tool)

G00 Z5.000000
G00 X90.893201 Y180.872463

G01 Z-0.125000 F100.0(Penetrate)
G03 X91.428145 Y181.474191 Z-0.125000 I-2.493922 J2.755780 F400.000000
G03 X91.515349 Y181.747277 Z-0.125000 I-0.383993 J0.273086
G03 X91.414149 Y181.814735 Z-0.125000 I-0.073083 J0.000000
G03 X90.980741 Y181.524446 Z-0.125000 I0.517221 J-1.240910
G02 X90.401180 Y181.098359 Z-0.125000 I-1.685797 J1.685812
G02 X89.960122 Y180.989837 Z-0.125000 I-0.441058 J0.842016
G03 X89.590597 Y180.873354 Z-0.125000 I0.000000 J-0.644372
G03 X89.474115 Y180.649631 Z-0.125000 I0.156607 J-0.223723
G03 X89.815527 Y180.357646 Z-0.125000 I0.295563 J0.000000
G03 X90.893201 Y180.872463 Z-0.125000 I-0.324053 J2.063707
G01 X90.893201 Y180.872463 Z-0.125000
G00 Z5.000000

(End cutting path id: path240)


(Start cutting path id: path240)
(Change tool to Default tool)

G00 Z5.000000
G00 X73.824650 Y165.206667

G01 Z-0.125000 F100.0(Penetrate)
G03 X73.766409 Y165.282133 Z-0.125000 I-0.078013 J0.000000 F400.000000
G03 X73.314341 Y165.340372 Z-0.125000 I-0.452069 J-1.725427
G03 X72.920221 Y165.224182 Z-0.125000 I0.000000 J-0.726526
G03 X72.804031 Y165.010844 Z-0.125000 I0.137761 J-0.213337
G03 X72.923835 Y164.855608 Z-0.125000 I0.160476 J0.000000
G03 X73.314341 Y164.877140 Z-0.125000 I0.161797 J0.617534
G03 X73.771665 Y165.109381 Z-0.125000 I-0.889404 J2.317792
G03 X73.824650 Y165.206667 Z-0.125000 I-0.062822 J0.097286
G01 X73.824650 Y165.206667 Z-0.125000
G00 Z5.000000

(End cutting path id: path240)


(Start cutting path id: path240)
(Change tool to Default tool)

G00 Z5.000000
G00 X70.072535 Y161.244614

G01 Z-0.125000 F100.0(Penetrate)
G03 X70.376833 Y161.582924 Z-0.125000 I-0.448861 J0.709744 F400.000000
G03 X70.342359 Y161.791742 Z-0.125000 I-0.162937 J0.080355
G03 X69.523918 Y161.956609 Z-0.125000 I-0.533242 J-0.533242
G03 X69.061770 Y161.268580 Z-0.125000 I0.281081 J-0.688029
G03 X69.295320 Y161.029425 Z-0.125000 I0.239222 J0.000000
G03 X70.072535 Y161.244608 Z-0.125000 I0.033011 J1.391955
G01 X70.072535 Y161.244614 Z-0.125000
G00 Z5.000000

(End cutting path id: path240)


(Start cutting path id: path240)
(Change tool to Default tool)

G00 Z5.000000
G00 X64.887160 Y167.246941

G01 Z-0.125000 F100.0(Penetrate)
G03 X64.659894 Y167.346607 Z-0.125000 I-0.241312 J-0.241312 F400.000000
G03 X64.235098 Y167.273802 Z-0.125000 I-0.042364 J-1.028497
G03 X64.213374 Y167.167925 Z-0.125000 I0.024051 J-0.060102
G03 X64.440640 Y167.068260 Z-0.125000 I0.241310 J0.241312
G03 X64.865436 Y167.141068 Z-0.125000 I0.042343 J1.028583
G03 X64.887160 Y167.246944 Z-0.125000 I-0.024049 J0.060101
G01 X64.887160 Y167.246941 Z-0.125000
G00 Z5.000000

(End cutting path id: path240)


(Start cutting path id: path240)
(Change tool to Default tool)

G00 Z5.000000
G00 X65.319505 Y168.552248

G01 Z-0.125000 F100.0(Penetrate)
G03 X65.215220 Y168.984339 Z-0.125000 I-0.947301 J0.000000 F400.000000
G03 X64.951735 Y169.269776 Z-0.125000 I-0.643856 J-0.330010
G02 X64.754620 Y169.566356 Z-0.125000 I0.224231 J0.362824
G02 X64.788111 Y170.310471 Z-0.125000 I1.843504 J0.289838
G03 X64.436637 Y170.729694 Z-0.125000 I-0.327662 J0.082238
G03 X63.718640 Y170.234898 Z-0.125000 I0.060497 J-0.856126
G03 X63.646761 Y169.510582 Z-0.125000 I1.002244 J-0.465184
G03 X63.973796 Y169.177257 Z-0.125000 I0.442092 J0.106655
G02 X64.488896 Y168.887309 Z-0.125000 I-0.294262 J-1.125282
G02 X64.639093 Y168.532648 Z-0.125000 I-0.343634 J-0.354661
G03 X64.754152 Y168.177077 Z-0.125000 I0.606943 J0.000000
G03 X64.979299 Y168.062018 Z-0.125000 I0.225146 J0.162753
G03 X65.202643 Y168.178880 Z-0.125000 I0.000000 J0.271857
G03 X65.319505 Y168.552248 Z-0.125000 I-0.538016 J0.373368
G01 X65.319505 Y168.552248 Z-0.125000
G00 Z5.000000

(End cutting path id: path240)


(Start cutting path id: path240)
(Change tool to Default tool)

G00 Z5.000000
G00 X63.618477 Y168.005318

G01 Z-0.125000 F100.0(Penetrate)
G03 X63.352482 Y168.464646 Z-0.125000 I-0.529588 J0.000000 F400.000000
G03 X62.734701 Y168.512489 Z-0.125000 I-0.359220 J-0.625964
G03 X62.501426 Y168.060357 Z-0.125000 I0.136958 J-0.356907
G03 X62.938065 Y167.721812 Z-0.125000 I0.436639 J0.112304
G03 X63.505074 Y167.835213 Z-0.125000 I-0.000000 J1.474228
G03 X63.618477 Y168.005318 Z-0.125000 I-0.070877 J0.170104
G01 X63.618477 Y168.005318 Z-0.125000
G00 Z5.000000

(End cutting path id: path240)


(Start cutting path id: path240)
(Change tool to Default tool)

G00 Z5.000000
G00 X65.999917 Y170.273355

G01 Z-0.125000 F100.0(Penetrate)
G03 X65.881317 Y170.665064 Z-0.125000 I-0.706164 J0.000000 F400.000000
G03 X65.659711 Y170.783664 Z-0.125000 I-0.221606 J-0.147737
G03 X65.438105 Y170.665064 Z-0.125000 I-0.000000 J-0.266337
G03 X65.319505 Y170.273355 Z-0.125000 I0.587564 J-0.391709
G03 X65.438105 Y169.881646 Z-0.125000 I0.706164 J0.000000
G03 X65.659711 Y169.763046 Z-0.125000 I0.221606 J0.147737
G03 X65.881317 Y169.881646 Z-0.125000 I0.000000 J0.266337
G03 X65.999917 Y170.273355 Z-0.125000 I-0.587564 J0.391709
G01 X65.999917 Y170.273355 Z-0.125000
G00 Z5.000000

(End cutting path id: path240)


(Start cutting path id: path201)
(Change tool to Default tool)

G00 Z5.000000
G00 X78.587530 Y140.315170

G01 Z-0.125000 F100.0(Penetrate)
G03 X78.538710 Y140.437978 Z-0.125000 I-0.178875 J0.000000 F400.000000
G03 X78.247324 Y140.675455 Z-0.125000 I-1.052266 J-0.993634
G03 X78.015393 Y140.691512 Z-0.125000 I-0.131220 J-0.212321
G03 X77.907118 Y140.525429 Z-0.125000 I0.073240 J-0.166083
G03 X78.009600 Y140.267629 Z-0.125000 I0.375496 J0.000000
G03 X78.247324 Y140.165146 Z-0.125000 I0.237724 J0.224476
G03 X78.528323 Y140.224353 Z-0.125000 I0.000000 J0.696423
G03 X78.587530 Y140.315170 Z-0.125000 I-0.040048 J0.090817
G01 X78.587530 Y140.315170 Z-0.125000
G00 Z5.000000

(End cutting path id: path201)


(Start cutting path id: path201)
(Change tool to Default tool)

G00 Z5.000000
G00 X79.097839 Y135.402266

G01 Z-0.125000 F100.0(Penetrate)
G03 X79.120116 Y135.637665 Z-0.125000 I-0.226892 J0.140226 F400.000000
G03 X78.967892 Y135.742472 Z-0.125000 I-0.152224 J-0.058144
G03 X78.674201 Y135.659041 Z-0.125000 I0.000000 J-0.558634
G03 X78.417427 Y135.402266 Z-0.125000 I0.415465 J-0.672238
G03 X78.395150 Y135.166866 Z-0.125000 I0.226892 J-0.140226
G03 X78.547374 Y135.062060 Z-0.125000 I0.152224 J0.058144
G03 X78.841063 Y135.145491 Z-0.125000 I-0.000000 J0.558628
G03 X79.097839 Y135.402266 Z-0.125000 I-0.415481 J0.672258
G01 X79.097839 Y135.402266 Z-0.125000
G00 Z5.000000

(End cutting path id: path201)


(Start cutting path id: path201)
(Change tool to Default tool)

G00 Z5.000000
G00 X77.226706 Y135.402266

G01 Z-0.125000 F100.0(Penetrate)
G03 X77.127063 Y135.642827 Z-0.125000 I-0.340208 J-0.000000 F400.000000
G03 X76.886502 Y135.742472 Z-0.125000 I-0.240560 J-0.240557
G03 X76.645940 Y135.642828 Z-0.125000 I0.000000 J-0.340206
G03 X76.546296 Y135.402266 Z-0.125000 I0.240562 J-0.240562
G03 X76.645940 Y135.161704 Z-0.125000 I0.340206 J-0.000000
G03 X76.886502 Y135.062060 Z-0.125000 I0.240562 J0.240562
G03 X77.127063 Y135.161704 Z-0.125000 I-0.000000 J0.340202
G03 X77.226706 Y135.402266 Z-0.125000 I-0.240565 J0.240562
G01 X77.226706 Y135.402266 Z-0.125000
G00 Z5.000000

(End cutting path id: path201)


(Start cutting path id: path201)
(Change tool to Default tool)

G00 Z5.000000
G00 X69.572076 Y129.278561

G01 Z-0.125000 F100.0(Penetrate)
G03 X69.588134 Y129.510492 Z-0.125000 I-0.212318 J0.131222 F400.000000
G03 X69.422052 Y129.618767 Z-0.125000 I-0.166082 J-0.073239
G03 X69.164251 Y129.516284 Z-0.125000 I-0.000000 J-0.375496
G03 X69.061770 Y129.278561 Z-0.125000 I0.224477 J-0.237723
G03 X69.120976 Y128.997562 Z-0.125000 I0.696423 J0.000000
G03 X69.211793 Y128.938355 Z-0.125000 I0.090817 J0.040048
G03 X69.334599 Y128.987173 Z-0.125000 I-0.000000 J0.178872
G03 X69.572076 Y129.278561 Z-0.125000 I-0.993574 J1.052212
G01 X69.572076 Y129.278561 Z-0.125000
G00 Z5.000000

(End cutting path id: path201)


(Start cutting path id: path201)
(Change tool to Default tool)

G00 Z5.000000
G00 X72.123619 Y124.025451

G01 Z-0.125000 F100.0(Penetrate)
G03 X71.993164 Y124.321851 Z-0.125000 I-0.401946 J0.000000 F400.000000
G03 X71.777865 Y124.342149 Z-0.125000 I-0.121067 J-0.132175
G03 X71.588717 Y124.091491 Z-0.125000 I0.227807 J-0.368599
G03 X71.627841 Y123.811763 Z-0.125000 I0.337334 J-0.095420
G03 X71.922061 Y123.719092 Z-0.125000 I0.200790 J0.124094
G03 X72.123619 Y124.025451 Z-0.125000 I-0.132046 J0.306359
G01 X72.123619 Y124.025451 Z-0.125000
G00 Z5.000000

(End cutting path id: path201)


(Start cutting path id: path201)
(Change tool to Default tool)

G00 Z5.000000
G00 X72.804031 Y112.948686

G01 Z-0.125000 F100.0(Penetrate)
G03 X72.744825 Y113.229685 Z-0.125000 I-0.696423 J-0.000000 F400.000000
G03 X72.654008 Y113.288892 Z-0.125000 I-0.090817 J-0.040048
G03 X72.531199 Y113.240072 Z-0.125000 I-0.000000 J-0.178875
G03 X72.293722 Y112.948686 Z-0.125000 I0.993634 J-1.052266
G03 X72.277666 Y112.716755 Z-0.125000 I0.212321 J-0.131220
G03 X72.443749 Y112.608480 Z-0.125000 I0.166083 J0.073240
G03 X72.701548 Y112.710962 Z-0.125000 I0.000000 J0.375496
G03 X72.804031 Y112.948686 Z-0.125000 I-0.224476 J0.237724
G01 X72.804031 Y112.948686 Z-0.125000
G00 Z5.000000

(End cutting path id: path201)


(Start cutting path id: path201)
(Change tool to Default tool)

G00 Z5.000000
G00 X68.721563 Y110.717270

G01 Z-0.125000 F100.0(Penetrate)
G03 X68.393709 Y111.129516 Z-0.125000 I-0.423108 J0.000000 F400.000000
G03 X67.874477 Y110.913000 Z-0.125000 I-0.108660 J-0.470268
G03 X67.894773 Y110.697703 Z-0.125000 I0.152472 J-0.094232
G03 X68.191175 Y110.567246 Z-0.125000 I0.296402 J0.271486
G03 X68.656956 Y110.631853 Z-0.125000 I-0.000000 J1.711309
G03 X68.721563 Y110.717270 Z-0.125000 I-0.024161 J0.085416
G01 X68.721563 Y110.717270 Z-0.125000
G00 Z5.000000

(End cutting path id: path201)


(Start cutting path id: path201)
(Change tool to Default tool)

G00 Z5.000000
G00 X65.580759 Y114.309508

G01 Z-0.125000 F100.0(Penetrate)
G03 X65.107695 Y114.903099 Z-0.125000 I-2.814311 J-1.757571 F400.000000
G03 X64.897463 Y114.989920 Z-0.125000 I-0.210232 J-0.211123
G03 X64.739347 Y114.797825 Z-0.125000 I0.000000 J-0.161121
G03 X65.064352 Y114.137987 Z-0.125000 I1.381929 J0.270712
G03 X65.478565 Y114.025972 Z-0.125000 I0.291705 J0.256827
G03 X65.580759 Y114.309508 Z-0.125000 I-0.060440 J0.181969
G01 X65.580759 Y114.309508 Z-0.125000
G00 Z5.000000

(End cutting path id: path201)


(Start cutting path id: path201)
(Change tool to Default tool)

G00 Z5.000000
G00 X83.923016 Y111.651650

G01 Z-0.125000 F100.0(Penetrate)
G03 X83.817140 Y111.673374 Z-0.125000 I-0.060102 J-0.024051 F400.000000
G03 X83.717474 Y111.446109 Z-0.125000 I0.241309 J-0.241310
G03 X83.790282 Y111.021313 Z-0.125000 I1.028581 J-0.042343
G03 X83.896158 Y110.999588 Z-0.125000 I0.060102 J0.024050
G03 X83.995822 Y111.226857 Z-0.125000 I-0.241328 J0.241317
G03 X83.923016 Y111.651650 Z-0.125000 I-1.028448 J0.042368
G01 X83.923016 Y111.651650 Z-0.125000
G00 Z5.000000

(End cutting path id: path201)


(Start cutting path id: path201)
(Change tool to Default tool)

G00 Z5.000000
G00 X85.391644 Y118.712105

G01 Z-0.125000 F100.0(Penetrate)
G03 X85.310982 Y118.987260 Z-0.125000 I-0.509634 J-0.000000 F400.000000
G03 X85.051438 Y119.242491 Z-0.125000 I-0.691350 J-0.443452
G03 X84.840352 Y119.221161 Z-0.125000 I-0.091638 J-0.148271
G03 X84.711232 Y118.922364 Z-0.125000 I0.281161 J-0.298796
G03 X84.831469 Y118.512215 Z-0.125000 I0.759663 J0.000000
G03 X85.051438 Y118.391978 Z-0.125000 I0.219969 J0.141095
G03 X85.295049 Y118.488574 Z-0.125000 I0.000000 J0.355486
G03 X85.391644 Y118.712105 Z-0.125000 I-0.210338 J0.223531
G01 X85.391644 Y118.712105 Z-0.125000
G00 Z5.000000

(End cutting path id: path201)


(Start cutting path id: path201)
(Change tool to Default tool)

G00 Z5.000000
G00 X91.083005 Y105.669701

G01 Z-0.125000 F100.0(Penetrate)
G03 X90.855740 Y105.769363 Z-0.125000 I-0.241304 J-0.241304 F400.000000
G03 X90.430943 Y105.696543 Z-0.125000 I-0.042345 J-1.028410
G03 X90.409219 Y105.590668 Z-0.125000 I0.024050 J-0.060101
G03 X90.636484 Y105.491004 Z-0.125000 I0.241310 J0.241313
G03 X91.061278 Y105.563811 Z-0.125000 I0.042343 J1.028586
G03 X91.083005 Y105.669688 Z-0.125000 I-0.024050 J0.060102
G01 X91.083005 Y105.669701 Z-0.125000
G00 Z5.000000

(End cutting path id: path201)


(Start cutting path id: path201)
(Change tool to Default tool)

G00 Z5.000000
G00 X90.834937 Y104.613644

G01 Z-0.125000 F100.0(Penetrate)
G03 X91.002998 Y105.003990 Z-0.125000 I-0.579273 J0.480754 F400.000000
G03 X90.896672 Y105.123953 Z-0.125000 I-0.106326 J0.012863
G03 X90.584037 Y105.035798 Z-0.125000 I-0.000000 J-0.598445
G03 X90.314418 Y104.767227 Z-0.125000 I0.429113 J-0.700410
G02 X90.058489 Y104.612221 Z-0.125000 I-0.279541 J0.172765
G02 X89.698982 Y104.722890 Z-0.125000 I-0.037319 J0.518032
G03 X89.272980 Y104.977168 Z-0.125000 I-1.177592 J-1.488882
G03 X87.999060 Y105.455838 Z-0.125000 I-5.655219 J-13.116120
G02 X85.517410 Y106.808812 Z-0.125000 I2.327087 J7.220817
G02 X83.877756 Y108.833275 Z-0.125000 I4.085112 J4.984843
G02 X83.304465 Y110.499252 Z-0.125000 I5.384924 J2.784671
G02 X82.945366 Y113.799199 Z-0.125000 I21.150042 J3.971057
G02 X83.163455 Y118.768859 Z-0.125000 I33.157686 J1.034520
G02 X84.713325 Y128.598151 Z-0.125000 I131.808145 J-15.746504
G03 X85.596007 Y134.458828 Z-0.125000 I-65.523366 J12.865349
G03 X85.359267 Y134.721853 Z-0.125000 I-0.236740 J0.024972
G02 X85.172626 Y134.855190 Z-0.125000 I0.000000 J0.197296
G02 X85.179711 Y135.245828 Z-0.125000 I0.541500 J0.185563
G03 X85.167378 Y135.602075 Z-0.125000 I-0.426281 J0.163579
G03 X84.960954 Y135.715828 Z-0.125000 I-0.180972 J-0.084231
G02 X84.226621 Y135.909706 Z-0.125000 I-0.128623 J1.000448
G02 X84.220952 Y136.271548 Z-0.125000 I0.137517 J0.183120
G03 X84.291077 Y136.436623 Z-0.125000 I-0.118332 J0.147700
G03 X84.200923 Y136.488789 Z-0.125000 I-0.063560 J-0.005860
G02 X83.499129 Y136.251376 Z-0.125000 I-1.493372 J3.258451
G02 X81.875564 Y135.962250 Z-0.125000 I-3.922123 J17.321353
G03 X80.295178 Y135.583177 Z-0.125000 I0.997594 J-7.642953
G03 X79.197188 Y135.011680 Z-0.125000 I1.495422 J-4.213596
G03 X75.425768 Y131.195913 Z-0.125000 I9.066645 J-12.732946
G03 X74.505059 Y128.256437 Z-0.125000 I4.231964 J-2.939476
G02 X74.450860 Y127.921954 Z-0.125000 I-1.059204 J0.000000
G02 X74.192653 Y127.317763 Z-0.125000 I-3.778938 J1.257696
G03 X72.769814 Y123.678040 Z-0.125000 I15.211915 J-8.044604
G03 X72.248291 Y119.975000 Z-0.125000 I15.232286 J-4.033508
G03 X72.350993 Y116.645615 Z-0.125000 I32.153102 J-0.674445
G03 X72.685104 Y114.701810 Z-0.125000 I11.236717 J0.930809
G02 X73.032322 Y112.770278 Z-0.125000 I-11.882858 J-3.133074
G02 X72.997373 Y111.523346 Z-0.125000 I-4.941318 J-0.485459
G03 X72.965127 Y110.342987 Z-0.125000 I4.618420 J-0.716788
G03 X73.143499 Y110.057392 Z-0.125000 I0.378177 J0.037696
G03 X73.345807 Y110.104024 Z-0.125000 I0.077591 J0.125542
G03 X73.507200 Y110.632217 Z-0.125000 I-0.882607 J0.558442
G02 X73.632862 Y110.669030 Z-0.125000 I0.068807 J-0.001991
G02 X73.999711 Y109.910601 Z-0.125000 I-2.353492 J-1.606310
G02 X74.354818 Y108.417933 Z-0.125000 I-10.688345 J-3.331342
G02 X74.297081 Y108.124520 Z-0.125000 I-0.419485 J-0.069842
G03 X74.300628 Y107.943692 Z-0.125000 I0.141842 J-0.087667
G03 X74.484980 Y107.845600 Z-0.125000 I0.184352 J0.124187
G02 X74.961394 Y107.338559 Z-0.125000 I0.000000 J-0.477338
G02 X74.420007 Y106.803415 Z-0.125000 I-0.570327 J0.035557
G03 X74.387258 Y106.716180 Z-0.125000 I0.002577 J-0.050732
G03 X74.760213 Y106.474176 Z-0.125000 I0.804296 J0.831122
G02 X75.642438 Y105.603129 Z-0.125000 I-0.598158 J-1.488131
G02 X75.323039 Y105.123953 Z-0.125000 I-0.319399 J-0.133138
G02 X73.619319 Y105.794764 Z-0.125000 I0.000000 J2.498952
G02 X73.349258 Y106.963408 Z-0.125000 I0.731081 J0.784471
G03 X73.325557 Y107.329413 Z-0.125000 I-0.409744 J0.157237
G03 X72.993685 Y107.620918 Z-0.125000 I-0.559936 J-0.302807
G03 X72.584927 Y107.648054 Z-0.125000 I-0.248222 J-0.646867
G03 X72.463823 Y107.494718 Z-0.125000 I0.036522 J-0.153337
G02 X72.178698 Y107.304166 Z-0.125000 I-0.206236 J0.000000
G02 X70.912430 Y108.136993 Z-0.125000 I1.540815 J3.721786
G03 X69.855625 Y109.029891 Z-0.125000 I-6.942012 J-7.144486
G03 X68.817210 Y109.671175 Z-0.125000 I-4.579887 J-6.254718
G02 X64.066515 Y112.997026 Z-0.125000 I9.745295 J18.976229
G02 X63.278268 Y114.801555 Z-0.125000 I1.671426 J1.804529
G03 X63.217932 Y115.035823 Z-0.125000 I-0.484961 J-0.000000
G03 X62.640242 Y115.958019 Z-0.125000 I-8.592275 J-4.740406
G02 X61.115285 Y120.232656 Z-0.125000 I6.887942 J4.866571
G02 X62.253554 Y121.453828 Z-0.125000 I1.138269 J0.080089
G03 X62.468983 Y121.582703 Z-0.125000 I0.000000 J0.244494
G03 X62.597856 Y122.095352 Z-0.125000 I-0.955204 J0.512649
G02 X63.109711 Y124.187175 Z-0.125000 I4.530301 J-0.000000
G02 X63.737023 Y124.283729 Z-0.125000 I0.349054 J-0.181702
G03 X63.856977 Y124.307606 Z-0.125000 I0.052002 J0.052003
G03 X63.958680 Y124.819263 Z-0.125000 I-1.236190 J0.511657
G02 X64.101694 Y125.319945 Z-0.125000 I0.947932 J-0.000000
G02 X64.298887 Y125.366196 Z-0.125000 I0.121789 J-0.075756
G03 X64.494360 Y125.415527 Z-0.125000 I0.073819 J0.119439
G03 X64.639090 Y125.956528 Z-0.125000 I-0.938767 J0.541001
G02 X65.006252 Y126.966300 Z-0.125000 I1.572122 J-0.000000
G02 X68.634653 Y130.724436 Z-0.125000 I28.482988 J-23.869087
G02 X70.091815 Y131.898354 Z-0.125000 I11.495901 J-12.778310
G02 X70.407769 Y132.000207 Z-0.125000 I0.315954 J-0.439125
G03 X70.657639 Y132.105363 Z-0.125000 I0.000000 J0.349447
G03 X70.762795 Y132.363339 Z-0.125000 I-0.263868 J0.257976
G02 X70.902140 Y132.536048 Z-0.125000 I0.176703 J0.000000
G02 X71.443207 Y132.510516 Z-0.125000 I0.222580 J-1.029003
G03 X71.965501 Y132.515133 Z-0.125000 I0.254091 J0.800574
G03 X72.132395 Y132.742746 Z-0.125000 I-0.078314 J0.232416
G02 X72.302782 Y133.085228 Z-0.125000 I0.446941 J-0.008731
G02 X73.493217 Y133.814307 Z-0.125000 I3.683257 J-4.677584
G03 X74.669864 Y134.549959 Z-0.125000 I-2.298418 J4.985061
G03 X74.845263 Y134.919976 Z-0.125000 I-0.302591 J0.370017
G02 X74.961408 Y135.286121 Z-0.125000 I0.635206 J0.000000
G02 X75.185469 Y135.402266 Z-0.125000 I0.224061 J-0.158053
G03 X75.389064 Y135.538876 Z-0.125000 I-0.000000 J0.220018
G03 X75.525675 Y136.232702 Z-0.125000 I-1.693614 J0.693825
G02 X75.647176 Y136.995399 Z-0.125000 I2.454596 J-0.000000
G02 X75.865881 Y137.273397 Z-0.125000 I0.489390 J-0.159984
G03 X76.086508 Y137.550327 Z-0.125000 I-0.275591 J0.445910
G03 X76.206087 Y138.272436 Z-0.125000 I-2.120515 J0.722109
G02 X76.352736 Y138.992349 Z-0.125000 I1.840391 J-0.000000
G02 X76.724077 Y139.491110 Z-0.125000 I1.213260 J-0.515687
G03 X77.046270 Y139.978446 Z-0.125000 I-0.643939 J0.775901
G03 X77.041357 Y140.553382 Z-0.125000 I-0.935759 J0.279493
G02 X77.027494 Y141.049035 Z-0.125000 I0.856953 J0.271989
G02 X77.203780 Y141.185764 Z-0.125000 I0.176286 J-0.045278
G03 X77.458145 Y141.294526 Z-0.125000 I-0.000000 J0.351827
G03 X77.566909 Y141.565780 Z-0.125000 I-0.283864 J0.271253
G02 X77.680065 Y141.899099 Z-0.125000 I0.547502 J0.000000
G02 X78.842681 Y143.228223 Z-0.125000 I10.930747 J-8.388332
G03 X80.111511 Y144.517419 Z-0.125000 I-119.609439 J118.988919
G03 X81.630383 Y146.091212 Z-0.125000 I-176.684550 J172.038555
G02 X83.195601 Y147.434133 Z-0.125000 I7.578810 J-7.249737
G02 X83.624444 Y147.486761 Z-0.125000 I0.263931 J-0.377124
G03 X83.852420 Y147.555905 Z-0.125000 I0.069523 J0.181177
G03 X83.890943 Y147.863683 Z-0.125000 I-0.268612 J0.189921
G02 X84.049666 Y148.139105 Z-0.125000 I0.191085 J0.073326
G02 X85.946824 Y148.192890 Z-0.125000 I1.153578 J-7.204007
G02 X88.210080 Y147.907865 Z-0.125000 I-5.015242 J-48.951921
G02 X89.866844 Y147.606625 Z-0.125000 I-3.966504 J-26.521605
G02 X91.221557 Y147.015623 Z-0.125000 I-0.779605 J-3.635192
G02 X91.515347 Y146.450839 Z-0.125000 I-0.395977 J-0.564784
G03 X91.964682 Y145.694643 Z-0.125000 I0.860978 J0.000000
G03 X94.148334 Y145.017548 Z-0.125000 I2.780757 J5.108309
G02 X95.413332 Y144.726862 Z-0.125000 I-0.542954 J-5.260639
G02 X95.415358 Y144.556634 Z-0.125000 I-0.031102 J-0.085496
G02 X94.733479 Y144.363807 Z-0.125000 I-1.330594 J3.403240
G02 X93.834901 Y144.271527 Z-0.125000 I-1.054117 J5.843356
G03 X92.214667 Y143.529504 Z-0.125000 I0.059477 J-2.269802
G03 X91.515347 Y141.721312 Z-0.125000 I1.988010 J-1.808192
G03 X92.150708 Y139.649652 Z-0.125000 I3.695109 J-0.000000
G03 X93.840047 Y138.287848 Z-0.125000 I3.068133 J2.077339
G03 X96.918240 Y137.391386 Z-0.125000 I6.102664 J15.221747
G03 X100.472267 Y137.043358 Z-0.125000 I3.752216 J19.996558
G02 X102.653343 Y136.816525 Z-0.125000 I-0.113937 J-11.694852
G02 X102.978995 Y136.541703 Z-0.125000 I-0.086662 J-0.433044
G03 X103.212576 Y136.412514 Z-0.125000 I0.193606 J0.074292
G03 X103.622064 Y136.668039 Z-0.125000 I-0.130709 J0.665338
G02 X103.931061 Y136.635439 Z-0.125000 I0.144641 J-0.109732
G02 X104.316245 Y135.188866 Z-0.125000 I-3.815034 J-1.790410
G02 X104.157667 Y133.658177 Z-0.125000 I-4.171063 J-0.341441
G02 X103.743815 Y133.257506 Z-0.125000 I-0.562204 J0.166630
G02 X103.328103 Y133.338549 Z-0.125000 I-0.123608 J0.472672
G02 X103.243552 Y133.630639 Z-0.125000 I0.150567 J0.201867
G03 X103.288319 Y133.928706 Z-0.125000 I-0.652500 J0.250395
G01 X103.221459 Y133.953764 Z-0.125000
G02 X102.977826 Y133.919864 Z-0.125000 I-0.144246 J0.144246
G02 X101.830816 Y134.729598 Z-0.125000 I3.238043 J5.804027
G03 X100.601207 Y135.540714 Z-0.125000 I-3.547892 J-4.040847
G03 X99.710958 Y135.742472 Z-0.125000 I-0.890249 J-1.863213
G02 X98.748583 Y135.787601 Z-0.125000 I0.000000 J10.283931
G02 X97.596512 Y135.941216 Z-0.125000 I1.400568 J14.900767
G03 X96.928820 Y135.940232 Z-0.125000 I-0.331029 J-1.912427
G03 X96.901531 Y135.818809 Z-0.125000 I0.011696 J-0.066407
G02 X97.017771 Y135.462670 Z-0.125000 I-0.181633 J-0.256322
G02 X96.476275 Y134.549769 Z-0.125000 I-2.391110 J0.801260
G03 X95.685729 Y133.567402 Z-0.125000 I6.631728 J-6.146066
G03 X95.597801 Y133.287052 Z-0.125000 I0.402974 J-0.280350
G02 X95.516456 Y133.005921 Z-0.125000 I-0.526470 J0.000000
G02 X95.058097 Y132.432520 Z-0.125000 I-2.800476 J1.768715
G03 X94.705207 Y131.835386 Z-0.125000 I0.984877 J-0.984877
G03 X94.670716 Y131.095997 Z-0.125000 I1.523463 J-0.441566
G02 X94.623888 Y130.463856 Z-0.125000 I-1.198180 J-0.229046
G02 X94.391755 Y130.299179 Z-0.125000 I-0.232133 J0.081271
G02 X94.164736 Y130.456895 Z-0.125000 I0.000000 J0.242246
G02 X94.138404 Y130.979591 Z-0.125000 I0.813775 J0.303008
G03 X93.825555 Y131.307081 Z-0.125000 I-0.257377 J0.067306
G03 X92.941624 Y130.724436 Z-0.125000 I0.303100 J-1.421663
G03 X91.745890 Y127.247268 Z-0.125000 I5.356747 J-3.786266
G03 X92.728978 Y126.216711 Z-0.125000 I0.983089 J-0.046375
G02 X93.094721 Y126.095072 Z-0.125000 I0.000000 J-0.610675
G02 X93.216361 Y125.852203 Z-0.125000 I-0.181638 J-0.242869
G03 X93.440788 Y125.311469 Z-0.125000 I0.763637 J-0.000000
G03 X94.761656 Y124.311264 Z-0.125000 I4.318408 J4.330608
G02 X95.266383 Y123.828909 Z-0.125000 I-0.690219 J-1.227479
G02 X95.531349 Y123.076910 Z-0.125000 I-1.558474 J-0.971805
G02 X95.279230 Y122.488090 Z-0.125000 I-0.634901 J-0.076536
G02 X94.065659 Y121.981737 Z-0.125000 I-1.613277 J2.159074
G03 X92.646136 Y121.562400 Z-0.125000 I0.795635 J-5.305670
G03 X92.285794 Y121.174857 Z-0.125000 I0.283138 J-0.624562
G02 X92.017227 Y120.648916 Z-0.125000 I-2.329870 J0.858182
G02 X91.759419 Y120.390956 Z-0.125000 I-0.786162 J0.527892
G03 X91.659293 Y120.135000 Z-0.125000 I0.134613 J-0.200221
G03 X92.018001 Y119.301898 Z-0.125000 I2.556653 J0.607043
G03 X92.739058 Y118.657625 Z-0.125000 I1.564017 J1.024783
G03 X94.180171 Y118.209887 Z-0.125000 I2.053100 J4.065124
G02 X96.676858 Y117.586967 Z-0.125000 I-1.578934 J-11.643292
G02 X96.958626 Y117.182342 Z-0.125000 I-0.149641 J-0.404625
G02 X96.799528 Y116.877088 Z-0.125000 I-0.372389 J-0.000000
G02 X96.363264 Y116.766344 Z-0.125000 I-0.364672 J0.521905
G03 X93.567580 Y116.530878 Z-0.125000 I-0.807081 J-7.131838
G03 X92.157495 Y115.553588 Z-0.125000 I0.743627 J-2.578861
G03 X91.886981 Y113.999301 Z-0.125000 I1.405712 J-1.045339
G03 X92.845114 Y113.288892 Z-0.125000 I0.958133 J0.290915
G02 X93.453259 Y113.175617 Z-0.125000 I0.000000 J-1.689121
G02 X93.726670 Y112.948686 Z-0.125000 I-0.200642 J-0.519910
G03 X94.020563 Y112.758490 Z-0.125000 I0.347463 J0.214742
G03 X96.298293 Y112.608480 Z-0.125000 I2.277729 J17.217367
G02 X98.513752 Y112.462575 Z-0.125000 I0.000000 J-16.892967
G02 X98.659654 Y112.296100 Z-0.125000 I-0.022023 J-0.166475
G03 X98.696222 Y111.990491 Z-0.125000 I1.295287 J-0.000000
G03 X98.866155 Y111.445585 Z-0.125000 I4.328635 J1.050965
G02 X98.711506 Y111.155693 Z-0.125000 I-0.203003 J-0.077900
G02 X96.506861 Y110.907452 Z-0.125000 I-2.204645 J9.665685
G03 X92.816441 Y110.346027 Z-0.125000 I0.000000 J-12.409855
G03 X91.894031 Y109.470700 Z-0.125000 I0.428262 J-1.374974
G03 X92.540816 Y107.960590 Z-0.125000 I1.119437 J-0.414107
G03 X98.024615 Y106.826881 Z-0.125000 I5.491817 J12.734620
G02 X101.066951 Y106.520836 Z-0.125000 I-0.008072 J-15.354888
G02 X101.484821 Y106.125651 Z-0.125000 I-0.107978 J-0.532697
G02 X101.253023 Y105.752258 Z-0.125000 I-0.293151 J-0.076661
G02 X98.377595 Y105.483186 Z-0.125000 I-2.649314 J12.813158
G03 X92.327401 Y105.129035 Z-0.125000 I-0.691998 J-40.034936
G03 X91.621981 Y104.570959 Z-0.125000 I0.118026 J-0.874059
G02 X91.353159 Y104.233365 Z-0.125000 I-0.668588 J0.256563
G02 X90.926969 Y104.103335 Z-0.125000 I-0.426189 J0.633429
G02 X90.741494 Y104.258348 Z-0.125000 I0.000000 J0.188468
G02 X90.834921 Y104.613644 Z-0.125000 I0.428418 J0.077278
G01 X90.834937 Y104.613644 Z-0.125000
G00 Z5.000000

(End cutting path id: path201)


(Start cutting path id: path201)
(Change tool to Default tool)

G00 Z5.000000
G00 X102.894281 Y135.431322

G01 Z-0.125000 F100.0(Penetrate)
G03 X102.659074 Y135.600853 Z-0.125000 I-0.322243 J-0.199151 F400.000000
G03 X102.372875 Y135.554411 Z-0.125000 I-0.087039 J-0.368695
G03 X102.203345 Y135.319198 Z-0.125000 I0.199164 J-0.322249
G03 X102.249788 Y135.033003 Z-0.125000 I0.368693 J-0.087035
G03 X102.484998 Y134.863472 Z-0.125000 I0.322247 J0.199159
G03 X102.771197 Y134.909914 Z-0.125000 I0.087039 J0.368695
G03 X102.940726 Y135.145127 Z-0.125000 I-0.199163 J0.322247
G03 X102.894281 Y135.431322 Z-0.125000 I-0.368690 J0.087034
G01 X102.894281 Y135.431322 Z-0.125000
G00 Z5.000000

(End cutting path id: path201)


(Start cutting path id: path201)
(Change tool to Default tool)

G00 Z5.000000
G00 X99.765338 Y136.648195

G01 Z-0.125000 F100.0(Penetrate)
G03 X99.340081 Y136.730758 Z-0.125000 I-0.425258 J-1.053905 F400.000000
G03 X98.914823 Y136.648195 Z-0.125000 I0.000000 J-1.136468
G01 X98.914823 Y136.559163 Z-0.125000
G03 X99.340082 Y136.476600 Z-0.125000 I0.425259 J1.053904
G03 X99.765338 Y136.559163 Z-0.125000 I-0.000000 J1.136453
G01 X99.765338 Y136.648195 Z-0.125000
G01 X99.765338 Y136.648195 Z-0.125000
G00 Z5.000000

(End cutting path id: path201)


(Footer)
M5
G00 X0.0000 Y0.0000
M2
(Using default footer. To add your own footer create file "footer" in the output dir.)
(end)
%