%
(PIVOTPLATE.NGC)
(T1  D=3.175 CR=0. - ZMIN=-12.7 - FLAT END MILL)
N10 G90 G94 G17 G91.1
N15 G21
(WHEN USING FUSION 360 FOR PERSONAL USE, THE FEEDRATE OF)
(RAPID MOVES IS REDUCED TO MATCH THE FEEDRATE OF CUTTING)
(MOVES, WHICH CAN INCREASE MACHINING TIME. UNRESTRICTED RAPID)
(MOVES ARE AVAILABLE WITH A FUSION 360 SUBSCRIPTION.)
N20 G53 G0 Z0.
(BORE1)
N25 T1 M6
N30 S22000 M3
N35 G54
N40 G64 P0.01 Q0.01
N45 G0 X-18.681 Y-19.976
N50 G43 Z15. H1
N55 G1 Z-0.59 F2500.
N60 Z-2.273
N65 G18 G2 X-18.364 Z-2.59 I0.317 K0.
N70 G1 X-18.205
N75 G17 G3 X-17.888 Y-19.659 I0. J0.318
N80 X-21.112 Z-2.702 I-1.612 J0.
N85 X-17.888 Z-2.813 I1.612 J0.
N90 X-21.112 Z-2.925 I-1.612 J0.
N95 X-17.888 Z-3.037 I1.612 J0.
N100 X-21.112 Z-3.149 I-1.612 J0.
N105 X-17.888 Z-3.26 I1.612 J0.
N110 X-21.112 Z-3.372 I-1.612 J0.
N115 X-17.888 Z-3.484 I1.612 J0.
N120 X-21.112 Z-3.596 I-1.612 J0.
N125 X-17.888 Z-3.707 I1.612 J0.
N130 X-21.112 Z-3.819 I-1.612 J0.
N135 X-17.888 Z-3.931 I1.612 J0.
N140 X-21.112 Z-4.043 I-1.612 J0.
N145 X-17.888 Z-4.154 I1.612 J0.
N150 X-21.112 Z-4.266 I-1.612 J0.
N155 X-17.888 Z-4.378 I1.612 J0.
N160 X-21.112 Z-4.49 I-1.612 J0.
N165 X-17.888 Z-4.601 I1.612 J0.
N170 X-21.112 Z-4.713 I-1.612 J0.
N175 X-17.888 Z-4.825 I1.612 J0.
N180 X-21.112 Z-4.937 I-1.612 J0.
N185 X-17.888 Z-5.048 I1.612 J0.
N190 X-21.112 Z-5.16 I-1.612 J0.
N195 X-17.888 Z-5.272 I1.612 J0.
N200 X-21.112 Z-5.384 I-1.612 J0.
N205 X-17.888 Z-5.495 I1.612 J0.
N210 X-21.112 Z-5.607 I-1.612 J0.
N215 X-17.888 Z-5.719 I1.612 J0.
N220 X-21.112 Z-5.831 I-1.612 J0.
N225 X-17.888 Z-5.942 I1.612 J0.
N230 X-21.112 Z-6.054 I-1.612 J0.
N235 X-17.888 Z-6.166 I1.612 J0.
N240 X-21.112 Z-6.278 I-1.612 J0.
N245 X-17.888 Z-6.389 I1.612 J0.
N250 X-21.112 Z-6.501 I-1.612 J0.
N255 X-17.888 Z-6.613 I1.612 J0.
N260 X-21.112 Z-6.725 I-1.612 J0.
N265 X-17.888 Z-6.836 I1.612 J0.
N270 X-21.112 Z-6.948 I-1.612 J0.
N275 X-17.888 Z-7.06 I1.612 J0.
N280 X-21.112 Z-7.172 I-1.612 J0.
N285 X-17.888 Z-7.283 I1.612 J0.
N290 X-21.112 Z-7.395 I-1.612 J0.
N295 X-17.888 Z-7.507 I1.612 J0.
N300 X-21.112 Z-7.619 I-1.612 J0.
N305 X-17.888 Z-7.73 I1.612 J0.
N310 X-21.112 Z-7.842 I-1.612 J0.
N315 X-17.888 Z-7.954 I1.612 J0.
N320 X-21.112 Z-8.066 I-1.612 J0.
N325 X-17.888 Z-8.177 I1.612 J0.
N330 X-21.112 Z-8.289 I-1.612 J0.
N335 X-17.888 Z-8.401 I1.612 J0.
N340 X-21.112 Z-8.513 I-1.612 J0.
N345 X-17.888 Z-8.624 I1.612 J0.
N350 X-21.112 Z-8.736 I-1.612 J0.
N355 X-17.888 Z-8.848 I1.612 J0.
N360 X-21.112 Z-8.96 I-1.612 J0.
N365 X-17.888 Z-9.071 I1.612 J0.
N370 X-21.112 Z-9.183 I-1.612 J0.
N375 X-17.888 Z-9.295 I1.612 J0.
N380 X-21.112 Z-9.407 I-1.612 J0.
N385 X-17.888 Z-9.518 I1.612 J0.
N390 X-21.112 Z-9.63 I-1.612 J0.
N395 X-17.888 Z-9.742 I1.612 J0.
N400 X-21.112 Z-9.854 I-1.612 J0.
N405 X-17.888 Z-9.965 I1.612 J0.
N410 X-21.112 Z-10.077 I-1.612 J0.
N415 X-17.888 Z-10.189 I1.612 J0.
N420 X-21.112 Z-10.301 I-1.612 J0.
N425 X-17.888 Z-10.412 I1.612 J0.
N430 X-21.112 Z-10.524 I-1.612 J0.
N435 X-17.888 Z-10.636 I1.612 J0.
N440 X-21.112 Z-10.747 I-1.612 J0.
N445 X-17.888 Z-10.859 I1.612 J0.
N450 X-21.112 Z-10.971 I-1.612 J0.
N455 X-17.888 Z-11.083 I1.612 J0.
N460 X-21.112 Z-11.194 I-1.612 J0.
N465 X-17.888 Z-11.306 I1.612 J0.
N470 X-21.112 Z-11.418 I-1.612 J0.
N475 X-17.888 Z-11.53 I1.612 J0.
N480 X-21.112 Z-11.641 I-1.612 J0.
N485 X-17.888 Z-11.753 I1.612 J0.
N490 X-21.112 Z-11.865 I-1.612 J0.
N495 X-17.888 Z-11.977 I1.612 J0.
N500 X-21.112 Z-12.088 I-1.612 J0.
N505 X-17.888 Z-12.2 I1.612 J0.
N510 X-21.112 Z-12.312 I-1.612 J0.
N515 X-17.888 Z-12.424 I1.612 J0.
N520 X-21.112 Z-12.535 I-1.612 J0.
N525 X-17.888 Z-12.647 I1.612 J0.
N530 X-19.362 Y-18.052 Z-12.7 I-1.612 J0.
N535 X-19.638 Y-21.265 I-0.138 J-1.607
N540 X-19.362 Y-18.052 I0.138 J1.607
N545 X-19.705 Y-18.341 I-0.027 J-0.316
N550 G1 X-19.719 Y-18.499
N555 X-19.725 Y-18.57 Z-12.692
N560 X-19.731 Y-18.637 Z-12.669
N565 X-19.736 Y-18.696 Z-12.631
N570 X-19.74 Y-18.747 Z-12.58
N575 X-19.743 Y-18.784 Z-12.52
N580 X-19.745 Y-18.808 Z-12.453
N585 X-19.746 Y-18.816 Z-12.382
N590 Z5.
N595 X-18.681 Y5.024
N600 Z-0.59
N605 Z-2.273
N610 G18 G2 X-18.364 Z-2.59 I0.317 K0.
N615 G1 X-18.205
N620 G17 G3 X-17.888 Y5.341 I0. J0.318
N625 X-21.112 Z-2.702 I-1.612 J0.
N630 X-17.888 Z-2.813 I1.612 J0.
N635 X-21.112 Z-2.925 I-1.612 J0.
N640 X-17.888 Z-3.037 I1.612 J0.
N645 X-21.112 Z-3.149 I-1.612 J0.
N650 X-17.888 Z-3.26 I1.612 J0.
N655 X-21.112 Z-3.372 I-1.612 J0.
N660 X-17.888 Z-3.484 I1.612 J0.
N665 X-21.112 Z-3.596 I-1.612 J0.
N670 X-17.888 Z-3.707 I1.612 J0.
N675 X-21.112 Z-3.819 I-1.612 J0.
N680 X-17.888 Z-3.931 I1.612 J0.
N685 X-21.112 Z-4.043 I-1.612 J0.
N690 X-17.888 Z-4.154 I1.612 J0.
N695 X-21.112 Z-4.266 I-1.612 J0.
N700 X-17.888 Z-4.378 I1.612 J0.
N705 X-21.112 Z-4.49 I-1.612 J0.
N710 X-17.888 Z-4.601 I1.612 J0.
N715 X-21.112 Z-4.713 I-1.612 J0.
N720 X-17.888 Z-4.825 I1.612 J0.
N725 X-21.112 Z-4.937 I-1.612 J0.
N730 X-17.888 Z-5.048 I1.612 J0.
N735 X-21.112 Z-5.16 I-1.612 J0.
N740 X-17.888 Z-5.272 I1.612 J0.
N745 X-21.112 Z-5.384 I-1.612 J0.
N750 X-17.888 Z-5.495 I1.612 J0.
N755 X-21.112 Z-5.607 I-1.612 J0.
N760 X-17.888 Z-5.719 I1.612 J0.
N765 X-21.112 Z-5.831 I-1.612 J0.
N770 X-17.888 Z-5.942 I1.612 J0.
N775 X-21.112 Z-6.054 I-1.612 J0.
N780 X-17.888 Z-6.166 I1.612 J0.
N785 X-21.112 Z-6.278 I-1.612 J0.
N790 X-17.888 Z-6.389 I1.612 J0.
N795 X-21.112 Z-6.501 I-1.612 J0.
N800 X-17.888 Z-6.613 I1.612 J0.
N805 X-21.112 Z-6.725 I-1.612 J0.
N810 X-17.888 Z-6.836 I1.612 J0.
N815 X-21.112 Z-6.948 I-1.612 J0.
N820 X-17.888 Z-7.06 I1.612 J0.
N825 X-21.112 Z-7.172 I-1.612 J0.
N830 X-17.888 Z-7.283 I1.612 J0.
N835 X-21.112 Z-7.395 I-1.612 J0.
N840 X-17.888 Z-7.507 I1.612 J0.
N845 X-21.112 Z-7.619 I-1.612 J0.
N850 X-17.888 Z-7.73 I1.612 J0.
N855 X-21.112 Z-7.842 I-1.612 J0.
N860 X-17.888 Z-7.954 I1.612 J0.
N865 X-21.112 Z-8.066 I-1.612 J0.
N870 X-17.888 Z-8.177 I1.612 J0.
N875 X-21.112 Z-8.289 I-1.612 J0.
N880 X-17.888 Z-8.401 I1.612 J0.
N885 X-21.112 Z-8.513 I-1.612 J0.
N890 X-17.888 Z-8.624 I1.612 J0.
N895 X-21.112 Z-8.736 I-1.612 J0.
N900 X-17.888 Z-8.848 I1.612 J0.
N905 X-21.112 Z-8.96 I-1.612 J0.
N910 X-17.888 Z-9.071 I1.612 J0.
N915 X-21.112 Z-9.183 I-1.612 J0.
N920 X-17.888 Z-9.295 I1.612 J0.
N925 X-21.112 Z-9.407 I-1.612 J0.
N930 X-17.888 Z-9.518 I1.612 J0.
N935 X-21.112 Z-9.63 I-1.612 J0.
N940 X-17.888 Z-9.742 I1.612 J0.
N945 X-21.112 Z-9.854 I-1.612 J0.
N950 X-17.888 Z-9.965 I1.612 J0.
N955 X-21.112 Z-10.077 I-1.612 J0.
N960 X-17.888 Z-10.189 I1.612 J0.
N965 X-21.112 Z-10.301 I-1.612 J0.
N970 X-17.888 Z-10.412 I1.612 J0.
N975 X-21.112 Z-10.524 I-1.612 J0.
N980 X-17.888 Z-10.636 I1.612 J0.
N985 X-21.112 Z-10.747 I-1.612 J0.
N990 X-17.888 Z-10.859 I1.612 J0.
N995 X-21.112 Z-10.971 I-1.612 J0.
N1000 X-17.888 Z-11.083 I1.612 J0.
N1005 X-21.112 Z-11.194 I-1.612 J0.
N1010 X-17.888 Z-11.306 I1.612 J0.
N1015 X-21.112 Z-11.418 I-1.612 J0.
N1020 X-17.888 Z-11.53 I1.612 J0.
N1025 X-21.112 Z-11.641 I-1.612 J0.
N1030 X-17.888 Z-11.753 I1.612 J0.
N1035 X-21.112 Z-11.865 I-1.612 J0.
N1040 X-17.888 Z-11.977 I1.612 J0.
N1045 X-21.112 Z-12.088 I-1.612 J0.
N1050 X-17.888 Z-12.2 I1.612 J0.
N1055 X-21.112 Z-12.312 I-1.612 J0.
N1060 X-17.888 Z-12.424 I1.612 J0.
N1065 X-21.112 Z-12.535 I-1.612 J0.
N1070 X-17.888 Z-12.647 I1.612 J0.
N1075 X-19.362 Y6.948 Z-12.7 I-1.612 J0.
N1080 X-19.638 Y3.735 I-0.138 J-1.607
N1085 X-19.362 Y6.948 I0.138 J1.607
N1090 X-19.705 Y6.659 I-0.027 J-0.316
N1095 G1 X-19.719 Y6.501
N1100 X-19.725 Y6.43 Z-12.692
N1105 X-19.731 Y6.363 Z-12.669
N1110 X-19.736 Y6.304 Z-12.631
N1115 X-19.74 Y6.253 Z-12.58
N1120 X-19.743 Y6.216 Z-12.52
N1125 X-19.745 Y6.192 Z-12.453
N1130 X-19.746 Y6.184 Z-12.382
N1135 Z5.
N1140 X1.739 Y13.794
N1145 Z-0.59
N1150 Z-2.273
N1155 G18 G2 X2.056 Z-2.59 I0.318 K0.
N1160 G1 X2.215
N1165 G17 G3 X2.533 Y14.111 I0. J0.318
N1170 X-2.533 Z-2.734 I-2.533 J0.
N1175 X2.533 Z-2.878 I2.533 J0.
N1180 X-2.533 Z-3.022 I-2.533 J0.
N1185 X2.533 Z-3.165 I2.533 J0.
N1190 X-2.532 Z-3.309 I-2.533 J0.
N1195 X2.532 Z-3.453 I2.532 J0.
N1200 X-2.532 Z-3.597 I-2.532 J0.
N1205 X2.532 Z-3.741 I2.532 J0.
N1210 X-2.532 Z-3.885 I-2.532 J0.
N1215 X2.532 Z-4.029 I2.532 J0.
N1220 X-2.532 Z-4.173 I-2.532 J0.
N1225 X2.532 Z-4.316 I2.532 J0.
N1230 X-2.532 Z-4.46 I-2.532 J0.
N1235 X2.532 Z-4.604 I2.532 J0.
N1240 X-2.532 Z-4.748 I-2.532 J0.
N1245 X2.532 Z-4.892 I2.532 J0.
N1250 X-2.532 Z-5.036 I-2.532 J0.
N1255 X2.532 Z-5.18 I2.532 J0.
N1260 X-2.532 Z-5.324 I-2.532 J0.
N1265 X2.532 Z-5.467 I2.532 J0.
N1270 X-2.532 Z-5.611 I-2.532 J0.
N1275 X2.532 Z-5.755 I2.532 J0.
N1280 X-2.532 Z-5.899 I-2.532 J0.
N1285 X2.532 Z-6.043 I2.532 J0.
N1290 X-2.532 Z-6.187 I-2.532 J0.
N1295 X2.532 Z-6.331 I2.532 J0.
N1300 X-2.532 Z-6.475 I-2.532 J0.
N1305 X2.532 Z-6.618 I2.532 J0.
N1310 X-2.532 Z-6.762 I-2.532 J0.
N1315 X2.532 Z-6.906 I2.532 J0.
N1320 X-2.532 Z-7.05 I-2.532 J0.
N1325 X2.532 Z-7.194 I2.532 J0.
N1330 X-2.532 Z-7.338 I-2.532 J0.
N1335 X2.532 Z-7.482 I2.532 J0.
N1340 X-2.532 Z-7.626 I-2.532 J0.
N1345 X2.532 Z-7.769 I2.532 J0.
N1350 X-2.532 Z-7.913 I-2.532 J0.
N1355 X2.532 Z-8.057 I2.532 J0.
N1360 X-2.532 Z-8.201 I-2.532 J0.
N1365 X2.532 Z-8.345 I2.532 J0.
N1370 X-2.532 Z-8.489 I-2.532 J0.
N1375 X2.532 Z-8.633 I2.532 J0.
N1380 X-2.532 Z-8.777 I-2.532 J0.
N1385 X2.532 Z-8.92 I2.532 J0.
N1390 X-2.532 Z-9.064 I-2.532 J0.
N1395 X2.532 Z-9.208 I2.532 J0.
N1400 X-2.532 Z-9.352 I-2.532 J0.
N1405 X2.532 Z-9.496 I2.532 J0.
N1410 X-2.532 Z-9.64 I-2.532 J0.
N1415 X2.532 Z-9.784 I2.532 J0.
N1420 X-2.532 Z-9.928 I-2.532 J0.
N1425 X2.532 Z-10.071 I2.532 J0.
N1430 X-2.532 Z-10.215 I-2.532 J0.
N1435 X2.532 Z-10.359 I2.532 J0.
N1440 X-2.532 Z-10.503 I-2.532 J0.
N1445 X2.532 Z-10.647 I2.532 J0.
N1450 X-2.532 Z-10.791 I-2.532 J0.
N1455 X2.532 Z-10.935 I2.532 J0.
N1460 X-2.532 Z-11.079 I-2.532 J0.
N1465 X2.532 Z-11.222 I2.532 J0.
N1470 X-2.532 Z-11.366 I-2.532 J0.
N1475 X2.532 Z-11.51 I2.532 J0.
N1480 X-2.532 Z-11.654 I-2.532 J0.
N1485 X2.532 Z-11.798 I2.532 J0.
N1490 X-2.532 Z-11.942 I-2.532 J0.
N1495 X2.532 Z-12.086 I2.532 J0.
N1500 X-2.532 Z-12.23 I-2.532 J0.
N1505 X2.532 Z-12.373 I2.532 J0.
N1510 X-2.532 Z-12.517 I-2.532 J0.
N1515 X2.532 Z-12.661 I2.532 J0.
N1520 X1.675 Y16.011 Z-12.7 I-2.532 J0.
N1525 X-1.675 Y12.212 I-1.675 J-1.9
N1530 X1.675 Y16.011 I1.675 J1.9
N1535 X1.226 Y15.983 I-0.21 J-0.238
N1540 G1 X1.122 Y15.864
N1545 X1.075 Y15.811 Z-12.692
N1550 X1.03 Y15.761 Z-12.669
N1555 X0.991 Y15.715 Z-12.631
N1560 X0.957 Y15.678 Z-12.58
N1565 X0.932 Y15.649 Z-12.52
N1570 X0.917 Y15.632 Z-12.453
N1575 X0.912 Y15.626 Z-12.382
N1580 Z5.
N1585 X20.319 Y5.024
N1590 Z-0.59
N1595 Z-2.273
N1600 G18 G2 X20.636 Z-2.59 I0.317 K0.
N1605 G1 X20.795
N1610 G17 G3 X21.112 Y5.341 I0. J0.318
N1615 X17.888 Z-2.702 I-1.612 J0.
N1620 X21.112 Z-2.813 I1.612 J0.
N1625 X17.888 Z-2.925 I-1.612 J0.
N1630 X21.112 Z-3.037 I1.612 J0.
N1635 X17.888 Z-3.149 I-1.612 J0.
N1640 X21.112 Z-3.26 I1.612 J0.
N1645 X17.888 Z-3.372 I-1.612 J0.
N1650 X21.112 Z-3.484 I1.612 J0.
N1655 X17.888 Z-3.596 I-1.612 J0.
N1660 X21.112 Z-3.707 I1.612 J0.
N1665 X17.888 Z-3.819 I-1.612 J0.
N1670 X21.112 Z-3.931 I1.612 J0.
N1675 X17.888 Z-4.043 I-1.612 J0.
N1680 X21.112 Z-4.154 I1.612 J0.
N1685 X17.888 Z-4.266 I-1.612 J0.
N1690 X21.112 Z-4.378 I1.612 J0.
N1695 X17.888 Z-4.49 I-1.612 J0.
N1700 X21.112 Z-4.601 I1.612 J0.
N1705 X17.888 Z-4.713 I-1.612 J0.
N1710 X21.112 Z-4.825 I1.612 J0.
N1715 X17.888 Z-4.937 I-1.612 J0.
N1720 X21.112 Z-5.048 I1.612 J0.
N1725 X17.888 Z-5.16 I-1.612 J0.
N1730 X21.112 Z-5.272 I1.612 J0.
N1735 X17.888 Z-5.384 I-1.612 J0.
N1740 X21.112 Z-5.495 I1.612 J0.
N1745 X17.888 Z-5.607 I-1.612 J0.
N1750 X21.112 Z-5.719 I1.612 J0.
N1755 X17.888 Z-5.831 I-1.612 J0.
N1760 X21.112 Z-5.942 I1.612 J0.
N1765 X17.888 Z-6.054 I-1.612 J0.
N1770 X21.112 Z-6.166 I1.612 J0.
N1775 X17.888 Z-6.278 I-1.612 J0.
N1780 X21.112 Z-6.389 I1.612 J0.
N1785 X17.888 Z-6.501 I-1.612 J0.
N1790 X21.112 Z-6.613 I1.612 J0.
N1795 X17.888 Z-6.725 I-1.612 J0.
N1800 X21.112 Z-6.836 I1.612 J0.
N1805 X17.888 Z-6.948 I-1.612 J0.
N1810 X21.112 Z-7.06 I1.612 J0.
N1815 X17.888 Z-7.172 I-1.612 J0.
N1820 X21.112 Z-7.283 I1.612 J0.
N1825 X17.888 Z-7.395 I-1.612 J0.
N1830 X21.112 Z-7.507 I1.612 J0.
N1835 X17.888 Z-7.619 I-1.612 J0.
N1840 X21.112 Z-7.73 I1.612 J0.
N1845 X17.888 Z-7.842 I-1.612 J0.
N1850 X21.112 Z-7.954 I1.612 J0.
N1855 X17.888 Z-8.066 I-1.612 J0.
N1860 X21.112 Z-8.177 I1.612 J0.
N1865 X17.888 Z-8.289 I-1.612 J0.
N1870 X21.112 Z-8.401 I1.612 J0.
N1875 X17.888 Z-8.513 I-1.612 J0.
N1880 X21.112 Z-8.624 I1.612 J0.
N1885 X17.888 Z-8.736 I-1.612 J0.
N1890 X21.112 Z-8.848 I1.612 J0.
N1895 X17.888 Z-8.96 I-1.612 J0.
N1900 X21.112 Z-9.071 I1.612 J0.
N1905 X17.888 Z-9.183 I-1.612 J0.
N1910 X21.112 Z-9.295 I1.612 J0.
N1915 X17.888 Z-9.407 I-1.612 J0.
N1920 X21.112 Z-9.518 I1.612 J0.
N1925 X17.888 Z-9.63 I-1.612 J0.
N1930 X21.112 Z-9.742 I1.612 J0.
N1935 X17.888 Z-9.854 I-1.612 J0.
N1940 X21.112 Z-9.965 I1.612 J0.
N1945 X17.888 Z-10.077 I-1.612 J0.
N1950 X21.112 Z-10.189 I1.612 J0.
N1955 X17.888 Z-10.301 I-1.612 J0.
N1960 X21.112 Z-10.412 I1.612 J0.
N1965 X17.888 Z-10.524 I-1.612 J0.
N1970 X21.112 Z-10.636 I1.612 J0.
N1975 X17.888 Z-10.747 I-1.612 J0.
N1980 X21.112 Z-10.859 I1.612 J0.
N1985 X17.888 Z-10.971 I-1.612 J0.
N1990 X21.112 Z-11.083 I1.612 J0.
N1995 X17.888 Z-11.194 I-1.612 J0.
N2000 X21.112 Z-11.306 I1.612 J0.
N2005 X17.888 Z-11.418 I-1.612 J0.
N2010 X21.112 Z-11.53 I1.612 J0.
N2015 X17.888 Z-11.641 I-1.612 J0.
N2020 X21.112 Z-11.753 I1.612 J0.
N2025 X17.888 Z-11.865 I-1.612 J0.
N2030 X21.112 Z-11.977 I1.612 J0.
N2035 X17.888 Z-12.088 I-1.612 J0.
N2040 X21.112 Z-12.2 I1.612 J0.
N2045 X17.888 Z-12.312 I-1.612 J0.
N2050 X21.112 Z-12.424 I1.612 J0.
N2055 X17.888 Z-12.535 I-1.612 J0.
N2060 X21.112 Z-12.647 I1.612 J0.
N2065 X19.638 Y6.948 Z-12.7 I-1.612 J0.
N2070 X19.362 Y3.735 I-0.138 J-1.607
N2075 X19.638 Y6.948 I0.138 J1.607
N2080 X19.295 Y6.659 I-0.027 J-0.316
N2085 G1 X19.281 Y6.501
N2090 X19.275 Y6.43 Z-12.692
N2095 X19.269 Y6.363 Z-12.669
N2100 X19.264 Y6.304 Z-12.631
N2105 X19.26 Y6.253 Z-12.58
N2110 X19.257 Y6.216 Z-12.52
N2115 X19.255 Y6.192 Z-12.453
N2120 X19.254 Y6.184 Z-12.382
N2125 Z5.
N2130 X20.319 Y-19.976
N2135 Z-0.59
N2140 Z-2.273
N2145 G18 G2 X20.636 Z-2.59 I0.317 K0.
N2150 G1 X20.795
N2155 G17 G3 X21.112 Y-19.659 I0. J0.318
N2160 X17.888 Z-2.702 I-1.612 J0.
N2165 X21.112 Z-2.813 I1.612 J0.
N2170 X17.888 Z-2.925 I-1.612 J0.
N2175 X21.112 Z-3.037 I1.612 J0.
N2180 X17.888 Z-3.149 I-1.612 J0.
N2185 X21.112 Z-3.26 I1.612 J0.
N2190 X17.888 Z-3.372 I-1.612 J0.
N2195 X21.112 Z-3.484 I1.612 J0.
N2200 X17.888 Z-3.596 I-1.612 J0.
N2205 X21.112 Z-3.707 I1.612 J0.
N2210 X17.888 Z-3.819 I-1.612 J0.
N2215 X21.112 Z-3.931 I1.612 J0.
N2220 X17.888 Z-4.043 I-1.612 J0.
N2225 X21.112 Z-4.154 I1.612 J0.
N2230 X17.888 Z-4.266 I-1.612 J0.
N2235 X21.112 Z-4.378 I1.612 J0.
N2240 X17.888 Z-4.49 I-1.612 J0.
N2245 X21.112 Z-4.601 I1.612 J0.
N2250 X17.888 Z-4.713 I-1.612 J0.
N2255 X21.112 Z-4.825 I1.612 J0.
N2260 X17.888 Z-4.937 I-1.612 J0.
N2265 X21.112 Z-5.048 I1.612 J0.
N2270 X17.888 Z-5.16 I-1.612 J0.
N2275 X21.112 Z-5.272 I1.612 J0.
N2280 X17.888 Z-5.384 I-1.612 J0.
N2285 X21.112 Z-5.495 I1.612 J0.
N2290 X17.888 Z-5.607 I-1.612 J0.
N2295 X21.112 Z-5.719 I1.612 J0.
N2300 X17.888 Z-5.831 I-1.612 J0.
N2305 X21.112 Z-5.942 I1.612 J0.
N2310 X17.888 Z-6.054 I-1.612 J0.
N2315 X21.112 Z-6.166 I1.612 J0.
N2320 X17.888 Z-6.278 I-1.612 J0.
N2325 X21.112 Z-6.389 I1.612 J0.
N2330 X17.888 Z-6.501 I-1.612 J0.
N2335 X21.112 Z-6.613 I1.612 J0.
N2340 X17.888 Z-6.725 I-1.612 J0.
N2345 X21.112 Z-6.836 I1.612 J0.
N2350 X17.888 Z-6.948 I-1.612 J0.
N2355 X21.112 Z-7.06 I1.612 J0.
N2360 X17.888 Z-7.172 I-1.612 J0.
N2365 X21.112 Z-7.283 I1.612 J0.
N2370 X17.888 Z-7.395 I-1.612 J0.
N2375 X21.112 Z-7.507 I1.612 J0.
N2380 X17.888 Z-7.619 I-1.612 J0.
N2385 X21.112 Z-7.73 I1.612 J0.
N2390 X17.888 Z-7.842 I-1.612 J0.
N2395 X21.112 Z-7.954 I1.612 J0.
N2400 X17.888 Z-8.066 I-1.612 J0.
N2405 X21.112 Z-8.177 I1.612 J0.
N2410 X17.888 Z-8.289 I-1.612 J0.
N2415 X21.112 Z-8.401 I1.612 J0.
N2420 X17.888 Z-8.513 I-1.612 J0.
N2425 X21.112 Z-8.624 I1.612 J0.
N2430 X17.888 Z-8.736 I-1.612 J0.
N2435 X21.112 Z-8.848 I1.612 J0.
N2440 X17.888 Z-8.96 I-1.612 J0.
N2445 X21.112 Z-9.071 I1.612 J0.
N2450 X17.888 Z-9.183 I-1.612 J0.
N2455 X21.112 Z-9.295 I1.612 J0.
N2460 X17.888 Z-9.407 I-1.612 J0.
N2465 X21.112 Z-9.518 I1.612 J0.
N2470 X17.888 Z-9.63 I-1.612 J0.
N2475 X21.112 Z-9.742 I1.612 J0.
N2480 X17.888 Z-9.854 I-1.612 J0.
N2485 X21.112 Z-9.965 I1.612 J0.
N2490 X17.888 Z-10.077 I-1.612 J0.
N2495 X21.112 Z-10.189 I1.612 J0.
N2500 X17.888 Z-10.301 I-1.612 J0.
N2505 X21.112 Z-10.412 I1.612 J0.
N2510 X17.888 Z-10.524 I-1.612 J0.
N2515 X21.112 Z-10.636 I1.612 J0.
N2520 X17.888 Z-10.747 I-1.612 J0.
N2525 X21.112 Z-10.859 I1.612 J0.
N2530 X17.888 Z-10.971 I-1.612 J0.
N2535 X21.112 Z-11.083 I1.612 J0.
N2540 X17.888 Z-11.194 I-1.612 J0.
N2545 X21.112 Z-11.306 I1.612 J0.
N2550 X17.888 Z-11.418 I-1.612 J0.
N2555 X21.112 Z-11.53 I1.612 J0.
N2560 X17.888 Z-11.641 I-1.612 J0.
N2565 X21.112 Z-11.753 I1.612 J0.
N2570 X17.888 Z-11.865 I-1.612 J0.
N2575 X21.112 Z-11.977 I1.612 J0.
N2580 X17.888 Z-12.088 I-1.612 J0.
N2585 X21.112 Z-12.2 I1.612 J0.
N2590 X17.888 Z-12.312 I-1.612 J0.
N2595 X21.112 Z-12.424 I1.612 J0.
N2600 X17.888 Z-12.535 I-1.612 J0.
N2605 X21.112 Z-12.647 I1.612 J0.
N2610 X19.638 Y-18.052 Z-12.7 I-1.612 J0.
N2615 X19.362 Y-21.265 I-0.138 J-1.607
N2620 X19.638 Y-18.052 I0.138 J1.607
N2625 X19.295 Y-18.341 I-0.027 J-0.316
N2630 G1 X19.281 Y-18.499
N2635 X19.275 Y-18.57 Z-12.692
N2640 X19.269 Y-18.637 Z-12.669
N2645 X19.264 Y-18.696 Z-12.631
N2650 X19.26 Y-18.747 Z-12.58
N2655 X19.257 Y-18.784 Z-12.52
N2660 X19.255 Y-18.808 Z-12.453
N2665 X19.254 Y-18.816 Z-12.382
N2670 Z15.
(WHEN USING FUSION 360 FOR PERSONAL USE, THE FEEDRATE OF)
(RAPID MOVES IS REDUCED TO MATCH THE FEEDRATE OF CUTTING)
(MOVES, WHICH CAN INCREASE MACHINING TIME. UNRESTRICTED RAPID)
(MOVES ARE AVAILABLE WITH A FUSION 360 SUBSCRIPTION.)
(2D POCKET1)
N2675 G64 P0.1 Q0.1
N2680 G0 X-0.89 Y11.814
N2685 G1 Z15. F2500.
N2690 Z5.
N2695 Z4.175 F1500.
N2700 Z-1.773 F2500.
N2705 G18 G3 X-1.207 Z-2.09 I-0.317 K0.
N2710 G1 X-1.22
N2715 G17 G3 X-3.086 Y5.619 I0. J-3.378
N2720 G2 X-3.562 Y-0.833 I-2.048 J-3.092
N2725 G1 X-3.593 Y-0.853
N2730 X-3.617 Y-0.881
N2735 X-3.632 Y-0.915
N2740 X-3.638 Y-0.951
N2745 Y-0.966
N2750 X-3.631 Y-1.006
N2755 X-3.613 Y-1.042
N2760 X-3.584 Y-1.071
N2765 X-3.548 Y-1.09
N2770 X-3.507 Y-1.096
N2775 X3.507
N2780 X3.548 Y-1.09
N2785 X3.584 Y-1.071
N2790 X3.613 Y-1.042
N2795 X3.631 Y-1.006
N2800 X3.638 Y-0.966
N2805 Y-0.951
N2810 X3.631 Y-0.911
N2815 X3.613 Y-0.875
N2820 X3.584 Y-0.846
N2825 X3.548 Y-0.827
N2830 X3.507 Y-0.821
N2835 X-3.507
N2840 X-3.536 Y-0.824
N2845 X-3.562 Y-0.833
N2850 G2 X-4.546 Y-0.709 I-0.393 J0.841
N2855 G3 X-5.443 Y-1.132 I-0.348 J-0.423
N2860 G1 Y-2.582
N2865 G3 X-5.123 Y-2.901 I0.319 J0.
N2870 G1 X5.123
N2875 G3 X5.443 Y-2.582 I0. J0.319
N2880 G1 Y0.665
N2885 G3 X5.123 Y0.984 I-0.319 J0.
N2890 G1 X-5.123
N2895 G3 X-5.443 Y0.665 I0. J-0.319
N2900 G1 Y-1.132
N2905 G2 X-6.345 Y-2.486 I-1.467 J0.
N2910 G3 X-7.247 Y-3.84 I0.564 J-1.354
N2915 G1 Y-4.387
N2920 G3 X-6.928 Y-4.706 I0.319 J0.
N2925 G1 X6.928
N2930 G3 X7.247 Y-4.387 I0. J0.319
N2935 G1 Y2.47
N2940 G3 X6.928 Y2.789 I-0.319 J0.
N2945 G1 X-6.928
N2950 G3 X-7.247 Y2.47 I0. J-0.319
N2955 G1 Y-3.84
N2960 G2 X-7.94 Y-5.118 I-1.526 J0.
N2965 G3 X-7.525 Y-6.511 I0.414 J-0.635
N2970 G1 X8.733
N2975 G3 X9.052 Y-6.192 I0. J0.319
N2980 G1 Y4.275
N2985 G3 X8.733 Y4.594 I-0.319 J0.
N2990 G1 X-8.733
N2995 G3 X-9.052 Y4.275 I0. J-0.319
N3000 G1 Y-6.192
N3005 G3 X-8.733 Y-6.511 I0.319 J0.
N3010 G1 X-7.525
N3015 G2 X-6.172 Y-7.414 I0. J-1.467
N3020 G3 X-4.818 Y-8.316 I1.354 J0.564
N3025 G1 X10.087
N3030 G3 X10.641 Y-7.968 I0. J0.615
N3035 G1 X10.758 Y-7.726
N3040 G3 X10.858 Y-7.288 I-0.908 J0.437
N3045 G1 Y6.08
N3050 G3 X10.538 Y6.399 I-0.319 J0.
N3055 G1 X-10.538
N3060 G3 X-10.858 Y6.08 I0. J-0.319
N3065 G1 Y-7.288
N3070 G3 X-10.758 Y-7.726 I1.007 J0.
N3075 G1 X-10.641 Y-7.968
N3080 G3 X-10.087 Y-8.316 I0.554 J0.267
N3085 G1 X-4.818
N3090 G2 X-3.464 Y-9.219 I0. J-1.467
N3095 G3 X-2.11 Y-10.121 I1.354 J0.564
N3100 G1 X11.221
N3105 G3 X11.775 Y-9.773 I0. J0.615
N3110 G1 X12.425 Y-8.423
N3115 G3 X12.663 Y-7.384 I-2.158 J1.039
N3120 G1 Y7.885
N3125 G3 X12.343 Y8.204 I-0.319 J0.
N3130 G1 X-12.343
N3135 G3 X-12.663 Y7.885 I0. J-0.319
N3140 G1 Y-7.384
N3145 G3 X-12.425 Y-8.423 I2.395 J0.
N3150 G1 X-11.775 Y-9.773
N3155 G3 X-11.221 Y-10.121 I0.554 J0.267
N3160 G1 X-2.11
N3165 G2 X-0.757 Y-11.024 I0. J-1.467
N3170 G3 X0.597 Y-11.926 I1.354 J0.564
N3175 G1 X12.355
N3180 G3 X12.909 Y-11.578 I0. J0.615
N3185 X13.645 Y-9.999 I-60.786 J29.28
N3190 G2 X14.381 Y-8.419 I61.474 J-27.678
N3195 G1 X14.404 Y-8.36
N3200 X14.418 Y-8.299
N3205 X14.422 Y-8.236
N3210 X14.467 Y9.69
N3215 G3 X14.148 Y10.009 I-0.319 J0.
N3220 G1 X-14.148
N3225 G3 X-14.467 Y9.69 I0. J-0.319
N3230 G1 X-14.422 Y-8.236
N3235 X-14.418 Y-8.299
N3240 X-14.404 Y-8.36
N3245 X-14.381 Y-8.419
N3250 G2 X-13.645 Y-9.999 I-60.78 J-29.277
N3255 G3 X-12.909 Y-11.578 I61.516 J27.698
N3260 X-12.355 Y-11.926 I0.554 J0.267
N3265 G1 X0.597
N3270 G3 X0.797 Y-11.711 I0. J0.2
N3275 G1 X-1.02 Y11.629
N3280 G3 X-1.22 Y11.814 I-0.199 J-0.016
N3285 G1 X-15.953
N3290 G3 X-16.272 Y11.495 I0. J-0.319
N3295 G1 X-16.228 Y-8.236
N3300 G3 X-16.007 Y-9.203 I2.227 J0.
N3305 G2 X-15.025 Y-11.293 I-106.772 J-51.431
N3310 G3 X-14.043 Y-13.383 I107.754 J49.341
N3315 X-13.489 Y-13.731 I0.554 J0.267
N3320 G1 X13.489
N3325 G3 X14.043 Y-13.383 I0. J0.615
N3330 X15.025 Y-11.293 I-106.779 J51.435
N3335 G2 X16.007 Y-9.202 I107.65 J-49.292
N3340 G3 X16.228 Y-8.236 I-2.007 J0.967
N3345 G1 X16.272 Y11.495
N3350 G3 X15.953 Y11.814 I-0.319 J0.
N3355 G1 X1.224
N3360 X1.178 Y11.819
N3365 X1.135 Y11.834
N3370 X-2.463 Y13.598
N3375 X-2.506 Y13.614
N3380 X-2.551 Y13.619
N3385 X-17.758
N3390 G3 X-18.077 Y13.3 I0. J-0.319
N3395 G1 X-18.063 Y6.195
N3400 X-18.059 Y4.496
N3405 X-18.032 Y-8.236
N3410 G3 X-17.633 Y-9.986 I4.032 J0.
N3415 G2 X-16.405 Y-12.587 I-165.639 J-79.787
N3420 G3 X-15.177 Y-15.188 I166.867 J77.186
N3425 X-14.623 Y-15.536 I0.554 J0.267
N3430 G1 X14.623
N3435 G3 X15.177 Y-15.188 I0. J0.615
N3440 X16.405 Y-12.587 I-165.646 J79.79
N3445 G2 X17.633 Y-9.986 I166.66 J-77.088
N3450 G3 X18.032 Y-8.236 I-3.633 J1.75
N3455 G1 X18.059 Y4.501
N3460 X18.063 Y6.182
N3465 X18.077 Y13.3
N3470 G3 X17.758 Y13.619 I-0.319 J0.
N3475 G1 X2.561
N3480 X2.524 Y13.622
N3485 X2.489 Y13.632
N3490 X-2.183 Y15.411
N3495 X-2.218 Y15.421
N3500 X-2.254 Y15.424
N3505 X-19.563
N3510 G3 X-19.882 Y15.105 I0. J-0.319
N3515 G1 X-19.867 Y6.995
N3520 X-19.86 Y3.685
N3525 X-19.837 Y-8.236
N3530 G3 X-19.259 Y-10.769 I5.837 J0.
N3535 G1 X-16.311 Y-16.993
N3540 G3 X-15.757 Y-17.341 I0.554 J0.267
N3545 G1 X15.757
N3550 G3 X16.311 Y-16.993 I0. J0.615
N3555 G1 X19.259 Y-10.769
N3560 G3 X19.837 Y-8.236 I-5.259 J2.533
N3565 G1 X19.86 Y3.686
N3570 X19.867 Y6.979
N3575 X19.882 Y15.105
N3580 G3 X19.563 Y15.424 I-0.319 J0.
N3585 G1 X2.252
N3590 G2 X0.898 Y16.326 I0. J1.467
N3595 G3 X-0.456 Y17.229 I-1.354 J-0.564
N3600 G1 X-21.368
N3605 G3 X-21.688 Y16.91 I0. J-0.319
N3610 G1 X-21.642 Y-8.236
N3615 G3 X-20.885 Y-11.552 I7.642 J0.
N3620 G1 X-17.445 Y-18.798
N3625 G3 X-16.891 Y-19.146 I0.554 J0.267
N3630 G1 X16.891
N3635 G3 X17.445 Y-18.798 I0. J0.615
N3640 G1 X20.885 Y-11.553
N3645 G3 X21.642 Y-8.236 I-6.886 J3.317
N3650 G1 X21.688 Y16.91
N3655 G3 X21.368 Y17.229 I-0.319 J0.
N3660 G1 X-0.456
N3665 G3 X-0.629 Y16.929 I0. J-0.2
N3670 G1 X19.468 Y-18.004
N3675 G3 X19.822 Y-17.99 I0.173 J0.1
N3680 G1 X22.511 Y-12.336
N3685 G3 X23.448 Y-8.236 I-8.512 J4.1
N3690 G1 X23.493 Y18.715
N3695 G3 X23.173 Y19.034 I-0.319 J0.
N3700 G1 X-23.173
N3705 G3 X-23.493 Y18.715 I0. J-0.319
N3710 G1 X-23.448 Y-8.236
N3715 G3 X-22.511 Y-12.336 I9.447 J0.
N3720 G1 X-19.817 Y-18.001
N3725 X-18.417 Y-20.782
N3730 X-18.385 Y-20.828
N3735 X-18.341 Y-20.864
N3740 G3 X-18.025 Y-20.951 I0.316 J0.528
N3745 G1 X18.025
N3750 G3 X18.332 Y-20.869 I0. J0.615
N3755 G1 X21.056 Y-19.426
N3760 X21.091 Y-19.403
N3765 X21.121 Y-19.372
N3770 X21.143 Y-19.336
N3775 X24.138 Y-13.119
N3780 G3 X25.253 Y-8.236 I-10.138 J4.884
N3785 G1 Y19.041
N3790 G3 X23.5 Y20.794 I-1.753 J0.
N3795 G1 X-23.5
N3800 G3 X-25.253 Y19.041 I0. J-1.752
N3805 G1 Y-8.236
N3810 G3 X-24.138 Y-13.119 I11.252 J0.
N3815 G1 X-21.137 Y-19.348
N3820 X-20.265 Y-21.159
N3825 X-19.586 Y-22.568
N3830 G3 X-19.359 Y-22.711 I0.228 J0.11
N3835 G1 X19.359
N3840 G3 X19.586 Y-22.568 I0. J0.253
N3845 G1 X20.263 Y-21.163
N3850 G2 X21.664 Y-20.335 I1.321 J-0.636
N3855 G3 X23.064 Y-19.507 I0.079 J1.464
N3860 G1 X25.764 Y-13.902
N3865 G3 X27.058 Y-8.236 I-11.765 J5.667
N3870 G1 Y19.041
N3875 G3 X23.5 Y22.599 I-3.558 J0.
N3880 G1 X-23.5
N3885 G3 X-27.058 Y19.041 I0. J-3.557
N3890 G1 Y-8.236
N3895 G3 X-25.764 Y-13.902 I13.057 J0.
N3900 G1 X-21.212 Y-23.351
N3905 G3 X-19.359 Y-24.516 I1.854 J0.893
N3910 G1 X19.359
N3915 G3 X21.212 Y-23.351 I0. J2.058
N3920 G1 X23.064 Y-19.507
N3925 G2 X24.503 Y-18.656 I1.358 J-0.654
N3930 G3 X25.943 Y-17.805 I0.082 J1.505
N3935 G1 X27.435 Y-14.707
N3940 G3 X28.913 Y-8.236 I-13.435 J6.472
N3945 G1 Y19.041
N3950 G3 X23.5 Y24.454 I-5.413 J0.
N3955 G1 X-23.5
N3960 G3 X-28.913 Y19.041 I0. J-5.412
N3965 G1 Y-8.236
N3970 G3 X-27.435 Y-14.707 I14.912 J0.
N3975 G1 X-22.884 Y-24.156
N3980 G3 X-19.359 Y-26.371 I3.525 J1.698
N3985 G1 X19.359
N3990 G3 X22.884 Y-24.156 I0. J3.913
N3995 G1 X25.943 Y-17.805
N4000 X25.964 Y-17.748 Z-2.078
N4005 X25.974 Y-17.689 Z-2.066
N4010 X25.973 Y-17.637 Z-2.031
N4015 X25.964 Y-17.586 Z-1.997
N4020 X25.939 Y-17.522 Z-1.894
N4025 X25.927 Y-17.501 Z-1.773
N4030 Z15.
N4035 X-75.873 Y91.459
N4040 Z5.
N4045 Z2.817 F1500.
N4050 X-75.896 Y91.462 Z2.698
N4055 X-75.962 Y91.466 Z2.597
N4060 X-76.061 Z2.527
N4065 X-76.179 Y91.457 Z2.5
N4070 G3 X-75.849 Y88.794 Z2.353 I0.165 J-1.331
N4075 X-76.179 Y91.457 Z2.206 I-0.165 J1.331
N4080 X-75.849 Y88.794 Z2.058 I0.165 J-1.331
N4085 X-76.179 Y91.457 Z1.911 I-0.165 J1.331
N4090 X-75.849 Y88.794 Z1.764 I0.165 J-1.331
N4095 X-76.179 Y91.457 Z1.617 I-0.165 J1.331
N4100 X-75.849 Y88.794 Z1.47 I0.165 J-1.331
N4105 X-76.179 Y91.457 Z1.323 I-0.165 J1.331
N4110 X-75.849 Y88.794 Z1.175 I0.165 J-1.331
N4115 X-76.179 Y91.457 Z1.028 I-0.165 J1.331
N4120 X-75.849 Y88.794 Z0.881 I0.165 J-1.331
N4125 X-76.179 Y91.457 Z0.734 I-0.165 J1.331
N4130 X-75.849 Y88.794 Z0.587 I0.165 J-1.331
N4135 X-76.179 Y91.457 Z0.44 I-0.165 J1.331
N4140 X-75.849 Y88.794 Z0.292 I0.165 J-1.331
N4145 X-76.179 Y91.457 Z0.145 I-0.165 J1.331
N4150 X-75.849 Y88.794 Z-0.002 I0.165 J-1.331
N4155 X-76.179 Y91.457 Z-0.149 I-0.165 J1.331
N4160 X-75.849 Y88.794 Z-0.296 I0.165 J-1.331
N4165 X-76.179 Y91.457 Z-0.443 I-0.165 J1.331
N4170 X-75.849 Y88.794 Z-0.591 I0.165 J-1.331
N4175 X-76.179 Y91.457 Z-0.738 I-0.165 J1.331
N4180 X-75.849 Y88.794 Z-0.885 I0.165 J-1.331
N4185 X-76.179 Y91.457 Z-1.032 I-0.165 J1.331
N4190 X-75.849 Y88.794 Z-1.179 I0.165 J-1.331
N4195 X-76.179 Y91.457 Z-1.326 I-0.165 J1.331
N4200 X-75.849 Y88.794 Z-1.474 I0.165 J-1.331
N4205 X-76.179 Y91.457 Z-1.621 I-0.165 J1.331
N4210 X-75.849 Y88.794 Z-1.768 I0.165 J-1.331
N4215 X-76.179 Y91.457 Z-1.915 I-0.165 J1.331
N4220 X-75.849 Y88.794 Z-2.062 I0.165 J-1.331
N4225 X-76.179 Y91.457 Z-2.21 I-0.165 J1.331
N4230 X-75.849 Y88.794 Z-2.357 I0.165 J-1.331
N4235 X-76.179 Y91.457 Z-2.504 I-0.165 J1.331
N4240 X-75.849 Y88.794 Z-2.651 I0.165 J-1.331
N4245 X-76.179 Y91.457 Z-2.798 I-0.165 J1.331
N4250 X-75.849 Y88.794 Z-2.945 I0.165 J-1.331
N4255 X-75.065 Y91.074 Z-3.05 I-0.165 J1.331
N4260 X-76.963 I-0.949 J-0.949 F2500.
N4265 X76.963 Y-62.851 I76.963 J-76.963
N4270 Y91.074 I-76.963 J76.963
N4275 X75.065 Y89.177 I-0.949 J-0.949
N4280 G2 X-75.065 Y-60.954 I-75.065 J-75.065
N4285 Y89.177 I75.065 J75.065
N4290 G3 Y91.074 I-0.949 J0.949
N4295 X-76.963 Z-3.057 I-0.949 J-0.949 F1500.
N4300 X76.963 Y-62.851 Z-4.119 I76.963 J-76.963
N4305 Y91.074 Z-4.651 I-76.963 J76.963
N4310 X75.065 Y89.177 Z-4.664 I-0.949 J-0.949
N4315 G2 X-75.065 Y-60.954 Z-5.7 I-75.065 J-75.065
N4320 X-96.654 Y58.016 Z-6.1 I75.065 J75.065
N4325 X-75.065 Y89.177 I96.654 J-43.905 F2500.
N4330 G3 X-76.963 Y91.074 I-0.949 J0.949
N4335 X76.963 Y-62.851 I76.963 J-76.963
N4340 Y91.074 I-76.963 J76.963
N4345 X75.065 Y89.177 I-0.949 J-0.949
N4350 G2 X-75.065 Y-60.954 I-75.065 J-75.065
N4355 X-96.654 Y58.016 I75.065 J75.065
N4360 X-75.065 Y89.177 Z-6.218 I96.654 J-43.905 F1500.
N4365 G3 X-76.963 Y91.074 Z-6.232 I-0.949 J0.949
N4370 X76.963 Y-62.851 Z-7.294 I76.963 J-76.963
N4375 Y91.074 Z-7.826 I-76.963 J76.963
N4380 X75.065 Y89.177 Z-7.839 I-0.949 J-0.949
N4385 G2 X-75.065 Y-60.954 Z-8.875 I-75.065 J-75.065
N4390 X-106.039 Y19.153 Z-9.15 I75.065 J75.065
N4395 X-75.065 Y89.177 I106.039 J-5.042 F2500.
N4400 G3 X-76.963 Y91.074 I-0.949 J0.949
N4405 X76.963 Y-62.851 I76.963 J-76.963
N4410 Y91.074 I-76.963 J76.963
N4415 X75.065 Y89.177 I-0.949 J-0.949
N4420 G2 X-75.065 Y-60.954 I-75.065 J-75.065
N4425 X-106.039 Y19.153 I75.065 J75.065
N4430 X-75.065 Y89.177 Z-9.393 I106.039 J-5.042 F1500.
N4435 G3 X-76.963 Y91.074 Z-9.407 I-0.949 J0.949
N4440 X76.963 Y-62.851 Z-10.469 I76.963 J-76.963
N4445 Y91.074 Z-11.001 I-76.963 J76.963
N4450 X75.065 Y89.177 Z-11.014 I-0.949 J-0.949
N4455 G2 X-75.065 Y-60.954 Z-12.05 I-75.065 J-75.065
N4460 X-100.384 Y-20.425 Z-12.2 I75.065 J75.065
N4465 X-75.065 Y89.177 I100.384 J34.536 F2500.
N4470 G3 X-76.963 Y91.074 I-0.949 J0.949
N4475 X76.963 Y-62.851 I76.963 J-76.963
N4480 Y91.074 I-76.963 J76.963
N4485 X75.065 Y89.177 I-0.949 J-0.949
N4490 G2 X-75.065 Y-60.954 I-75.065 J-75.065
N4495 X-100.384 Y-20.425 I75.065 J75.065
N4500 G1 X-100.423 Y-20.31 Z-12.176
N4505 X-100.456 Y-20.213 Z-12.107
N4510 X-100.479 Y-20.148 Z-12.004
N4515 X-100.486 Y-20.125 Z-11.883
N4520 Z15.
(WHEN USING FUSION 360 FOR PERSONAL USE, THE FEEDRATE OF)
(RAPID MOVES IS REDUCED TO MATCH THE FEEDRATE OF CUTTING)
(MOVES, WHICH CAN INCREASE MACHINING TIME. UNRESTRICTED RAPID)
(MOVES ARE AVAILABLE WITH A FUSION 360 SUBSCRIPTION.)
(2D CONTOUR1)
N4525 G64 P0.01 Q0.01
N4530 G0 X-127.474 Y9.991
N4535 G1 Z15. F2500.
N4540 Z5.
N4545 Z4. F1500.
N4550 Z-2.683
N4555 X-127.466 Z-2.753 F2500.
N4560 X-127.442 Y9.992 Z-2.82
N4565 X-127.404 Y9.993 Z-2.88
N4570 X-127.354 Y9.995 Z-2.931
N4575 X-127.294 Y9.996 Z-2.969
N4580 X-127.227 Y9.998 Z-2.992
N4585 X-127.156 Y10. Z-3.
N4590 X-126.839 Y10.01
N4595 G3 X-126.531 Y10.337 I-0.009 J0.317
N4600 G2 X-91.919 Y101.147 I126.531 J3.775
N4605 G1 X-91.889 Y101.179
N4610 X-87.067 Y106.
N4615 X-87.036 Y106.03
N4620 G2 X-83.067 Y109.632 I87.038 J-91.917
N4625 X-67.27 Y109.083 I7.604 J-8.743
N4630 G1 X-20.091 Y61.903
N4635 G3 X20.091 I20.091 J20.091
N4640 G1 X67.27 Y109.083
N4645 G2 X83.067 Y109.632 I8.193 J-8.194
N4650 X89.511 Y103.623 I-83.063 J-95.524
N4655 G1 X89.526 Y103.607
N4660 X91.904 Y101.163
N4665 X91.919 Y101.147
N4670 G2 X-91.919 Y-72.925 I-91.919 J-87.036
N4675 X-126.531 Y10.337 I91.919 J87.036
N4680 G3 X-126.858 Y10.645 I-0.317 J-0.009
N4685 G1 X-127.175 Y10.635
N4690 X-127.246 Y10.633 Z-2.992
N4695 X-127.313 Y10.631 Z-2.969
N4700 X-127.373 Y10.629 Z-2.931
N4705 X-127.423 Y10.628 Z-2.88
N4710 X-127.461 Y10.627 Z-2.82
N4715 X-127.485 Y10.626 Z-2.753
N4720 X-127.493 Z-2.683
N4725 Z5.
N4730 X-127.474 Y9.991
N4735 Z1. F1500.
N4740 Z-5.683
N4745 X-127.466 Z-5.753 F2500.
N4750 X-127.442 Y9.992 Z-5.82
N4755 X-127.404 Y9.993 Z-5.88
N4760 X-127.354 Y9.995 Z-5.931
N4765 X-127.294 Y9.996 Z-5.969
N4770 X-127.227 Y9.998 Z-5.992
N4775 X-127.156 Y10. Z-6.
N4780 X-126.839 Y10.01
N4785 G3 X-126.531 Y10.337 I-0.009 J0.317
N4790 G2 X-91.919 Y101.147 I126.531 J3.775
N4795 G1 X-91.889 Y101.179
N4800 X-87.067 Y106.
N4805 X-87.036 Y106.03
N4810 G2 X-83.067 Y109.632 I87.038 J-91.917
N4815 X-67.27 Y109.083 I7.604 J-8.743
N4820 G1 X-20.091 Y61.903
N4825 G3 X20.091 I20.091 J20.091
N4830 G1 X67.27 Y109.083
N4835 G2 X83.067 Y109.632 I8.193 J-8.194
N4840 X89.511 Y103.623 I-83.063 J-95.524
N4845 G1 X89.526 Y103.607
N4850 X91.904 Y101.163
N4855 X91.919 Y101.147
N4860 G2 X-91.919 Y-72.925 I-91.919 J-87.036
N4865 X-126.531 Y10.337 I91.919 J87.036
N4870 G3 X-126.858 Y10.645 I-0.317 J-0.009
N4875 G1 X-127.175 Y10.635
N4880 X-127.246 Y10.633 Z-5.992
N4885 X-127.313 Y10.631 Z-5.969
N4890 X-127.373 Y10.629 Z-5.931
N4895 X-127.423 Y10.628 Z-5.88
N4900 X-127.461 Y10.627 Z-5.82
N4905 X-127.485 Y10.626 Z-5.753
N4910 X-127.493 Z-5.683
N4915 Z5.
N4920 X-127.474 Y9.991
N4925 Z-2. F1500.
N4930 Z-8.683
N4935 X-127.466 Z-8.753 F2500.
N4940 X-127.442 Y9.992 Z-8.82
N4945 X-127.404 Y9.993 Z-8.88
N4950 X-127.354 Y9.995 Z-8.931
N4955 X-127.294 Y9.996 Z-8.969
N4960 X-127.227 Y9.998 Z-8.992
N4965 X-127.156 Y10. Z-9.
N4970 X-126.839 Y10.01
N4975 G3 X-126.531 Y10.337 I-0.009 J0.317
N4980 G2 X-91.919 Y101.147 I126.531 J3.775
N4985 G1 X-91.889 Y101.179
N4990 X-87.067 Y106.
N4995 X-87.036 Y106.03
N5000 G2 X-83.067 Y109.632 I87.038 J-91.917
N5005 X-67.27 Y109.083 I7.604 J-8.743
N5010 G1 X-20.091 Y61.903
N5015 G3 X20.091 I20.091 J20.091
N5020 G1 X67.27 Y109.083
N5025 G2 X83.067 Y109.632 I8.193 J-8.194
N5030 X89.511 Y103.623 I-83.063 J-95.524
N5035 G1 X89.526 Y103.607
N5040 X91.904 Y101.163
N5045 X91.919 Y101.147
N5050 G2 X-91.919 Y-72.925 I-91.919 J-87.036
N5055 X-126.531 Y10.337 I91.919 J87.036
N5060 G3 X-126.858 Y10.645 I-0.317 J-0.009
N5065 G1 X-127.175 Y10.635
N5070 X-127.246 Y10.633 Z-8.992
N5075 X-127.313 Y10.631 Z-8.969
N5080 X-127.373 Y10.629 Z-8.931
N5085 X-127.423 Y10.628 Z-8.88
N5090 X-127.461 Y10.627 Z-8.82
N5095 X-127.485 Y10.626 Z-8.753
N5100 X-127.493 Z-8.683
N5105 Z5.
N5110 X-127.474 Y9.991
N5115 Z-5. F1500.
N5120 Z-10.533
N5125 X-127.468 Z-10.591 F2500.
N5130 X-127.452 Y9.992 Z-10.647
N5135 X-127.426 Z-10.7
N5140 X-127.156 Y10.
N5145 X-126.839 Y10.01
N5150 G3 X-126.531 Y10.337 I-0.009 J0.317
N5155 G2 X-126.582 Y15.313 I126.531 J3.775
N5160 G1 Z-10.85 F1500.
N5165 G2 X-126.372 Y21.485 I126.582 J-1.202 F2500.
N5170 G1 Z-10.7
N5175 G2 X-125.844 Y27.813 I126.372 J-7.374
N5180 G1 Z-10.85 F1500.
N5185 G2 X-122.249 Y46.966 I125.844 J-13.702 F2500.
N5190 G1 Z-10.7
N5195 G2 X-120.448 Y53.055 I122.249 J-32.855
N5200 G1 Z-10.85 F1500.
N5205 G2 X-116.494 Y63.643 I120.448 J-38.944 F2500.
N5210 G1 Z-10.7
N5215 G2 X-113.864 Y69.423 I116.494 J-49.532
N5220 G1 Z-10.85 F1500.
N5225 G2 X-113.044 Y71.081 I113.864 J-55.312 F2500.
N5230 G1 Z-10.7
N5235 G2 X-110.045 Y76.678 I113.044 J-56.969
N5240 G1 Z-10.85 F1500.
N5245 G2 X-99.138 Y92.827 I110.045 J-62.566 F2500.
N5250 G1 Z-10.7
N5255 G2 X-95.066 Y97.699 I99.138 J-78.715
N5260 G1 Z-10.85 F1500.
N5265 G2 X-91.919 Y101.147 I95.066 J-83.588 F2500.
N5270 G1 X-91.889 Y101.179
N5275 X-87.067 Y106.
N5280 X-87.036 Y106.03
N5285 G2 X-83.067 Y109.632 I87.038 J-91.917
N5290 X-80.25 Y111.441 I7.604 J-8.743
N5295 G1 Z-10.7
N5300 G2 X-73.97 Y112.38 I4.787 J-10.552
N5305 G1 Z-10.85 F1500.
N5310 G2 X-67.27 Y109.083 I-1.493 J-11.491 F2500.
N5315 G1 X-58.062 Y99.875
N5320 Z-10.7
N5325 X-53.572 Y95.385
N5330 Z-10.85 F1500.
N5335 X-40.008 Y81.821 F2500.
N5340 Z-10.7
N5345 X-35.061 Y76.873
N5350 Z-10.85 F1500.
N5355 X-21.974 Y63.787 F2500.
N5360 Z-10.7
N5365 X-20.091 Y61.903
N5370 G3 X-17.317 Y59.468 I20.091 J20.091
N5375 G1 Z-10.85 F1500.
N5380 G3 X-0.804 Y53.593 I17.317 J22.525 F2500.
N5385 G1 Z-10.7
N5390 G3 X5.523 Y54.123 I0.804 J28.401
N5395 G1 Z-10.85 F1500.
N5400 G3 X15.403 Y58.119 I-5.523 J27.87 F2500.
N5405 G1 Z-10.7
N5410 G3 X20.091 Y61.903 I-15.403 J23.875
N5415 G1 X20.322 Y62.135
N5420 Z-10.85 F1500.
N5425 X21.014 Y62.827 F2500.
N5430 Z-10.7
N5435 X25.504 Y67.317
N5440 Z-10.85 F1500.
N5445 X39.068 Y80.881 F2500.
N5450 Z-10.7
N5455 X43.888 Y85.701
N5460 Z-10.85 F1500.
N5465 X57.123 Y98.935 F2500.
N5470 Z-10.7
N5475 X61.613 Y103.426
N5480 Z-10.85 F1500.
N5485 X67.27 Y109.083 F2500.
N5490 G2 X79.684 Y111.68 I8.193 J-8.194
N5495 G1 Z-10.7
N5500 G2 X83.067 Y109.632 I-4.221 J-10.791
N5505 X84.881 Y108.024 I-83.063 J-95.524
N5510 G1 Z-10.85 F1500.
N5515 G2 X89.511 Y103.623 I-84.877 J-93.917 F2500.
N5520 G1 X89.526 Y103.607
N5525 X89.705 Y103.423
N5530 Z-10.7
N5535 X91.904 Y101.163
N5540 X91.919 Y101.147
N5545 G2 X94.073 Y98.815 I-91.919 J-87.036
N5550 G1 Z-10.85 F1500.
N5555 G2 X98.345 Y93.815 I-94.073 J-84.703 F2500.
N5560 G1 Z-10.7
N5565 G2 X102.218 Y88.783 I-98.345 J-79.703
N5570 G1 Z-10.85 F1500.
N5575 G2 X112.468 Y72.209 I-102.218 J-74.671 F2500.
N5580 G1 Z-10.7
N5585 G2 X115.24 Y66.496 I-112.468 J-58.097
N5590 G1 Z-10.85 F1500.
N5595 G2 X121.915 Y48.188 I-115.24 J-52.384 F2500.
N5600 G1 Z-10.7
N5605 G2 X123.47 Y42.031 I-121.915 J-34.076
N5610 G1 Z-10.85 F1500.
N5615 G2 X126.292 Y22.75 I-123.47 J-27.92 F2500.
N5620 G1 Z-10.7
N5625 G2 X126.567 Y16.406 I-126.292 J-8.639
N5630 G1 Z-10.85 F1500.
N5635 G2 X125.419 Y-3.047 I-126.567 J-2.295 F2500.
N5640 G1 Z-10.7
N5645 G2 X124.401 Y-9.315 I-125.419 J17.159
N5650 G1 Z-10.85 F1500.
N5655 G2 X119.331 Y-28.131 I-124.401 J23.427 F2500.
N5660 G1 Z-10.7
N5665 G2 X117.063 Y-34.062 I-119.331 J42.242
N5670 G1 Z-10.85 F1500.
N5675 G2 X108.282 Y-51.459 I-117.063 J48.173 F2500.
N5680 G1 Z-10.7
N5685 G2 X104.857 Y-56.806 I-108.282 J65.57
N5690 G1 Z-10.85 F1500.
N5695 G2 X92.73 Y-72.059 I-104.857 J70.918 F2500.
N5700 G1 Z-10.7
N5705 G2 X88.293 Y-76.601 I-92.73 J86.171
N5710 G1 Z-10.85 F1500.
N5715 G2 X82.271 Y-82.096 I-88.293 J90.713 F2500.
N5720 G1 Z-10.7
N5725 G2 X77.343 Y-86.1 I-82.271 J96.207
N5730 G1 Z-10.85 F1500.
N5735 G2 X73.323 Y-89.078 I-77.343 J100.212 F2500.
N5740 G1 Z-10.7
N5745 G2 X68.056 Y-92.625 I-73.323 J103.189
N5750 G1 Z-10.85 F1500.
N5755 G2 X50.868 Y-101.806 I-68.056 J106.737 F2500.
N5760 G1 Z-10.7
N5765 G2 X44.991 Y-104.211 I-50.868 J115.917
N5770 G1 Z-10.85 F1500.
N5775 G2 X26.297 Y-109.714 I-44.991 J118.322 F2500.
N5780 G1 Z-10.7
N5785 G2 X18.414 Y-111.129 I-26.297 J123.826
N5790 G1 Z-10.85 F1500.
N5795 G2 X0.633 Y-112.474 I-18.414 J125.241 F2500.
N5800 G1 Z-10.7
N5805 G2 X-5.715 Y-112.347 I-0.633 J126.586
N5810 G1 Z-10.85 F1500.
N5815 G2 X-25.057 Y-109.971 I5.715 J126.458 F2500.
N5820 G1 Z-10.7
N5825 G2 X-32.196 Y-108.313 I25.057 J124.083
N5830 G1 Z-10.85 F1500.
N5835 G2 X-49.705 Y-102.309 I32.196 J122.425 F2500.
N5840 G1 Z-10.7
N5845 G2 X-55.481 Y-99.67 I49.705 J116.42
N5850 G1 Z-10.85 F1500.
N5855 G2 X-72.287 Y-89.806 I55.481 J113.781 F2500.
N5860 G1 Z-10.7
N5865 G2 X-77.407 Y-86.051 I72.287 J103.918
N5870 G1 Z-10.85 F1500.
N5875 G2 X-89.473 Y-75.437 I77.407 J100.162 F2500.
N5880 G1 Z-10.7
N5885 G2 X-96.116 Y-68.267 I89.473 J89.549
N5890 G1 Z-10.85 F1500.
N5895 G2 X-107.62 Y-52.539 I96.116 J82.378 F2500.
N5900 G1 Z-10.7
N5905 G2 X-110.827 Y-47.058 I107.62 J66.65
N5910 G1 Z-10.85 F1500.
N5915 G2 X-118.902 Y-29.323 I110.827 J61.169 F2500.
N5920 G1 Z-10.7
N5925 G2 X-120.931 Y-23.306 I118.902 J43.435
N5930 G1 Z-10.85 F1500.
N5935 G2 X-125.241 Y-4.301 I120.931 J37.417 F2500.
N5940 G1 Z-10.7
N5945 G2 X-126.007 Y2.002 I125.241 J18.413
N5950 G1 Z-10.85 F1500.
N5955 G2 X-126.483 Y8.964 I126.007 J12.109 F2500.
N5960 G1 Z-10.7
N5965 G2 X-126.531 Y10.337 I126.483 J5.147
N5970 G3 X-126.858 Y10.645 I-0.317 J-0.009
N5975 G1 X-127.175 Y10.635
N5980 X-127.445 Y10.627 F1500.
N5985 X-127.471 Y10.626 Z-10.647 F2500.
N5990 X-127.487 Z-10.591
N5995 X-127.493 Z-10.533
N6000 Z5.
N6005 X-127.474 Y9.991
N6010 Z-6.85 F1500.
N6015 Z-10.7
N6020 X-127.156 Y10. F2500.
N6025 X-126.839 Y10.01
N6030 G3 X-126.531 Y10.337 I-0.009 J0.317
N6035 G2 X-126.582 Y15.313 I126.531 J3.775
N6040 G1 Z-12.7 F1500.
N6045 G2 X-126.372 Y21.485 I126.582 J-1.202 F2500.
N6050 G1 Z-10.7
N6055 G2 X-125.844 Y27.813 I126.372 J-7.374
N6060 G1 Z-12.7 F1500.
N6065 G2 X-122.249 Y46.966 I125.844 J-13.702 F2500.
N6070 G1 Z-10.7
N6075 G2 X-120.448 Y53.055 I122.249 J-32.855
N6080 G1 Z-12.7 F1500.
N6085 G2 X-116.494 Y63.643 I120.448 J-38.944 F2500.
N6090 G1 Z-10.7
N6095 G2 X-113.864 Y69.423 I116.494 J-49.532
N6100 G1 Z-12.7 F1500.
N6105 G2 X-113.044 Y71.081 I113.864 J-55.312 F2500.
N6110 G1 Z-10.7
N6115 G2 X-110.045 Y76.678 I113.044 J-56.969
N6120 G1 Z-12.7 F1500.
N6125 G2 X-99.138 Y92.827 I110.045 J-62.566 F2500.
N6130 G1 Z-10.7
N6135 G2 X-95.066 Y97.699 I99.138 J-78.715
N6140 G1 Z-12.7 F1500.
N6145 G2 X-91.919 Y101.147 I95.066 J-83.588 F2500.
N6150 G1 X-91.889 Y101.179
N6155 X-87.067 Y106.
N6160 X-87.036 Y106.03
N6165 G2 X-83.067 Y109.632 I87.038 J-91.917
N6170 X-80.25 Y111.441 I7.604 J-8.743
N6175 G1 Z-10.7
N6180 G2 X-73.97 Y112.38 I4.787 J-10.552
N6185 G1 Z-12.7 F1500.
N6190 G2 X-67.27 Y109.083 I-1.493 J-11.491 F2500.
N6195 G1 X-58.062 Y99.875
N6200 Z-10.7
N6205 X-53.572 Y95.385
N6210 Z-12.7 F1500.
N6215 X-40.008 Y81.821 F2500.
N6220 Z-10.7
N6225 X-35.061 Y76.873
N6230 Z-12.7 F1500.
N6235 X-21.974 Y63.787 F2500.
N6240 Z-10.7
N6245 X-20.091 Y61.903
N6250 G3 X-17.317 Y59.468 I20.091 J20.091
N6255 G1 Z-12.7 F1500.
N6260 G3 X-0.804 Y53.593 I17.317 J22.525 F2500.
N6265 G1 Z-10.7
N6270 G3 X5.523 Y54.123 I0.804 J28.401
N6275 G1 Z-12.7 F1500.
N6280 G3 X15.403 Y58.119 I-5.523 J27.87 F2500.
N6285 G1 Z-10.7
N6290 G3 X20.091 Y61.903 I-15.403 J23.875
N6295 G1 X20.322 Y62.135
N6300 Z-12.7 F1500.
N6305 X21.014 Y62.827 F2500.
N6310 Z-10.7
N6315 X25.504 Y67.317
N6320 Z-12.7 F1500.
N6325 X39.068 Y80.881 F2500.
N6330 Z-10.7
N6335 X43.888 Y85.701
N6340 Z-12.7 F1500.
N6345 X57.123 Y98.935 F2500.
N6350 Z-10.7
N6355 X61.613 Y103.426
N6360 Z-12.7 F1500.
N6365 X67.27 Y109.083 F2500.
N6370 G2 X79.684 Y111.68 I8.193 J-8.194
N6375 G1 Z-10.7
N6380 G2 X83.067 Y109.632 I-4.221 J-10.791
N6385 X84.881 Y108.024 I-83.063 J-95.524
N6390 G1 Z-12.7 F1500.
N6395 G2 X89.511 Y103.623 I-84.877 J-93.917 F2500.
N6400 G1 X89.526 Y103.607
N6405 X89.705 Y103.423
N6410 Z-10.7
N6415 X91.904 Y101.163
N6420 X91.919 Y101.147
N6425 G2 X94.073 Y98.815 I-91.919 J-87.036
N6430 G1 Z-12.7 F1500.
N6435 G2 X98.345 Y93.815 I-94.073 J-84.703 F2500.
N6440 G1 Z-10.7
N6445 G2 X102.218 Y88.783 I-98.345 J-79.703
N6450 G1 Z-12.7 F1500.
N6455 G2 X112.468 Y72.209 I-102.218 J-74.671 F2500.
N6460 G1 Z-10.7
N6465 G2 X115.24 Y66.496 I-112.468 J-58.097
N6470 G1 Z-12.7 F1500.
N6475 G2 X121.915 Y48.188 I-115.24 J-52.384 F2500.
N6480 G1 Z-10.7
N6485 G2 X123.47 Y42.031 I-121.915 J-34.076
N6490 G1 Z-12.7 F1500.
N6495 G2 X126.292 Y22.75 I-123.47 J-27.92 F2500.
N6500 G1 Z-10.7
N6505 G2 X126.567 Y16.406 I-126.292 J-8.639
N6510 G1 Z-12.7 F1500.
N6515 G2 X125.419 Y-3.047 I-126.567 J-2.295 F2500.
N6520 G1 Z-10.7
N6525 G2 X124.401 Y-9.315 I-125.419 J17.159
N6530 G1 Z-12.7 F1500.
N6535 G2 X119.331 Y-28.131 I-124.401 J23.427 F2500.
N6540 G1 Z-10.7
N6545 G2 X117.063 Y-34.062 I-119.331 J42.242
N6550 G1 Z-12.7 F1500.
N6555 G2 X108.282 Y-51.459 I-117.063 J48.173 F2500.
N6560 G1 Z-10.7
N6565 G2 X104.857 Y-56.806 I-108.282 J65.57
N6570 G1 Z-12.7 F1500.
N6575 G2 X92.73 Y-72.059 I-104.857 J70.918 F2500.
N6580 G1 Z-10.7
N6585 G2 X88.293 Y-76.601 I-92.73 J86.171
N6590 G1 Z-12.7 F1500.
N6595 G2 X82.271 Y-82.096 I-88.293 J90.713 F2500.
N6600 G1 Z-10.7
N6605 G2 X77.343 Y-86.1 I-82.271 J96.207
N6610 G1 Z-12.7 F1500.
N6615 G2 X73.323 Y-89.078 I-77.343 J100.212 F2500.
N6620 G1 Z-10.7
N6625 G2 X68.056 Y-92.625 I-73.323 J103.189
N6630 G1 Z-12.7 F1500.
N6635 G2 X50.868 Y-101.806 I-68.056 J106.737 F2500.
N6640 G1 Z-10.7
N6645 G2 X44.991 Y-104.211 I-50.868 J115.917
N6650 G1 Z-12.7 F1500.
N6655 G2 X26.297 Y-109.714 I-44.991 J118.322 F2500.
N6660 G1 Z-10.7
N6665 G2 X18.414 Y-111.129 I-26.297 J123.826
N6670 G1 Z-12.7 F1500.
N6675 G2 X0.633 Y-112.474 I-18.414 J125.241 F2500.
N6680 G1 Z-10.7
N6685 G2 X-5.715 Y-112.347 I-0.633 J126.586
N6690 G1 Z-12.7 F1500.
N6695 G2 X-25.057 Y-109.971 I5.715 J126.458 F2500.
N6700 G1 Z-10.7
N6705 G2 X-32.196 Y-108.313 I25.057 J124.083
N6710 G1 Z-12.7 F1500.
N6715 G2 X-49.705 Y-102.309 I32.196 J122.425 F2500.
N6720 G1 Z-10.7
N6725 G2 X-55.481 Y-99.67 I49.705 J116.42
N6730 G1 Z-12.7 F1500.
N6735 G2 X-72.287 Y-89.806 I55.481 J113.781 F2500.
N6740 G1 Z-10.7
N6745 G2 X-77.407 Y-86.051 I72.287 J103.918
N6750 G1 Z-12.7 F1500.
N6755 G2 X-89.473 Y-75.437 I77.407 J100.162 F2500.
N6760 G1 Z-10.7
N6765 G2 X-96.116 Y-68.267 I89.473 J89.549
N6770 G1 Z-12.7 F1500.
N6775 G2 X-107.62 Y-52.539 I96.116 J82.378 F2500.
N6780 G1 Z-10.7
N6785 G2 X-110.827 Y-47.058 I107.62 J66.65
N6790 G1 Z-12.7 F1500.
N6795 G2 X-118.902 Y-29.323 I110.827 J61.169 F2500.
N6800 G1 Z-10.7
N6805 G2 X-120.931 Y-23.306 I118.902 J43.435
N6810 G1 Z-12.7 F1500.
N6815 G2 X-125.241 Y-4.301 I120.931 J37.417 F2500.
N6820 G1 Z-10.7
N6825 G2 X-126.007 Y2.002 I125.241 J18.413
N6830 G1 Z-12.7 F1500.
N6835 G2 X-126.483 Y8.964 I126.007 J12.109 F2500.
N6840 G1 Z-10.7
N6845 G2 X-126.531 Y10.337 I126.483 J5.147
N6850 G3 X-126.858 Y10.645 I-0.317 J-0.009
N6855 G1 X-127.493 Y10.626
N6860 Z15.
N6865 G53 G0 Z0.
N6870 M30
%
