%
(PLANTSHELF.NGC)
(T1  D=3.175 CR=0. - ZMIN=-11.113 - FLAT END MILL)
N10 G90 G94 G17 G91.1
N15 G21
(WHEN USING FUSION 360 FOR PERSONAL USE, THE FEEDRATE OF)
(RAPID MOVES IS REDUCED TO MATCH THE FEEDRATE OF CUTTING)
(MOVES, WHICH CAN INCREASE MACHINING TIME. UNRESTRICTED RAPID)
(MOVES ARE AVAILABLE WITH A FUSION 360 SUBSCRIPTION.)
N20 G53 G0 Z0.
(2D POCKET1)
N25 T1 M6
N30 S5000 M3
N35 G54
N40 G0 X-0.677 Y-1.313
N45 G43 Z15. H1
N50 G1 Z5. F1500.
N55 Z3.5 F11500.
N60 Z-2.5
N65 Y-1.301
N70 Y58.449 F1500.
N75 Y58.462 F11500.
N80 Z5. F1500.
N85 X1.865 Y-1.499
N90 Z3.5 F11500.
N95 Z-2.5
N100 Y-1.486
N105 Y58.628 F1500.
N110 Y60.215 F11500.
N115 Z5. F1500.
N120 X4.412 Y-1.501
N125 Z3.5 F11500.
N130 Z-2.5
N135 Y-1.476
N140 Y57.15 F1500.
N145 Y58.623
N150 Z5.
N155 X-0.677 Y-1.313
N160 Z1. F11500.
N165 Z-5.
N170 Y-1.301
N175 Y58.449 F1500.
N180 Y58.462 F11500.
N185 Z5. F1500.
N190 X1.865 Y-1.499
N195 Z1. F11500.
N200 Z-5.
N205 Y-1.486
N210 Y58.628 F1500.
N215 Y60.215 F11500.
N220 Z5. F1500.
N225 X4.412 Y-1.501
N230 Z1. F11500.
N235 Z-5.
N240 Y-1.476
N245 Y57.15 F1500.
N250 Y58.623
N255 Z5.
N260 X-0.677 Y-1.313
N265 Z-1.5 F11500.
N270 Z-7.5
N275 Y-1.301
N280 Y58.449 F1500.
N285 Y58.462 F11500.
N290 Z5. F1500.
N295 X1.865 Y-1.499
N300 Z-1.5 F11500.
N305 Z-7.5
N310 Y-1.486
N315 Y58.628 F1500.
N320 Y60.215 F11500.
N325 Z5. F1500.
N330 X4.412 Y-1.501
N335 Z-1.5 F11500.
N340 Z-7.5
N345 Y-1.476
N350 Y57.15 F1500.
N355 Y58.623
N360 Z5.
N365 X-0.677 Y-1.313
N370 Z-4. F11500.
N375 Z-10.
N380 Y-1.301
N385 Y58.449 F1500.
N390 Y58.462 F11500.
N395 Z5. F1500.
N400 X1.865 Y-1.499
N405 Z-4. F11500.
N410 Z-10.
N415 Y-1.486
N420 Y58.628 F1500.
N425 Y60.215 F11500.
N430 Z5. F1500.
N435 X4.412 Y-1.501
N440 Z-4. F11500.
N445 Z-10.
N450 Y-1.476
N455 Y57.15 F1500.
N460 Y58.623
N465 Z5.
N470 X-0.677 Y-1.313
N475 Z-6.5 F11500.
N480 Z-11.113
N485 Y-1.301
N490 Y58.449 F1500.
N495 Y58.462 F11500.
N500 Z5. F1500.
N505 X1.865 Y-1.499
N510 Z-6.5 F11500.
N515 Z-11.113
N520 Y-1.486
N525 Y58.628 F1500.
N530 Y60.215 F11500.
N535 Z5. F1500.
N540 X4.412 Y-1.501
N545 Z-6.5 F11500.
N550 Z-11.113
N555 Y-1.476
N560 Y57.15 F1500.
N565 Y58.623
N570 Z15.
N575 X46.412 Y-1.501
N580 Z5.
N585 Z3.5 F11500.
N590 Z-2.5
N595 Y-1.476
N600 Y57.15 F1500.
N605 Y58.623
N610 G3 X46.213 Y58.823 I-0.2 J0.
N615 G1 X43.788 Y58.826
N620 G3 X43.588 Y58.626 I0. J-0.2
N625 G1 Y0.
N630 Y-1.473
N635 G3 X43.786 Y-1.673 I0.2 J0.
N640 G1 X46.211 Y-1.686
N645 G3 X46.412 Y-1.501 I0.001 J0.2
N650 G1 Z-5. F11500.
N655 Y-1.476
N660 Y57.15 F1500.
N665 Y58.623
N670 G3 X46.213 Y58.823 I-0.2 J0.
N675 G1 X43.788 Y58.826
N680 G3 X43.588 Y58.626 I0. J-0.2
N685 G1 Y0.
N690 Y-1.473
N695 G3 X43.786 Y-1.673 I0.2 J0.
N700 G1 X46.211 Y-1.686
N705 G3 X46.412 Y-1.501 I0.001 J0.2
N710 G1 Z-7.5 F11500.
N715 Y-1.476
N720 Y57.15 F1500.
N725 Y58.623
N730 G3 X46.213 Y58.823 I-0.2 J0.
N735 G1 X43.788 Y58.826
N740 G3 X43.588 Y58.626 I0. J-0.2
N745 G1 Y0.
N750 Y-1.473
N755 G3 X43.786 Y-1.673 I0.2 J0.
N760 G1 X46.211 Y-1.686
N765 G3 X46.412 Y-1.501 I0.001 J0.2
N770 G1 Z-10. F11500.
N775 Y-1.476
N780 Y57.15 F1500.
N785 Y58.623
N790 G3 X46.213 Y58.823 I-0.2 J0.
N795 G1 X43.788 Y58.826
N800 G3 X43.588 Y58.626 I0. J-0.2
N805 G1 Y0.
N810 Y-1.473
N815 G3 X43.786 Y-1.673 I0.2 J0.
N820 G1 X46.211 Y-1.686
N825 G3 X46.412 Y-1.501 I0.001 J0.2
N830 G1 Z-11.113 F11500.
N835 Y-1.476
N840 Y57.15 F1500.
N845 Y58.623
N850 G3 X46.213 Y58.823 I-0.2 J0.
N855 G1 X43.788 Y58.826
N860 G3 X43.588 Y58.626 I0. J-0.2
N865 G1 Y0.
N870 Y-1.473
N875 Z15.
N880 X88.412 Y-1.501
N885 Z5.
N890 Z3.5 F11500.
N895 Z-2.5
N900 Y-1.476
N905 Y57.15 F1500.
N910 Y58.623
N915 G3 X88.213 Y58.823 I-0.2 J0.
N920 G1 X85.788 Y58.826
N925 G3 X85.588 Y58.626 I0. J-0.2
N930 G1 Y0.
N935 Y-1.473
N940 G3 X85.786 Y-1.673 I0.2 J0.
N945 G1 X88.211 Y-1.686
N950 G3 X88.412 Y-1.501 I0.001 J0.2
N955 G1 Z-5. F11500.
N960 Y-1.476
N965 Y57.15 F1500.
N970 Y58.623
N975 G3 X88.213 Y58.823 I-0.2 J0.
N980 G1 X85.788 Y58.826
N985 G3 X85.588 Y58.626 I0. J-0.2
N990 G1 Y0.
N995 Y-1.473
N1000 G3 X85.786 Y-1.673 I0.2 J0.
N1005 G1 X88.211 Y-1.686
N1010 G3 X88.412 Y-1.501 I0.001 J0.2
N1015 G1 Z-7.5 F11500.
N1020 Y-1.476
N1025 Y57.15 F1500.
N1030 Y58.623
N1035 G3 X88.213 Y58.823 I-0.2 J0.
N1040 G1 X85.788 Y58.826
N1045 G3 X85.588 Y58.626 I0. J-0.2
N1050 G1 Y0.
N1055 Y-1.473
N1060 G3 X85.786 Y-1.673 I0.2 J0.
N1065 G1 X88.211 Y-1.686
N1070 G3 X88.412 Y-1.501 I0.001 J0.2
N1075 G1 Z-10. F11500.
N1080 Y-1.476
N1085 Y57.15 F1500.
N1090 Y58.623
N1095 G3 X88.213 Y58.823 I-0.2 J0.
N1100 G1 X85.788 Y58.826
N1105 G3 X85.588 Y58.626 I0. J-0.2
N1110 G1 Y0.
N1115 Y-1.473
N1120 G3 X85.786 Y-1.673 I0.2 J0.
N1125 G1 X88.211 Y-1.686
N1130 G3 X88.412 Y-1.501 I0.001 J0.2
N1135 G1 Z-11.113 F11500.
N1140 Y-1.476
N1145 Y57.15 F1500.
N1150 Y58.623
N1155 G3 X88.213 Y58.823 I-0.2 J0.
N1160 G1 X85.788 Y58.826
N1165 G3 X85.588 Y58.626 I0. J-0.2
N1170 G1 Y0.
N1175 Y-1.473
N1180 Z15.
N1185 X130.412 Y-1.501
N1190 Z5.
N1195 Z3.5 F11500.
N1200 Z-2.5
N1205 X130.413 Y-1.476
N1210 Y57.15 F1500.
N1215 Y58.623
N1220 G3 X130.213 Y58.823 I-0.2 J0.
N1225 G1 X127.788 Y58.826
N1230 G3 X127.588 Y58.626 I0. J-0.2
N1235 G1 Y0.
N1240 Y-1.473
N1245 G3 X127.786 Y-1.673 I0.2 J0.
N1250 G1 X130.211 Y-1.686
N1255 G3 X130.412 Y-1.501 I0.001 J0.2
N1260 G1 Z-5. F11500.
N1265 X130.413 Y-1.476
N1270 Y57.15 F1500.
N1275 Y58.623
N1280 G3 X130.213 Y58.823 I-0.2 J0.
N1285 G1 X127.788 Y58.826
N1290 G3 X127.588 Y58.626 I0. J-0.2
N1295 G1 Y0.
N1300 Y-1.473
N1305 G3 X127.786 Y-1.673 I0.2 J0.
N1310 G1 X130.211 Y-1.686
N1315 G3 X130.412 Y-1.501 I0.001 J0.2
N1320 G1 Z-7.5 F11500.
N1325 X130.413 Y-1.476
N1330 Y57.15 F1500.
N1335 Y58.623
N1340 G3 X130.213 Y58.823 I-0.2 J0.
N1345 G1 X127.788 Y58.826
N1350 G3 X127.588 Y58.626 I0. J-0.2
N1355 G1 Y0.
N1360 Y-1.473
N1365 G3 X127.786 Y-1.673 I0.2 J0.
N1370 G1 X130.211 Y-1.686
N1375 G3 X130.412 Y-1.501 I0.001 J0.2
N1380 G1 Z-10. F11500.
N1385 X130.413 Y-1.476
N1390 Y57.15 F1500.
N1395 Y58.623
N1400 G3 X130.213 Y58.823 I-0.2 J0.
N1405 G1 X127.788 Y58.826
N1410 G3 X127.588 Y58.626 I0. J-0.2
N1415 G1 Y0.
N1420 Y-1.473
N1425 G3 X127.786 Y-1.673 I0.2 J0.
N1430 G1 X130.211 Y-1.686
N1435 G3 X130.412 Y-1.501 I0.001 J0.2
N1440 G1 Z-11.113 F11500.
N1445 X130.413 Y-1.476
N1450 Y57.15 F1500.
N1455 Y58.623
N1460 G3 X130.213 Y58.823 I-0.2 J0.
N1465 G1 X127.788 Y58.826
N1470 G3 X127.588 Y58.626 I0. J-0.2
N1475 G1 Y0.
N1480 Y-1.473
N1485 Z15.
N1490 X172.412 Y-1.501
N1495 Z5.
N1500 Z3.5 F11500.
N1505 Z-2.5
N1510 X172.413 Y-1.476
N1515 Y57.15 F1500.
N1520 Y58.623
N1525 G3 X172.213 Y58.823 I-0.2 J0.
N1530 G1 X169.788 Y58.826
N1535 G3 X169.587 Y58.626 I0. J-0.2
N1540 G1 Y0.
N1545 Y-1.473
N1550 G3 X169.786 Y-1.673 I0.2 J0.
N1555 G1 X172.211 Y-1.686
N1560 G3 X172.412 Y-1.501 I0.001 J0.2
N1565 G1 Z-5. F11500.
N1570 X172.413 Y-1.476
N1575 Y57.15 F1500.
N1580 Y58.623
N1585 G3 X172.213 Y58.823 I-0.2 J0.
N1590 G1 X169.788 Y58.826
N1595 G3 X169.587 Y58.626 I0. J-0.2
N1600 G1 Y0.
N1605 Y-1.473
N1610 G3 X169.786 Y-1.673 I0.2 J0.
N1615 G1 X172.211 Y-1.686
N1620 G3 X172.412 Y-1.501 I0.001 J0.2
N1625 G1 Z-7.5 F11500.
N1630 X172.413 Y-1.476
N1635 Y57.15 F1500.
N1640 Y58.623
N1645 G3 X172.213 Y58.823 I-0.2 J0.
N1650 G1 X169.788 Y58.826
N1655 G3 X169.587 Y58.626 I0. J-0.2
N1660 G1 Y0.
N1665 Y-1.473
N1670 G3 X169.786 Y-1.673 I0.2 J0.
N1675 G1 X172.211 Y-1.686
N1680 G3 X172.412 Y-1.501 I0.001 J0.2
N1685 G1 Z-10. F11500.
N1690 X172.413 Y-1.476
N1695 Y57.15 F1500.
N1700 Y58.623
N1705 G3 X172.213 Y58.823 I-0.2 J0.
N1710 G1 X169.788 Y58.826
N1715 G3 X169.587 Y58.626 I0. J-0.2
N1720 G1 Y0.
N1725 Y-1.473
N1730 G3 X169.786 Y-1.673 I0.2 J0.
N1735 G1 X172.211 Y-1.686
N1740 G3 X172.412 Y-1.501 I0.001 J0.2
N1745 G1 Z-11.113 F11500.
N1750 X172.413 Y-1.476
N1755 Y57.15 F1500.
N1760 Y58.623
N1765 G3 X172.213 Y58.823 I-0.2 J0.
N1770 G1 X169.788 Y58.826
N1775 G3 X169.587 Y58.626 I0. J-0.2
N1780 G1 Y0.
N1785 Y-1.473
N1790 Z15.
N1795 X214.412 Y-1.501
N1800 Z5.
N1805 Z3.5 F11500.
N1810 Z-2.5
N1815 X214.413 Y-1.476
N1820 Y57.15 F1500.
N1825 Y58.623
N1830 G3 X214.213 Y58.823 I-0.2 J0.
N1835 G1 X211.788 Y58.826
N1840 G3 X211.587 Y58.626 I0. J-0.2
N1845 G1 Y0.
N1850 Y-1.473
N1855 G3 X211.786 Y-1.673 I0.2 J0.
N1860 G1 X214.211 Y-1.686
N1865 G3 X214.412 Y-1.501 I0.001 J0.2
N1870 G1 Z-5. F11500.
N1875 X214.413 Y-1.476
N1880 Y57.15 F1500.
N1885 Y58.623
N1890 G3 X214.213 Y58.823 I-0.2 J0.
N1895 G1 X211.788 Y58.826
N1900 G3 X211.587 Y58.626 I0. J-0.2
N1905 G1 Y0.
N1910 Y-1.473
N1915 G3 X211.786 Y-1.673 I0.2 J0.
N1920 G1 X214.211 Y-1.686
N1925 G3 X214.412 Y-1.501 I0.001 J0.2
N1930 G1 Z-7.5 F11500.
N1935 X214.413 Y-1.476
N1940 Y57.15 F1500.
N1945 Y58.623
N1950 G3 X214.213 Y58.823 I-0.2 J0.
N1955 G1 X211.788 Y58.826
N1960 G3 X211.587 Y58.626 I0. J-0.2
N1965 G1 Y0.
N1970 Y-1.473
N1975 G3 X211.786 Y-1.673 I0.2 J0.
N1980 G1 X214.211 Y-1.686
N1985 G3 X214.412 Y-1.501 I0.001 J0.2
N1990 G1 Z-10. F11500.
N1995 X214.413 Y-1.476
N2000 Y57.15 F1500.
N2005 Y58.623
N2010 G3 X214.213 Y58.823 I-0.2 J0.
N2015 G1 X211.788 Y58.826
N2020 G3 X211.587 Y58.626 I0. J-0.2
N2025 G1 Y0.
N2030 Y-1.473
N2035 G3 X211.786 Y-1.673 I0.2 J0.
N2040 G1 X214.211 Y-1.686
N2045 G3 X214.412 Y-1.501 I0.001 J0.2
N2050 G1 Z-11.113 F11500.
N2055 X214.413 Y-1.476
N2060 Y57.15 F1500.
N2065 Y58.623
N2070 G3 X214.213 Y58.823 I-0.2 J0.
N2075 G1 X211.788 Y58.826
N2080 G3 X211.587 Y58.626 I0. J-0.2
N2085 G1 Y0.
N2090 Y-1.473
N2095 Z15.
N2100 X256.412 Y-1.501
N2105 Z5.
N2110 Z3.5 F11500.
N2115 Z-2.5
N2120 X256.413 Y-1.476
N2125 Y57.15 F1500.
N2130 Y58.623
N2135 G3 X256.213 Y58.823 I-0.2 J0.
N2140 G1 X253.788 Y58.826
N2145 G3 X253.587 Y58.626 I0. J-0.2
N2150 G1 Y0.
N2155 Y-1.473
N2160 G3 X253.786 Y-1.673 I0.2 J0.
N2165 G1 X256.211 Y-1.686
N2170 G3 X256.412 Y-1.501 I0.001 J0.2
N2175 G1 Z-5. F11500.
N2180 X256.413 Y-1.476
N2185 Y57.15 F1500.
N2190 Y58.623
N2195 G3 X256.213 Y58.823 I-0.2 J0.
N2200 G1 X253.788 Y58.826
N2205 G3 X253.587 Y58.626 I0. J-0.2
N2210 G1 Y0.
N2215 Y-1.473
N2220 G3 X253.786 Y-1.673 I0.2 J0.
N2225 G1 X256.211 Y-1.686
N2230 G3 X256.412 Y-1.501 I0.001 J0.2
N2235 G1 Z-7.5 F11500.
N2240 X256.413 Y-1.476
N2245 Y57.15 F1500.
N2250 Y58.623
N2255 G3 X256.213 Y58.823 I-0.2 J0.
N2260 G1 X253.788 Y58.826
N2265 G3 X253.587 Y58.626 I0. J-0.2
N2270 G1 Y0.
N2275 Y-1.473
N2280 G3 X253.786 Y-1.673 I0.2 J0.
N2285 G1 X256.211 Y-1.686
N2290 G3 X256.412 Y-1.501 I0.001 J0.2
N2295 G1 Z-10. F11500.
N2300 X256.413 Y-1.476
N2305 Y57.15 F1500.
N2310 Y58.623
N2315 G3 X256.213 Y58.823 I-0.2 J0.
N2320 G1 X253.788 Y58.826
N2325 G3 X253.587 Y58.626 I0. J-0.2
N2330 G1 Y0.
N2335 Y-1.473
N2340 G3 X253.786 Y-1.673 I0.2 J0.
N2345 G1 X256.211 Y-1.686
N2350 G3 X256.412 Y-1.501 I0.001 J0.2
N2355 G1 Z-11.113 F11500.
N2360 X256.413 Y-1.476
N2365 Y57.15 F1500.
N2370 Y58.623
N2375 G3 X256.213 Y58.823 I-0.2 J0.
N2380 G1 X253.788 Y58.826
N2385 G3 X253.587 Y58.626 I0. J-0.2
N2390 G1 Y0.
N2395 Y-1.473
N2400 Z15.
N2405 X298.412 Y-1.501
N2410 Z5.
N2415 Z3.5 F11500.
N2420 Z-2.5
N2425 X298.413 Y-1.476
N2430 Y57.15 F1500.
N2435 Y58.623
N2440 G3 X298.213 Y58.823 I-0.2 J0.
N2445 G1 X295.788 Y58.826
N2450 G3 X295.587 Y58.626 I0. J-0.2
N2455 G1 Y0.
N2460 Y-1.473
N2465 G3 X295.786 Y-1.673 I0.2 J0.
N2470 G1 X298.211 Y-1.686
N2475 G3 X298.412 Y-1.501 I0.001 J0.2
N2480 G1 Z-5. F11500.
N2485 X298.413 Y-1.476
N2490 Y57.15 F1500.
N2495 Y58.623
N2500 G3 X298.213 Y58.823 I-0.2 J0.
N2505 G1 X295.788 Y58.826
N2510 G3 X295.587 Y58.626 I0. J-0.2
N2515 G1 Y0.
N2520 Y-1.473
N2525 G3 X295.786 Y-1.673 I0.2 J0.
N2530 G1 X298.211 Y-1.686
N2535 G3 X298.412 Y-1.501 I0.001 J0.2
N2540 G1 Z-7.5 F11500.
N2545 X298.413 Y-1.476
N2550 Y57.15 F1500.
N2555 Y58.623
N2560 G3 X298.213 Y58.823 I-0.2 J0.
N2565 G1 X295.788 Y58.826
N2570 G3 X295.587 Y58.626 I0. J-0.2
N2575 G1 Y0.
N2580 Y-1.473
N2585 G3 X295.786 Y-1.673 I0.2 J0.
N2590 G1 X298.211 Y-1.686
N2595 G3 X298.412 Y-1.501 I0.001 J0.2
N2600 G1 Z-10. F11500.
N2605 X298.413 Y-1.476
N2610 Y57.15 F1500.
N2615 Y58.623
N2620 G3 X298.213 Y58.823 I-0.2 J0.
N2625 G1 X295.788 Y58.826
N2630 G3 X295.587 Y58.626 I0. J-0.2
N2635 G1 Y0.
N2640 Y-1.473
N2645 G3 X295.786 Y-1.673 I0.2 J0.
N2650 G1 X298.211 Y-1.686
N2655 G3 X298.412 Y-1.501 I0.001 J0.2
N2660 G1 Z-11.113 F11500.
N2665 X298.413 Y-1.476
N2670 Y57.15 F1500.
N2675 Y58.623
N2680 G3 X298.213 Y58.823 I-0.2 J0.
N2685 G1 X295.788 Y58.826
N2690 G3 X295.587 Y58.626 I0. J-0.2
N2695 G1 Y0.
N2700 Y-1.473
N2705 Z15.
N2710 X340.412 Y-1.501
N2715 Z5.
N2720 Z3.5 F11500.
N2725 Z-2.5
N2730 X340.413 Y-1.476
N2735 Y57.15 F1500.
N2740 Y58.623
N2745 G3 X340.213 Y58.823 I-0.2 J0.
N2750 G1 X337.788 Y58.826
N2755 G3 X337.587 Y58.626 I0. J-0.2
N2760 G1 Y0.
N2765 Y-1.473
N2770 G3 X337.786 Y-1.673 I0.2 J0.
N2775 G1 X340.211 Y-1.686
N2780 G3 X340.412 Y-1.501 I0.001 J0.2
N2785 G1 Z-5. F11500.
N2790 X340.413 Y-1.476
N2795 Y57.15 F1500.
N2800 Y58.623
N2805 G3 X340.213 Y58.823 I-0.2 J0.
N2810 G1 X337.788 Y58.826
N2815 G3 X337.587 Y58.626 I0. J-0.2
N2820 G1 Y0.
N2825 Y-1.473
N2830 G3 X337.786 Y-1.673 I0.2 J0.
N2835 G1 X340.211 Y-1.686
N2840 G3 X340.412 Y-1.501 I0.001 J0.2
N2845 G1 Z-7.5 F11500.
N2850 X340.413 Y-1.476
N2855 Y57.15 F1500.
N2860 Y58.623
N2865 G3 X340.213 Y58.823 I-0.2 J0.
N2870 G1 X337.788 Y58.826
N2875 G3 X337.587 Y58.626 I0. J-0.2
N2880 G1 Y0.
N2885 Y-1.473
N2890 G3 X337.786 Y-1.673 I0.2 J0.
N2895 G1 X340.211 Y-1.686
N2900 G3 X340.412 Y-1.501 I0.001 J0.2
N2905 G1 Z-10. F11500.
N2910 X340.413 Y-1.476
N2915 Y57.15 F1500.
N2920 Y58.623
N2925 G3 X340.213 Y58.823 I-0.2 J0.
N2930 G1 X337.788 Y58.826
N2935 G3 X337.587 Y58.626 I0. J-0.2
N2940 G1 Y0.
N2945 Y-1.473
N2950 G3 X337.786 Y-1.673 I0.2 J0.
N2955 G1 X340.211 Y-1.686
N2960 G3 X340.412 Y-1.501 I0.001 J0.2
N2965 G1 Z-11.113 F11500.
N2970 X340.413 Y-1.476
N2975 Y57.15 F1500.
N2980 Y58.623
N2985 G3 X340.213 Y58.823 I-0.2 J0.
N2990 G1 X337.788 Y58.826
N2995 G3 X337.587 Y58.626 I0. J-0.2
N3000 G1 Y0.
N3005 Y-1.473
N3010 Z15.
N3015 X382.412 Y-1.501
N3020 Z5.
N3025 Z3.5 F11500.
N3030 Z-2.5
N3035 X382.413 Y-1.476
N3040 Y57.15 F1500.
N3045 Y58.623
N3050 G3 X382.213 Y58.823 I-0.2 J0.
N3055 G1 X379.788 Y58.826
N3060 G3 X379.587 Y58.626 I0. J-0.2
N3065 G1 Y0.
N3070 Y-1.473
N3075 G3 X379.786 Y-1.673 I0.2 J0.
N3080 G1 X382.211 Y-1.686
N3085 G3 X382.412 Y-1.501 I0.001 J0.2
N3090 G1 Z-5. F11500.
N3095 X382.413 Y-1.476
N3100 Y57.15 F1500.
N3105 Y58.623
N3110 G3 X382.213 Y58.823 I-0.2 J0.
N3115 G1 X379.788 Y58.826
N3120 G3 X379.587 Y58.626 I0. J-0.2
N3125 G1 Y0.
N3130 Y-1.473
N3135 G3 X379.786 Y-1.673 I0.2 J0.
N3140 G1 X382.211 Y-1.686
N3145 G3 X382.412 Y-1.501 I0.001 J0.2
N3150 G1 Z-7.5 F11500.
N3155 X382.413 Y-1.476
N3160 Y57.15 F1500.
N3165 Y58.623
N3170 G3 X382.213 Y58.823 I-0.2 J0.
N3175 G1 X379.788 Y58.826
N3180 G3 X379.587 Y58.626 I0. J-0.2
N3185 G1 Y0.
N3190 Y-1.473
N3195 G3 X379.786 Y-1.673 I0.2 J0.
N3200 G1 X382.211 Y-1.686
N3205 G3 X382.412 Y-1.501 I0.001 J0.2
N3210 G1 Z-10. F11500.
N3215 X382.413 Y-1.476
N3220 Y57.15 F1500.
N3225 Y58.623
N3230 G3 X382.213 Y58.823 I-0.2 J0.
N3235 G1 X379.788 Y58.826
N3240 G3 X379.587 Y58.626 I0. J-0.2
N3245 G1 Y0.
N3250 Y-1.473
N3255 G3 X379.786 Y-1.673 I0.2 J0.
N3260 G1 X382.211 Y-1.686
N3265 G3 X382.412 Y-1.501 I0.001 J0.2
N3270 G1 Z-11.113 F11500.
N3275 X382.413 Y-1.476
N3280 Y57.15 F1500.
N3285 Y58.623
N3290 G3 X382.213 Y58.823 I-0.2 J0.
N3295 G1 X379.788 Y58.826
N3300 G3 X379.587 Y58.626 I0. J-0.2
N3305 G1 Y0.
N3310 Y-1.473
N3315 Z15.
N3320 X424.412 Y-1.501
N3325 Z5.
N3330 Z3.5 F11500.
N3335 Z-2.5
N3340 X424.413 Y-1.476
N3345 Y57.15 F1500.
N3350 Y58.623
N3355 G3 X424.213 Y58.823 I-0.2 J0.
N3360 G1 X421.788 Y58.826
N3365 G3 X421.587 Y58.626 I0. J-0.2
N3370 G1 Y0.
N3375 Y-1.473
N3380 G3 X421.786 Y-1.673 I0.2 J0.
N3385 G1 X424.211 Y-1.686
N3390 G3 X424.412 Y-1.501 I0.001 J0.2
N3395 G1 Z-5. F11500.
N3400 X424.413 Y-1.476
N3405 Y57.15 F1500.
N3410 Y58.623
N3415 G3 X424.213 Y58.823 I-0.2 J0.
N3420 G1 X421.788 Y58.826
N3425 G3 X421.587 Y58.626 I0. J-0.2
N3430 G1 Y0.
N3435 Y-1.473
N3440 G3 X421.786 Y-1.673 I0.2 J0.
N3445 G1 X424.211 Y-1.686
N3450 G3 X424.412 Y-1.501 I0.001 J0.2
N3455 G1 Z-7.5 F11500.
N3460 X424.413 Y-1.476
N3465 Y57.15 F1500.
N3470 Y58.623
N3475 G3 X424.213 Y58.823 I-0.2 J0.
N3480 G1 X421.788 Y58.826
N3485 G3 X421.587 Y58.626 I0. J-0.2
N3490 G1 Y0.
N3495 Y-1.473
N3500 G3 X421.786 Y-1.673 I0.2 J0.
N3505 G1 X424.211 Y-1.686
N3510 G3 X424.412 Y-1.501 I0.001 J0.2
N3515 G1 Z-10. F11500.
N3520 X424.413 Y-1.476
N3525 Y57.15 F1500.
N3530 Y58.623
N3535 G3 X424.213 Y58.823 I-0.2 J0.
N3540 G1 X421.788 Y58.826
N3545 G3 X421.587 Y58.626 I0. J-0.2
N3550 G1 Y0.
N3555 Y-1.473
N3560 G3 X421.786 Y-1.673 I0.2 J0.
N3565 G1 X424.211 Y-1.686
N3570 G3 X424.412 Y-1.501 I0.001 J0.2
N3575 G1 Z-11.113 F11500.
N3580 X424.413 Y-1.476
N3585 Y57.15 F1500.
N3590 Y58.623
N3595 G3 X424.213 Y58.823 I-0.2 J0.
N3600 G1 X421.788 Y58.826
N3605 G3 X421.587 Y58.626 I0. J-0.2
N3610 G1 Y0.
N3615 Y-1.473
N3620 Z15.
N3625 X466.412 Y-1.501
N3630 Z5.
N3635 Z3.5 F11500.
N3640 Z-2.5
N3645 X466.413 Y-1.476
N3650 Y57.15 F1500.
N3655 Y58.623
N3660 G3 X466.213 Y58.823 I-0.2 J0.
N3665 G1 X463.788 Y58.826
N3670 G3 X463.587 Y58.626 I0. J-0.2
N3675 G1 Y0.
N3680 Y-1.473
N3685 G3 X463.786 Y-1.673 I0.2 J0.
N3690 G1 X466.211 Y-1.686
N3695 G3 X466.412 Y-1.501 I0.001 J0.2
N3700 G1 Z-5. F11500.
N3705 X466.413 Y-1.476
N3710 Y57.15 F1500.
N3715 Y58.623
N3720 G3 X466.213 Y58.823 I-0.2 J0.
N3725 G1 X463.788 Y58.826
N3730 G3 X463.587 Y58.626 I0. J-0.2
N3735 G1 Y0.
N3740 Y-1.473
N3745 G3 X463.786 Y-1.673 I0.2 J0.
N3750 G1 X466.211 Y-1.686
N3755 G3 X466.412 Y-1.501 I0.001 J0.2
N3760 G1 Z-7.5 F11500.
N3765 X466.413 Y-1.476
N3770 Y57.15 F1500.
N3775 Y58.623
N3780 G3 X466.213 Y58.823 I-0.2 J0.
N3785 G1 X463.788 Y58.826
N3790 G3 X463.587 Y58.626 I0. J-0.2
N3795 G1 Y0.
N3800 Y-1.473
N3805 G3 X463.786 Y-1.673 I0.2 J0.
N3810 G1 X466.211 Y-1.686
N3815 G3 X466.412 Y-1.501 I0.001 J0.2
N3820 G1 Z-10. F11500.
N3825 X466.413 Y-1.476
N3830 Y57.15 F1500.
N3835 Y58.623
N3840 G3 X466.213 Y58.823 I-0.2 J0.
N3845 G1 X463.788 Y58.826
N3850 G3 X463.587 Y58.626 I0. J-0.2
N3855 G1 Y0.
N3860 Y-1.473
N3865 G3 X463.786 Y-1.673 I0.2 J0.
N3870 G1 X466.211 Y-1.686
N3875 G3 X466.412 Y-1.501 I0.001 J0.2
N3880 G1 Z-11.113 F11500.
N3885 X466.413 Y-1.476
N3890 Y57.15 F1500.
N3895 Y58.623
N3900 G3 X466.213 Y58.823 I-0.2 J0.
N3905 G1 X463.788 Y58.826
N3910 G3 X463.587 Y58.626 I0. J-0.2
N3915 G1 Y0.
N3920 Y-1.473
N3925 Z15.
N3930 X508.412 Y-1.501
N3935 Z5.
N3940 Z3.5 F11500.
N3945 Z-2.5
N3950 X508.413 Y-1.476
N3955 Y57.15 F1500.
N3960 Y58.623
N3965 G3 X508.213 Y58.823 I-0.2 J0.
N3970 G1 X505.788 Y58.826
N3975 G3 X505.587 Y58.626 I0. J-0.2
N3980 G1 Y0.
N3985 Y-1.473
N3990 G3 X505.786 Y-1.673 I0.2 J0.
N3995 G1 X508.211 Y-1.686
N4000 G3 X508.412 Y-1.501 I0.001 J0.2
N4005 G1 Z-5. F11500.
N4010 X508.413 Y-1.476
N4015 Y57.15 F1500.
N4020 Y58.623
N4025 G3 X508.213 Y58.823 I-0.2 J0.
N4030 G1 X505.788 Y58.826
N4035 G3 X505.587 Y58.626 I0. J-0.2
N4040 G1 Y0.
N4045 Y-1.473
N4050 G3 X505.786 Y-1.673 I0.2 J0.
N4055 G1 X508.211 Y-1.686
N4060 G3 X508.412 Y-1.501 I0.001 J0.2
N4065 G1 Z-7.5 F11500.
N4070 X508.413 Y-1.476
N4075 Y57.15 F1500.
N4080 Y58.623
N4085 G3 X508.213 Y58.823 I-0.2 J0.
N4090 G1 X505.788 Y58.826
N4095 G3 X505.587 Y58.626 I0. J-0.2
N4100 G1 Y0.
N4105 Y-1.473
N4110 G3 X505.786 Y-1.673 I0.2 J0.
N4115 G1 X508.211 Y-1.686
N4120 G3 X508.412 Y-1.501 I0.001 J0.2
N4125 G1 Z-10. F11500.
N4130 X508.413 Y-1.476
N4135 Y57.15 F1500.
N4140 Y58.623
N4145 G3 X508.213 Y58.823 I-0.2 J0.
N4150 G1 X505.788 Y58.826
N4155 G3 X505.587 Y58.626 I0. J-0.2
N4160 G1 Y0.
N4165 Y-1.473
N4170 G3 X505.786 Y-1.673 I0.2 J0.
N4175 G1 X508.211 Y-1.686
N4180 G3 X508.412 Y-1.501 I0.001 J0.2
N4185 G1 Z-11.113 F11500.
N4190 X508.413 Y-1.476
N4195 Y57.15 F1500.
N4200 Y58.623
N4205 G3 X508.213 Y58.823 I-0.2 J0.
N4210 G1 X505.788 Y58.826
N4215 G3 X505.587 Y58.626 I0. J-0.2
N4220 G1 Y0.
N4225 Y-1.473
N4230 Z15.
N4235 X550.411 Y-1.501
N4240 Z5.
N4245 Z3.5 F11500.
N4250 Z-2.5
N4255 X550.412 Y-1.476
N4260 Y57.15 F1500.
N4265 Y58.623
N4270 G3 X550.213 Y58.823 I-0.2 J0.
N4275 G1 X547.788 Y58.826
N4280 G3 X547.588 Y58.626 I0. J-0.2
N4285 G1 Y0.
N4290 Y-1.473
N4295 G3 X547.786 Y-1.673 I0.2 J0.
N4300 G1 X550.211 Y-1.686
N4305 G3 X550.411 Y-1.501 I0.001 J0.2
N4310 G1 Z-5. F11500.
N4315 X550.412 Y-1.476
N4320 Y57.15 F1500.
N4325 Y58.623
N4330 G3 X550.213 Y58.823 I-0.2 J0.
N4335 G1 X547.788 Y58.826
N4340 G3 X547.588 Y58.626 I0. J-0.2
N4345 G1 Y0.
N4350 Y-1.473
N4355 G3 X547.786 Y-1.673 I0.2 J0.
N4360 G1 X550.211 Y-1.686
N4365 G3 X550.411 Y-1.501 I0.001 J0.2
N4370 G1 Z-7.5 F11500.
N4375 X550.412 Y-1.476
N4380 Y57.15 F1500.
N4385 Y58.623
N4390 G3 X550.213 Y58.823 I-0.2 J0.
N4395 G1 X547.788 Y58.826
N4400 G3 X547.588 Y58.626 I0. J-0.2
N4405 G1 Y0.
N4410 Y-1.473
N4415 G3 X547.786 Y-1.673 I0.2 J0.
N4420 G1 X550.211 Y-1.686
N4425 G3 X550.411 Y-1.501 I0.001 J0.2
N4430 G1 Z-10. F11500.
N4435 X550.412 Y-1.476
N4440 Y57.15 F1500.
N4445 Y58.623
N4450 G3 X550.213 Y58.823 I-0.2 J0.
N4455 G1 X547.788 Y58.826
N4460 G3 X547.588 Y58.626 I0. J-0.2
N4465 G1 Y0.
N4470 Y-1.473
N4475 G3 X547.786 Y-1.673 I0.2 J0.
N4480 G1 X550.211 Y-1.686
N4485 G3 X550.411 Y-1.501 I0.001 J0.2
N4490 G1 Z-11.113 F11500.
N4495 X550.412 Y-1.476
N4500 Y57.15 F1500.
N4505 Y58.623
N4510 G3 X550.213 Y58.823 I-0.2 J0.
N4515 G1 X547.788 Y58.826
N4520 G3 X547.588 Y58.626 I0. J-0.2
N4525 G1 Y0.
N4530 Y-1.473
N4535 Z15.
N4540 X592.411 Y-1.501
N4545 Z5.
N4550 Z3.5 F11500.
N4555 Z-2.5
N4560 X592.412 Y-1.476
N4565 Y57.15 F1500.
N4570 Y58.623
N4575 G3 X592.213 Y58.823 I-0.2 J0.
N4580 G1 X589.788 Y58.826
N4585 G3 X589.588 Y58.626 I0. J-0.2
N4590 G1 Y0.
N4595 Y-1.473
N4600 G3 X589.786 Y-1.673 I0.2 J0.
N4605 G1 X592.211 Y-1.686
N4610 G3 X592.411 Y-1.501 I0.001 J0.2
N4615 G1 Z-5. F11500.
N4620 X592.412 Y-1.476
N4625 Y57.15 F1500.
N4630 Y58.623
N4635 G3 X592.213 Y58.823 I-0.2 J0.
N4640 G1 X589.788 Y58.826
N4645 G3 X589.588 Y58.626 I0. J-0.2
N4650 G1 Y0.
N4655 Y-1.473
N4660 G3 X589.786 Y-1.673 I0.2 J0.
N4665 G1 X592.211 Y-1.686
N4670 G3 X592.411 Y-1.501 I0.001 J0.2
N4675 G1 Z-7.5 F11500.
N4680 X592.412 Y-1.476
N4685 Y57.15 F1500.
N4690 Y58.623
N4695 G3 X592.213 Y58.823 I-0.2 J0.
N4700 G1 X589.788 Y58.826
N4705 G3 X589.588 Y58.626 I0. J-0.2
N4710 G1 Y0.
N4715 Y-1.473
N4720 G3 X589.786 Y-1.673 I0.2 J0.
N4725 G1 X592.211 Y-1.686
N4730 G3 X592.411 Y-1.501 I0.001 J0.2
N4735 G1 Z-10. F11500.
N4740 X592.412 Y-1.476
N4745 Y57.15 F1500.
N4750 Y58.623
N4755 G3 X592.213 Y58.823 I-0.2 J0.
N4760 G1 X589.788 Y58.826
N4765 G3 X589.588 Y58.626 I0. J-0.2
N4770 G1 Y0.
N4775 Y-1.473
N4780 G3 X589.786 Y-1.673 I0.2 J0.
N4785 G1 X592.211 Y-1.686
N4790 G3 X592.411 Y-1.501 I0.001 J0.2
N4795 G1 Z-11.113 F11500.
N4800 X592.412 Y-1.476
N4805 Y57.15 F1500.
N4810 Y58.623
N4815 G3 X592.213 Y58.823 I-0.2 J0.
N4820 G1 X589.788 Y58.826
N4825 G3 X589.588 Y58.626 I0. J-0.2
N4830 G1 Y0.
N4835 Y-1.473
N4840 Z15.
N4845 X634.411 Y-1.501
N4850 Z5.
N4855 Z3.5 F11500.
N4860 Z-2.5
N4865 X634.412 Y-1.476
N4870 Y57.15 F1500.
N4875 Y58.623
N4880 G3 X634.213 Y58.823 I-0.2 J0.
N4885 G1 X631.788 Y58.826
N4890 G3 X631.588 Y58.626 I0. J-0.2
N4895 G1 Y0.
N4900 Y-1.473
N4905 G3 X631.786 Y-1.673 I0.2 J0.
N4910 G1 X634.211 Y-1.686
N4915 G3 X634.411 Y-1.501 I0.001 J0.2
N4920 G1 Z-5. F11500.
N4925 X634.412 Y-1.476
N4930 Y57.15 F1500.
N4935 Y58.623
N4940 G3 X634.213 Y58.823 I-0.2 J0.
N4945 G1 X631.788 Y58.826
N4950 G3 X631.588 Y58.626 I0. J-0.2
N4955 G1 Y0.
N4960 Y-1.473
N4965 G3 X631.786 Y-1.673 I0.2 J0.
N4970 G1 X634.211 Y-1.686
N4975 G3 X634.411 Y-1.501 I0.001 J0.2
N4980 G1 Z-7.5 F11500.
N4985 X634.412 Y-1.476
N4990 Y57.15 F1500.
N4995 Y58.623
N5000 G3 X634.213 Y58.823 I-0.2 J0.
N5005 G1 X631.788 Y58.826
N5010 G3 X631.588 Y58.626 I0. J-0.2
N5015 G1 Y0.
N5020 Y-1.473
N5025 G3 X631.786 Y-1.673 I0.2 J0.
N5030 G1 X634.211 Y-1.686
N5035 G3 X634.411 Y-1.501 I0.001 J0.2
N5040 G1 Z-10. F11500.
N5045 X634.412 Y-1.476
N5050 Y57.15 F1500.
N5055 Y58.623
N5060 G3 X634.213 Y58.823 I-0.2 J0.
N5065 G1 X631.788 Y58.826
N5070 G3 X631.588 Y58.626 I0. J-0.2
N5075 G1 Y0.
N5080 Y-1.473
N5085 G3 X631.786 Y-1.673 I0.2 J0.
N5090 G1 X634.211 Y-1.686
N5095 G3 X634.411 Y-1.501 I0.001 J0.2
N5100 G1 Z-11.113 F11500.
N5105 X634.412 Y-1.476
N5110 Y57.15 F1500.
N5115 Y58.623
N5120 G3 X634.213 Y58.823 I-0.2 J0.
N5125 G1 X631.788 Y58.826
N5130 G3 X631.588 Y58.626 I0. J-0.2
N5135 G1 Y0.
N5140 Y-1.473
N5145 Z15.
N5150 X676.411 Y-1.501
N5155 Z5.
N5160 Z3.5 F11500.
N5165 Z-2.5
N5170 X676.412 Y-1.476
N5175 Y57.15 F1500.
N5180 Y58.623
N5185 G3 X676.213 Y58.823 I-0.2 J0.
N5190 G1 X673.788 Y58.826
N5195 G3 X673.588 Y58.626 I0. J-0.2
N5200 G1 Y0.
N5205 Y-1.473
N5210 G3 X673.786 Y-1.673 I0.2 J0.
N5215 G1 X676.211 Y-1.686
N5220 G3 X676.411 Y-1.501 I0.001 J0.2
N5225 G1 Z-5. F11500.
N5230 X676.412 Y-1.476
N5235 Y57.15 F1500.
N5240 Y58.623
N5245 G3 X676.213 Y58.823 I-0.2 J0.
N5250 G1 X673.788 Y58.826
N5255 G3 X673.588 Y58.626 I0. J-0.2
N5260 G1 Y0.
N5265 Y-1.473
N5270 G3 X673.786 Y-1.673 I0.2 J0.
N5275 G1 X676.211 Y-1.686
N5280 G3 X676.411 Y-1.501 I0.001 J0.2
N5285 G1 Z-7.5 F11500.
N5290 X676.412 Y-1.476
N5295 Y57.15 F1500.
N5300 Y58.623
N5305 G3 X676.213 Y58.823 I-0.2 J0.
N5310 G1 X673.788 Y58.826
N5315 G3 X673.588 Y58.626 I0. J-0.2
N5320 G1 Y0.
N5325 Y-1.473
N5330 G3 X673.786 Y-1.673 I0.2 J0.
N5335 G1 X676.211 Y-1.686
N5340 G3 X676.411 Y-1.501 I0.001 J0.2
N5345 G1 Z-10. F11500.
N5350 X676.412 Y-1.476
N5355 Y57.15 F1500.
N5360 Y58.623
N5365 G3 X676.213 Y58.823 I-0.2 J0.
N5370 G1 X673.788 Y58.826
N5375 G3 X673.588 Y58.626 I0. J-0.2
N5380 G1 Y0.
N5385 Y-1.473
N5390 G3 X673.786 Y-1.673 I0.2 J0.
N5395 G1 X676.211 Y-1.686
N5400 G3 X676.411 Y-1.501 I0.001 J0.2
N5405 G1 Z-11.113 F11500.
N5410 X676.412 Y-1.476
N5415 Y57.15 F1500.
N5420 Y58.623
N5425 G3 X676.213 Y58.823 I-0.2 J0.
N5430 G1 X673.788 Y58.826
N5435 G3 X673.588 Y58.626 I0. J-0.2
N5440 G1 Y0.
N5445 Y-1.473
N5450 Z15.
N5455 X718.411 Y-1.501
N5460 Z5.
N5465 Z3.5 F11500.
N5470 Z-2.5
N5475 X718.412 Y-1.476
N5480 Y57.15 F1500.
N5485 Y58.623
N5490 G3 X718.213 Y58.823 I-0.2 J0.
N5495 G1 X715.788 Y58.826
N5500 G3 X715.588 Y58.626 I0. J-0.2
N5505 G1 Y0.
N5510 Y-1.473
N5515 G3 X715.786 Y-1.673 I0.2 J0.
N5520 G1 X718.211 Y-1.686
N5525 G3 X718.411 Y-1.501 I0.001 J0.2
N5530 G1 Z-5. F11500.
N5535 X718.412 Y-1.476
N5540 Y57.15 F1500.
N5545 Y58.623
N5550 G3 X718.213 Y58.823 I-0.2 J0.
N5555 G1 X715.788 Y58.826
N5560 G3 X715.588 Y58.626 I0. J-0.2
N5565 G1 Y0.
N5570 Y-1.473
N5575 G3 X715.786 Y-1.673 I0.2 J0.
N5580 G1 X718.211 Y-1.686
N5585 G3 X718.411 Y-1.501 I0.001 J0.2
N5590 G1 Z-7.5 F11500.
N5595 X718.412 Y-1.476
N5600 Y57.15 F1500.
N5605 Y58.623
N5610 G3 X718.213 Y58.823 I-0.2 J0.
N5615 G1 X715.788 Y58.826
N5620 G3 X715.588 Y58.626 I0. J-0.2
N5625 G1 Y0.
N5630 Y-1.473
N5635 G3 X715.786 Y-1.673 I0.2 J0.
N5640 G1 X718.211 Y-1.686
N5645 G3 X718.411 Y-1.501 I0.001 J0.2
N5650 G1 Z-10. F11500.
N5655 X718.412 Y-1.476
N5660 Y57.15 F1500.
N5665 Y58.623
N5670 G3 X718.213 Y58.823 I-0.2 J0.
N5675 G1 X715.788 Y58.826
N5680 G3 X715.588 Y58.626 I0. J-0.2
N5685 G1 Y0.
N5690 Y-1.473
N5695 G3 X715.786 Y-1.673 I0.2 J0.
N5700 G1 X718.211 Y-1.686
N5705 G3 X718.411 Y-1.501 I0.001 J0.2
N5710 G1 Z-11.113 F11500.
N5715 X718.412 Y-1.476
N5720 Y57.15 F1500.
N5725 Y58.623
N5730 G3 X718.213 Y58.823 I-0.2 J0.
N5735 G1 X715.788 Y58.826
N5740 G3 X715.588 Y58.626 I0. J-0.2
N5745 G1 Y0.
N5750 Y-1.473
N5755 Z15.
N5760 X760.411 Y-1.501
N5765 Z5.
N5770 Z3.5 F11500.
N5775 Z-2.5
N5780 X760.412 Y-1.476
N5785 Y57.15 F1500.
N5790 Y58.623
N5795 G3 X760.213 Y58.823 I-0.2 J0.
N5800 G1 X757.788 Y58.826
N5805 G3 X757.588 Y58.626 I0. J-0.2
N5810 G1 Y0.
N5815 Y-1.473
N5820 G3 X757.786 Y-1.673 I0.2 J0.
N5825 G1 X760.211 Y-1.686
N5830 G3 X760.411 Y-1.501 I0.001 J0.2
N5835 G1 Z-5. F11500.
N5840 X760.412 Y-1.476
N5845 Y57.15 F1500.
N5850 Y58.623
N5855 G3 X760.213 Y58.823 I-0.2 J0.
N5860 G1 X757.788 Y58.826
N5865 G3 X757.588 Y58.626 I0. J-0.2
N5870 G1 Y0.
N5875 Y-1.473
N5880 G3 X757.786 Y-1.673 I0.2 J0.
N5885 G1 X760.211 Y-1.686
N5890 G3 X760.411 Y-1.501 I0.001 J0.2
N5895 G1 Z-7.5 F11500.
N5900 X760.412 Y-1.476
N5905 Y57.15 F1500.
N5910 Y58.623
N5915 G3 X760.213 Y58.823 I-0.2 J0.
N5920 G1 X757.788 Y58.826
N5925 G3 X757.588 Y58.626 I0. J-0.2
N5930 G1 Y0.
N5935 Y-1.473
N5940 G3 X757.786 Y-1.673 I0.2 J0.
N5945 G1 X760.211 Y-1.686
N5950 G3 X760.411 Y-1.501 I0.001 J0.2
N5955 G1 Z-10. F11500.
N5960 X760.412 Y-1.476
N5965 Y57.15 F1500.
N5970 Y58.623
N5975 G3 X760.213 Y58.823 I-0.2 J0.
N5980 G1 X757.788 Y58.826
N5985 G3 X757.588 Y58.626 I0. J-0.2
N5990 G1 Y0.
N5995 Y-1.473
N6000 G3 X757.786 Y-1.673 I0.2 J0.
N6005 G1 X760.211 Y-1.686
N6010 G3 X760.411 Y-1.501 I0.001 J0.2
N6015 G1 Z-11.113 F11500.
N6020 X760.412 Y-1.476
N6025 Y57.15 F1500.
N6030 Y58.623
N6035 G3 X760.213 Y58.823 I-0.2 J0.
N6040 G1 X757.788 Y58.826
N6045 G3 X757.588 Y58.626 I0. J-0.2
N6050 G1 Y0.
N6055 Y-1.473
N6060 Z15.
N6065 X802.411 Y-1.501
N6070 Z5.
N6075 Z3.5 F11500.
N6080 Z-2.5
N6085 X802.412 Y-1.476
N6090 Y57.15 F1500.
N6095 Y58.623
N6100 G3 X802.213 Y58.823 I-0.2 J0.
N6105 G1 X799.788 Y58.826
N6110 G3 X799.588 Y58.626 I0. J-0.2
N6115 G1 Y0.
N6120 Y-1.473
N6125 G3 X799.786 Y-1.673 I0.2 J0.
N6130 G1 X802.211 Y-1.686
N6135 G3 X802.411 Y-1.501 I0.001 J0.2
N6140 G1 Z-5. F11500.
N6145 X802.412 Y-1.476
N6150 Y57.15 F1500.
N6155 Y58.623
N6160 G3 X802.213 Y58.823 I-0.2 J0.
N6165 G1 X799.788 Y58.826
N6170 G3 X799.588 Y58.626 I0. J-0.2
N6175 G1 Y0.
N6180 Y-1.473
N6185 G3 X799.786 Y-1.673 I0.2 J0.
N6190 G1 X802.211 Y-1.686
N6195 G3 X802.411 Y-1.501 I0.001 J0.2
N6200 G1 Z-7.5 F11500.
N6205 X802.412 Y-1.476
N6210 Y57.15 F1500.
N6215 Y58.623
N6220 G3 X802.213 Y58.823 I-0.2 J0.
N6225 G1 X799.788 Y58.826
N6230 G3 X799.588 Y58.626 I0. J-0.2
N6235 G1 Y0.
N6240 Y-1.473
N6245 G3 X799.786 Y-1.673 I0.2 J0.
N6250 G1 X802.211 Y-1.686
N6255 G3 X802.411 Y-1.501 I0.001 J0.2
N6260 G1 Z-10. F11500.
N6265 X802.412 Y-1.476
N6270 Y57.15 F1500.
N6275 Y58.623
N6280 G3 X802.213 Y58.823 I-0.2 J0.
N6285 G1 X799.788 Y58.826
N6290 G3 X799.588 Y58.626 I0. J-0.2
N6295 G1 Y0.
N6300 Y-1.473
N6305 G3 X799.786 Y-1.673 I0.2 J0.
N6310 G1 X802.211 Y-1.686
N6315 G3 X802.411 Y-1.501 I0.001 J0.2
N6320 G1 Z-11.113 F11500.
N6325 X802.412 Y-1.476
N6330 Y57.15 F1500.
N6335 Y58.623
N6340 G3 X802.213 Y58.823 I-0.2 J0.
N6345 G1 X799.788 Y58.826
N6350 G3 X799.588 Y58.626 I0. J-0.2
N6355 G1 Y0.
N6360 Y-1.473
N6365 Z15.
N6370 X844.411 Y-1.501
N6375 Z5.
N6380 Z3.5 F11500.
N6385 Z-2.5
N6390 X844.412 Y-1.476
N6395 Y57.15 F1500.
N6400 Y58.623
N6405 G3 X844.213 Y58.823 I-0.2 J0.
N6410 G1 X841.788 Y58.826
N6415 G3 X841.588 Y58.626 I0. J-0.2
N6420 G1 Y0.
N6425 Y-1.473
N6430 G3 X841.786 Y-1.673 I0.2 J0.
N6435 G1 X844.211 Y-1.686
N6440 G3 X844.411 Y-1.501 I0.001 J0.2
N6445 G1 Z-5. F11500.
N6450 X844.412 Y-1.476
N6455 Y57.15 F1500.
N6460 Y58.623
N6465 G3 X844.213 Y58.823 I-0.2 J0.
N6470 G1 X841.788 Y58.826
N6475 G3 X841.588 Y58.626 I0. J-0.2
N6480 G1 Y0.
N6485 Y-1.473
N6490 G3 X841.786 Y-1.673 I0.2 J0.
N6495 G1 X844.211 Y-1.686
N6500 G3 X844.411 Y-1.501 I0.001 J0.2
N6505 G1 Z-7.5 F11500.
N6510 X844.412 Y-1.476
N6515 Y57.15 F1500.
N6520 Y58.623
N6525 G3 X844.213 Y58.823 I-0.2 J0.
N6530 G1 X841.788 Y58.826
N6535 G3 X841.588 Y58.626 I0. J-0.2
N6540 G1 Y0.
N6545 Y-1.473
N6550 G3 X841.786 Y-1.673 I0.2 J0.
N6555 G1 X844.211 Y-1.686
N6560 G3 X844.411 Y-1.501 I0.001 J0.2
N6565 G1 Z-10. F11500.
N6570 X844.412 Y-1.476
N6575 Y57.15 F1500.
N6580 Y58.623
N6585 G3 X844.213 Y58.823 I-0.2 J0.
N6590 G1 X841.788 Y58.826
N6595 G3 X841.588 Y58.626 I0. J-0.2
N6600 G1 Y0.
N6605 Y-1.473
N6610 G3 X841.786 Y-1.673 I0.2 J0.
N6615 G1 X844.211 Y-1.686
N6620 G3 X844.411 Y-1.501 I0.001 J0.2
N6625 G1 Z-11.113 F11500.
N6630 X844.412 Y-1.476
N6635 Y57.15 F1500.
N6640 Y58.623
N6645 G3 X844.213 Y58.823 I-0.2 J0.
N6650 G1 X841.788 Y58.826
N6655 G3 X841.588 Y58.626 I0. J-0.2
N6660 G1 Y0.
N6665 Y-1.473
N6670 Z15.
N6675 X886.411 Y-1.501
N6680 Z5.
N6685 Z3.5 F11500.
N6690 Z-2.5
N6695 X886.412 Y-1.476
N6700 Y57.15 F1500.
N6705 Y58.623
N6710 G3 X886.213 Y58.823 I-0.2 J0.
N6715 G1 X883.788 Y58.826
N6720 G3 X883.588 Y58.626 I0. J-0.2
N6725 G1 Y0.
N6730 Y-1.473
N6735 G3 X883.786 Y-1.673 I0.2 J0.
N6740 G1 X886.211 Y-1.686
N6745 G3 X886.411 Y-1.501 I0.001 J0.2
N6750 G1 Z-5. F11500.
N6755 X886.412 Y-1.476
N6760 Y57.15 F1500.
N6765 Y58.623
N6770 G3 X886.213 Y58.823 I-0.2 J0.
N6775 G1 X883.788 Y58.826
N6780 G3 X883.588 Y58.626 I0. J-0.2
N6785 G1 Y0.
N6790 Y-1.473
N6795 G3 X883.786 Y-1.673 I0.2 J0.
N6800 G1 X886.211 Y-1.686
N6805 G3 X886.411 Y-1.501 I0.001 J0.2
N6810 G1 Z-7.5 F11500.
N6815 X886.412 Y-1.476
N6820 Y57.15 F1500.
N6825 Y58.623
N6830 G3 X886.213 Y58.823 I-0.2 J0.
N6835 G1 X883.788 Y58.826
N6840 G3 X883.588 Y58.626 I0. J-0.2
N6845 G1 Y0.
N6850 Y-1.473
N6855 G3 X883.786 Y-1.673 I0.2 J0.
N6860 G1 X886.211 Y-1.686
N6865 G3 X886.411 Y-1.501 I0.001 J0.2
N6870 G1 Z-10. F11500.
N6875 X886.412 Y-1.476
N6880 Y57.15 F1500.
N6885 Y58.623
N6890 G3 X886.213 Y58.823 I-0.2 J0.
N6895 G1 X883.788 Y58.826
N6900 G3 X883.588 Y58.626 I0. J-0.2
N6905 G1 Y0.
N6910 Y-1.473
N6915 G3 X883.786 Y-1.673 I0.2 J0.
N6920 G1 X886.211 Y-1.686
N6925 G3 X886.411 Y-1.501 I0.001 J0.2
N6930 G1 Z-11.113 F11500.
N6935 X886.412 Y-1.476
N6940 Y57.15 F1500.
N6945 Y58.623
N6950 G3 X886.213 Y58.823 I-0.2 J0.
N6955 G1 X883.788 Y58.826
N6960 G3 X883.588 Y58.626 I0. J-0.2
N6965 G1 Y0.
N6970 Y-1.473
N6975 Z15.
N6980 X927.777 Y58.463
N6985 Z5.
N6990 Z3.5 F11500.
N6995 Z-2.5
N7000 Y58.451
N7005 Y-1.299 F1500.
N7010 Y-1.312 F11500.
N7015 Z5. F1500.
N7020 X925.235 Y58.649
N7025 Z3.5 F11500.
N7030 Z-2.5
N7035 Y58.636
N7040 Y-1.478 F1500.
N7045 Y-3.065 F11500.
N7050 Z5. F1500.
N7055 X922.688 Y58.651
N7060 Z3.5 F11500.
N7065 Z-2.5
N7070 Y58.626
N7075 Y0. F1500.
N7080 Y-1.473
N7085 Z5.
N7090 X927.777 Y58.463
N7095 Z1. F11500.
N7100 Z-5.
N7105 Y58.451
N7110 Y-1.299 F1500.
N7115 Y-1.312 F11500.
N7120 Z5. F1500.
N7125 X925.235 Y58.649
N7130 Z1. F11500.
N7135 Z-5.
N7140 Y58.636
N7145 Y-1.478 F1500.
N7150 Y-3.065 F11500.
N7155 Z5. F1500.
N7160 X922.688 Y58.651
N7165 Z1. F11500.
N7170 Z-5.
N7175 Y58.626
N7180 Y0. F1500.
N7185 Y-1.473
N7190 Z5.
N7195 X927.777 Y58.463
N7200 Z-1.5 F11500.
N7205 Z-7.5
N7210 Y58.451
N7215 Y-1.299 F1500.
N7220 Y-1.312 F11500.
N7225 Z5. F1500.
N7230 X925.235 Y58.649
N7235 Z-1.5 F11500.
N7240 Z-7.5
N7245 Y58.636
N7250 Y-1.478 F1500.
N7255 Y-3.065 F11500.
N7260 Z5. F1500.
N7265 X922.688 Y58.651
N7270 Z-1.5 F11500.
N7275 Z-7.5
N7280 Y58.626
N7285 Y0. F1500.
N7290 Y-1.473
N7295 Z5.
N7300 X927.777 Y58.463
N7305 Z-4. F11500.
N7310 Z-10.
N7315 Y58.451
N7320 Y-1.299 F1500.
N7325 Y-1.312 F11500.
N7330 Z5. F1500.
N7335 X925.235 Y58.649
N7340 Z-4. F11500.
N7345 Z-10.
N7350 Y58.636
N7355 Y-1.478 F1500.
N7360 Y-3.065 F11500.
N7365 Z5. F1500.
N7370 X922.688 Y58.651
N7375 Z-4. F11500.
N7380 Z-10.
N7385 Y58.626
N7390 Y0. F1500.
N7395 Y-1.473
N7400 Z5.
N7405 X927.777 Y58.463
N7410 Z-6.5 F11500.
N7415 Z-11.113
N7420 Y58.451
N7425 Y-1.299 F1500.
N7430 Y-1.312 F11500.
N7435 Z5. F1500.
N7440 X925.235 Y58.649
N7445 Z-6.5 F11500.
N7450 Z-11.113
N7455 Y58.636
N7460 Y-1.478 F1500.
N7465 Y-3.065 F11500.
N7470 Z5. F1500.
N7475 X922.688 Y58.651
N7480 Z-6.5 F11500.
N7485 Z-11.113
N7490 Y58.626
N7495 Y0. F1500.
N7500 Y-1.473
N7505 Z15.
N7510 G53 G0 Z0.
N7515 M30
%
