%
(POWERT_ALL.NGC)
(T1  D=3.175 CR=0. - ZMIN=-17.44 - FLAT END MILL)
N10 G90 G94 G17 G91.1
N15 G21
(WHEN USING FUSION 360 FOR PERSONAL USE, THE FEEDRATE OF)
(RAPID MOVES IS REDUCED TO MATCH THE FEEDRATE OF CUTTING)
(MOVES, WHICH CAN INCREASE MACHINING TIME. UNRESTRICTED RAPID)
(MOVES ARE AVAILABLE WITH A FUSION 360 SUBSCRIPTION.)
N20 G53 G0 Z0.
(2D POCKET1)
N25 T1 M6
N30 S5000 M3
N35 G54
N40 G64 P0.1 Q0.1
N45 G0 X50.585 Y-118.22
N50 G43 Z15. H1
N55 G1 Z5. F2500.
N60 Z3.5 F833.33
N65 Z-2.5
N70 G2 X57.512 Y-126.918 I-1.998 J-8.698 F2500.
N75 G1 Y-135.646
N80 G2 X48.587 Y-144.57 I-8.925 J0.
N85 G1 X-49.067
N90 G2 X-57.992 Y-135.646 I0. J8.925
N95 G1 Y-126.918
N100 G2 X-51.065 Y-118.22 I8.925 J0.
N105 G3 X-23.492 Y-83.596 I-7.952 J34.624
N110 G1 Y21.583
N115 G3 X-46.317 Y44.408 I-22.825 J0.
N120 G1 X-58.517
N125 G3 X-92.501 Y19.233 I0. J-35.525
N130 G2 X-101.039 Y12.908 I-8.538 J2.6
N135 G1 X-110.567
N140 G2 X-119.493 Y21.833 I0. J8.925
N145 G1 Y78.614
N150 G2 X-104.217 Y93.889 I15.275 J0.
N155 G1 X103.705
N160 G2 X118.98 Y78.614 I0. J-15.275
N165 G1 Y21.805
N170 G2 X110.055 Y12.88 I-8.925 J0.
N175 G1 X100.505
N180 G2 X91.967 Y19.205 I0. J8.925
N185 G3 X57.983 Y44.38 I-33.984 J-10.35
N190 G1 X45.837
N195 G3 X23.012 Y21.555 I0. J-22.825
N200 G1 Y-83.596
N205 G3 X50.585 Y-118.22 I35.525 J0.
N210 G1 X50.703 Y-118.248 Z-2.476
N215 X50.803 Y-118.273 Z-2.407
N220 X50.87 Y-118.29 Z-2.304
N225 X50.893 Y-118.296 Z-2.183
N230 Z3.5
N235 X51.303 Y-116.289
N240 Z-2.183 F833.33
N245 X51.294 Y-116.267 Z-2.304
N250 X51.259 Y-116.208 Z-2.407
N255 X51.225 Y-116.169 Z-2.441
N260 X51.185 Y-116.136 Z-2.476
N265 X51.132 Y-116.106 Z-2.488
N270 X51.075 Y-116.087 Z-2.5
N275 G2 X25.2 Y-83.596 I7.463 J32.491 F2500.
N280 G1 Y21.555
N285 G2 X45.837 Y42.193 I20.637 J0.
N290 G1 X57.983
N295 G2 X89.874 Y18.568 I0. J-33.338
N300 G3 X100.505 Y10.693 I10.631 J3.238
N305 G1 X110.055
N310 G3 X121.168 Y21.805 I0. J11.113
N315 G1 Y78.614
N320 G3 X103.705 Y96.076 I-17.463 J0.
N325 G1 X-104.217
N330 G3 X-121.679 Y78.614 I0. J-17.463
N335 G1 Y21.833
N340 G3 X-110.567 Y10.72 I11.112 J0.
N345 G1 X-101.039
N350 G3 X-90.409 Y18.595 I0. J11.112
N355 G2 X-58.517 Y42.22 I31.891 J-9.712
N360 G1 X-46.317
N365 G2 X-25.68 Y21.583 I0. J-20.637
N370 G1 Y-83.596
N375 G2 X-51.555 Y-116.087 I-33.337 J0.
N380 G3 X-60.18 Y-126.918 I2.488 J-10.831
N385 G1 Y-135.646
N390 G3 X-49.067 Y-146.758 I11.112 J0.
N395 G1 X48.587
N400 G3 X59.7 Y-135.646 I0. J11.113
N405 G1 Y-126.918
N410 G3 X51.075 Y-116.087 I-11.113 J0.
N415 G1 X51.054 Y-116.089
N420 X51.038 Y-116.102
N425 X51.033 Y-116.122
N430 X51.04 Y-116.142
N435 X51.129 Y-116.256
N440 X51.253 Y-116.33
N445 X51.273 Y-116.335
N450 X51.292 Y-116.327
N455 X51.303 Y-116.31
N460 Y-116.289
N465 Z-3.683 F833.33
N470 X51.294 Y-116.267 Z-3.804
N475 X51.259 Y-116.208 Z-3.907
N480 X51.225 Y-116.169 Z-3.941
N485 X51.185 Y-116.136 Z-3.976
N490 X51.132 Y-116.106 Z-3.988
N495 X51.075 Y-116.087 Z-4.
N500 G2 X25.2 Y-83.596 I7.463 J32.491 F2500.
N505 G1 Y21.555
N510 G2 X45.837 Y42.193 I20.637 J0.
N515 G1 X57.983
N520 G2 X89.874 Y18.568 I0. J-33.338
N525 G3 X100.505 Y10.693 I10.631 J3.238
N530 G1 X110.055
N535 G3 X121.168 Y21.805 I0. J11.113
N540 G1 Y78.614
N545 G3 X103.705 Y96.076 I-17.463 J0.
N550 G1 X-104.217
N555 G3 X-121.679 Y78.614 I0. J-17.463
N560 G1 Y21.833
N565 G3 X-110.567 Y10.72 I11.112 J0.
N570 G1 X-101.039
N575 G3 X-90.409 Y18.595 I0. J11.112
N580 G2 X-58.517 Y42.22 I31.891 J-9.712
N585 G1 X-46.317
N590 G2 X-25.68 Y21.583 I0. J-20.637
N595 G1 Y-83.596
N600 G2 X-51.555 Y-116.087 I-33.337 J0.
N605 G3 X-60.18 Y-126.918 I2.488 J-10.831
N610 G1 Y-135.646
N615 G3 X-49.067 Y-146.758 I11.112 J0.
N620 G1 X48.587
N625 G3 X59.7 Y-135.646 I0. J11.113
N630 G1 Y-126.918
N635 G3 X51.075 Y-116.087 I-11.113 J0.
N640 X50.835 Y-116.237 I-0.045 J-0.195
N645 G1 X50.435 Y-117.98
N650 G3 X50.585 Y-118.22 I0.195 J-0.045
N655 G2 X57.512 Y-126.918 I-1.998 J-8.698
N660 G1 Y-135.646
N665 G2 X48.587 Y-144.57 I-8.925 J0.
N670 G1 X-49.067
N675 G2 X-57.992 Y-135.646 I0. J8.925
N680 G1 Y-126.918
N685 G2 X-51.065 Y-118.22 I8.925 J0.
N690 G3 X-23.492 Y-83.596 I-7.952 J34.624
N695 G1 Y21.583
N700 G3 X-46.317 Y44.408 I-22.825 J0.
N705 G1 X-58.517
N710 G3 X-92.501 Y19.233 I0. J-35.525
N715 G2 X-101.039 Y12.908 I-8.538 J2.6
N720 G1 X-110.567
N725 G2 X-119.493 Y21.833 I0. J8.925
N730 G1 Y78.614
N735 G2 X-104.217 Y93.889 I15.275 J0.
N740 G1 X103.705
N745 G2 X118.98 Y78.614 I0. J-15.275
N750 G1 Y21.805
N755 G2 X110.055 Y12.88 I-8.925 J0.
N760 G1 X100.505
N765 G2 X91.967 Y19.205 I0. J8.925
N770 G3 X57.983 Y44.38 I-33.984 J-10.35
N775 G1 X45.837
N780 G3 X23.012 Y21.555 I0. J-22.825
N785 G1 Y-83.596
N790 G3 X50.585 Y-118.22 I35.525 J0.
N795 G1 Z-5.5 F833.33
N800 G2 X57.512 Y-126.918 I-1.998 J-8.698 F2500.
N805 G1 Y-135.646
N810 G2 X48.587 Y-144.57 I-8.925 J0.
N815 G1 X-49.067
N820 G2 X-57.992 Y-135.646 I0. J8.925
N825 G1 Y-126.918
N830 G2 X-51.065 Y-118.22 I8.925 J0.
N835 G3 X-23.492 Y-83.596 I-7.952 J34.624
N840 G1 Y21.583
N845 G3 X-46.317 Y44.408 I-22.825 J0.
N850 G1 X-58.517
N855 G3 X-92.501 Y19.233 I0. J-35.525
N860 G2 X-101.039 Y12.908 I-8.538 J2.6
N865 G1 X-110.567
N870 G2 X-119.493 Y21.833 I0. J8.925
N875 G1 Y78.614
N880 G2 X-104.217 Y93.889 I15.275 J0.
N885 G1 X103.705
N890 G2 X118.98 Y78.614 I0. J-15.275
N895 G1 Y21.805
N900 G2 X110.055 Y12.88 I-8.925 J0.
N905 G1 X100.505
N910 G2 X91.967 Y19.205 I0. J8.925
N915 G3 X57.983 Y44.38 I-33.984 J-10.35
N920 G1 X45.837
N925 G3 X23.012 Y21.555 I0. J-22.825
N930 G1 Y-83.596
N935 G3 X50.585 Y-118.22 I35.525 J0.
N940 G1 X50.703 Y-118.248 Z-5.476
N945 X50.803 Y-118.273 Z-5.407
N950 X50.87 Y-118.29 Z-5.304
N955 X50.893 Y-118.296 Z-5.183
N960 Z-0.5
N965 X51.303 Y-116.289
N970 Z-5.183 F833.33
N975 X51.294 Y-116.267 Z-5.304
N980 X51.259 Y-116.208 Z-5.407
N985 X51.225 Y-116.169 Z-5.441
N990 X51.185 Y-116.136 Z-5.476
N995 X51.132 Y-116.106 Z-5.488
N1000 X51.075 Y-116.087 Z-5.5
N1005 G2 X25.2 Y-83.596 I7.463 J32.491 F2500.
N1010 G1 Y21.555
N1015 G2 X45.837 Y42.193 I20.637 J0.
N1020 G1 X57.983
N1025 G2 X89.874 Y18.568 I0. J-33.338
N1030 G3 X100.505 Y10.693 I10.631 J3.238
N1035 G1 X110.055
N1040 G3 X121.168 Y21.805 I0. J11.113
N1045 G1 Y78.614
N1050 G3 X103.705 Y96.076 I-17.463 J0.
N1055 G1 X-104.217
N1060 G3 X-121.679 Y78.614 I0. J-17.463
N1065 G1 Y21.833
N1070 G3 X-110.567 Y10.72 I11.112 J0.
N1075 G1 X-101.039
N1080 G3 X-90.409 Y18.595 I0. J11.112
N1085 G2 X-58.517 Y42.22 I31.891 J-9.712
N1090 G1 X-46.317
N1095 G2 X-25.68 Y21.583 I0. J-20.637
N1100 G1 Y-83.596
N1105 G2 X-51.555 Y-116.087 I-33.337 J0.
N1110 G3 X-60.18 Y-126.918 I2.488 J-10.831
N1115 G1 Y-135.646
N1120 G3 X-49.067 Y-146.758 I11.112 J0.
N1125 G1 X48.587
N1130 G3 X59.7 Y-135.646 I0. J11.113
N1135 G1 Y-126.918
N1140 G3 X51.075 Y-116.087 I-11.113 J0.
N1145 G1 X51.015 Y-116.079 Z-5.488
N1150 X50.954 Y-116.083 Z-5.476
N1155 X50.904 Y-116.095 Z-5.441
N1160 X50.857 Y-116.115 Z-5.407
N1165 X50.8 Y-116.153 Z-5.304
N1170 X50.782 Y-116.17 Z-5.183
N1175 Z15.
(WHEN USING FUSION 360 FOR PERSONAL USE, THE FEEDRATE OF)
(RAPID MOVES IS REDUCED TO MATCH THE FEEDRATE OF CUTTING)
(MOVES, WHICH CAN INCREASE MACHINING TIME. UNRESTRICTED RAPID)
(MOVES ARE AVAILABLE WITH A FUSION 360 SUBSCRIPTION.)
(2D CONTOUR1)
N1180 G64 P0.01 Q0.01
N1185 G0 X0.318 Y-193.04
N1190 G1 Z15. F2500.
N1195 Z5.
N1200 Z3. F833.33
N1205 Z-1.683
N1210 G19 G3 Y-192.723 Z-2. J0.317 K0. F2500.
N1215 G1 Y-192.405
N1220 G17 G3 X0. Y-192.087 I-0.317 J0.
N1225 G2 Y192.087 I0. J192.087
N1230 Y-192.087 I0. J-192.087
N1235 G3 X-0.317 Y-192.405 I0. J-0.318
N1240 G1 Y-192.723
N1245 G19 G2 Y-193.04 Z-1.683 J0. K0.317
N1250 G1 Z5.
N1255 X0.318
N1260 Z1. F833.33
N1265 Z-3.683
N1270 G3 Y-192.723 Z-4. J0.317 K0. F2500.
N1275 G1 Y-192.405
N1280 G17 G3 X0. Y-192.087 I-0.317 J0.
N1285 G2 Y192.087 I0. J192.087
N1290 Y-192.087 I0. J-192.087
N1295 G3 X-0.317 Y-192.405 I0. J-0.318
N1300 G1 Y-192.723
N1305 G19 G2 Y-193.04 Z-3.683 J0. K0.318
N1310 G1 Z5.
N1315 X0.318
N1320 Z-1. F833.33
N1325 Z-5.683
N1330 G3 Y-192.723 Z-6. J0.317 K0. F2500.
N1335 G1 Y-192.405
N1340 G17 G3 X0. Y-192.087 I-0.317 J0.
N1345 G2 Y192.087 I0. J192.087
N1350 Y-192.087 I0. J-192.087
N1355 G3 X-0.317 Y-192.405 I0. J-0.318
N1360 G1 Y-192.723
N1365 G19 G2 Y-193.04 Z-5.683 J0. K0.318
N1370 G1 Z5.
N1375 X0.318
N1380 Z-3. F833.33
N1385 Z-7.683
N1390 G3 Y-192.723 Z-8. J0.317 K0. F2500.
N1395 G1 Y-192.405
N1400 G17 G3 X0. Y-192.087 I-0.317 J0.
N1405 G2 Y192.087 I0. J192.087
N1410 Y-192.087 I0. J-192.087
N1415 G3 X-0.317 Y-192.405 I0. J-0.318
N1420 G1 Y-192.723
N1425 G19 G2 Y-193.04 Z-7.683 J0. K0.318
N1430 G1 Z5.
N1435 X0.318
N1440 Z-5. F833.33
N1445 Z-9.683
N1450 G3 Y-192.723 Z-10. J0.317 K0. F2500.
N1455 G1 Y-192.405
N1460 G17 G3 X0. Y-192.087 I-0.317 J0.
N1465 G2 Y192.087 I0. J192.087
N1470 Y-192.087 I0. J-192.087
N1475 G3 X-0.317 Y-192.405 I0. J-0.318
N1480 G1 Y-192.723
N1485 G19 G2 Y-193.04 Z-9.683 J0. K0.318
N1490 G1 Z5.
N1495 X0.318
N1500 Z-7. F833.33
N1505 Z-11.683
N1510 G3 Y-192.723 Z-12. J0.317 K0. F2500.
N1515 G1 Y-192.405
N1520 G17 G3 X0. Y-192.087 I-0.317 J0.
N1525 G2 Y192.087 I0. J192.087
N1530 Y-192.087 I0. J-192.087
N1535 G3 X-0.317 Y-192.405 I0. J-0.318
N1540 G1 Y-192.723
N1545 G19 G2 Y-193.04 Z-11.683 J0. K0.318
N1550 G1 Z5.
N1555 X0.318
N1560 Z-9. F833.33
N1565 Z-13.683
N1570 G3 Y-192.723 Z-14. J0.317 K0. F2500.
N1575 G1 Y-192.405
N1580 G17 G3 X0. Y-192.087 I-0.317 J0.
N1585 G2 Y192.087 I0. J192.087
N1590 Y-192.087 I0. J-192.087
N1595 G3 X-0.317 Y-192.405 I0. J-0.318
N1600 G1 Y-192.723
N1605 G19 G2 Y-193.04 Z-13.683 J0. K0.318
N1610 G1 Z5.
N1615 X0.318
N1620 Z-11. F833.33
N1625 Z-15.683
N1630 G3 Y-192.723 Z-16. J0.317 K0. F2500.
N1635 G1 Y-192.405
N1640 G17 G3 X0. Y-192.087 I-0.317 J0.
N1645 G2 X-3.244 Y-192.06 I0. J192.087
N1650 G1 Z-15.94
N1655 G2 X-9.591 Y-191.848 I3.244 J192.06
N1660 G1 Z-16. F833.33
N1665 G2 X-28.815 Y-189.914 I9.591 J191.848 F2500.
N1670 G1 Z-15.94
N1675 G2 X-35.076 Y-188.858 I28.815 J189.914
N1680 G1 Z-16. F833.33
N1685 G2 X-53.871 Y-184.379 I35.076 J188.858 F2500.
N1690 G1 Z-15.94
N1695 G2 X-59.936 Y-182.498 I53.871 J184.379
N1700 G1 Z-16. F833.33
N1705 G2 X-77.965 Y-175.554 I59.936 J182.498 F2500.
N1710 G1 Z-15.94
N1715 G2 X-83.725 Y-172.881 I77.965 J175.554
N1720 G1 Z-16. F833.33
N1725 G2 X-100.669 Y-163.595 I83.725 J172.881 F2500.
N1730 G1 Z-15.94
N1735 G2 X-106.021 Y-160.178 I100.669 J163.595
N1740 G1 Z-16. F833.33
N1745 G2 X-121.575 Y-148.718 I106.021 J160.178 F2500.
N1750 G1 Z-15.94
N1755 G2 X-126.425 Y-144.618 I121.575 J148.718
N1760 G1 Z-16. F833.33
N1765 G2 X-140.313 Y-131.186 I126.425 J144.618 F2500.
N1770 G1 Z-15.94
N1775 G2 X-144.573 Y-126.477 I140.313 J131.186
N1780 G1 Z-16. F833.33
N1785 G2 X-156.546 Y-111.314 I144.573 J126.477 F2500.
N1790 G1 Z-15.94
N1795 G2 X-160.14 Y-106.079 I156.546 J111.314
N1800 G1 Z-16. F833.33
N1805 G2 X-169.986 Y-89.455 I160.14 J106.079 F2500.
N1810 G1 Z-15.94
N1815 G2 X-172.85 Y-83.788 I169.986 J89.455
N1820 G1 Z-16. F833.33
N1825 G2 X-180.393 Y-66. I172.85 J83.788 F2500.
N1830 G1 Z-15.94
N1835 G2 X-182.476 Y-60.002 I180.393 J66.
N1840 G1 Z-16. F833.33
N1845 G2 X-187.58 Y-41.367 I182.476 J60.002 F2500.
N1850 G1 Z-15.94
N1855 G2 X-188.845 Y-35.144 I187.58 J41.367
N1860 G1 Z-16. F833.33
N1865 G2 X-191.42 Y-15.996 I188.845 J35.144 F2500.
N1870 G1 Z-15.94
N1875 G2 X-191.844 Y-9.66 I191.42 J15.996
N1880 G1 Z-16. F833.33
N1885 G2 Y9.66 I191.844 J9.66 F2500.
N1890 G1 Z-15.94
N1895 G2 X-191.42 Y15.996 I191.844 J-9.66
N1900 G1 Z-16. F833.33
N1905 G2 X-188.845 Y35.144 I191.42 J-15.996 F2500.
N1910 G1 Z-15.94
N1915 G2 X-187.58 Y41.367 I188.845 J-35.144
N1920 G1 Z-16. F833.33
N1925 G2 X-182.476 Y60.002 I187.58 J-41.367 F2500.
N1930 G1 Z-15.94
N1935 G2 X-180.393 Y66. I182.476 J-60.002
N1940 G1 Z-16. F833.33
N1945 G2 X-172.85 Y83.788 I180.393 J-66. F2500.
N1950 G1 Z-15.94
N1955 G2 X-169.986 Y89.455 I172.85 J-83.788
N1960 G1 Z-16. F833.33
N1965 G2 X-160.14 Y106.079 I169.986 J-89.455 F2500.
N1970 G1 Z-15.94
N1975 G2 X-156.546 Y111.314 I160.14 J-106.079
N1980 G1 Z-16. F833.33
N1985 G2 X-144.573 Y126.477 I156.546 J-111.314 F2500.
N1990 G1 Z-15.94
N1995 G2 X-140.313 Y131.186 I144.573 J-126.477
N2000 G1 Z-16. F833.33
N2005 G2 X-126.425 Y144.618 I140.313 J-131.186 F2500.
N2010 G1 Z-15.94
N2015 G2 X-121.575 Y148.718 I126.425 J-144.618
N2020 G1 Z-16. F833.33
N2025 G2 X-106.021 Y160.178 I121.575 J-148.718 F2500.
N2030 G1 Z-15.94
N2035 G2 X-100.669 Y163.595 I106.021 J-160.178
N2040 G1 Z-16. F833.33
N2045 G2 X-83.725 Y172.881 I100.669 J-163.595 F2500.
N2050 G1 Z-15.94
N2055 G2 X-77.965 Y175.554 I83.725 J-172.881
N2060 G1 Z-16. F833.33
N2065 G2 X-59.936 Y182.498 I77.965 J-175.554 F2500.
N2070 G1 Z-15.94
N2075 G2 X-53.871 Y184.379 I59.936 J-182.498
N2080 G1 Z-16. F833.33
N2085 G2 X-35.076 Y188.858 I53.871 J-184.379 F2500.
N2090 G1 Z-15.94
N2095 G2 X-28.815 Y189.914 I35.076 J-188.858
N2100 G1 Z-16. F833.33
N2105 G2 X-9.591 Y191.848 I28.815 J-189.914 F2500.
N2110 G1 Z-15.94
N2115 G2 X-3.244 Y192.06 I9.591 J-191.848
N2120 G1 Z-16. F833.33
N2125 G2 X16.065 Y191.414 I3.244 J-192.06 F2500.
N2130 G1 Z-15.94
N2135 G2 X22.384 Y190.779 I-16.065 J-191.414
N2140 G1 Z-16. F833.33
N2145 G2 X41.435 Y187.565 I-22.384 J-190.779 F2500.
N2150 G1 Z-15.94
N2155 G2 X47.612 Y186.093 I-41.435 J-187.565
N2160 G1 Z-16. F833.33
N2165 G2 X66.065 Y180.369 I-47.612 J-186.093 F2500.
N2170 G1 Z-15.94
N2175 G2 X71.991 Y178.087 I-66.065 J-180.369
N2180 G1 Z-16. F833.33
N2185 G2 X89.517 Y169.954 I-71.991 J-178.087 F2500.
N2190 G1 Z-15.94
N2195 G2 X95.085 Y166.902 I-89.517 J-169.954
N2200 G1 Z-16. F833.33
N2205 G2 X111.371 Y156.506 I-95.085 J-166.902 F2500.
N2210 G1 Z-15.94
N2215 G2 X116.483 Y152.739 I-111.371 J-156.506
N2220 G1 Z-16. F833.33
N2225 G2 X131.237 Y140.266 I-116.483 J-152.739 F2500.
N2230 G1 Z-15.94
N2235 G2 X135.802 Y135.851 I-131.237 J-140.266
N2240 G1 Z-16. F833.33
N2245 G2 X148.762 Y121.522 I-135.802 J-135.851 F2500.
N2250 G1 Z-15.94
N2255 G2 X152.697 Y116.538 I-148.762 J-121.522
N2260 G1 Z-16. F833.33
N2265 G2 X163.632 Y100.609 I-152.697 J-116.538 F2500.
N2270 G1 Z-15.94
N2275 G2 X166.868 Y95.146 I-163.632 J-100.609
N2280 G1 Z-16. F833.33
N2285 G2 X175.582 Y77.902 I-166.868 J-95.146 F2500.
N2290 G1 Z-15.94
N2295 G2 X178.061 Y72.056 I-175.582 J-77.902
N2300 G1 Z-16. F833.33
N2305 G2 X184.398 Y53.804 I-178.061 J-72.056 F2500.
N2310 G1 Z-15.94
N2315 G2 X186.076 Y47.68 I-184.398 J-53.804
N2320 G1 Z-16. F833.33
N2325 G2 X189.924 Y28.746 I-186.076 J-47.68 F2500.
N2330 G1 Z-15.94
N2335 G2 X190.771 Y22.453 I-189.924 J-28.746
N2340 G1 Z-16. F833.33
N2345 G2 X192.061 Y3.175 I-190.771 J-22.453 F2500.
N2350 G1 Z-15.94
N2355 G2 Y-3.175 I-192.061 J-3.175
N2360 G1 Z-16. F833.33
N2365 G2 X190.771 Y-22.453 I-192.061 J3.175 F2500.
N2370 G1 Z-15.94
N2375 G2 X189.924 Y-28.746 I-190.771 J22.453
N2380 G1 Z-16. F833.33
N2385 G2 X186.076 Y-47.68 I-189.924 J28.746 F2500.
N2390 G1 Z-15.94
N2395 G2 X184.398 Y-53.804 I-186.076 J47.68
N2400 G1 Z-16. F833.33
N2405 G2 X178.061 Y-72.056 I-184.398 J53.804 F2500.
N2410 G1 Z-15.94
N2415 G2 X175.582 Y-77.902 I-178.061 J72.056
N2420 G1 Z-16. F833.33
N2425 G2 X166.868 Y-95.146 I-175.582 J77.902 F2500.
N2430 G1 Z-15.94
N2435 G2 X163.632 Y-100.609 I-166.868 J95.146
N2440 G1 Z-16. F833.33
N2445 G2 X152.697 Y-116.538 I-163.632 J100.609 F2500.
N2450 G1 Z-15.94
N2455 G2 X148.762 Y-121.522 I-152.697 J116.538
N2460 G1 Z-16. F833.33
N2465 G2 X135.802 Y-135.851 I-148.762 J121.522 F2500.
N2470 G1 Z-15.94
N2475 G2 X131.237 Y-140.266 I-135.802 J135.851
N2480 G1 Z-16. F833.33
N2485 G2 X116.483 Y-152.739 I-131.237 J140.266 F2500.
N2490 G1 Z-15.94
N2495 G2 X111.371 Y-156.506 I-116.483 J152.739
N2500 G1 Z-16. F833.33
N2505 G2 X95.085 Y-166.902 I-111.371 J156.506 F2500.
N2510 G1 Z-15.94
N2515 G2 X89.517 Y-169.954 I-95.085 J166.902
N2520 G1 Z-16. F833.33
N2525 G2 X71.991 Y-178.087 I-89.517 J169.954 F2500.
N2530 G1 Z-15.94
N2535 G2 X66.065 Y-180.369 I-71.991 J178.087
N2540 G1 Z-16. F833.33
N2545 G2 X47.612 Y-186.093 I-66.065 J180.369 F2500.
N2550 G1 Z-15.94
N2555 G2 X41.435 Y-187.565 I-47.612 J186.093
N2560 G1 Z-16. F833.33
N2565 G2 X22.384 Y-190.779 I-41.435 J187.565 F2500.
N2570 G1 Z-15.94
N2575 G2 X16.065 Y-191.414 I-22.384 J190.779
N2580 G1 Z-16. F833.33
N2585 G2 X0. Y-192.087 I-16.065 J191.414 F2500.
N2590 G3 X-0.317 Y-192.405 I0. J-0.318
N2595 G1 Y-192.723
N2600 G19 G2 Y-193.04 Z-15.683 J0. K0.318
N2605 G1 Z5.
N2610 X0.318
N2615 Z-13. F833.33
N2620 Z-17.123
N2625 G3 Y-192.723 Z-17.44 J0.317 K0. F2500.
N2630 G1 Y-192.405
N2635 G17 G3 X0. Y-192.087 I-0.317 J0.
N2640 G2 X-3.244 Y-192.06 I0. J192.087
N2645 G1 Z-15.94
N2650 G2 X-9.591 Y-191.848 I3.244 J192.06
N2655 G1 Z-17.44 F833.33
N2660 G2 X-28.815 Y-189.914 I9.591 J191.848 F2500.
N2665 G1 Z-15.94
N2670 G2 X-35.076 Y-188.858 I28.815 J189.914
N2675 G1 Z-17.44 F833.33
N2680 G2 X-53.871 Y-184.379 I35.076 J188.858 F2500.
N2685 G1 Z-15.94
N2690 G2 X-59.936 Y-182.498 I53.871 J184.379
N2695 G1 Z-17.44 F833.33
N2700 G2 X-77.965 Y-175.554 I59.936 J182.498 F2500.
N2705 G1 Z-15.94
N2710 G2 X-83.725 Y-172.881 I77.965 J175.554
N2715 G1 Z-17.44 F833.33
N2720 G2 X-100.669 Y-163.595 I83.725 J172.881 F2500.
N2725 G1 Z-15.94
N2730 G2 X-106.021 Y-160.178 I100.669 J163.595
N2735 G1 Z-17.44 F833.33
N2740 G2 X-121.575 Y-148.718 I106.021 J160.178 F2500.
N2745 G1 Z-15.94
N2750 G2 X-126.425 Y-144.618 I121.575 J148.718
N2755 G1 Z-17.44 F833.33
N2760 G2 X-140.313 Y-131.186 I126.425 J144.618 F2500.
N2765 G1 Z-15.94
N2770 G2 X-144.573 Y-126.477 I140.313 J131.186
N2775 G1 Z-17.44 F833.33
N2780 G2 X-156.546 Y-111.314 I144.573 J126.477 F2500.
N2785 G1 Z-15.94
N2790 G2 X-160.14 Y-106.079 I156.546 J111.314
N2795 G1 Z-17.44 F833.33
N2800 G2 X-169.986 Y-89.455 I160.14 J106.079 F2500.
N2805 G1 Z-15.94
N2810 G2 X-172.85 Y-83.788 I169.986 J89.455
N2815 G1 Z-17.44 F833.33
N2820 G2 X-180.393 Y-66. I172.85 J83.788 F2500.
N2825 G1 Z-15.94
N2830 G2 X-182.476 Y-60.002 I180.393 J66.
N2835 G1 Z-17.44 F833.33
N2840 G2 X-187.58 Y-41.367 I182.476 J60.002 F2500.
N2845 G1 Z-15.94
N2850 G2 X-188.845 Y-35.144 I187.58 J41.367
N2855 G1 Z-17.44 F833.33
N2860 G2 X-191.42 Y-15.996 I188.845 J35.144 F2500.
N2865 G1 Z-15.94
N2870 G2 X-191.844 Y-9.66 I191.42 J15.996
N2875 G1 Z-17.44 F833.33
N2880 G2 Y9.66 I191.844 J9.66 F2500.
N2885 G1 Z-15.94
N2890 G2 X-191.42 Y15.996 I191.844 J-9.66
N2895 G1 Z-17.44 F833.33
N2900 G2 X-188.845 Y35.144 I191.42 J-15.996 F2500.
N2905 G1 Z-15.94
N2910 G2 X-187.58 Y41.367 I188.845 J-35.144
N2915 G1 Z-17.44 F833.33
N2920 G2 X-182.476 Y60.002 I187.58 J-41.367 F2500.
N2925 G1 Z-15.94
N2930 G2 X-180.393 Y66. I182.476 J-60.002
N2935 G1 Z-17.44 F833.33
N2940 G2 X-172.85 Y83.788 I180.393 J-66. F2500.
N2945 G1 Z-15.94
N2950 G2 X-169.986 Y89.455 I172.85 J-83.788
N2955 G1 Z-17.44 F833.33
N2960 G2 X-160.14 Y106.079 I169.986 J-89.455 F2500.
N2965 G1 Z-15.94
N2970 G2 X-156.546 Y111.314 I160.14 J-106.079
N2975 G1 Z-17.44 F833.33
N2980 G2 X-144.573 Y126.477 I156.546 J-111.314 F2500.
N2985 G1 Z-15.94
N2990 G2 X-140.313 Y131.186 I144.573 J-126.477
N2995 G1 Z-17.44 F833.33
N3000 G2 X-126.425 Y144.618 I140.313 J-131.186 F2500.
N3005 G1 Z-15.94
N3010 G2 X-121.575 Y148.718 I126.425 J-144.618
N3015 G1 Z-17.44 F833.33
N3020 G2 X-106.021 Y160.178 I121.575 J-148.718 F2500.
N3025 G1 Z-15.94
N3030 G2 X-100.669 Y163.595 I106.021 J-160.178
N3035 G1 Z-17.44 F833.33
N3040 G2 X-83.725 Y172.881 I100.669 J-163.595 F2500.
N3045 G1 Z-15.94
N3050 G2 X-77.965 Y175.554 I83.725 J-172.881
N3055 G1 Z-17.44 F833.33
N3060 G2 X-59.936 Y182.498 I77.965 J-175.554 F2500.
N3065 G1 Z-15.94
N3070 G2 X-53.871 Y184.379 I59.936 J-182.498
N3075 G1 Z-17.44 F833.33
N3080 G2 X-35.076 Y188.858 I53.871 J-184.379 F2500.
N3085 G1 Z-15.94
N3090 G2 X-28.815 Y189.914 I35.076 J-188.858
N3095 G1 Z-17.44 F833.33
N3100 G2 X-9.591 Y191.848 I28.815 J-189.914 F2500.
N3105 G1 Z-15.94
N3110 G2 X-3.244 Y192.06 I9.591 J-191.848
N3115 G1 Z-17.44 F833.33
N3120 G2 X16.065 Y191.414 I3.244 J-192.06 F2500.
N3125 G1 Z-15.94
N3130 G2 X22.384 Y190.779 I-16.065 J-191.414
N3135 G1 Z-17.44 F833.33
N3140 G2 X41.435 Y187.565 I-22.384 J-190.779 F2500.
N3145 G1 Z-15.94
N3150 G2 X47.612 Y186.093 I-41.435 J-187.565
N3155 G1 Z-17.44 F833.33
N3160 G2 X66.065 Y180.369 I-47.612 J-186.093 F2500.
N3165 G1 Z-15.94
N3170 G2 X71.991 Y178.087 I-66.065 J-180.369
N3175 G1 Z-17.44 F833.33
N3180 G2 X89.517 Y169.954 I-71.991 J-178.087 F2500.
N3185 G1 Z-15.94
N3190 G2 X95.085 Y166.902 I-89.517 J-169.954
N3195 G1 Z-17.44 F833.33
N3200 G2 X111.371 Y156.506 I-95.085 J-166.902 F2500.
N3205 G1 Z-15.94
N3210 G2 X116.483 Y152.739 I-111.371 J-156.506
N3215 G1 Z-17.44 F833.33
N3220 G2 X131.237 Y140.266 I-116.483 J-152.739 F2500.
N3225 G1 Z-15.94
N3230 G2 X135.802 Y135.851 I-131.237 J-140.266
N3235 G1 Z-17.44 F833.33
N3240 G2 X148.762 Y121.522 I-135.802 J-135.851 F2500.
N3245 G1 Z-15.94
N3250 G2 X152.697 Y116.538 I-148.762 J-121.522
N3255 G1 Z-17.44 F833.33
N3260 G2 X163.632 Y100.609 I-152.697 J-116.538 F2500.
N3265 G1 Z-15.94
N3270 G2 X166.868 Y95.146 I-163.632 J-100.609
N3275 G1 Z-17.44 F833.33
N3280 G2 X175.582 Y77.902 I-166.868 J-95.146 F2500.
N3285 G1 Z-15.94
N3290 G2 X178.061 Y72.056 I-175.582 J-77.902
N3295 G1 Z-17.44 F833.33
N3300 G2 X184.398 Y53.804 I-178.061 J-72.056 F2500.
N3305 G1 Z-15.94
N3310 G2 X186.076 Y47.68 I-184.398 J-53.804
N3315 G1 Z-17.44 F833.33
N3320 G2 X189.924 Y28.746 I-186.076 J-47.68 F2500.
N3325 G1 Z-15.94
N3330 G2 X190.771 Y22.453 I-189.924 J-28.746
N3335 G1 Z-17.44 F833.33
N3340 G2 X192.061 Y3.175 I-190.771 J-22.453 F2500.
N3345 G1 Z-15.94
N3350 G2 Y-3.175 I-192.061 J-3.175
N3355 G1 Z-17.44 F833.33
N3360 G2 X190.771 Y-22.453 I-192.061 J3.175 F2500.
N3365 G1 Z-15.94
N3370 G2 X189.924 Y-28.746 I-190.771 J22.453
N3375 G1 Z-17.44 F833.33
N3380 G2 X186.076 Y-47.68 I-189.924 J28.746 F2500.
N3385 G1 Z-15.94
N3390 G2 X184.398 Y-53.804 I-186.076 J47.68
N3395 G1 Z-17.44 F833.33
N3400 G2 X178.061 Y-72.056 I-184.398 J53.804 F2500.
N3405 G1 Z-15.94
N3410 G2 X175.582 Y-77.902 I-178.061 J72.056
N3415 G1 Z-17.44 F833.33
N3420 G2 X166.868 Y-95.146 I-175.582 J77.902 F2500.
N3425 G1 Z-15.94
N3430 G2 X163.632 Y-100.609 I-166.868 J95.146
N3435 G1 Z-17.44 F833.33
N3440 G2 X152.697 Y-116.538 I-163.632 J100.609 F2500.
N3445 G1 Z-15.94
N3450 G2 X148.762 Y-121.522 I-152.697 J116.538
N3455 G1 Z-17.44 F833.33
N3460 G2 X135.802 Y-135.851 I-148.762 J121.522 F2500.
N3465 G1 Z-15.94
N3470 G2 X131.237 Y-140.266 I-135.802 J135.851
N3475 G1 Z-17.44 F833.33
N3480 G2 X116.483 Y-152.739 I-131.237 J140.266 F2500.
N3485 G1 Z-15.94
N3490 G2 X111.371 Y-156.506 I-116.483 J152.739
N3495 G1 Z-17.44 F833.33
N3500 G2 X95.085 Y-166.902 I-111.371 J156.506 F2500.
N3505 G1 Z-15.94
N3510 G2 X89.517 Y-169.954 I-95.085 J166.902
N3515 G1 Z-17.44 F833.33
N3520 G2 X71.991 Y-178.087 I-89.517 J169.954 F2500.
N3525 G1 Z-15.94
N3530 G2 X66.065 Y-180.369 I-71.991 J178.087
N3535 G1 Z-17.44 F833.33
N3540 G2 X47.612 Y-186.093 I-66.065 J180.369 F2500.
N3545 G1 Z-15.94
N3550 G2 X41.435 Y-187.565 I-47.612 J186.093
N3555 G1 Z-17.44 F833.33
N3560 G2 X22.384 Y-190.779 I-41.435 J187.565 F2500.
N3565 G1 Z-15.94
N3570 G2 X16.065 Y-191.414 I-22.384 J190.779
N3575 G1 Z-17.44 F833.33
N3580 G2 X0. Y-192.087 I-16.065 J191.414 F2500.
N3585 G3 X-0.317 Y-192.405 I0. J-0.318
N3590 G1 Y-192.723
N3595 G19 G2 Y-193.04 Z-17.123 J0. K0.318
N3600 G1 Z15.
N3605 G17
N3610 G53 G0 Z0.
N3615 M30
%
