%
(POWERT_OUTSIDE.NGC)
(T1  D=3.175 CR=0. - ZMIN=-19.05 - FLAT END MILL)
N10 G90 G94 G17 G91.1
N15 G21
(WHEN USING FUSION 360 FOR PERSONAL USE, THE FEEDRATE OF)
(RAPID MOVES IS REDUCED TO MATCH THE FEEDRATE OF CUTTING)
(MOVES, WHICH CAN INCREASE MACHINING TIME. UNRESTRICTED RAPID)
(MOVES ARE AVAILABLE WITH A FUSION 360 SUBSCRIPTION.)
N20 G53 G0 Z0.
(2D CONTOUR1)
N25 T1 M6
N30 S5000 M3
N35 G54
N40 G64 P0.01 Q0.01
N45 G0 X187.96 Y-0.317
N50 G43 Z15. H1
N55 G1 Z5. F2500.
N60 Z4. F833.33
N65 Z-2.683
N70 G18 G2 X188.277 Z-3. I0.317 K0. F2500.
N75 G1 X188.595
N80 G17 G3 X188.913 Y0. I0. J0.317
N85 X-188.913 I-188.913 J0.
N90 X188.913 I188.913 J0.
N95 X188.595 Y0.317 I-0.318 J0.
N100 G1 X188.277
N105 G18 G3 X187.96 Z-2.683 I0. K0.318
N110 G1 Z5.
N115 Y-0.317
N120 Z1. F833.33
N125 Z-5.683
N130 G2 X188.277 Z-6. I0.317 K0. F2500.
N135 G1 X188.595
N140 G17 G3 X188.913 Y0. I0. J0.317
N145 X-188.913 I-188.913 J0.
N150 X188.913 I188.913 J0.
N155 X188.595 Y0.317 I-0.318 J0.
N160 G1 X188.277
N165 G18 G3 X187.96 Z-5.683 I0. K0.318
N170 G1 Z5.
N175 Y-0.317
N180 Z-2. F833.33
N185 Z-8.683
N190 G2 X188.277 Z-9. I0.317 K0. F2500.
N195 G1 X188.595
N200 G17 G3 X188.913 Y0. I0. J0.317
N205 X-188.913 I-188.913 J0.
N210 X188.913 I188.913 J0.
N215 X188.595 Y0.317 I-0.318 J0.
N220 G1 X188.277
N225 G18 G3 X187.96 Z-8.683 I0. K0.318
N230 G1 Z5.
N235 Y-0.317
N240 Z-5. F833.33
N245 Z-11.683
N250 G2 X188.277 Z-12. I0.317 K0. F2500.
N255 G1 X188.595
N260 G17 G3 X188.913 Y0. I0. J0.317
N265 X-188.913 I-188.913 J0.
N270 X188.913 I188.913 J0.
N275 X188.595 Y0.317 I-0.318 J0.
N280 G1 X188.277
N285 G18 G3 X187.96 Z-11.683 I0. K0.318
N290 G1 Z5.
N295 Y-0.317
N300 Z-8. F833.33
N305 Z-14.683
N310 G2 X188.277 Z-15. I0.317 K0. F2500.
N315 G1 X188.595
N320 G17 G3 X188.913 Y0. I0. J0.317
N325 X-188.913 I-188.913 J0.
N330 X188.913 I188.913 J0.
N335 X188.595 Y0.317 I-0.318 J0.
N340 G1 X188.277
N345 G18 G3 X187.96 Z-14.683 I0. K0.318
N350 G1 Z5.
N355 Y-0.317
N360 Z-11. F833.33
N365 Z-17.683
N370 G2 X188.277 Z-18. I0.317 K0. F2500.
N375 G1 X188.595
N380 G17 G3 X188.913 Y0. I0. J0.317
N385 X-188.913 I-188.913 J0.
N390 X188.913 I188.913 J0.
N395 X188.595 Y0.317 I-0.318 J0.
N400 G1 X188.277
N405 G18 G3 X187.96 Z-17.683 I0. K0.317
N410 G1 Z5.
N415 Y-0.317
N420 Z-14. F833.33
N425 Z-18.733
N430 G2 X188.277 Z-19.05 I0.317 K0. F2500.
N435 G1 X188.595
N440 G17 G3 X188.913 Y0. I0. J0.317
N445 X170.792 Y80.734 I-188.913 J0.
N450 G1 Z-18.256
N455 G3 X167.982 Y86.428 I-170.792 J-80.734
N460 G1 Z-19.05 F833.33
N465 G3 X128.749 Y138.245 I-167.982 J-86.428 F2500.
N470 G1 Z-18.256
N475 G3 X124.03 Y142.494 I-128.749 J-138.245
N480 G1 Z-19.05 F833.33
N485 G3 X59.498 Y179.298 I-124.03 J-142.494 F2500.
N490 G1 Z-18.256
N495 G3 X53.439 Y181.197 I-59.498 J-179.298
N500 G1 Z-19.05 F833.33
N505 G3 X-84.606 Y168.908 I-53.439 J-181.197 F2500.
N510 G1 Z-18.256
N515 G3 X-90.235 Y165.969 I84.606 J-168.908
N520 G1 Z-19.05 F833.33
N525 G3 X-143.577 Y122.774 I90.235 J-165.969 F2500.
N530 G1 Z-18.256
N535 G3 X-147.622 Y117.879 I143.577 J-122.774
N540 G1 Z-19.05 F833.33
N545 G3 X-181.789 Y51.387 I147.622 J-117.879 F2500.
N550 G1 Z-18.256
N555 G3 X-183.413 Y45.248 I181.789 J-51.387
N560 G1 Z-19.05 F833.33
N565 G3 X-175.858 Y-69.006 I183.413 J-45.248 F2500.
N570 G1 Z-18.256
N575 G3 X-173.44 Y-74.877 I175.858 J69.006
N580 G1 Z-19.05 F833.33
N585 G3 X-144.975 Y-121.12 I173.44 J74.877 F2500.
N590 G1 Z-18.256
N595 G3 X-140.823 Y-125.924 I144.975 J121.12
N600 G1 Z-19.05 F833.33
N605 G3 X-82.579 Y-169.908 I140.823 J125.924 F2500.
N610 G1 Z-18.256
N615 G3 X-76.822 Y-172.587 I82.579 J169.908
N620 G1 Z-19.05 F833.33
N625 G3 X62.927 Y-178.124 I76.822 J172.587 F2500.
N630 G1 Z-18.256
N635 G3 X68.878 Y-175.908 I-62.927 J178.124
N640 G1 Z-19.05 F833.33
N645 G3 X141.089 Y-125.625 I-68.878 J175.908 F2500.
N650 G1 Z-18.256
N655 G3 X145.232 Y-120.813 I-141.089 J125.625
N660 G1 Z-19.05 F833.33
N665 G3 X177.426 Y-64.869 I-145.232 J120.813 F2500.
N670 G1 Z-18.256
N675 G3 X179.506 Y-58.869 I-177.426 J64.869
N680 G1 Z-19.05 F833.33
N685 G3 X188.913 Y0. I-179.506 J58.869 F2500.
N690 X188.595 Y0.317 I-0.318 J0.
N695 G1 X188.277
N700 G18 G3 X187.96 Z-18.733 I0. K0.317
N705 G1 Z15.
N710 G17
N715 G53 G0 Z0.
N720 M30
%
