%
(POWERT_BACK_POCKET.NGC)
(T1  D=3.175 CR=0. - ZMIN=-5. - FLAT END MILL)
N10 G90 G94 G17 G91.1
N15 G21
(WHEN USING FUSION 360 FOR PERSONAL USE, THE FEEDRATE OF)
(RAPID MOVES IS REDUCED TO MATCH THE FEEDRATE OF CUTTING)
(MOVES, WHICH CAN INCREASE MACHINING TIME. UNRESTRICTED RAPID)
(MOVES ARE AVAILABLE WITH A FUSION 360 SUBSCRIPTION.)
N20 G53 G0 Z0.
(2D POCKET1 2)
N25 T1 M6
N30 S5000 M3
N35 G54
N40 G64 P0.1 Q0.1
N45 G0 X1.112 Y-179.584
N50 G43 Z15. H1
N55 G1 Z5. F2500.
N60 Z3.5 F833.33
N65 Z-2.182 F2500.
N70 X1.113 Y-179.577 Z-2.253
N75 X1.117 Y-179.553 Z-2.32
N80 X1.123 Y-179.516 Z-2.38
N85 X1.131 Y-179.466 Z-2.431
N90 X1.14 Y-179.407 Z-2.469
N95 X1.15 Y-179.341 Z-2.492
N100 X1.162 Y-179.271 Z-2.5
N105 X1.163 Y-179.259
N110 Y-130.175
N115 G2 X2.466 Y-128.613 I1.587 J0.
N120 X4.273 Y-120.661 I18.408 J0.
N125 G3 X-0.073 Y-113.76 I-4.346 J2.082
N130 G1 X-0.221
N135 G3 X-0.54 Y-114.079 I0. J-0.319
N140 G1 Y-114.665
N145 G3 X-0.213 Y-115.051 I0.392 J0.
N150 G1 X-0.074 Y-115.075
N155 X0. Y-115.082
N160 X0.074 Y-115.075
N165 X0.213 Y-115.051
N170 G3 X0.54 Y-114.665 I-0.065 J0.387
N175 G1 Y-114.079
N180 G3 X0.221 Y-113.76 I-0.319 J0.
N185 G1 X-0.073
N190 G2 X-0.792 Y-113.269 I0. J0.771
N195 G3 X-1.646 Y-113.43 I-0.412 J-0.161
N200 G1 Y-115.661
N205 G3 X-1.324 Y-116.018 I0.359 J0.
N210 G2 X-0.238 Y-116.17 I-1.426 J-14.157
N215 G3 X0.238 I0.238 J1.324
N220 G2 X1.324 Y-116.018 I2.512 J-14.005
N225 G3 X1.646 Y-115.661 I-0.036 J0.357
N230 G1 Y-112.973
N235 G3 X1.327 Y-112.654 I-0.319 J0.
N240 G1 X-1.327
N245 G3 X-1.646 Y-112.973 I0. J-0.319
N250 G1 Y-113.43
N255 G2 X-2.549 Y-114.784 I-1.467 J0.
N260 G3 X-3.451 Y-116.138 I0.564 J-1.354
N265 G1 Y-117.432
N270 G3 X-3.132 Y-117.752 I0.319 J0.
N275 G1 X-2.941 Y-117.746
N280 X-2.75 Y-117.74
N285 G2 X-1.592 Y-117.8 I0. J-11.199
N290 X-0.444 Y-117.967 I-1.444 J-13.89
N295 G3 X0.444 I0.444 J2.353
N300 G2 X1.592 Y-117.8 I2.592 J-13.722
N305 X2.75 Y-117.74 I1.158 J-11.139
N310 G1 X2.941 Y-117.746
N315 X3.132 Y-117.752
N320 G3 X3.451 Y-117.432 I0. J0.319
N325 G1 Y-111.168
N330 G3 X3.132 Y-110.849 I-0.319 J0.
N335 G1 X-3.132
N340 G3 X-3.451 Y-111.168 I0. J-0.319
N345 G1 Y-116.138
N350 G2 X-4.354 Y-117.492 I-1.467 J0.
N355 G3 X-5.256 Y-118.845 I0.564 J-1.354
N360 G1 Y-119.237
N365 G3 X-4.937 Y-119.557 I0.319 J0.
N370 G1 X-2.75
N375 G2 X-0.729 Y-119.751 I0. J-10.618
N380 G3 X0.729 I0.729 J3.759
N385 G2 X2.75 Y-119.557 I2.021 J-10.424
N390 G1 X4.937
N395 G3 X5.256 Y-119.237 I0. J0.319
N400 G1 Y-109.363
N405 G3 X4.937 Y-109.044 I-0.319 J0.
N410 G1 X-4.937
N415 G3 X-5.256 Y-109.363 I0. J-0.319
N420 G1 Y-118.845
N425 G2 X-6.068 Y-119.981 I-1.201 J0.
N430 G3 X-5.831 Y-121.357 I0.229 J-0.669
N435 X-3.664 Y-121.305 I-0.912 J84.167
N440 G2 X-0.601 Y-121.627 I0.399 J-10.915
N445 G3 X0.601 I0.601 J2.393
N450 G2 X3.664 Y-121.305 I2.663 J-10.593
N455 G3 X6.742 Y-121.362 I3.079 J84.116
N460 X7.062 Y-121.042 I0. J0.319
N465 G1 Y-107.558
N470 G3 X6.742 Y-107.239 I-0.319 J0.
N475 G1 X-6.742
N480 G3 X-7.062 Y-107.558 I0. J-0.319
N485 G1 Y-121.042
N490 G3 X-6.742 Y-121.362 I0.319 J0.
N495 X-5.831 Y-121.357 I0. J84.172
N500 G2 X-4.478 Y-122.239 I0.016 J-1.453
N505 G3 X-3.126 Y-123.122 I1.349 J0.59
N510 G2 X-2.75 Y-123.121 I0.376 J-186.716
N515 X-1.594 Y-123.24 I0. J-5.714
N520 X-0.472 Y-123.547 I-1.851 J-8.957
N525 G3 X0.472 I0.472 J1.374
N530 G2 X1.594 Y-123.24 I2.972 J-8.65
N535 X2.75 Y-123.121 I1.156 J-5.595
N540 X5.649 Y-123.144 I0. J-186.717
N545 G3 X8.547 Y-123.166 I2.899 J186.694
N550 X8.866 Y-122.847 I0. J0.319
N555 G1 Y-105.753
N560 G3 X8.547 Y-105.434 I-0.319 J0.
N565 G1 X-8.547
N570 G3 X-8.866 Y-105.753 I0. J-0.319
N575 G1 Y-122.847
N580 G3 X-8.547 Y-123.166 I0.319 J0.
N585 X-5.649 Y-123.144 I0. J186.716
N590 G2 X-3.126 Y-123.122 I2.899 J-186.694
N595 X-1.679 Y-124.152 I0.003 J-1.528
N600 G3 X-0.5 Y-125.482 I2.191 J0.754
N605 G1 X-0.34 Y-125.563
N610 G3 X0.34 I0.34 J0.65
N615 G2 X1.506 Y-125.099 I2.832 J-5.418
N620 X2.75 Y-124.926 I1.244 J-4.393
N625 G1 X10.352 Y-124.971
N630 G3 X10.672 Y-124.652 I0. J0.319
N635 G1 Y-103.948
N640 G3 X10.352 Y-103.629 I-0.319 J0.
N645 G1 X-10.352
N650 G3 X-10.672 Y-103.948 I0. J-0.319
N655 G1 Y-124.652
N660 G3 X-10.352 Y-124.971 I0.319 J0.
N665 G1 X-2.75 Y-124.926
N670 G2 X-1.506 Y-125.099 I0. J-4.566
N675 X-0.5 Y-125.482 I-1.665 J-5.882
N680 X-0.098 Y-126.606 I-0.373 J-0.768
N685 G3 X0.822 Y-127.367 I0.561 J-0.258
N690 G2 X1.339 Y-127.059 I2.125 J-2.981
N695 X2.75 Y-126.732 I1.411 J-2.884
N700 G1 X12.164 Y-126.777
N705 G3 X12.477 Y-126.464 I0. J0.313
N710 G1 Y-102.136
N715 G3 X12.164 Y-101.823 I-0.313 J0.
N720 G1 X-12.164
N725 G3 X-12.477 Y-102.136 I0. J-0.313
N730 G1 Y-126.464
N735 G3 X-12.164 Y-126.777 I0.313 J0.
N740 G1 X-2.75 Y-126.732
N745 G2 X-1.339 Y-127.059 I0. J-3.211
N750 X-0.189 Y-127.941 I-1.609 J-3.288
N755 G3 X0.189 I0.189 J0.165
N760 G2 X0.822 Y-127.367 I2.758 J-2.407
N765 G1 X0.869 Y-127.328 Z-2.488
N770 X0.907 Y-127.281 Z-2.476
N775 X0.932 Y-127.236 Z-2.441
N780 X0.949 Y-127.187 Z-2.407
N785 X0.96 Y-127.119 Z-2.304
N790 Y-127.095 Z-2.183
N795 Z5.
N800 X0.61 Y-182.771
N805 Z-2.214 F833.33
N810 X0.611 Y-182.763 Z-2.278 F2500.
N815 X0.615 Y-182.743 Z-2.338
N820 X0.62 Y-182.709 Z-2.392
N825 X0.627 Y-182.664 Z-2.438
N830 X0.636 Y-182.611 Z-2.472
N835 X0.645 Y-182.551 Z-2.493
N840 X0.655 Y-182.488 Z-2.5
N845 X1.159 Y-179.308
N850 X1.163 Y-179.259
N855 Y-130.175
N860 G2 X2.75 Y-128.587 I1.587 J0.
N865 G1 X14.288
N870 Y-100.012
N875 X-14.288
N880 Y-128.587
N885 X-2.75
N890 G2 X-1.163 Y-130.175 I0. J-1.588
N895 G1 Y-177.779
N900 Y-179.252
N905 X-1.159 Y-179.302
N910 X-0.91 Y-180.87
N915 X-0.899 Y-180.939 Z-2.492
N920 X-0.889 Y-181.006 Z-2.469
N925 X-0.879 Y-181.065 Z-2.431
N930 X-0.871 Y-181.115 Z-2.38
N935 X-0.866 Y-181.152 Z-2.32
N940 X-0.862 Y-181.175 Z-2.253
N945 X-0.861 Y-181.183 Z-2.182
N950 Z1.
N955 X1.112 Y-179.584
N960 Z-4.682
N965 X1.113 Y-179.577 Z-4.753
N970 X1.117 Y-179.553 Z-4.82
N975 X1.123 Y-179.516 Z-4.88
N980 X1.131 Y-179.466 Z-4.931
N985 X1.14 Y-179.407 Z-4.969
N990 X1.15 Y-179.341 Z-4.992
N995 X1.162 Y-179.271 Z-5.
N1000 X1.163 Y-179.259
N1005 Y-130.175
N1010 G2 X2.466 Y-128.613 I1.587 J0.
N1015 X4.273 Y-120.661 I18.408 J0.
N1020 G3 X-0.073 Y-113.76 I-4.346 J2.082
N1025 G1 X-0.221
N1030 G3 X-0.54 Y-114.079 I0. J-0.319
N1035 G1 Y-114.665
N1040 G3 X-0.213 Y-115.051 I0.392 J0.
N1045 G1 X-0.074 Y-115.075
N1050 X0. Y-115.082
N1055 X0.074 Y-115.075
N1060 X0.213 Y-115.051
N1065 G3 X0.54 Y-114.665 I-0.065 J0.387
N1070 G1 Y-114.079
N1075 G3 X0.221 Y-113.76 I-0.319 J0.
N1080 G1 X-0.073
N1085 G2 X-0.792 Y-113.269 I0. J0.771
N1090 G3 X-1.646 Y-113.43 I-0.412 J-0.161
N1095 G1 Y-115.661
N1100 G3 X-1.324 Y-116.018 I0.359 J0.
N1105 G2 X-0.238 Y-116.17 I-1.426 J-14.157
N1110 G3 X0.238 I0.238 J1.324
N1115 G2 X1.324 Y-116.018 I2.512 J-14.005
N1120 G3 X1.646 Y-115.661 I-0.036 J0.357
N1125 G1 Y-112.973
N1130 G3 X1.327 Y-112.654 I-0.319 J0.
N1135 G1 X-1.327
N1140 G3 X-1.646 Y-112.973 I0. J-0.319
N1145 G1 Y-113.43
N1150 G2 X-2.549 Y-114.784 I-1.467 J0.
N1155 G3 X-3.451 Y-116.138 I0.564 J-1.354
N1160 G1 Y-117.432
N1165 G3 X-3.132 Y-117.752 I0.319 J0.
N1170 G1 X-2.941 Y-117.746
N1175 X-2.75 Y-117.74
N1180 G2 X-1.592 Y-117.8 I0. J-11.199
N1185 X-0.444 Y-117.967 I-1.444 J-13.89
N1190 G3 X0.444 I0.444 J2.353
N1195 G2 X1.592 Y-117.8 I2.592 J-13.722
N1200 X2.75 Y-117.74 I1.158 J-11.139
N1205 G1 X2.941 Y-117.746
N1210 X3.132 Y-117.752
N1215 G3 X3.451 Y-117.432 I0. J0.319
N1220 G1 Y-111.168
N1225 G3 X3.132 Y-110.849 I-0.319 J0.
N1230 G1 X-3.132
N1235 G3 X-3.451 Y-111.168 I0. J-0.319
N1240 G1 Y-116.138
N1245 G2 X-4.354 Y-117.492 I-1.467 J0.
N1250 G3 X-5.256 Y-118.845 I0.564 J-1.354
N1255 G1 Y-119.237
N1260 G3 X-4.937 Y-119.557 I0.319 J0.
N1265 G1 X-2.75
N1270 G2 X-0.729 Y-119.751 I0. J-10.618
N1275 G3 X0.729 I0.729 J3.759
N1280 G2 X2.75 Y-119.557 I2.021 J-10.424
N1285 G1 X4.937
N1290 G3 X5.256 Y-119.237 I0. J0.319
N1295 G1 Y-109.363
N1300 G3 X4.937 Y-109.044 I-0.319 J0.
N1305 G1 X-4.937
N1310 G3 X-5.256 Y-109.363 I0. J-0.319
N1315 G1 Y-118.845
N1320 G2 X-6.068 Y-119.981 I-1.201 J0.
N1325 G3 X-5.831 Y-121.357 I0.229 J-0.669
N1330 X-3.664 Y-121.305 I-0.912 J84.167
N1335 G2 X-0.601 Y-121.627 I0.399 J-10.915
N1340 G3 X0.601 I0.601 J2.393
N1345 G2 X3.664 Y-121.305 I2.663 J-10.593
N1350 G3 X6.742 Y-121.362 I3.079 J84.116
N1355 X7.062 Y-121.042 I0. J0.319
N1360 G1 Y-107.558
N1365 G3 X6.742 Y-107.239 I-0.319 J0.
N1370 G1 X-6.742
N1375 G3 X-7.062 Y-107.558 I0. J-0.319
N1380 G1 Y-121.042
N1385 G3 X-6.742 Y-121.362 I0.319 J0.
N1390 X-5.831 Y-121.357 I0. J84.172
N1395 G2 X-4.478 Y-122.239 I0.016 J-1.453
N1400 G3 X-3.126 Y-123.122 I1.349 J0.59
N1405 G2 X-2.75 Y-123.121 I0.376 J-186.716
N1410 X-1.594 Y-123.24 I0. J-5.714
N1415 X-0.472 Y-123.547 I-1.851 J-8.957
N1420 G3 X0.472 I0.472 J1.374
N1425 G2 X1.594 Y-123.24 I2.972 J-8.65
N1430 X2.75 Y-123.121 I1.156 J-5.595
N1435 X5.649 Y-123.144 I0. J-186.717
N1440 G3 X8.547 Y-123.166 I2.899 J186.694
N1445 X8.866 Y-122.847 I0. J0.319
N1450 G1 Y-105.753
N1455 G3 X8.547 Y-105.434 I-0.319 J0.
N1460 G1 X-8.547
N1465 G3 X-8.866 Y-105.753 I0. J-0.319
N1470 G1 Y-122.847
N1475 G3 X-8.547 Y-123.166 I0.319 J0.
N1480 X-5.649 Y-123.144 I0. J186.716
N1485 G2 X-3.126 Y-123.122 I2.899 J-186.694
N1490 X-1.679 Y-124.152 I0.003 J-1.528
N1495 G3 X-0.5 Y-125.482 I2.191 J0.754
N1500 G1 X-0.34 Y-125.563
N1505 G3 X0.34 I0.34 J0.65
N1510 G2 X1.506 Y-125.099 I2.832 J-5.418
N1515 X2.75 Y-124.926 I1.244 J-4.393
N1520 G1 X10.352 Y-124.971
N1525 G3 X10.672 Y-124.652 I0. J0.319
N1530 G1 Y-103.948
N1535 G3 X10.352 Y-103.629 I-0.319 J0.
N1540 G1 X-10.352
N1545 G3 X-10.672 Y-103.948 I0. J-0.319
N1550 G1 Y-124.652
N1555 G3 X-10.352 Y-124.971 I0.319 J0.
N1560 G1 X-2.75 Y-124.926
N1565 G2 X-1.506 Y-125.099 I0. J-4.566
N1570 X-0.5 Y-125.482 I-1.665 J-5.882
N1575 X-0.098 Y-126.606 I-0.373 J-0.768
N1580 G3 X0.822 Y-127.367 I0.561 J-0.258
N1585 G2 X1.339 Y-127.059 I2.125 J-2.981
N1590 X2.75 Y-126.732 I1.411 J-2.884
N1595 G1 X12.164 Y-126.777
N1600 G3 X12.477 Y-126.464 I0. J0.313
N1605 G1 Y-102.136
N1610 G3 X12.164 Y-101.823 I-0.313 J0.
N1615 G1 X-12.164
N1620 G3 X-12.477 Y-102.136 I0. J-0.313
N1625 G1 Y-126.464
N1630 G3 X-12.164 Y-126.777 I0.313 J0.
N1635 G1 X-2.75 Y-126.732
N1640 G2 X-1.339 Y-127.059 I0. J-3.211
N1645 X-0.189 Y-127.941 I-1.609 J-3.288
N1650 G3 X0.189 I0.189 J0.165
N1655 G2 X0.822 Y-127.367 I2.758 J-2.407
N1660 G1 X0.869 Y-127.328 Z-4.988
N1665 X0.907 Y-127.281 Z-4.976
N1670 X0.932 Y-127.236 Z-4.941
N1675 X0.949 Y-127.187 Z-4.907
N1680 X0.96 Y-127.119 Z-4.804
N1685 Y-127.095 Z-4.683
N1690 Z5.
N1695 X0.61 Y-182.771
N1700 Z-4.714 F833.33
N1705 X0.611 Y-182.763 Z-4.778 F2500.
N1710 X0.615 Y-182.743 Z-4.838
N1715 X0.62 Y-182.709 Z-4.892
N1720 X0.627 Y-182.664 Z-4.938
N1725 X0.636 Y-182.611 Z-4.972
N1730 X0.645 Y-182.551 Z-4.993
N1735 X0.655 Y-182.488 Z-5.
N1740 X1.159 Y-179.308
N1745 X1.163 Y-179.259
N1750 Y-130.175
N1755 G2 X2.75 Y-128.587 I1.587 J0.
N1760 G1 X14.288
N1765 Y-100.012
N1770 X-14.288
N1775 Y-128.587
N1780 X-2.75
N1785 G2 X-1.163 Y-130.175 I0. J-1.588
N1790 G1 Y-177.779
N1795 Y-179.252
N1800 X-1.159 Y-179.302
N1805 X-0.91 Y-180.87
N1810 X-0.899 Y-180.939 Z-4.992
N1815 X-0.889 Y-181.006 Z-4.969
N1820 X-0.879 Y-181.065 Z-4.931
N1825 X-0.871 Y-181.115 Z-4.88
N1830 X-0.866 Y-181.152 Z-4.82
N1835 X-0.862 Y-181.175 Z-4.753
N1840 X-0.861 Y-181.183 Z-4.682
N1845 Z15.
N1850 G53 G0 Z0.
N1855 M30
%
