%
(POWERT_T.NGC)
(T1  D=3.175 CR=0. - ZMIN=-10. - FLAT END MILL)
N10 G90 G94 G17 G91.1
N15 G21
(WHEN USING FUSION 360 FOR PERSONAL USE, THE FEEDRATE OF)
(RAPID MOVES IS REDUCED TO MATCH THE FEEDRATE OF CUTTING)
(MOVES, WHICH CAN INCREASE MACHINING TIME. UNRESTRICTED RAPID)
(MOVES ARE AVAILABLE WITH A FUSION 360 SUBSCRIPTION.)
N20 G53 G0 Z0.
(2D POCKET1)
N25 T1 M6
N30 S5000 M3
N35 G54
N40 G64 P0.1 Q0.1
N45 G0 X50.704 Y-92.087
N50 G43 Z15. H1
N55 G1 Z5. F2500.
N60 Z4. F833.33
N65 Z-2.683
N70 X50.713 Y-92.109 Z-2.804
N75 X50.748 Y-92.168 Z-2.907
N80 X50.782 Y-92.207 Z-2.941
N85 X50.822 Y-92.24 Z-2.976
N90 X50.875 Y-92.27 Z-2.988
N95 X50.932 Y-92.289 Z-3.
N100 G2 X58.325 Y-101.572 I-2.132 J-9.283 F2500.
N105 G1 Y-110.3
N110 G2 X48.8 Y-119.826 I-9.525 J0.
N115 G1 X-48.8
N120 G2 X-58.325 Y-110.3 I0. J9.525
N125 G1 Y-101.572
N130 G2 X-50.932 Y-92.289 I9.525 J0.
N135 G3 X-23.825 Y-58.25 I-7.818 J34.039
N140 G1 Y46.95
N145 G3 X-46.05 Y69.175 I-22.225 J0.
N150 G1 X-58.25
N155 G3 X-91.66 Y44.425 I0. J-34.925
N160 G2 X-100.772 Y37.675 I-9.112 J2.775
N165 G1 X-110.3
N170 G2 X-119.826 Y47.2 I0. J9.525
N175 G1 Y103.95
N180 G2 X-103.95 Y119.826 I15.876 J0.
N185 G1 X103.95
N190 G2 X119.826 Y103.95 I0. J-15.876
N195 G1 Y47.2
N200 G2 X110.3 Y37.675 I-9.525 J0.
N205 G1 X100.772
N210 G2 X91.66 Y44.425 I0. J9.525
N215 G3 X58.25 Y69.175 I-33.41 J-10.175
N220 G1 X46.05
N225 G3 X23.825 Y46.95 I0. J-22.225
N230 G1 Y-58.25
N235 G3 X50.932 Y-92.289 I34.925 J0.
N240 X51.172 Y-92.139 I0.045 J0.195
N245 G1 X51.438 Y-90.981
N250 G3 X51.288 Y-90.742 I-0.195 J0.045
N255 G2 X25.413 Y-58.25 I7.462 J32.492
N260 G1 Y46.95
N265 G2 X46.05 Y67.588 I20.637 J0.
N270 G1 X58.25
N275 G2 X90.141 Y43.963 I0. J-33.338
N280 G3 X100.772 Y36.088 I10.631 J3.238
N285 G1 X110.3
N290 G3 X121.412 Y47.2 I0. J11.112
N295 G1 Y103.95
N300 G3 X103.95 Y121.412 I-17.463 J0.
N305 G1 X-103.95
N310 G3 X-121.412 Y103.95 I0. J-17.463
N315 G1 Y47.2
N320 G3 X-110.3 Y36.088 I11.112 J0.
N325 G1 X-100.772
N330 G3 X-90.141 Y43.963 I0. J11.113
N335 G2 X-58.25 Y67.588 I31.891 J-9.713
N340 G1 X-46.05
N345 G2 X-25.413 Y46.95 I0. J-20.638
N350 G1 Y-58.25
N355 G2 X-51.288 Y-90.742 I-33.337 J0.
N360 G3 X-59.912 Y-101.572 I2.488 J-10.83
N365 G1 Y-110.3
N370 G3 X-48.8 Y-121.412 I11.112 J0.
N375 G1 X48.8
N380 G3 X59.912 Y-110.3 I0. J11.112
N385 G1 Y-101.572
N390 G3 X51.288 Y-90.742 I-11.112 J0.
N395 G1 X51.267 Y-90.743
N400 X51.251 Y-90.756
N405 X51.246 Y-90.776
N410 X51.253 Y-90.796
N415 X51.341 Y-90.91
N420 X51.465 Y-90.985
N425 X51.486 Y-90.989
N430 X51.505 Y-90.982
N435 X51.516 Y-90.964
N440 X51.515 Y-90.944
N445 Z-5.683 F833.33
N450 X51.506 Y-90.921 Z-5.804
N455 X51.472 Y-90.862 Z-5.907
N460 X51.438 Y-90.823 Z-5.941
N465 X51.398 Y-90.79 Z-5.976
N470 X51.345 Y-90.761 Z-5.988
N475 X51.288 Y-90.742 Z-6.
N480 G2 X25.413 Y-58.25 I7.462 J32.492 F2500.
N485 G1 Y46.95
N490 G2 X46.05 Y67.588 I20.637 J0.
N495 G1 X58.25
N500 G2 X90.141 Y43.963 I0. J-33.338
N505 G3 X100.772 Y36.088 I10.631 J3.238
N510 G1 X110.3
N515 G3 X121.412 Y47.2 I0. J11.112
N520 G1 Y103.95
N525 G3 X103.95 Y121.412 I-17.463 J0.
N530 G1 X-103.95
N535 G3 X-121.412 Y103.95 I0. J-17.463
N540 G1 Y47.2
N545 G3 X-110.3 Y36.088 I11.112 J0.
N550 G1 X-100.772
N555 G3 X-90.141 Y43.963 I0. J11.113
N560 G2 X-58.25 Y67.588 I31.891 J-9.713
N565 G1 X-46.05
N570 G2 X-25.413 Y46.95 I0. J-20.638
N575 G1 Y-58.25
N580 G2 X-51.288 Y-90.742 I-33.337 J0.
N585 G3 X-59.912 Y-101.572 I2.488 J-10.83
N590 G1 Y-110.3
N595 G3 X-48.8 Y-121.412 I11.112 J0.
N600 G1 X48.8
N605 G3 X59.912 Y-110.3 I0. J11.112
N610 G1 Y-101.572
N615 G3 X51.288 Y-90.742 I-11.112 J0.
N620 X51.048 Y-90.892 I-0.045 J-0.195
N625 G1 X50.782 Y-92.049
N630 G3 X50.932 Y-92.289 I0.195 J-0.045
N635 G2 X58.325 Y-101.572 I-2.132 J-9.283
N640 G1 Y-110.3
N645 G2 X48.8 Y-119.826 I-9.525 J0.
N650 G1 X-48.8
N655 G2 X-58.325 Y-110.3 I0. J9.525
N660 G1 Y-101.572
N665 G2 X-50.932 Y-92.289 I9.525 J0.
N670 G3 X-23.825 Y-58.25 I-7.818 J34.039
N675 G1 Y46.95
N680 G3 X-46.05 Y69.175 I-22.225 J0.
N685 G1 X-58.25
N690 G3 X-91.66 Y44.425 I0. J-34.925
N695 G2 X-100.772 Y37.675 I-9.112 J2.775
N700 G1 X-110.3
N705 G2 X-119.826 Y47.2 I0. J9.525
N710 G1 Y103.95
N715 G2 X-103.95 Y119.826 I15.876 J0.
N720 G1 X103.95
N725 G2 X119.826 Y103.95 I0. J-15.876
N730 G1 Y47.2
N735 G2 X110.3 Y37.675 I-9.525 J0.
N740 G1 X100.772
N745 G2 X91.66 Y44.425 I0. J9.525
N750 G3 X58.25 Y69.175 I-33.41 J-10.175
N755 G1 X46.05
N760 G3 X23.825 Y46.95 I0. J-22.225
N765 G1 Y-58.25
N770 G3 X50.932 Y-92.289 I34.925 J0.
N775 G1 X50.953 Y-92.287
N780 X50.969 Y-92.274
N785 X50.974 Y-92.254
N790 X50.967 Y-92.234
N795 X50.878 Y-92.12
N800 X50.754 Y-92.046
N805 X50.734 Y-92.041
N810 X50.715 Y-92.049
N815 X50.704 Y-92.066
N820 Y-92.087
N825 Z-8.682 F833.33
N830 X50.713 Y-92.109 Z-8.804
N835 X50.748 Y-92.168 Z-8.907
N840 X50.782 Y-92.207 Z-8.941
N845 X50.822 Y-92.24 Z-8.976
N850 X50.875 Y-92.27 Z-8.988
N855 X50.932 Y-92.289 Z-9.
N860 G2 X58.325 Y-101.572 I-2.132 J-9.283 F2500.
N865 G1 Y-110.3
N870 G2 X48.8 Y-119.826 I-9.525 J0.
N875 G1 X-48.8
N880 G2 X-58.325 Y-110.3 I0. J9.525
N885 G1 Y-101.572
N890 G2 X-50.932 Y-92.289 I9.525 J0.
N895 G3 X-23.825 Y-58.25 I-7.818 J34.039
N900 G1 Y46.95
N905 G3 X-46.05 Y69.175 I-22.225 J0.
N910 G1 X-58.25
N915 G3 X-91.66 Y44.425 I0. J-34.925
N920 G2 X-100.772 Y37.675 I-9.112 J2.775
N925 G1 X-110.3
N930 G2 X-119.826 Y47.2 I0. J9.525
N935 G1 Y103.95
N940 G2 X-103.95 Y119.826 I15.876 J0.
N945 G1 X103.95
N950 G2 X119.826 Y103.95 I0. J-15.876
N955 G1 Y47.2
N960 G2 X110.3 Y37.675 I-9.525 J0.
N965 G1 X100.772
N970 G2 X91.66 Y44.425 I0. J9.525
N975 G3 X58.25 Y69.175 I-33.41 J-10.175
N980 G1 X46.05
N985 G3 X23.825 Y46.95 I0. J-22.225
N990 G1 Y-58.25
N995 G3 X50.932 Y-92.289 I34.925 J0.
N1000 X51.172 Y-92.139 I0.045 J0.195
N1005 G1 X51.438 Y-90.981
N1010 G3 X51.288 Y-90.742 I-0.195 J0.045
N1015 G2 X25.413 Y-58.25 I7.462 J32.492
N1020 G1 Y46.95
N1025 G2 X46.05 Y67.588 I20.637 J0.
N1030 G1 X58.25
N1035 G2 X90.141 Y43.963 I0. J-33.338
N1040 G3 X100.772 Y36.088 I10.631 J3.238
N1045 G1 X110.3
N1050 G3 X121.412 Y47.2 I0. J11.112
N1055 G1 Y103.95
N1060 G3 X103.95 Y121.412 I-17.463 J0.
N1065 G1 X-103.95
N1070 G3 X-121.412 Y103.95 I0. J-17.463
N1075 G1 Y47.2
N1080 G3 X-110.3 Y36.088 I11.112 J0.
N1085 G1 X-100.772
N1090 G3 X-90.141 Y43.963 I0. J11.113
N1095 G2 X-58.25 Y67.588 I31.891 J-9.713
N1100 G1 X-46.05
N1105 G2 X-25.413 Y46.95 I0. J-20.638
N1110 G1 Y-58.25
N1115 G2 X-51.288 Y-90.742 I-33.337 J0.
N1120 G3 X-59.912 Y-101.572 I2.488 J-10.83
N1125 G1 Y-110.3
N1130 G3 X-48.8 Y-121.412 I11.112 J0.
N1135 G1 X48.8
N1140 G3 X59.912 Y-110.3 I0. J11.112
N1145 G1 Y-101.572
N1150 G3 X51.288 Y-90.742 I-11.112 J0.
N1155 G1 X51.267 Y-90.743
N1160 X51.251 Y-90.756
N1165 X51.246 Y-90.776
N1170 X51.253 Y-90.796
N1175 X51.341 Y-90.91
N1180 X51.465 Y-90.985
N1185 X51.486 Y-90.989
N1190 X51.505 Y-90.982
N1195 X51.516 Y-90.964
N1200 X51.515 Y-90.944
N1205 Z-9.682 F833.33
N1210 X51.506 Y-90.921 Z-9.804
N1215 X51.472 Y-90.862 Z-9.907
N1220 X51.438 Y-90.823 Z-9.941
N1225 X51.398 Y-90.79 Z-9.976
N1230 X51.345 Y-90.761 Z-9.988
N1235 X51.288 Y-90.742 Z-10.
N1240 G2 X25.413 Y-58.25 I7.462 J32.492 F2500.
N1245 G1 Y46.95
N1250 G2 X46.05 Y67.588 I20.637 J0.
N1255 G1 X58.25
N1260 G2 X90.141 Y43.963 I0. J-33.338
N1265 G3 X100.772 Y36.088 I10.631 J3.238
N1270 G1 X110.3
N1275 G3 X121.412 Y47.2 I0. J11.112
N1280 G1 Y103.95
N1285 G3 X103.95 Y121.412 I-17.463 J0.
N1290 G1 X-103.95
N1295 G3 X-121.412 Y103.95 I0. J-17.463
N1300 G1 Y47.2
N1305 G3 X-110.3 Y36.088 I11.112 J0.
N1310 G1 X-100.772
N1315 G3 X-90.141 Y43.963 I0. J11.113
N1320 G2 X-58.25 Y67.588 I31.891 J-9.713
N1325 G1 X-46.05
N1330 G2 X-25.413 Y46.95 I0. J-20.638
N1335 G1 Y-58.25
N1340 G2 X-51.288 Y-90.742 I-33.337 J0.
N1345 G3 X-59.912 Y-101.572 I2.488 J-10.83
N1350 G1 Y-110.3
N1355 G3 X-48.8 Y-121.412 I11.112 J0.
N1360 G1 X48.8
N1365 G3 X59.912 Y-110.3 I0. J11.112
N1370 G1 Y-101.572
N1375 G3 X51.288 Y-90.742 I-11.112 J0.
N1380 X51.048 Y-90.892 I-0.045 J-0.195
N1385 G1 X50.782 Y-92.049
N1390 G3 X50.932 Y-92.289 I0.195 J-0.045
N1395 G2 X58.325 Y-101.572 I-2.132 J-9.283
N1400 G1 Y-110.3
N1405 G2 X48.8 Y-119.826 I-9.525 J0.
N1410 G1 X-48.8
N1415 G2 X-58.325 Y-110.3 I0. J9.525
N1420 G1 Y-101.572
N1425 G2 X-50.932 Y-92.289 I9.525 J0.
N1430 G3 X-23.825 Y-58.25 I-7.818 J34.039
N1435 G1 Y46.95
N1440 G3 X-46.05 Y69.175 I-22.225 J0.
N1445 G1 X-58.25
N1450 G3 X-91.66 Y44.425 I0. J-34.925
N1455 G2 X-100.772 Y37.675 I-9.112 J2.775
N1460 G1 X-110.3
N1465 G2 X-119.826 Y47.2 I0. J9.525
N1470 G1 Y103.95
N1475 G2 X-103.95 Y119.826 I15.876 J0.
N1480 G1 X103.95
N1485 G2 X119.826 Y103.95 I0. J-15.876
N1490 G1 Y47.2
N1495 G2 X110.3 Y37.675 I-9.525 J0.
N1500 G1 X100.772
N1505 G2 X91.66 Y44.425 I0. J9.525
N1510 G3 X58.25 Y69.175 I-33.41 J-10.175
N1515 G1 X46.05
N1520 G3 X23.825 Y46.95 I0. J-22.225
N1525 G1 Y-58.25
N1530 G3 X50.932 Y-92.289 I34.925 J0.
N1535 G1 X50.992 Y-92.297 Z-9.988
N1540 X51.053 Y-92.293 Z-9.976
N1545 X51.103 Y-92.281 Z-9.941
N1550 X51.15 Y-92.261 Z-9.907
N1555 X51.207 Y-92.223 Z-9.804
N1560 X51.225 Y-92.206 Z-9.682
N1565 Z15.
N1570 G53 G0 Z0.
N1575 M30
%
