%
(POWERT_ALL_IN_ONE_FIXED.NGC)
(T1  D=3.175 CR=0. - ZMIN=-17.44 - FLAT END MILL)
N10 G90 G94 G17 G91.1
N15 G21
(WHEN USING FUSION 360 FOR PERSONAL USE, THE FEEDRATE OF)
(RAPID MOVES IS REDUCED TO MATCH THE FEEDRATE OF CUTTING)
(MOVES, WHICH CAN INCREASE MACHINING TIME. UNRESTRICTED RAPID)
(MOVES ARE AVAILABLE WITH A FUSION 360 SUBSCRIPTION.)
N20 G53 G0 Z0.
(2D POCKET1)
N25 T1 M6
N30 S5000 M3
N35 G54
N40 G64 P0.1 Q0.1
N45 G0 X50.585 Y-118.22
N50 G43 Z15. H1
N55 G1 Z5. F2500.
N60 Z3.5 F833.33
N65 Z-2.5
N70 G2 X57.512 Y-126.918 I-1.998 J-8.698 F2500.
N75 G1 Y-135.646
N80 G2 X48.587 Y-144.57 I-8.925 J0.
N85 G1 X-49.067
N90 G2 X-57.992 Y-135.646 I0. J8.925
N95 G1 Y-126.918
N100 G2 X-51.065 Y-118.22 I8.925 J0.
N105 G3 X-23.492 Y-83.596 I-7.952 J34.624
N110 G1 Y21.583
N115 G3 X-46.317 Y44.408 I-22.825 J0.
N120 G1 X-58.517
N125 G3 X-92.501 Y19.233 I0. J-35.525
N130 G2 X-101.039 Y12.908 I-8.538 J2.6
N135 G1 X-110.567
N140 G2 X-119.493 Y21.833 I0. J8.925
N145 G1 Y78.614
N150 G2 X-104.217 Y93.889 I15.275 J0.
N155 G1 X103.705
N160 G2 X118.98 Y78.614 I0. J-15.275
N165 G1 Y21.805
N170 G2 X110.055 Y12.88 I-8.925 J0.
N175 G1 X100.505
N180 G2 X91.967 Y19.205 I0. J8.925
N185 G3 X57.983 Y44.38 I-33.984 J-10.35
N190 G1 X45.837
N195 G3 X23.012 Y21.555 I0. J-22.825
N200 G1 Y-83.596
N205 G3 X50.585 Y-118.22 I35.525 J0.
N210 G1 X50.703 Y-118.248 Z-2.476
N215 X50.803 Y-118.273 Z-2.407
N220 X50.87 Y-118.29 Z-2.304
N225 X50.893 Y-118.296 Z-2.183
N230 Z3.5
N235 X51.303 Y-116.289
N240 Z-2.183 F833.33
N245 X51.294 Y-116.267 Z-2.304
N250 X51.259 Y-116.208 Z-2.407
N255 X51.225 Y-116.169 Z-2.441
N260 X51.185 Y-116.136 Z-2.476
N265 X51.132 Y-116.106 Z-2.488
N270 X51.075 Y-116.087 Z-2.5
N275 G2 X25.2 Y-83.596 I7.463 J32.491 F2500.
N280 G1 Y21.555
N285 G2 X45.837 Y42.193 I20.637 J0.
N290 G1 X57.983
N295 G2 X89.874 Y18.568 I0. J-33.338
N300 G3 X100.505 Y10.693 I10.631 J3.238
N305 G1 X110.055
N310 G3 X121.168 Y21.805 I0. J11.113
N315 G1 Y78.614
N320 G3 X103.705 Y96.076 I-17.463 J0.
N325 G1 X-104.217
N330 G3 X-121.679 Y78.614 I0. J-17.463
N335 G1 Y21.833
N340 G3 X-110.567 Y10.72 I11.112 J0.
N345 G1 X-101.039
N350 G3 X-90.409 Y18.595 I0. J11.112
N355 G2 X-58.517 Y42.22 I31.891 J-9.712
N360 G1 X-46.317
N365 G2 X-25.68 Y21.583 I0. J-20.637
N370 G1 Y-83.596
N375 G2 X-51.555 Y-116.087 I-33.337 J0.
N380 G3 X-60.18 Y-126.918 I2.488 J-10.831
N385 G1 Y-135.646
N390 G3 X-49.067 Y-146.758 I11.112 J0.
N395 G1 X48.587
N400 G3 X59.7 Y-135.646 I0. J11.113
N405 G1 Y-126.918
N410 G3 X51.075 Y-116.087 I-11.113 J0.
N415 G1 X51.054 Y-116.089
N420 X51.038 Y-116.102
N425 X51.033 Y-116.122
N430 X51.04 Y-116.142
N435 X51.129 Y-116.256
N440 X51.253 Y-116.33
N445 X51.273 Y-116.335
N450 X51.292 Y-116.327
N455 X51.303 Y-116.31
N460 Y-116.289
N465 Z-3.683 F833.33
N470 X51.294 Y-116.267 Z-3.804
N475 X51.259 Y-116.208 Z-3.907
N480 X51.225 Y-116.169 Z-3.941
N485 X51.185 Y-116.136 Z-3.976
N490 X51.132 Y-116.106 Z-3.988
N495 X51.075 Y-116.087 Z-4.
N500 G2 X25.2 Y-83.596 I7.463 J32.491 F2500.
N505 G1 Y21.555
N510 G2 X45.837 Y42.193 I20.637 J0.
N515 G1 X57.983
N520 G2 X89.874 Y18.568 I0. J-33.338
N525 G3 X100.505 Y10.693 I10.631 J3.238
N530 G1 X110.055
N535 G3 X121.168 Y21.805 I0. J11.113
N540 G1 Y78.614
N545 G3 X103.705 Y96.076 I-17.463 J0.
N550 G1 X-104.217
N555 G3 X-121.679 Y78.614 I0. J-17.463
N560 G1 Y21.833
N565 G3 X-110.567 Y10.72 I11.112 J0.
N570 G1 X-101.039
N575 G3 X-90.409 Y18.595 I0. J11.112
N580 G2 X-58.517 Y42.22 I31.891 J-9.712
N585 G1 X-46.317
N590 G2 X-25.68 Y21.583 I0. J-20.637
N595 G1 Y-83.596
N600 G2 X-51.555 Y-116.087 I-33.337 J0.
N605 G3 X-60.18 Y-126.918 I2.488 J-10.831
N610 G1 Y-135.646
N615 G3 X-49.067 Y-146.758 I11.112 J0.
N620 G1 X48.587
N625 G3 X59.7 Y-135.646 I0. J11.113
N630 G1 Y-126.918
N635 G3 X51.075 Y-116.087 I-11.113 J0.
N640 X50.835 Y-116.237 I-0.045 J-0.195
N645 G1 X50.435 Y-117.98
N650 G3 X50.585 Y-118.22 I0.195 J-0.045
N655 G2 X57.512 Y-126.918 I-1.998 J-8.698
N660 G1 Y-135.646
N665 G2 X48.587 Y-144.57 I-8.925 J0.
N670 G1 X-49.067
N675 G2 X-57.992 Y-135.646 I0. J8.925
N680 G1 Y-126.918
N685 G2 X-51.065 Y-118.22 I8.925 J0.
N690 G3 X-23.492 Y-83.596 I-7.952 J34.624
N695 G1 Y21.583
N700 G3 X-46.317 Y44.408 I-22.825 J0.
N705 G1 X-58.517
N710 G3 X-92.501 Y19.233 I0. J-35.525
N715 G2 X-101.039 Y12.908 I-8.538 J2.6
N720 G1 X-110.567
N725 G2 X-119.493 Y21.833 I0. J8.925
N730 G1 Y78.614
N735 G2 X-104.217 Y93.889 I15.275 J0.
N740 G1 X103.705
N745 G2 X118.98 Y78.614 I0. J-15.275
N750 G1 Y21.805
N755 G2 X110.055 Y12.88 I-8.925 J0.
N760 G1 X100.505
N765 G2 X91.967 Y19.205 I0. J8.925
N770 G3 X57.983 Y44.38 I-33.984 J-10.35
N775 G1 X45.837
N780 G3 X23.012 Y21.555 I0. J-22.825
N785 G1 Y-83.596
N790 G3 X50.585 Y-118.22 I35.525 J0.
N795 G1 Z-5.5 F833.33
N800 G2 X57.512 Y-126.918 I-1.998 J-8.698 F2500.
N805 G1 Y-135.646
N810 G2 X48.587 Y-144.57 I-8.925 J0.
N815 G1 X-49.067
N820 G2 X-57.992 Y-135.646 I0. J8.925
N825 G1 Y-126.918
N830 G2 X-51.065 Y-118.22 I8.925 J0.
N835 G3 X-23.492 Y-83.596 I-7.952 J34.624
N840 G1 Y21.583
N845 G3 X-46.317 Y44.408 I-22.825 J0.
N850 G1 X-58.517
N855 G3 X-92.501 Y19.233 I0. J-35.525
N860 G2 X-101.039 Y12.908 I-8.538 J2.6
N865 G1 X-110.567
N870 G2 X-119.493 Y21.833 I0. J8.925
N875 G1 Y78.614
N880 G2 X-104.217 Y93.889 I15.275 J0.
N885 G1 X103.705
N890 G2 X118.98 Y78.614 I0. J-15.275
N895 G1 Y21.805
N900 G2 X110.055 Y12.88 I-8.925 J0.
N905 G1 X100.505
N910 G2 X91.967 Y19.205 I0. J8.925
N915 G3 X57.983 Y44.38 I-33.984 J-10.35
N920 G1 X45.837
N925 G3 X23.012 Y21.555 I0. J-22.825
N930 G1 Y-83.596
N935 G3 X50.585 Y-118.22 I35.525 J0.
N940 G1 X50.703 Y-118.248 Z-5.476
N945 X50.803 Y-118.273 Z-5.407
N950 X50.87 Y-118.29 Z-5.304
N955 X50.893 Y-118.296 Z-5.183
N960 Z-0.5
N965 X51.303 Y-116.289
N970 Z-5.183 F833.33
N975 X51.294 Y-116.267 Z-5.304
N980 X51.259 Y-116.208 Z-5.407
N985 X51.225 Y-116.169 Z-5.441
N990 X51.185 Y-116.136 Z-5.476
N995 X51.132 Y-116.106 Z-5.488
N1000 X51.075 Y-116.087 Z-5.5
N1005 G2 X25.2 Y-83.596 I7.463 J32.491 F2500.
N1010 G1 Y21.555
N1015 G2 X45.837 Y42.193 I20.637 J0.
N1020 G1 X57.983
N1025 G2 X89.874 Y18.568 I0. J-33.338
N1030 G3 X100.505 Y10.693 I10.631 J3.238
N1035 G1 X110.055
N1040 G3 X121.168 Y21.805 I0. J11.113
N1045 G1 Y78.614
N1050 G3 X103.705 Y96.076 I-17.463 J0.
N1055 G1 X-104.217
N1060 G3 X-121.679 Y78.614 I0. J-17.463
N1065 G1 Y21.833
N1070 G3 X-110.567 Y10.72 I11.112 J0.
N1075 G1 X-101.039
N1080 G3 X-90.409 Y18.595 I0. J11.112
N1085 G2 X-58.517 Y42.22 I31.891 J-9.712
N1090 G1 X-46.317
N1095 G2 X-25.68 Y21.583 I0. J-20.637
N1100 G1 Y-83.596
N1105 G2 X-51.555 Y-116.087 I-33.337 J0.
N1110 G3 X-60.18 Y-126.918 I2.488 J-10.831
N1115 G1 Y-135.646
N1120 G3 X-49.067 Y-146.758 I11.112 J0.
N1125 G1 X48.587
N1130 G3 X59.7 Y-135.646 I0. J11.113
N1135 G1 Y-126.918
N1140 G3 X51.075 Y-116.087 I-11.113 J0.
N1145 G1 X51.015 Y-116.079 Z-5.488
N1150 X50.954 Y-116.083 Z-5.476
N1155 X50.904 Y-116.095 Z-5.441
N1160 X50.857 Y-116.115 Z-5.407
N1165 X50.8 Y-116.153 Z-5.304
N1170 X50.782 Y-116.17 Z-5.183
N1175 Z15.
(WHEN USING FUSION 360 FOR PERSONAL USE, THE FEEDRATE OF)
(RAPID MOVES IS REDUCED TO MATCH THE FEEDRATE OF CUTTING)
(MOVES, WHICH CAN INCREASE MACHINING TIME. UNRESTRICTED RAPID)
(MOVES ARE AVAILABLE WITH A FUSION 360 SUBSCRIPTION.)
(2D CONTOUR1)
N1180 G64 P0.01 Q0.01
N1185 G0 X0.318 Y-180.34
N1190 G1 Z15. F2500.
N1195 Z5.
N1200 Z3. F833.33
N1205 Z-1.683
N1210 G19 G3 Y-180.023 Z-2. J0.317 K0. F2500.
N1215 G1 Y-179.705
N1220 G17 G3 X0. Y-179.387 I-0.317 J0.
N1225 G2 Y179.387 I0. J179.387
N1230 Y-179.387 I0. J-179.387
N1235 G3 X-0.317 Y-179.705 I0. J-0.318
N1240 G1 Y-180.023
N1245 G19 G2 Y-180.34 Z-1.683 J0. K0.317
N1250 G1 Z5.
N1255 X0.318
N1260 Z1. F833.33
N1265 Z-3.683
N1270 G3 Y-180.023 Z-4. J0.317 K0. F2500.
N1275 G1 Y-179.705
N1280 G17 G3 X0. Y-179.387 I-0.317 J0.
N1285 G2 Y179.387 I0. J179.387
N1290 Y-179.387 I0. J-179.387
N1295 G3 X-0.317 Y-179.705 I0. J-0.318
N1300 G1 Y-180.023
N1305 G19 G2 Y-180.34 Z-3.683 J0. K0.318
N1310 G1 Z5.
N1315 X0.318
N1320 Z-1. F833.33
N1325 Z-5.683
N1330 G3 Y-180.023 Z-6. J0.317 K0. F2500.
N1335 G1 Y-179.705
N1340 G17 G3 X0. Y-179.387 I-0.317 J0.
N1345 G2 Y179.387 I0. J179.387
N1350 Y-179.387 I0. J-179.387
N1355 G3 X-0.317 Y-179.705 I0. J-0.318
N1360 G1 Y-180.023
N1365 G19 G2 Y-180.34 Z-5.683 J0. K0.318
N1370 G1 Z5.
N1375 X0.318
N1380 Z-3. F833.33
N1385 Z-7.683
N1390 G3 Y-180.023 Z-8. J0.317 K0. F2500.
N1395 G1 Y-179.705
N1400 G17 G3 X0. Y-179.387 I-0.317 J0.
N1405 G2 Y179.387 I0. J179.387
N1410 Y-179.387 I0. J-179.387
N1415 G3 X-0.317 Y-179.705 I0. J-0.318
N1420 G1 Y-180.023
N1425 G19 G2 Y-180.34 Z-7.683 J0. K0.318
N1430 G1 Z5.
N1435 X0.318
N1440 Z-5. F833.33
N1445 Z-9.683
N1450 G3 Y-180.023 Z-10. J0.317 K0. F2500.
N1455 G1 Y-179.705
N1460 G17 G3 X0. Y-179.387 I-0.317 J0.
N1465 G2 Y179.387 I0. J179.387
N1470 Y-179.387 I0. J-179.387
N1475 G3 X-0.317 Y-179.705 I0. J-0.318
N1480 G1 Y-180.023
N1485 G19 G2 Y-180.34 Z-9.683 J0. K0.318
N1490 G1 Z5.
N1495 X0.318
N1500 Z-7. F833.33
N1505 Z-11.683
N1510 G3 Y-180.023 Z-12. J0.317 K0. F2500.
N1515 G1 Y-179.705
N1520 G17 G3 X0. Y-179.387 I-0.317 J0.
N1525 G2 Y179.387 I0. J179.387
N1530 Y-179.387 I0. J-179.387
N1535 G3 X-0.317 Y-179.705 I0. J-0.318
N1540 G1 Y-180.023
N1545 G19 G2 Y-180.34 Z-11.683 J0. K0.318
N1550 G1 Z5.
N1555 X0.318
N1560 Z-9. F833.33
N1565 Z-13.683
N1570 G3 Y-180.023 Z-14. J0.317 K0. F2500.
N1575 G1 Y-179.705
N1580 G17 G3 X0. Y-179.387 I-0.317 J0.
N1585 G2 Y179.387 I0. J179.387
N1590 Y-179.387 I0. J-179.387
N1595 G3 X-0.317 Y-179.705 I0. J-0.318
N1600 G1 Y-180.023
N1605 G19 G2 Y-180.34 Z-13.683 J0. K0.318
N1610 G1 Z5.
N1615 X0.318
N1620 Z-11. F833.33
N1625 Z-15.683
N1630 G3 Y-180.023 Z-16. J0.317 K0. F2500.
N1635 G1 Y-179.705
N1640 G17 G3 X0. Y-179.387 I-0.317 J0.
N1645 G2 X-3.378 Y-179.356 I0. J179.387
N1650 G1 Z-15.94
N1655 G2 X-9.723 Y-179.124 I3.378 J179.356
N1660 G1 Z-16. F833.33
N1665 G2 X-29.456 Y-176.953 I9.723 J179.124 F2500.
N1670 G1 Z-15.94
N1675 G2 X-35.701 Y-175.799 I29.456 J176.953
N1680 G1 Z-16. F833.33
N1685 G2 X-54.907 Y-170.778 I35.701 J175.799 F2500.
N1690 G1 Z-15.94
N1695 G2 X-60.917 Y-168.728 I54.907 J170.778
N1700 G1 Z-16. F833.33
N1705 G2 X-79.187 Y-160.964 I60.917 J168.728 F2500.
N1710 G1 Z-15.94
N1715 G2 X-84.834 Y-158.06 I79.187 J160.964
N1720 G1 Z-16. F833.33
N1725 G2 X-101.78 Y-147.718 I84.834 J158.06 F2500.
N1730 G1 Z-15.94
N1735 G2 X-106.944 Y-144.024 I101.78 J147.718
N1740 G1 Z-16. F833.33
N1745 G2 X-122.203 Y-131.325 I106.944 J144.024 F2500.
N1750 G1 Z-15.94
N1755 G2 X-126.774 Y-126.918 I122.203 J131.325
N1760 G1 Z-16. F833.33
N1765 G2 X-140.022 Y-112.133 I126.774 J126.918 F2500.
N1770 G1 Z-15.94
N1775 G2 X-143.903 Y-107.107 I140.022 J112.133
N1780 G1 Z-16. F833.33
N1785 G2 X-154.856 Y-90.551 I143.903 J107.107 F2500.
N1790 G1 Z-15.94
N1795 G2 X-157.964 Y-85.013 I154.856 J90.551
N1800 G1 Z-16. F833.33
N1805 G2 X-166.39 Y-67.038 I157.964 J85.013 F2500.
N1810 G1 Z-15.94
N1815 G2 X-168.659 Y-61.107 I166.39 J67.038
N1820 G1 Z-16. F833.33
N1825 G2 X-174.378 Y-42.097 I168.659 J61.107 F2500.
N1830 G1 Z-15.94
N1835 G2 X-175.759 Y-35.899 I174.378 J42.097
N1840 G1 Z-16. F833.33
N1845 G2 X-178.649 Y-16.259 I175.759 J35.899 F2500.
N1850 G1 Z-15.94
N1855 G2 X-179.113 Y-9.926 I178.649 J16.259
N1860 G1 Z-16. F833.33
N1865 G2 Y9.926 I179.113 J9.926 F2500.
N1870 G1 Z-15.94
N1875 G2 X-178.649 Y16.259 I179.113 J-9.926
N1880 G1 Z-16. F833.33
N1885 G2 X-175.759 Y35.899 I178.649 J-16.259 F2500.
N1890 G1 Z-15.94
N1895 G2 X-174.378 Y42.097 I175.759 J-35.899
N1900 G1 Z-16. F833.33
N1905 G2 X-168.659 Y61.107 I174.378 J-42.097 F2500.
N1910 G1 Z-15.94
N1915 G2 X-166.39 Y67.038 I168.659 J-61.107
N1920 G1 Z-16. F833.33
N1925 G2 X-157.964 Y85.013 I166.39 J-67.038 F2500.
N1930 G1 Z-15.94
N1935 G2 X-154.856 Y90.551 I157.964 J-85.013
N1940 G1 Z-16. F833.33
N1945 G2 X-143.903 Y107.107 I154.856 J-90.551 F2500.
N1950 G1 Z-15.94
N1955 G2 X-140.022 Y112.133 I143.903 J-107.107
N1960 G1 Z-16. F833.33
N1965 G2 X-126.774 Y126.918 I140.022 J-112.133 F2500.
N1970 G1 Z-15.94
N1975 G2 X-122.203 Y131.325 I126.774 J-126.918
N1980 G1 Z-16. F833.33
N1985 G2 X-106.944 Y144.024 I122.203 J-131.325 F2500.
N1990 G1 Z-15.94
N1995 G2 X-101.78 Y147.718 I106.944 J-144.024
N2000 G1 Z-16. F833.33
N2005 G2 X-84.834 Y158.06 I101.78 J-147.718 F2500.
N2010 G1 Z-15.94
N2015 G2 X-79.187 Y160.964 I84.834 J-158.06
N2020 G1 Z-16. F833.33
N2025 G2 X-60.917 Y168.728 I79.187 J-160.964 F2500.
N2030 G1 Z-15.94
N2035 G2 X-54.907 Y170.778 I60.917 J-168.728
N2040 G1 Z-16. F833.33
N2045 G2 X-35.701 Y175.799 I54.907 J-170.778 F2500.
N2050 G1 Z-15.94
N2055 G2 X-29.456 Y176.953 I35.701 J-175.799
N2060 G1 Z-16. F833.33
N2065 G2 X-9.723 Y179.124 I29.456 J-176.953 F2500.
N2070 G1 Z-15.94
N2075 G2 X-3.378 Y179.356 I9.723 J-179.124
N2080 G1 Z-16. F833.33
N2085 G2 X16.461 Y178.631 I3.378 J-179.356 F2500.
N2090 G1 Z-15.94
N2095 G2 X22.773 Y177.936 I-16.461 J-178.631
N2100 G1 Z-16. F833.33
N2105 G2 X42.294 Y174.33 I-22.773 J-177.936 F2500.
N2110 G1 Z-15.94
N2115 G2 X48.438 Y172.724 I-42.294 J-174.33
N2120 G1 Z-16. F833.33
N2125 G2 X67.226 Y166.315 I-48.438 J-172.724 F2500.
N2130 G1 Z-15.94
N2135 G2 X73.07 Y163.831 I-67.226 J-166.315
N2140 G1 Z-16. F833.33
N2145 G2 X90.725 Y154.754 I-73.07 J-163.831 F2500.
N2150 G1 Z-15.94
N2155 G2 X96.146 Y151.446 I-90.725 J-154.754
N2160 G1 Z-16. F833.33
N2165 G2 X112.291 Y139.895 I-96.146 J-151.446 F2500.
N2170 G1 Z-15.94
N2175 G2 X117.172 Y135.833 I-112.291 J-139.895
N2180 G1 Z-16. F833.33
N2185 G2 X131.463 Y122.055 I-117.172 J-135.833 F2500.
N2190 G1 Z-15.94
N2195 G2 X135.701 Y117.325 I-131.463 J-122.055
N2200 G1 Z-16. F833.33
N2205 G2 X147.834 Y101.613 I-135.701 J-117.325 F2500.
N2210 G1 Z-15.94
N2215 G2 X151.337 Y96.317 I-147.834 J-101.613
N2220 G1 Z-16. F833.33
N2225 G2 X161.053 Y79.005 I-151.337 J-96.317 F2500.
N2230 G1 Z-15.94
N2235 G2 X163.748 Y73.255 I-161.053 J-79.005
N2240 G1 Z-16. F833.33
N2245 G2 X170.84 Y54.714 I-163.748 J-73.255 F2500.
N2250 G1 Z-15.94
N2255 G2 X172.669 Y48.633 I-170.84 J-54.714
N2260 G1 Z-16. F833.33
N2265 G2 X176.986 Y29.256 I-172.669 J-48.633 F2500.
N2270 G1 Z-15.94
N2275 G2 X177.91 Y22.974 I-176.986 J-29.256
N2280 G1 Z-16. F833.33
N2285 G2 X179.359 Y3.175 I-177.91 J-22.974 F2500.
N2290 G1 Z-15.94
N2295 G2 Y-3.175 I-179.359 J-3.175
N2300 G1 Z-16. F833.33
N2305 G2 X177.91 Y-22.974 I-179.359 J3.175 F2500.
N2310 G1 Z-15.94
N2315 G2 X176.986 Y-29.256 I-177.91 J22.974
N2320 G1 Z-16. F833.33
N2325 G2 X172.669 Y-48.633 I-176.986 J29.256 F2500.
N2330 G1 Z-15.94
N2335 G2 X170.84 Y-54.714 I-172.669 J48.633
N2340 G1 Z-16. F833.33
N2345 G2 X163.748 Y-73.255 I-170.84 J54.714 F2500.
N2350 G1 Z-15.94
N2355 G2 X161.053 Y-79.005 I-163.748 J73.255
N2360 G1 Z-16. F833.33
N2365 G2 X151.337 Y-96.317 I-161.053 J79.005 F2500.
N2370 G1 Z-15.94
N2375 G2 X147.834 Y-101.613 I-151.337 J96.317
N2380 G1 Z-16. F833.33
N2385 G2 X135.701 Y-117.325 I-147.834 J101.613 F2500.
N2390 G1 Z-15.94
N2395 G2 X131.463 Y-122.055 I-135.701 J117.325
N2400 G1 Z-16. F833.33
N2405 G2 X117.172 Y-135.833 I-131.463 J122.055 F2500.
N2410 G1 Z-15.94
N2415 G2 X112.291 Y-139.895 I-117.172 J135.833
N2420 G1 Z-16. F833.33
N2425 G2 X96.146 Y-151.446 I-112.291 J139.895 F2500.
N2430 G1 Z-15.94
N2435 G2 X90.725 Y-154.754 I-96.146 J151.446
N2440 G1 Z-16. F833.33
N2445 G2 X73.07 Y-163.831 I-90.725 J154.754 F2500.
N2450 G1 Z-15.94
N2455 G2 X67.226 Y-166.315 I-73.07 J163.831
N2460 G1 Z-16. F833.33
N2465 G2 X48.438 Y-172.724 I-67.226 J166.315 F2500.
N2470 G1 Z-15.94
N2475 G2 X42.294 Y-174.33 I-48.438 J172.724
N2480 G1 Z-16. F833.33
N2485 G2 X22.773 Y-177.936 I-42.294 J174.33 F2500.
N2490 G1 Z-15.94
N2495 G2 X16.461 Y-178.631 I-22.773 J177.936
N2500 G1 Z-16. F833.33
N2505 G2 X0. Y-179.387 I-16.461 J178.631 F2500.
N2510 G3 X-0.317 Y-179.705 I0. J-0.318
N2515 G1 Y-180.023
N2520 G19 G2 Y-180.34 Z-15.683 J0. K0.318
N2525 G1 Z5.
N2530 X0.318
N2535 Z-13. F833.33
N2540 Z-17.123
N2545 G3 Y-180.023 Z-17.44 J0.317 K0. F2500.
N2550 G1 Y-179.705
N2555 G17 G3 X0. Y-179.387 I-0.317 J0.
N2560 G2 X-3.378 Y-179.356 I0. J179.387
N2565 G1 Z-15.94
N2570 G2 X-9.723 Y-179.124 I3.378 J179.356
N2575 G1 Z-17.44 F833.33
N2580 G2 X-29.456 Y-176.953 I9.723 J179.124 F2500.
N2585 G1 Z-15.94
N2590 G2 X-35.701 Y-175.799 I29.456 J176.953
N2595 G1 Z-17.44 F833.33
N2600 G2 X-54.907 Y-170.778 I35.701 J175.799 F2500.
N2605 G1 Z-15.94
N2610 G2 X-60.917 Y-168.728 I54.907 J170.778
N2615 G1 Z-17.44 F833.33
N2620 G2 X-79.187 Y-160.964 I60.917 J168.728 F2500.
N2625 G1 Z-15.94
N2630 G2 X-84.834 Y-158.06 I79.187 J160.964
N2635 G1 Z-17.44 F833.33
N2640 G2 X-101.78 Y-147.718 I84.834 J158.06 F2500.
N2645 G1 Z-15.94
N2650 G2 X-106.944 Y-144.024 I101.78 J147.718
N2655 G1 Z-17.44 F833.33
N2660 G2 X-122.203 Y-131.325 I106.944 J144.024 F2500.
N2665 G1 Z-15.94
N2670 G2 X-126.774 Y-126.918 I122.203 J131.325
N2675 G1 Z-17.44 F833.33
N2680 G2 X-140.022 Y-112.133 I126.774 J126.918 F2500.
N2685 G1 Z-15.94
N2690 G2 X-143.903 Y-107.107 I140.022 J112.133
N2695 G1 Z-17.44 F833.33
N2700 G2 X-154.856 Y-90.551 I143.903 J107.107 F2500.
N2705 G1 Z-15.94
N2710 G2 X-157.964 Y-85.013 I154.856 J90.551
N2715 G1 Z-17.44 F833.33
N2720 G2 X-166.39 Y-67.038 I157.964 J85.013 F2500.
N2725 G1 Z-15.94
N2730 G2 X-168.659 Y-61.107 I166.39 J67.038
N2735 G1 Z-17.44 F833.33
N2740 G2 X-174.378 Y-42.097 I168.659 J61.107 F2500.
N2745 G1 Z-15.94
N2750 G2 X-175.759 Y-35.899 I174.378 J42.097
N2755 G1 Z-17.44 F833.33
N2760 G2 X-178.649 Y-16.259 I175.759 J35.899 F2500.
N2765 G1 Z-15.94
N2770 G2 X-179.113 Y-9.926 I178.649 J16.259
N2775 G1 Z-17.44 F833.33
N2780 G2 Y9.926 I179.113 J9.926 F2500.
N2785 G1 Z-15.94
N2790 G2 X-178.649 Y16.259 I179.113 J-9.926
N2795 G1 Z-17.44 F833.33
N2800 G2 X-175.759 Y35.899 I178.649 J-16.259 F2500.
N2805 G1 Z-15.94
N2810 G2 X-174.378 Y42.097 I175.759 J-35.899
N2815 G1 Z-17.44 F833.33
N2820 G2 X-168.659 Y61.107 I174.378 J-42.097 F2500.
N2825 G1 Z-15.94
N2830 G2 X-166.39 Y67.038 I168.659 J-61.107
N2835 G1 Z-17.44 F833.33
N2840 G2 X-157.964 Y85.013 I166.39 J-67.038 F2500.
N2845 G1 Z-15.94
N2850 G2 X-154.856 Y90.551 I157.964 J-85.013
N2855 G1 Z-17.44 F833.33
N2860 G2 X-143.903 Y107.107 I154.856 J-90.551 F2500.
N2865 G1 Z-15.94
N2870 G2 X-140.022 Y112.133 I143.903 J-107.107
N2875 G1 Z-17.44 F833.33
N2880 G2 X-126.774 Y126.918 I140.022 J-112.133 F2500.
N2885 G1 Z-15.94
N2890 G2 X-122.203 Y131.325 I126.774 J-126.918
N2895 G1 Z-17.44 F833.33
N2900 G2 X-106.944 Y144.024 I122.203 J-131.325 F2500.
N2905 G1 Z-15.94
N2910 G2 X-101.78 Y147.718 I106.944 J-144.024
N2915 G1 Z-17.44 F833.33
N2920 G2 X-84.834 Y158.06 I101.78 J-147.718 F2500.
N2925 G1 Z-15.94
N2930 G2 X-79.187 Y160.964 I84.834 J-158.06
N2935 G1 Z-17.44 F833.33
N2940 G2 X-60.917 Y168.728 I79.187 J-160.964 F2500.
N2945 G1 Z-15.94
N2950 G2 X-54.907 Y170.778 I60.917 J-168.728
N2955 G1 Z-17.44 F833.33
N2960 G2 X-35.701 Y175.799 I54.907 J-170.778 F2500.
N2965 G1 Z-15.94
N2970 G2 X-29.456 Y176.953 I35.701 J-175.799
N2975 G1 Z-17.44 F833.33
N2980 G2 X-9.723 Y179.124 I29.456 J-176.953 F2500.
N2985 G1 Z-15.94
N2990 G2 X-3.378 Y179.356 I9.723 J-179.124
N2995 G1 Z-17.44 F833.33
N3000 G2 X16.461 Y178.631 I3.378 J-179.356 F2500.
N3005 G1 Z-15.94
N3010 G2 X22.773 Y177.936 I-16.461 J-178.631
N3015 G1 Z-17.44 F833.33
N3020 G2 X42.294 Y174.33 I-22.773 J-177.936 F2500.
N3025 G1 Z-15.94
N3030 G2 X48.438 Y172.724 I-42.294 J-174.33
N3035 G1 Z-17.44 F833.33
N3040 G2 X67.226 Y166.315 I-48.438 J-172.724 F2500.
N3045 G1 Z-15.94
N3050 G2 X73.07 Y163.831 I-67.226 J-166.315
N3055 G1 Z-17.44 F833.33
N3060 G2 X90.725 Y154.754 I-73.07 J-163.831 F2500.
N3065 G1 Z-15.94
N3070 G2 X96.146 Y151.446 I-90.725 J-154.754
N3075 G1 Z-17.44 F833.33
N3080 G2 X112.291 Y139.895 I-96.146 J-151.446 F2500.
N3085 G1 Z-15.94
N3090 G2 X117.172 Y135.833 I-112.291 J-139.895
N3095 G1 Z-17.44 F833.33
N3100 G2 X131.463 Y122.055 I-117.172 J-135.833 F2500.
N3105 G1 Z-15.94
N3110 G2 X135.701 Y117.325 I-131.463 J-122.055
N3115 G1 Z-17.44 F833.33
N3120 G2 X147.834 Y101.613 I-135.701 J-117.325 F2500.
N3125 G1 Z-15.94
N3130 G2 X151.337 Y96.317 I-147.834 J-101.613
N3135 G1 Z-17.44 F833.33
N3140 G2 X161.053 Y79.005 I-151.337 J-96.317 F2500.
N3145 G1 Z-15.94
N3150 G2 X163.748 Y73.255 I-161.053 J-79.005
N3155 G1 Z-17.44 F833.33
N3160 G2 X170.84 Y54.714 I-163.748 J-73.255 F2500.
N3165 G1 Z-15.94
N3170 G2 X172.669 Y48.633 I-170.84 J-54.714
N3175 G1 Z-17.44 F833.33
N3180 G2 X176.986 Y29.256 I-172.669 J-48.633 F2500.
N3185 G1 Z-15.94
N3190 G2 X177.91 Y22.974 I-176.986 J-29.256
N3195 G1 Z-17.44 F833.33
N3200 G2 X179.359 Y3.175 I-177.91 J-22.974 F2500.
N3205 G1 Z-15.94
N3210 G2 Y-3.175 I-179.359 J-3.175
N3215 G1 Z-17.44 F833.33
N3220 G2 X177.91 Y-22.974 I-179.359 J3.175 F2500.
N3225 G1 Z-15.94
N3230 G2 X176.986 Y-29.256 I-177.91 J22.974
N3235 G1 Z-17.44 F833.33
N3240 G2 X172.669 Y-48.633 I-176.986 J29.256 F2500.
N3245 G1 Z-15.94
N3250 G2 X170.84 Y-54.714 I-172.669 J48.633
N3255 G1 Z-17.44 F833.33
N3260 G2 X163.748 Y-73.255 I-170.84 J54.714 F2500.
N3265 G1 Z-15.94
N3270 G2 X161.053 Y-79.005 I-163.748 J73.255
N3275 G1 Z-17.44 F833.33
N3280 G2 X151.337 Y-96.317 I-161.053 J79.005 F2500.
N3285 G1 Z-15.94
N3290 G2 X147.834 Y-101.613 I-151.337 J96.317
N3295 G1 Z-17.44 F833.33
N3300 G2 X135.701 Y-117.325 I-147.834 J101.613 F2500.
N3305 G1 Z-15.94
N3310 G2 X131.463 Y-122.055 I-135.701 J117.325
N3315 G1 Z-17.44 F833.33
N3320 G2 X117.172 Y-135.833 I-131.463 J122.055 F2500.
N3325 G1 Z-15.94
N3330 G2 X112.291 Y-139.895 I-117.172 J135.833
N3335 G1 Z-17.44 F833.33
N3340 G2 X96.146 Y-151.446 I-112.291 J139.895 F2500.
N3345 G1 Z-15.94
N3350 G2 X90.725 Y-154.754 I-96.146 J151.446
N3355 G1 Z-17.44 F833.33
N3360 G2 X73.07 Y-163.831 I-90.725 J154.754 F2500.
N3365 G1 Z-15.94
N3370 G2 X67.226 Y-166.315 I-73.07 J163.831
N3375 G1 Z-17.44 F833.33
N3380 G2 X48.438 Y-172.724 I-67.226 J166.315 F2500.
N3385 G1 Z-15.94
N3390 G2 X42.294 Y-174.33 I-48.438 J172.724
N3395 G1 Z-17.44 F833.33
N3400 G2 X22.773 Y-177.936 I-42.294 J174.33 F2500.
N3405 G1 Z-15.94
N3410 G2 X16.461 Y-178.631 I-22.773 J177.936
N3415 G1 Z-17.44 F833.33
N3420 G2 X0. Y-179.387 I-16.461 J178.631 F2500.
N3425 G3 X-0.317 Y-179.705 I0. J-0.318
N3430 G1 Y-180.023
N3435 G19 G2 Y-180.34 Z-17.123 J0. K0.318
N3440 G1 Z15.
N3445 G17
N3450 G53 G0 Z0.
N3455 M30
%
