%
(POWERT_T_FIXED_2.NGC)
(T1  D=3.175 CR=0. - ZMIN=-5. - FLAT END MILL)
N10 G90 G94 G17 G91.1
N15 G21
(WHEN USING FUSION 360 FOR PERSONAL USE, THE FEEDRATE OF)
(RAPID MOVES IS REDUCED TO MATCH THE FEEDRATE OF CUTTING)
(MOVES, WHICH CAN INCREASE MACHINING TIME. UNRESTRICTED RAPID)
(MOVES ARE AVAILABLE WITH A FUSION 360 SUBSCRIPTION.)
N20 G53 G0 Z0.
(2D POCKET1)
N25 T1 M6
N30 S5000 M3
N35 G54
N40 G64 P0.1 Q0.1
N45 G0 X-103.94 Y118.888
N50 G43 Z15. H1
N55 G1 Z5. F2500.
N60 Z4. F833.33
N65 Z-2.683
N70 X-103.95 Y118.89 Z-2.762
N75 X-103.965 Y118.886 Z-2.8
N80 X-103.976 Y118.877 Z-2.837
N85 X-103.982 Y118.86 Z-2.859
N90 X-103.979 Y118.843 Z-2.881
N95 X-103.967 Y118.829 Z-2.903
N100 X-103.95 Y118.825 Z-2.925
N105 X-103.933 Y118.829 Z-2.936
N110 X-103.921 Y118.843 Z-2.948
N115 X-103.917 Y118.86 Z-2.959
N120 X-103.924 Y118.877 Z-2.971
N125 X-103.94 Y118.888 Z-2.978
N130 X-103.96 Z-2.985
N135 X-103.976 Y118.877 Z-2.992
N140 X-103.982 Y118.86 Z-2.994
N145 X-103.979 Y118.843 Z-2.996
N150 X-103.967 Y118.829 Z-2.998
N155 X-103.95 Y118.825 Z-3.
N160 X103.987 F2500.
N165 G2 X118.863 Y103.95 I0.001 J-14.875
N170 G1 Y47.102
N175 G2 X110.337 Y38.577 I-8.525 J0.
N180 G1 X100.772
N185 G2 X92.617 Y44.619 I0. J8.525
N190 G3 X58.25 Y70.077 I-34.367 J-10.466
N195 G1 X46.141
N200 G3 X22.916 Y46.852 I0. J-23.225
N205 G1 Y-58.266
N210 G3 X50.799 Y-93.279 I35.925 J0.
N215 G2 X57.416 Y-101.588 I-1.908 J-8.309
N220 G1 Y-110.316
N225 G2 X48.891 Y-118.84 I-8.525 J0.
N230 G1 X-48.8
N235 G2 X-57.325 Y-110.316 I0. J8.525
N240 G1 Y-101.588
N245 G2 X-50.708 Y-93.279 I8.525 J0.
N250 G3 X-22.825 Y-58.266 I-8.042 J35.013
N255 G1 Y46.899
N260 G3 X-46.05 Y70.124 I-23.225 J0.
N265 G1 X-58.25
N270 G3 X-92.617 Y44.665 I0. J-35.925
N275 G2 X-100.772 Y38.624 I-8.155 J2.484
N280 G1 X-110.3
N285 G2 X-118.825 Y47.149 I0. J8.525
N290 G1 X-118.826 Y103.95
N295 G2 X-103.95 Y118.825 I14.875 J0.
N300 G18 G2 X-103.632 Z-2.683 I0. K0.318
N305 G1 Z5.
N310 X-49.067 Y-121.283
N315 Z4. F833.33
N320 Z-2.683
N325 X-49.053 Y-121.302 Z-2.804
N330 X-49.006 Y-121.352 Z-2.907
N335 X-48.965 Y-121.383 Z-2.941
N340 X-48.919 Y-121.406 Z-2.976
N345 X-48.86 Y-121.423 Z-2.988
N350 X-48.8 Y-121.428 Z-3.
N355 X48.891 F2500.
N360 G17 G3 X60.003 Y-110.316 I0. J11.112
N365 G1 Y-101.588
N370 G3 X51.378 Y-90.757 I-11.113 J0.
N375 G2 X25.503 Y-58.266 I7.462 J32.492
N380 G1 Y46.852
N385 G2 X46.141 Y67.49 I20.637 J0.
N390 G1 X58.25
N395 G2 X90.141 Y43.865 I0. J-33.338
N400 G3 X100.772 Y35.99 I10.631 J3.238
N405 G1 X110.337
N410 G3 X121.45 Y47.102 I0. J11.113
N415 G1 Y103.95
N420 G3 X103.987 Y121.412 I-17.463 J0.
N425 G1 X-103.95
N430 G3 X-121.412 Y103.95 I0. J-17.463
N435 G1 Y47.151
N440 Y47.149
N445 G3 X-110.3 Y36.036 I11.112 J0.
N450 G1 X-100.772
N455 G3 X-90.141 Y43.911 I0. J11.113
N460 G2 X-58.25 Y67.536 I31.891 J-9.713
N465 G1 X-46.05
N470 G2 X-25.413 Y46.899 I0. J-20.638
N475 G1 Y-58.266
N480 G2 X-51.288 Y-90.757 I-33.337 J0.
N485 G3 X-59.912 Y-101.588 I2.488 J-10.831
N490 G1 Y-110.316
N495 G3 X-48.8 Y-121.428 I11.112 J0.
N500 G1 X-48.78 Y-121.422
N505 X-48.768 Y-121.406
N510 X-48.767 Y-121.385
N515 X-48.778 Y-121.368
N520 X-48.89 Y-121.276
N525 X-49.028 Y-121.231
N530 X-49.048
N535 X-49.065 Y-121.243
N540 X-49.073 Y-121.263
N545 X-49.067 Y-121.283
N550 Z-4.683 F833.33
N555 X-49.053 Y-121.302 Z-4.804
N560 X-49.006 Y-121.352 Z-4.907
N565 X-48.965 Y-121.383 Z-4.941
N570 X-48.919 Y-121.406 Z-4.976
N575 X-48.86 Y-121.423 Z-4.988
N580 X-48.8 Y-121.428 Z-5.
N585 X48.891 F2500.
N590 G3 X60.003 Y-110.316 I0. J11.112
N595 G1 Y-101.588
N600 G3 X51.378 Y-90.757 I-11.113 J0.
N605 G2 X25.503 Y-58.266 I7.462 J32.492
N610 G1 Y46.852
N615 G2 X46.141 Y67.49 I20.637 J0.
N620 G1 X58.25
N625 G2 X90.141 Y43.865 I0. J-33.338
N630 G3 X100.772 Y35.99 I10.631 J3.238
N635 G1 X110.337
N640 G3 X121.45 Y47.102 I0. J11.113
N645 G1 Y103.95
N650 G3 X103.987 Y121.412 I-17.463 J0.
N655 G1 X-103.95
N660 G3 X-121.412 Y103.95 I0. J-17.463
N665 G1 Y47.149
N670 G3 X-110.3 Y36.036 I11.112 J0.
N675 G1 X-100.772
N680 G3 X-90.141 Y43.911 I0. J11.113
N685 G2 X-58.25 Y67.536 I31.891 J-9.713
N690 G1 X-46.05
N695 G2 X-25.413 Y46.899 I0. J-20.638
N700 G1 Y-58.266
N705 G2 X-51.288 Y-90.757 I-33.337 J0.
N710 G3 X-59.912 Y-101.588 I2.488 J-10.831
N715 G1 Y-110.316
N720 G3 X-48.8 Y-121.428 I11.112 J0.
N725 G1 X-48.74 Y-121.423 Z-4.988
N730 X-48.681 Y-121.406 Z-4.976
N735 X-48.635 Y-121.383 Z-4.941
N740 X-48.594 Y-121.352 Z-4.907
N745 X-48.547 Y-121.302 Z-4.804
N750 X-48.533 Y-121.283 Z-4.683
N755 Z5.
N760 X-51.001 Y-93.197
N765 Z1. F833.33
N770 Z-4.683
N775 X-50.983 Y-93.213 Z-4.804
N780 X-50.926 Y-93.251 Z-4.907
N785 X-50.879 Y-93.271 Z-4.941
N790 X-50.829 Y-93.283 Z-4.976
N795 X-50.768 Y-93.287 Z-4.988
N800 X-50.708 Y-93.279 Z-5.
N805 G3 X-22.825 Y-58.266 I-8.042 J35.013 F2500.
N810 G1 Y46.899
N815 G3 X-46.05 Y70.124 I-23.225 J0.
N820 G1 X-58.25
N825 G3 X-92.617 Y44.665 I0. J-35.925
N830 G2 X-100.772 Y38.624 I-8.155 J2.484
N835 G1 X-110.3
N840 G2 X-118.825 Y47.149 I0. J8.525
N845 G1 X-118.826 Y103.95
N850 G2 X-103.95 Y118.825 I14.875 J0.
N855 G1 X103.987
N860 G2 X118.863 Y103.95 I0.001 J-14.875
N865 G1 Y47.102
N870 G2 X110.337 Y38.577 I-8.525 J0.
N875 G1 X100.772
N880 G2 X92.617 Y44.619 I0. J8.525
N885 G3 X58.25 Y70.077 I-34.367 J-10.466
N890 G1 X46.141
N895 G3 X22.916 Y46.852 I0. J-23.225
N900 G1 Y-58.266
N905 G3 X50.799 Y-93.279 I35.925 J0.
N910 G2 X57.416 Y-101.588 I-1.908 J-8.309
N915 G1 Y-110.316
N920 G2 X48.891 Y-118.84 I-8.525 J0.
N925 G1 X-48.8
N930 G2 X-57.325 Y-110.316 I0. J8.525
N935 G1 Y-101.588
N940 G2 X-50.708 Y-93.279 I8.525 J0.
N945 G1 X-50.651 Y-93.26 Z-4.988
N950 X-50.598 Y-93.23 Z-4.976
N955 X-50.558 Y-93.197 Z-4.941
N960 X-50.524 Y-93.159 Z-4.907
N965 X-50.49 Y-93.099 Z-4.804
N970 X-50.481 Y-93.077 Z-4.683
N975 Z15.
N980 G53 G0 Z0.
N985 M30
%
