%
(ROSETTEROUGH)
(T1  D=3.175 CR=0. - ZMIN=9.181 - FLAT END MILL)
N10 G90 G94 G17 G91.1
N15 G21
(WHEN USING FUSION 360 FOR PERSONAL USE, THE FEEDRATE OF)
(RAPID MOVES IS REDUCED TO MATCH THE FEEDRATE OF CUTTING)
(MOVES, WHICH CAN INCREASE MACHINING TIME. UNRESTRICTED RAPID)
(MOVES ARE AVAILABLE WITH A FUSION 360 SUBSCRIPTION.)
N20 G53 G0 Z0.
(ADAPTIVE1)
N25 T1 M6
N30 S10000 M3
N35 G54
N40 M8
N45 G0 X56.898 Y89.03
N50 G43 Z32.381 H1
N55 G1 Z22.381 F2500.
N60 Z19.881
N65 G3 X59.347 Y87.271 Z19.715 I1.225 J-0.88 F833.33
N70 X56.898 Y89.03 Z19.55 I-1.225 J0.88
N75 X59.347 Y87.271 Z19.384 I1.225 J-0.88
N80 X56.898 Y89.03 Z19.219 I-1.225 J0.88
N85 X59.347 Y87.271 Z19.053 I1.225 J-0.88
N90 X56.898 Y89.03 Z18.888 I-1.225 J0.88
N95 X59.347 Y87.271 Z18.722 I1.225 J-0.88
N100 X56.898 Y89.03 Z18.557 I-1.225 J0.88
N105 X59.347 Y87.271 Z18.392 I1.225 J-0.88
N110 X56.898 Y89.03 Z18.226 I-1.225 J0.88
N115 X59.347 Y87.271 Z18.061 I1.225 J-0.88
N120 X56.898 Y89.03 Z17.895 I-1.225 J0.88
N125 X59.347 Y87.271 Z17.73 I1.225 J-0.88
N130 X56.898 Y89.03 Z17.564 I-1.225 J0.88
N135 X59.347 Y87.271 Z17.399 I1.225 J-0.88
N140 X56.898 Y89.03 Z17.233 I-1.225 J0.88
N145 X59.347 Y87.271 Z17.068 I1.225 J-0.88
N150 X56.898 Y89.03 Z16.902 I-1.225 J0.88
N155 X59.347 Y87.271 Z16.737 I1.225 J-0.88
N160 X56.898 Y89.03 Z16.572 I-1.225 J0.88
N165 X59.347 Y87.271 Z16.406 I1.225 J-0.88
N170 X56.898 Y89.03 Z16.241 I-1.225 J0.88
N175 X59.347 Y87.271 Z16.075 I1.225 J-0.88
N180 X56.898 Y89.03 Z15.91 I-1.225 J0.88
N185 X59.347 Y87.271 Z15.744 I1.225 J-0.88
N190 X56.898 Y89.03 Z15.579 I-1.225 J0.88
N195 X59.347 Y87.271 Z15.413 I1.225 J-0.88
N200 X59.631 Y88.151 Z15.381 I-1.225 J0.88
N205 X56.614 I-1.508 J0.
N210 X59.631 I1.508 J0.
N215 G1 X59.65 Y88.888 F2500.
N220 X59.672 Y88.978
N225 X59.687 Y89.127
N230 X59.675 Y89.276
N235 X59.639 Y89.422
N240 X59.584 Y89.562
N245 X59.513 Y89.694
N250 X59.427 Y89.817
N255 X59.329 Y89.93
N260 X59.22 Y90.034
N265 X59.102 Y90.126
N270 X58.977 Y90.208
N275 X58.845 Y90.279
N280 X58.706 Y90.34
N285 X58.559 Y90.39
N290 X58.405 Y90.43
N295 X58.245 Y90.457
N300 X58.08 Y90.472
N305 X57.912 Y90.473
N310 X57.741 Y90.461
N315 X57.569 Y90.435
N320 X57.398 Y90.395
N325 X57.228 Y90.34
N330 X57.062 Y90.271
N335 X56.9 Y90.189
N340 X56.744 Y90.092
N345 X56.596 Y89.983
N350 X56.456 Y89.862
N355 X56.325 Y89.729
N360 X56.205 Y89.585
N365 X56.096 Y89.431
N370 X55.999 Y89.269
N375 X55.916 Y89.099
N380 X55.846 Y88.922
N385 X55.791 Y88.739
N390 X55.75 Y88.553
N395 X55.725 Y88.363
N400 X55.714 Y88.172
N405 X55.72 Y87.98
N410 X55.74 Y87.789
N415 X55.776 Y87.599
N420 X55.827 Y87.414
N425 X55.893 Y87.232
N430 X55.973 Y87.057
N435 X56.067 Y86.888
N440 X56.174 Y86.728
N445 X56.294 Y86.576
N450 X56.426 Y86.434
N455 X56.569 Y86.304
N460 X56.722 Y86.185
N465 X56.884 Y86.079
N470 X57.054 Y85.986
N475 X57.23 Y85.907
N480 X57.413 Y85.843
N485 X57.6 Y85.793
N490 X57.791 Y85.759
N495 X57.984 Y85.74
N500 X58.178 Y85.737
N505 X58.371 Y85.749
N510 X58.563 Y85.777
N515 X58.752 Y85.819
N520 X58.937 Y85.877
N525 X59.117 Y85.95
N530 X59.29 Y86.037
N535 X59.456 Y86.137
N540 X59.613 Y86.251
N545 X59.761 Y86.377
N550 X59.898 Y86.514
N555 X60.024 Y86.662
N560 X60.137 Y86.819
N565 X60.242 Y86.992
N570 X60.353 Y87.214
N575 X60.5 Y87.579
N580 X60.607 Y87.922
N585 X60.671 Y88.204
N590 X60.708 Y88.46
N595 X60.722 Y88.697
N600 X60.718 Y88.92
N605 X60.697 Y89.133
N610 X60.659 Y89.34
N615 X60.606 Y89.543
N620 X60.536 Y89.74
N625 X60.451 Y89.93
N630 X60.351 Y90.113
N635 X60.236 Y90.288
N640 X60.107 Y90.454
N645 X59.962 Y90.612
N650 X59.804 Y90.759
N655 X59.633 Y90.894
N660 X59.449 Y91.017
N665 X59.252 Y91.127
N670 X59.044 Y91.221
N675 X58.826 Y91.3
N680 X58.599 Y91.362
N685 X58.365 Y91.406
N690 X58.126 Y91.432
N695 X57.882 Y91.438
N700 X57.635 Y91.425
N705 X57.388 Y91.391
N710 X57.143 Y91.338
N715 X56.9 Y91.264
N720 X56.662 Y91.17
N725 X56.431 Y91.056
N730 X56.208 Y90.924
N735 X55.996 Y90.773
N740 X55.795 Y90.605
N745 X55.607 Y90.42
N750 X55.434 Y90.22
N755 X55.277 Y90.005
N760 X55.137 Y89.778
N765 X55.015 Y89.539
N770 X54.912 Y89.291
N775 X54.83 Y89.034
N780 X54.768 Y88.771
N785 X54.727 Y88.503
N790 X54.708 Y88.232
N795 X54.711 Y87.961
N800 X54.736 Y87.689
N805 X54.782 Y87.421
N810 X54.85 Y87.156
N815 X54.939 Y86.898
N820 X55.048 Y86.647
N825 X55.178 Y86.406
N830 X55.326 Y86.176
N835 X55.493 Y85.958
N840 X55.676 Y85.755
N845 X55.876 Y85.566
N850 X56.09 Y85.394
N855 X56.317 Y85.24
N860 X56.556 Y85.104
N865 X56.805 Y84.988
N870 X57.063 Y84.893
N875 X57.327 Y84.818
N880 X57.597 Y84.765
N885 X57.87 Y84.733
N890 X58.145 Y84.724
N895 X58.42 Y84.737
N900 X58.693 Y84.772
N905 X58.962 Y84.828
N910 X59.226 Y84.906
N915 X59.482 Y85.005
N920 X59.73 Y85.124
N925 X59.968 Y85.263
N930 X60.194 Y85.42
N935 X60.408 Y85.596
N940 X60.614 Y85.796
N945 X60.828 Y86.04
N950 X61.03 Y86.31
N955 X61.216 Y86.607
N960 X61.381 Y86.924
N965 X61.518 Y87.249
N970 X61.626 Y87.575
N975 X61.705 Y87.899
N980 X61.756 Y88.219
N985 X61.781 Y88.535
N990 Y88.848
N995 X61.755 Y89.155
N1000 X61.706 Y89.457
N1005 X61.633 Y89.751
N1010 X61.537 Y90.036
N1015 X61.419 Y90.312
N1020 X61.28 Y90.578
N1025 X61.119 Y90.831
N1030 X60.938 Y91.072
N1035 X60.737 Y91.299
N1040 X60.518 Y91.509
N1045 X60.281 Y91.703
N1050 X60.026 Y91.879
N1055 X59.757 Y92.035
N1060 X59.473 Y92.17
N1065 X59.177 Y92.282
N1070 X58.87 Y92.372
N1075 X58.554 Y92.437
N1080 X58.232 Y92.477
N1085 X57.905 Y92.49
N1090 X57.575 Y92.478
N1095 X57.245 Y92.439
N1100 X56.917 Y92.373
N1105 X56.594 Y92.28
N1110 X56.276 Y92.161
N1115 X55.968 Y92.016
N1120 X55.671 Y91.845
N1125 X55.387 Y91.651
N1130 X55.118 Y91.433
N1135 X54.866 Y91.193
N1140 X54.633 Y90.933
N1145 X54.421 Y90.653
N1150 X54.232 Y90.357
N1155 X54.067 Y90.045
N1160 X53.926 Y89.721
N1165 X53.812 Y89.385
N1170 X53.725 Y89.04
N1175 X53.666 Y88.688
N1180 X53.635 Y88.333
N1185 X53.633 Y87.975
N1190 X53.659 Y87.618
N1195 X53.714 Y87.264
N1200 X53.798 Y86.914
N1205 X53.909 Y86.573
N1210 X54.048 Y86.241
N1215 X54.213 Y85.921
N1220 X54.403 Y85.615
N1225 X54.617 Y85.325
N1230 X54.854 Y85.053
N1235 X55.112 Y84.801
N1240 X55.39 Y84.57
N1245 X55.685 Y84.362
N1250 X55.997 Y84.179
N1255 X56.322 Y84.021
N1260 X56.658 Y83.89
N1265 X57.005 Y83.786
N1270 X57.358 Y83.71
N1275 X57.717 Y83.663
N1280 X58.078 Y83.645
N1285 X58.439 Y83.655
N1290 X58.799 Y83.695
N1295 X59.154 Y83.764
N1300 X59.503 Y83.861
N1305 X59.843 Y83.985
N1310 X60.172 Y84.137
N1315 X60.49 Y84.315
N1320 X60.802 Y84.525
N1325 X61.106 Y84.767
N1330 X61.398 Y85.041
N1335 X61.674 Y85.345
N1340 X61.93 Y85.677
N1345 X62.16 Y86.03
N1350 X62.361 Y86.402
N1355 X62.531 Y86.786
N1360 X62.668 Y87.179
N1365 X62.773 Y87.579
N1370 X62.844 Y87.982
N1375 X62.882 Y88.386
N1380 X62.888 Y88.788
N1385 X62.862 Y89.186
N1390 X62.804 Y89.579
N1395 X62.715 Y89.963
N1400 X62.597 Y90.338
N1405 X62.449 Y90.701
N1410 X62.272 Y91.051
N1415 X62.068 Y91.385
N1420 X61.837 Y91.703
N1425 X61.581 Y92.002
N1430 X61.301 Y92.28
N1435 X60.998 Y92.536
N1440 X60.673 Y92.768
N1445 X60.33 Y92.974
N1450 X59.968 Y93.154
N1455 X59.591 Y93.304
N1460 X59.201 Y93.425
N1465 X58.8 Y93.514
N1470 X58.391 Y93.571
N1475 X57.976 Y93.596
N1480 X57.558 Y93.587
N1485 X57.139 Y93.544
N1490 X56.724 Y93.467
N1495 X56.313 Y93.357
N1500 X55.911 Y93.213
N1505 X55.519 Y93.037
N1510 X55.142 Y92.829
N1515 X54.781 Y92.59
N1520 X54.438 Y92.322
N1525 X54.117 Y92.026
N1530 X53.82 Y91.705
N1535 X53.549 Y91.359
N1540 X53.306 Y90.992
N1545 X53.092 Y90.605
N1550 X52.909 Y90.201
N1555 X52.76 Y89.783
N1560 X52.644 Y89.353
N1565 X52.562 Y88.915
N1570 X52.516 Y88.471
N1575 X52.506 Y88.024
N1580 X52.532 Y87.577
N1585 X52.594 Y87.132
N1590 X52.691 Y86.694
N1595 X52.823 Y86.265
N1600 X52.99 Y85.847
N1605 X53.189 Y85.443
N1610 X53.421 Y85.057
N1615 X53.683 Y84.69
N1620 X53.973 Y84.346
N1625 X54.291 Y84.025
N1630 X54.633 Y83.731
N1635 X54.998 Y83.465
N1640 X55.383 Y83.23
N1645 X55.786 Y83.026
N1650 X56.205 Y82.855
N1655 X56.635 Y82.718
N1660 X57.076 Y82.615
N1665 X57.523 Y82.549
N1670 X57.974 Y82.519
N1675 X58.426 Y82.525
N1680 X58.876 Y82.567
N1685 X59.322 Y82.646
N1690 X59.76 Y82.76
N1695 X60.19 Y82.909
N1700 X60.611 Y83.095
N1705 X61.02 Y83.316
N1710 X61.416 Y83.573
N1715 X61.797 Y83.866
N1720 X62.16 Y84.195
N1725 X62.501 Y84.558
N1730 X62.814 Y84.951
N1735 X63.097 Y85.37
N1740 X63.345 Y85.811
N1745 X63.558 Y86.271
N1750 X63.732 Y86.744
N1755 X63.867 Y87.228
N1760 X63.962 Y87.719
N1765 X64.017 Y88.213
N1770 X64.032 Y88.707
N1775 X64.008 Y89.198
N1780 X63.945 Y89.683
N1785 X63.843 Y90.16
N1790 X63.704 Y90.626
N1795 X63.528 Y91.079
N1800 X63.316 Y91.515
N1805 X63.07 Y91.933
N1810 X62.792 Y92.331
N1815 X62.481 Y92.705
N1820 X62.141 Y93.054
N1825 X61.772 Y93.376
N1830 X61.378 Y93.668
N1835 X60.959 Y93.929
N1840 X60.52 Y94.156
N1845 X60.061 Y94.348
N1850 X59.585 Y94.504
N1855 X59.097 Y94.621
N1860 X58.598 Y94.699
N1865 X58.093 Y94.738
N1870 X57.583 Y94.735
N1875 X57.073 Y94.691
N1880 X56.566 Y94.606
N1885 X56.065 Y94.48
N1890 X55.574 Y94.314
N1895 X55.095 Y94.108
N1900 X54.633 Y93.863
N1905 X54.191 Y93.581
N1910 X53.771 Y93.263
N1915 X53.377 Y92.912
N1920 X53.011 Y92.529
N1925 X52.677 Y92.116
N1930 X52.375 Y91.677
N1935 X52.109 Y91.214
N1940 X51.881 Y90.73
N1945 X51.692 Y90.229
N1950 X51.543 Y89.713
N1955 X51.437 Y89.185
N1960 X51.373 Y88.65
N1965 X51.351 Y88.111
N1970 X51.374 Y87.572
N1975 X51.439 Y87.035
N1980 X51.548 Y86.505
N1985 X51.699 Y85.984
N1990 X51.891 Y85.477
N1995 X52.124 Y84.987
N2000 X52.395 Y84.517
N2005 X52.703 Y84.069
N2010 X53.047 Y83.648
N2015 X53.423 Y83.256
N2020 X53.83 Y82.894
N2025 X54.264 Y82.567
N2030 X54.724 Y82.275
N2035 X55.206 Y82.021
N2040 X55.706 Y81.807
N2045 X56.223 Y81.633
N2050 X56.751 Y81.502
N2055 X57.289 Y81.413
N2060 X57.832 Y81.367
N2065 X58.377 Y81.366
N2070 X58.92 Y81.408
N2075 X59.46 Y81.493
N2080 X59.993 Y81.623
N2085 X60.516 Y81.795
N2090 X61.028 Y82.011
N2095 X61.526 Y82.27
N2100 X62.008 Y82.571
N2105 X62.47 Y82.915
N2110 X62.907 Y83.298
N2115 X63.316 Y83.72
N2120 X63.693 Y84.176
N2125 X64.033 Y84.663
N2130 X64.334 Y85.177
N2135 X64.593 Y85.714
N2140 X64.807 Y86.269
N2145 X64.976 Y86.838
N2150 X65.098 Y87.418
N2155 X65.173 Y88.003
N2160 X65.201 Y88.59
N2165 X65.182 Y89.176
N2170 X65.116 Y89.756
N2175 X65.004 Y90.328
N2180 X64.846 Y90.887
N2185 X64.645 Y91.432
N2190 X64.401 Y91.958
N2195 X64.115 Y92.463
N2200 X63.789 Y92.943
N2205 X63.426 Y93.397
N2210 X63.026 Y93.82
N2215 X62.593 Y94.211
N2220 X62.129 Y94.568
N2225 X61.635 Y94.886
N2230 X61.116 Y95.165
N2235 X60.575 Y95.403
N2240 X60.014 Y95.597
N2245 X59.436 Y95.745
N2250 X58.847 Y95.848
N2255 X58.249 Y95.903
N2260 X57.645 Y95.91
N2265 X57.041 Y95.868
N2270 X56.44 Y95.777
N2275 X55.846 Y95.638
N2280 X55.263 Y95.451
N2285 X54.695 Y95.218
N2290 X54.145 Y94.938
N2295 X53.618 Y94.614
N2300 X53.118 Y94.248
N2305 X52.647 Y93.842
N2310 X52.209 Y93.398
N2315 X51.807 Y92.919
N2320 X51.444 Y92.408
N2325 X51.122 Y91.869
N2330 X50.845 Y91.305
N2335 X50.613 Y90.719
N2340 X50.428 Y90.115
N2345 X50.293 Y89.497
N2350 X50.207 Y88.87
N2355 X50.172 Y88.237
N2360 X50.187 Y87.603
N2365 X50.254 Y86.971
N2370 X50.371 Y86.346
N2375 X50.538 Y85.732
N2380 X50.754 Y85.133
N2385 X51.018 Y84.553
N2390 X51.328 Y83.995
N2395 X51.681 Y83.464
N2400 X52.076 Y82.963
N2405 X52.51 Y82.494
N2410 X52.981 Y82.063
N2415 X53.485 Y81.67
N2420 X54.019 Y81.318
N2425 X54.579 Y81.011
N2430 X55.163 Y80.749
N2435 X55.766 Y80.536
N2440 X56.384 Y80.371
N2445 X57.013 Y80.256
N2450 X57.65 Y80.192
N2455 X58.29 Y80.18
N2460 X58.93 Y80.219
N2465 X59.567 Y80.309
N2470 X60.196 Y80.451
N2475 X60.816 Y80.644
N2480 X61.422 Y80.888
N2485 X62.012 Y81.182
N2490 X62.58 Y81.525
N2495 X63.124 Y81.916
N2500 X63.639 Y82.352
N2505 X64.12 Y82.832
N2510 X64.564 Y83.352
N2515 X64.966 Y83.908
N2520 X65.323 Y84.496
N2525 X65.632 Y85.112
N2530 X65.891 Y85.751
N2535 X66.098 Y86.407
N2540 X66.251 Y87.077
N2545 X66.349 Y87.756
N2550 X66.393 Y88.438
N2555 X66.382 Y89.12
N2560 X66.316 Y89.797
N2565 X66.196 Y90.465
N2570 X66.023 Y91.121
N2575 X65.799 Y91.76
N2580 X65.524 Y92.378
N2585 X65.2 Y92.973
N2590 X64.83 Y93.539
N2595 X64.415 Y94.075
N2600 X63.957 Y94.576
N2605 X63.46 Y95.04
N2610 X62.926 Y95.464
N2615 X62.359 Y95.844
N2620 X61.761 Y96.178
N2625 X61.136 Y96.464
N2630 X60.488 Y96.7
N2635 X59.822 Y96.884
N2640 X59.14 Y97.014
N2645 X58.448 Y97.089
N2650 X57.75 Y97.108
N2655 X57.05 Y97.071
N2660 X56.353 Y96.978
N2665 X55.663 Y96.829
N2670 X54.986 Y96.624
N2675 X54.325 Y96.364
N2680 X53.685 Y96.052
N2685 X53.071 Y95.688
N2690 X52.486 Y95.275
N2695 X51.935 Y94.815
N2700 X51.421 Y94.311
N2705 X50.949 Y93.767
N2710 X50.52 Y93.185
N2715 X50.14 Y92.57
N2720 X49.809 Y91.924
N2725 X49.53 Y91.254
N2730 X49.306 Y90.562
N2735 X49.138 Y89.853
N2740 X49.028 Y89.132
N2745 X48.975 Y88.404
N2750 X48.981 Y87.673
N2755 X49.046 Y86.945
N2760 X49.169 Y86.223
N2765 X49.35 Y85.513
N2770 X49.587 Y84.82
N2775 X49.88 Y84.147
N2780 X50.225 Y83.499
N2785 X50.622 Y82.881
N2790 X51.067 Y82.297
N2795 X51.558 Y81.75
N2800 X52.092 Y81.244
N2805 X52.664 Y80.783
N2810 X53.272 Y80.368
N2815 X53.911 Y80.004
N2820 X54.577 Y79.692
N2825 X55.267 Y79.435
N2830 X55.975 Y79.233
N2835 X56.697 Y79.09
N2840 X57.428 Y79.004
N2845 X58.165 Y78.978
N2850 X58.902 Y79.01
N2855 X59.634 Y79.102
N2860 X60.357 Y79.252
N2865 X61.065 Y79.459
N2870 X61.754 Y79.722
N2875 X62.421 Y80.038
N2880 X63.06 Y80.406
N2885 X63.67 Y80.822
N2890 X64.245 Y81.284
N2895 X64.783 Y81.789
N2900 X65.281 Y82.333
N2905 X65.737 Y82.914
N2910 X66.147 Y83.527
N2915 X66.51 Y84.169
N2920 X66.824 Y84.837
N2925 X67.086 Y85.527
N2930 X67.296 Y86.234
N2935 X67.452 Y86.955
N2940 X67.554 Y87.686
N2945 X67.599 Y88.422
N2950 X67.588 Y89.16
N2955 X67.519 Y89.895
N2960 X67.395 Y90.622
N2965 X67.215 Y91.338
N2970 X66.981 Y92.037
N2975 X66.695 Y92.717
N2980 X66.357 Y93.373
N2985 X65.97 Y94.001
N2990 X65.536 Y94.598
N2995 X65.058 Y95.16
N3000 X64.539 Y95.684
N3005 X63.981 Y96.167
N3010 X63.389 Y96.607
N3015 X62.764 Y97.
N3020 X62.112 Y97.345
N3025 X61.436 Y97.639
N3030 X60.739 Y97.883
N3035 X60.026 Y98.073
N3040 X59.301 Y98.209
N3045 X58.568 Y98.29
N3050 X57.83 Y98.315
N3055 X57.093 Y98.284
N3060 X56.36 Y98.199
N3065 X55.636 Y98.06
N3070 X54.923 Y97.868
N3075 X54.227 Y97.625
N3080 X53.55 Y97.332
N3085 X52.896 Y96.99
N3090 X52.268 Y96.602
N3095 X51.67 Y96.169
N3100 X51.106 Y95.694
N3105 X50.579 Y95.178
N3110 X50.091 Y94.625
N3115 X49.644 Y94.037
N3120 X49.241 Y93.419
N3125 X48.884 Y92.774
N3130 X48.573 Y92.105
N3135 X48.31 Y91.415
N3140 X48.098 Y90.709
N3145 X47.935 Y89.989
N3150 X47.826 Y89.259
N3155 X47.771 Y88.524
N3160 X47.769 Y87.786
N3165 X47.821 Y87.05
N3170 X47.924 Y86.319
N3175 X48.079 Y85.598
N3180 X48.284 Y84.889
N3185 X48.538 Y84.196
N3190 X48.84 Y83.523
N3195 X49.191 Y82.874
N3200 X49.588 Y82.252
N3205 X50.029 Y81.661
N3210 X50.511 Y81.102
N3215 X51.032 Y80.579
N3220 X51.588 Y80.094
N3225 X52.176 Y79.649
N3230 X52.794 Y79.247
N3235 X53.439 Y78.888
N3240 X54.109 Y78.578
N3245 X54.799 Y78.317
N3250 X55.506 Y78.107
N3255 X56.227 Y77.948
N3260 X56.956 Y77.839
N3265 X57.692 Y77.782
N3270 X58.43 Y77.777
N3275 X59.166 Y77.823
N3280 X59.898 Y77.921
N3285 X60.62 Y78.072
N3290 X61.329 Y78.275
N3295 X62.022 Y78.527
N3300 X62.697 Y78.827
N3305 X63.348 Y79.173
N3310 X63.975 Y79.562
N3315 X64.574 Y79.993
N3320 X65.142 Y80.463
N3325 X65.678 Y80.971
N3330 X66.176 Y81.515
N3335 X66.635 Y82.093
N3340 X67.055 Y82.7
N3345 X67.433 Y83.333
N3350 X67.768 Y83.99
N3355 X68.059 Y84.668
N3360 X68.305 Y85.364
N3365 X68.504 Y86.075
N3370 X68.655 Y86.797
N3375 X68.756 Y87.528
N3380 X68.805 Y88.264
N3385 X68.804 Y89.002
N3390 X68.753 Y89.738
N3395 X68.653 Y90.469
N3400 X68.504 Y91.191
N3405 X68.306 Y91.902
N3410 X68.062 Y92.598
N3415 X67.771 Y93.276
N3420 X67.433 Y93.932
N3425 X67.05 Y94.563
N3430 X66.625 Y95.166
N3435 X66.16 Y95.739
N3440 X65.658 Y96.28
N3445 X65.121 Y96.786
N3450 X64.552 Y97.255
N3455 X63.953 Y97.685
N3460 X63.326 Y98.075
N3465 X62.673 Y98.419
N3470 X61.999 Y98.718
N3475 X61.306 Y98.972
N3480 X60.598 Y99.178
N3485 X59.877 Y99.337
N3490 X59.148 Y99.448
N3495 X58.413 Y99.51
N3500 X57.675 Y99.523
N3505 X56.938 Y99.488
N3510 X56.205 Y99.402
N3515 X55.48 Y99.267
N3520 X54.765 Y99.085
N3525 X54.063 Y98.856
N3530 X53.378 Y98.583
N3535 X52.712 Y98.266
N3540 X52.067 Y97.907
N3545 X51.447 Y97.508
N3550 X50.853 Y97.07
N3555 X50.29 Y96.593
N3560 X49.761 Y96.078
N3565 X49.268 Y95.53
N3570 X48.81 Y94.951
N3575 X48.391 Y94.343
N3580 X48.012 Y93.711
N3585 X47.673 Y93.055
N3590 X47.376 Y92.38
N3595 X47.122 Y91.687
N3600 X46.912 Y90.98
N3605 X46.751 Y90.26
N3610 X46.637 Y89.531
N3615 X46.571 Y88.796
N3620 X46.553 Y88.059
N3625 X46.582 Y87.321
N3630 X46.657 Y86.587
N3635 X46.778 Y85.859
N3640 X46.944 Y85.141
N3645 X47.155 Y84.434
N3650 X47.411 Y83.741
N3655 X47.711 Y83.068
N3660 X48.056 Y82.415
N3665 X48.442 Y81.786
N3670 X48.867 Y81.184
N3675 X49.33 Y80.609
N3680 X49.828 Y80.064
N3685 X50.358 Y79.552
N3690 X50.92 Y79.073
N3695 X51.511 Y78.631
N3700 X52.129 Y78.228
N3705 X52.772 Y77.867
N3710 X53.437 Y77.548
N3715 X54.122 Y77.272
N3720 X54.822 Y77.041
N3725 X55.536 Y76.854
N3730 X56.26 Y76.712
N3735 X56.992 Y76.616
N3740 X57.728 Y76.565
N3745 X58.465 Y76.561
N3750 X59.202 Y76.606
N3755 X59.934 Y76.698
N3760 X60.659 Y76.836
N3765 X61.373 Y77.021
N3770 X62.074 Y77.25
N3775 X62.76 Y77.522
N3780 X63.428 Y77.836
N3785 X64.075 Y78.19
N3790 X64.7 Y78.583
N3795 X65.298 Y79.014
N3800 X65.869 Y79.482
N3805 X66.409 Y79.985
N3810 X66.917 Y80.52
N3815 X67.392 Y81.085
N3820 X67.831 Y81.678
N3825 X68.234 Y82.296
N3830 X68.6 Y82.936
N3835 X68.927 Y83.598
N3840 X69.214 Y84.277
N3845 X69.459 Y84.973
N3850 X69.661 Y85.683
N3855 X69.819 Y86.404
N3860 X69.932 Y87.133
N3865 X70. Y87.867
N3870 X70.024 Y88.605
N3875 X70.003 Y89.342
N3880 X69.937 Y90.077
N3885 X69.828 Y90.807
N3890 X69.674 Y91.529
N3895 X69.477 Y92.239
N3900 X69.235 Y92.937
N3905 X68.951 Y93.617
N3910 X68.625 Y94.279
N3915 X68.259 Y94.92
N3920 X67.855 Y95.537
N3925 X67.414 Y96.129
N3930 X66.938 Y96.693
N3935 X66.43 Y97.228
N3940 X65.891 Y97.731
N3945 X65.321 Y98.2
N3950 X64.724 Y98.634
N3955 X64.101 Y99.029
N3960 X63.455 Y99.386
N3965 X62.789 Y99.702
N3970 X62.105 Y99.978
N3975 X61.405 Y100.213
N3980 X60.693 Y100.406
N3985 X59.971 Y100.556
N3990 X59.241 Y100.663
N3995 X58.505 Y100.725
N4000 X57.768 Y100.742
N4005 X57.03 Y100.714
N4010 X56.296 Y100.641
N4015 X55.568 Y100.525
N4020 X54.847 Y100.366
N4025 X54.137 Y100.164
N4030 X53.441 Y99.922
N4035 X52.759 Y99.64
N4040 X52.094 Y99.319
N4045 X51.45 Y98.96
N4050 X50.828 Y98.563
N4055 X50.231 Y98.129
N4060 X49.662 Y97.66
N4065 X49.121 Y97.158
N4070 X48.611 Y96.625
N4075 X48.133 Y96.063
N4080 X47.688 Y95.474
N4085 X47.278 Y94.861
N4090 X46.903 Y94.225
N4095 X46.566 Y93.569
N4100 X46.267 Y92.894
N4105 X46.009 Y92.203
N4110 X45.792 Y91.498
N4115 X45.616 Y90.782
N4120 X45.483 Y90.056
N4125 X45.393 Y89.324
N4130 X45.345 Y88.587
N4135 X45.339 Y87.85
N4140 X45.375 Y87.113
N4145 X45.454 Y86.379
N4150 X45.574 Y85.651
N4155 X45.737 Y84.932
N4160 X45.942 Y84.223
N4165 X46.187 Y83.527
N4170 X46.472 Y82.846
N4175 X46.797 Y82.184
N4180 X47.159 Y81.541
N4185 X47.558 Y80.92
N4190 X47.992 Y80.323
N4195 X48.458 Y79.752
N4200 X48.957 Y79.208
N4205 X49.487 Y78.694
N4210 X50.045 Y78.212
N4215 X50.63 Y77.763
N4220 X51.241 Y77.348
N4225 X51.874 Y76.97
N4230 X52.528 Y76.629
N4235 X53.201 Y76.326
N4240 X53.89 Y76.062
N4245 X54.593 Y75.838
N4250 X55.308 Y75.654
N4255 X56.032 Y75.512
N4260 X56.763 Y75.413
N4265 X57.498 Y75.355
N4270 X58.236 Y75.34
N4275 X58.973 Y75.368
N4280 X59.708 Y75.438
N4285 X60.437 Y75.55
N4290 X61.159 Y75.704
N4295 X61.87 Y75.898
N4300 X62.57 Y76.132
N4305 X63.255 Y76.406
N4310 X63.924 Y76.718
N4315 X64.574 Y77.068
N4320 X65.202 Y77.454
N4325 X65.809 Y77.874
N4330 X66.39 Y78.328
N4335 X66.946 Y78.814
N4340 X67.473 Y79.329
N4345 X67.972 Y79.874
N4350 X68.439 Y80.444
N4355 X68.875 Y81.04
N4360 X69.278 Y81.658
N4365 X69.645 Y82.298
N4370 X69.977 Y82.957
N4375 X70.272 Y83.633
N4380 X70.529 Y84.325
N4385 X70.748 Y85.029
N4390 X70.927 Y85.745
N4395 X71.067 Y86.469
N4400 X71.167 Y87.2
N4405 X71.226 Y87.936
N4410 X71.245 Y88.673
N4415 X71.223 Y89.411
N4420 X71.16 Y90.146
N4425 X71.056 Y90.876
N4430 X70.911 Y91.6
N4435 X70.726 Y92.314
N4440 X70.502 Y93.017
N4445 X70.239 Y93.707
N4450 X69.939 Y94.38
N4455 X69.601 Y95.036
N4460 X69.228 Y95.673
N4465 X68.82 Y96.288
N4470 X68.379 Y96.879
N4475 X67.906 Y97.445
N4480 X67.401 Y97.984
N4485 X66.868 Y98.494
N4490 X66.308 Y98.974
N4495 X65.722 Y99.422
N4500 X65.112 Y99.837
N4505 X64.48 Y100.217
N4510 X63.828 Y100.563
N4515 X63.158 Y100.873
N4520 X62.472 Y101.145
N4525 X61.773 Y101.38
N4530 X61.061 Y101.575
N4535 X60.34 Y101.731
N4540 X59.612 Y101.847
N4545 X58.878 Y101.923
N4550 X58.141 Y101.958
N4555 X57.403 Y101.953
N4560 X56.666 Y101.908
N4565 X55.934 Y101.823
N4570 X55.206 Y101.699
N4575 X54.487 Y101.536
N4580 X53.777 Y101.334
N4585 X53.079 Y101.094
N4590 X52.396 Y100.817
N4595 X51.727 Y100.504
N4600 X51.077 Y100.155
N4605 X50.446 Y99.773
N4610 X49.837 Y99.356
N4615 X49.251 Y98.908
N4620 X48.69 Y98.429
N4625 X48.156 Y97.92
N4630 X47.649 Y97.384
N4635 X47.172 Y96.821
N4640 X46.726 Y96.233
N4645 X46.312 Y95.623
N4650 X45.93 Y94.991
N4655 X45.583 Y94.34
N4660 X45.27 Y93.672
N4665 X44.994 Y92.988
N4670 X44.753 Y92.29
N4675 X44.551 Y91.581
N4680 X44.386 Y90.862
N4685 X44.259 Y90.135
N4690 X44.171 Y89.402
N4695 X44.122 Y88.666
N4700 X44.113 Y87.928
N4705 X44.143 Y87.191
N4710 X44.212 Y86.456
N4715 X44.319 Y85.726
N4720 X44.464 Y85.003
N4725 X44.647 Y84.288
N4730 X44.867 Y83.584
N4735 X45.124 Y82.893
N4740 X45.418 Y82.215
N4745 X45.746 Y81.555
N4750 X46.109 Y80.912
N4755 X46.506 Y80.29
N4760 X46.935 Y79.69
N4765 X47.395 Y79.114
N4770 X47.885 Y78.562
N4775 X48.403 Y78.037
N4780 X48.948 Y77.539
N4785 X49.518 Y77.071
N4790 X50.112 Y76.633
N4795 X50.728 Y76.227
N4800 X51.365 Y75.854
N4805 X52.02 Y75.515
N4810 X52.693 Y75.211
N4815 X53.38 Y74.944
N4820 X54.081 Y74.714
N4825 X54.793 Y74.52
N4830 X55.514 Y74.364
N4835 X56.243 Y74.246
N4840 X56.976 Y74.166
N4845 X57.713 Y74.125
N4850 X58.451 Y74.122
N4855 X59.188 Y74.157
N4860 X59.922 Y74.231
N4865 X60.651 Y74.344
N4870 X61.373 Y74.496
N4875 X62.086 Y74.685
N4880 X62.788 Y74.911
N4885 X63.478 Y75.174
N4890 X64.153 Y75.471
N4895 X64.812 Y75.803
N4900 X65.453 Y76.168
N4905 X66.075 Y76.566
N4910 X66.675 Y76.994
N4915 X67.253 Y77.453
N4920 X67.807 Y77.941
N4925 X68.335 Y78.456
N4930 X68.835 Y78.998
N4935 X69.307 Y79.565
N4940 X69.75 Y80.155
N4945 X70.163 Y80.767
N4950 X70.544 Y81.398
N4955 X70.894 Y82.048
N4960 X71.21 Y82.715
N4965 X71.493 Y83.396
N4970 X71.741 Y84.091
N4975 X71.954 Y84.797
N4980 X72.132 Y85.514
N4985 X72.272 Y86.238
N4990 X72.375 Y86.969
N4995 X72.44 Y87.704
N5000 X72.468 Y88.441
N5005 X72.459 Y89.179
N5010 X72.412 Y89.915
N5015 X72.328 Y90.648
N5020 X72.207 Y91.376
N5025 X72.05 Y92.097
N5030 X71.856 Y92.809
N5035 X71.627 Y93.51
N5040 X71.362 Y94.199
N5045 X71.062 Y94.873
N5050 X70.728 Y95.53
N5055 X70.36 Y96.17
N5060 X69.961 Y96.79
N5065 X69.53 Y97.39
N5070 X69.07 Y97.966
N5075 X68.582 Y98.519
N5080 X68.066 Y99.047
N5085 X67.524 Y99.548
N5090 X66.958 Y100.021
N5095 X66.369 Y100.465
N5100 X65.758 Y100.879
N5105 X65.127 Y101.26
N5110 X64.477 Y101.609
N5115 X63.81 Y101.925
N5120 X63.128 Y102.207
N5125 X62.433 Y102.454
N5130 X61.726 Y102.666
N5135 X61.01 Y102.842
N5140 X60.285 Y102.983
N5145 X59.555 Y103.087
N5150 X58.82 Y103.154
N5155 X58.083 Y103.185
N5160 X57.345 Y103.179
N5165 X56.609 Y103.134
N5170 X55.875 Y103.053
N5175 X55.147 Y102.936
N5180 X54.425 Y102.782
N5185 X53.712 Y102.593
N5190 X53.009 Y102.369
N5195 X52.318 Y102.111
N5200 X51.64 Y101.82
N5205 X50.977 Y101.495
N5210 X50.331 Y101.139
N5215 X49.703 Y100.752
N5220 X49.095 Y100.334
N5225 X48.509 Y99.886
N5230 X47.946 Y99.409
N5235 X47.407 Y98.905
N5240 X46.894 Y98.375
N5245 X46.407 Y97.82
N5250 X45.949 Y97.242
N5255 X45.519 Y96.643
N5260 X45.118 Y96.023
N5265 X44.748 Y95.385
N5270 X44.409 Y94.73
N5275 X44.102 Y94.059
N5280 X43.828 Y93.374
N5285 X43.587 Y92.676
N5290 X43.383 Y91.967
N5295 X43.213 Y91.249
N5300 X43.078 Y90.524
N5305 X42.979 Y89.793
N5310 X42.916 Y89.058
N5315 X42.889 Y88.32
N5320 X42.897 Y87.582
N5325 X42.941 Y86.846
N5330 X43.02 Y86.112
N5335 X43.134 Y85.383
N5340 X43.283 Y84.661
N5345 X43.467 Y83.946
N5350 X43.687 Y83.242
N5355 X43.94 Y82.549
N5360 X44.227 Y81.869
N5365 X44.547 Y81.204
N5370 X44.898 Y80.556
N5375 X45.281 Y79.925
N5380 X45.694 Y79.313
N5385 X46.135 Y78.722
N5390 X46.605 Y78.153
N5395 X47.101 Y77.607
N5400 X47.623 Y77.086
N5405 X48.169 Y76.59
N5410 X48.739 Y76.121
N5415 X49.332 Y75.681
N5420 X49.945 Y75.271
N5425 X50.577 Y74.89
N5430 X51.227 Y74.541
N5435 X51.893 Y74.224
N5440 X52.573 Y73.939
N5445 X53.267 Y73.687
N5450 X53.972 Y73.47
N5455 X54.687 Y73.286
N5460 X55.409 Y73.136
N5465 X56.138 Y73.021
N5470 X56.871 Y72.942
N5475 X57.608 Y72.899
N5480 X58.346 Y72.892
N5485 X59.083 Y72.921
N5490 X59.818 Y72.985
N5495 X60.549 Y73.084
N5500 X61.275 Y73.219
N5505 X61.993 Y73.388
N5510 X62.702 Y73.592
N5515 X63.401 Y73.829
N5520 X64.087 Y74.099
N5525 X64.76 Y74.401
N5530 X65.419 Y74.734
N5535 X66.06 Y75.099
N5540 X66.683 Y75.494
N5545 X67.287 Y75.918
N5550 X67.87 Y76.371
N5555 X68.431 Y76.85
N5560 X68.968 Y77.355
N5565 X69.482 Y77.885
N5570 X69.97 Y78.438
N5575 X70.432 Y79.013
N5580 X70.866 Y79.61
N5585 X71.273 Y80.225
N5590 X71.651 Y80.859
N5595 X71.999 Y81.509
N5600 X72.317 Y82.175
N5605 X72.602 Y82.856
N5610 X72.856 Y83.549
N5615 X73.077 Y84.253
N5620 X73.265 Y84.966
N5625 X73.419 Y85.687
N5630 X73.54 Y86.415
N5635 X73.626 Y87.148
N5640 X73.678 Y87.884
N5645 X73.696 Y88.622
N5650 X73.68 Y89.359
N5655 X73.629 Y90.095
N5660 X73.545 Y90.828
N5665 X73.425 Y91.556
N5670 X73.271 Y92.278
N5675 X73.083 Y92.991
N5680 X72.862 Y93.695
N5685 X72.608 Y94.388
N5690 X72.322 Y95.068
N5695 X72.004 Y95.734
N5700 X71.656 Y96.385
N5705 X71.278 Y97.018
N5710 X70.87 Y97.633
N5715 X70.435 Y98.229
N5720 X69.972 Y98.803
N5725 X69.483 Y99.356
N5730 X68.968 Y99.885
N5735 X68.429 Y100.388
N5740 X67.867 Y100.866
N5745 X67.284 Y101.318
N5750 X66.68 Y101.742
N5755 X66.057 Y102.137
N5760 X65.416 Y102.502
N5765 X64.758 Y102.838
N5770 X64.086 Y103.142
N5775 X63.401 Y103.416
N5780 X62.704 Y103.657
N5785 X61.997 Y103.866
N5790 X61.28 Y104.042
N5795 X60.556 Y104.184
N5800 X59.826 Y104.292
N5805 X59.092 Y104.366
N5810 X58.355 Y104.406
N5815 X57.617 Y104.412
N5820 X56.88 Y104.384
N5825 X56.145 Y104.322
N5830 X55.414 Y104.226
N5835 X54.687 Y104.096
N5840 X53.967 Y103.934
N5845 X53.256 Y103.74
N5850 X52.553 Y103.513
N5855 X51.862 Y103.255
N5860 X51.184 Y102.965
N5865 X50.52 Y102.644
N5870 X49.871 Y102.293
N5875 X49.238 Y101.913
N5880 X48.623 Y101.505
N5885 X48.028 Y101.069
N5890 X47.454 Y100.606
N5895 X46.901 Y100.117
N5900 X46.371 Y99.604
N5905 X45.864 Y99.068
N5910 X45.382 Y98.509
N5915 X44.926 Y97.929
N5920 X44.497 Y97.329
N5925 X44.095 Y96.71
N5930 X43.722 Y96.074
N5935 X43.378 Y95.421
N5940 X43.064 Y94.753
N5945 X42.779 Y94.072
N5950 X42.526 Y93.379
N5955 X42.305 Y92.676
N5960 X42.116 Y91.962
N5965 X41.959 Y91.242
N5970 X41.834 Y90.514
N5975 X41.742 Y89.782
N5980 X41.684 Y89.047
N5985 X41.658 Y88.309
N5990 X41.665 Y87.572
N5995 X41.707 Y86.835
N6000 X41.781 Y86.101
N6005 X41.888 Y85.371
N6010 X42.027 Y84.646
N6015 X42.199 Y83.929
N6020 X42.403 Y83.22
N6025 X42.639 Y82.521
N6030 X42.905 Y81.833
N6035 X43.202 Y81.157
N6040 X43.53 Y80.496
N6045 X43.886 Y79.85
N6050 X44.271 Y79.22
N6055 X44.683 Y78.609
N6060 X45.124 Y78.017
N6065 X45.59 Y77.445
N6070 X46.082 Y76.895
N6075 X46.597 Y76.367
N6080 X47.136 Y75.863
N6085 X47.696 Y75.383
N6090 X48.278 Y74.929
N6095 X48.879 Y74.501
N6100 X49.499 Y74.101
N6105 X50.136 Y73.729
N6110 X50.789 Y73.385
N6115 X51.457 Y73.071
N6120 X52.138 Y72.787
N6125 X52.831 Y72.535
N6130 X53.535 Y72.314
N6135 X54.248 Y72.125
N6140 X54.969 Y71.968
N6145 X55.696 Y71.843
N6150 X56.428 Y71.75
N6155 X57.163 Y71.691
N6160 X57.901 Y71.664
N6165 X58.639 Y71.67
N6170 X59.375 Y71.709
N6175 X60.11 Y71.781
N6180 X60.84 Y71.885
N6185 X61.565 Y72.022
N6190 X62.283 Y72.191
N6195 X62.993 Y72.393
N6200 X63.693 Y72.626
N6205 X64.382 Y72.889
N6210 X65.059 Y73.183
N6215 X65.723 Y73.505
N6220 X66.371 Y73.857
N6225 X67.004 Y74.237
N6230 X67.619 Y74.645
N6235 X68.215 Y75.079
N6240 X68.793 Y75.538
N6245 X69.35 Y76.022
N6250 X69.885 Y76.53
N6255 X70.398 Y77.06
N6260 X70.886 Y77.613
N6265 X71.35 Y78.187
N6270 X71.789 Y78.78
N6275 X72.202 Y79.391
N6280 X72.588 Y80.02
N6285 X72.947 Y80.665
N6290 X73.278 Y81.324
N6295 X73.58 Y81.998
N6300 X73.852 Y82.683
N6305 X74.095 Y83.38
N6310 X74.308 Y84.086
N6315 X74.49 Y84.801
N6320 X74.641 Y85.523
N6325 X74.761 Y86.251
N6330 X74.849 Y86.984
N6335 X74.904 Y87.72
N6340 X74.927 Y88.457
N6345 X74.918 Y89.195
N6350 X74.878 Y89.932
N6355 X74.805 Y90.666
N6360 X74.701 Y91.396
N6365 X74.565 Y92.122
N6370 X74.398 Y92.84
N6375 X74.2 Y93.551
N6380 X73.971 Y94.252
N6385 X73.712 Y94.943
N6390 X73.423 Y95.622
N6395 X73.105 Y96.288
N6400 X72.758 Y96.939
N6405 X72.383 Y97.574
N6410 X71.98 Y98.192
N6415 X71.551 Y98.793
N6420 X71.097 Y99.374
N6425 X70.618 Y99.935
N6430 X70.115 Y100.475
N6435 X69.589 Y100.993
N6440 X69.041 Y101.487
N6445 X68.473 Y101.957
N6450 X67.884 Y102.403
N6455 X67.278 Y102.822
N6460 X66.653 Y103.215
N6465 X66.012 Y103.581
N6470 X65.356 Y103.918
N6475 X64.686 Y104.226
N6480 X64.003 Y104.505
N6485 X63.308 Y104.754
N6490 X62.604 Y104.974
N6495 X61.891 Y105.163
N6500 X61.17 Y105.321
N6505 X60.443 Y105.448
N6510 X59.711 Y105.544
N6515 X58.976 Y105.608
N6520 X58.239 Y105.641
N6525 X57.502 Y105.642
N6530 X56.764 Y105.611
N6535 X56.029 Y105.549
N6540 X55.297 Y105.455
N6545 X54.57 Y105.33
N6550 X53.849 Y105.174
N6555 X53.135 Y104.987
N6560 X52.43 Y104.771
N6565 X51.734 Y104.525
N6570 X51.05 Y104.25
N6575 X50.378 Y103.946
N6580 X49.719 Y103.614
N6585 X49.074 Y103.254
N6590 X48.446 Y102.868
N6595 X47.834 Y102.455
N6600 X47.24 Y102.018
N6605 X46.666 Y101.555
N6610 X46.112 Y101.067
N6615 X45.579 Y100.557
N6620 X45.068 Y100.024
N6625 X44.581 Y99.471
N6630 X44.116 Y98.897
N6635 X43.676 Y98.305
N6640 X43.262 Y97.694
N6645 X42.873 Y97.067
N6650 X42.511 Y96.424
N6655 X42.177 Y95.767
N6660 X41.869 Y95.096
N6665 X41.59 Y94.413
N6670 X41.34 Y93.719
N6675 X41.119 Y93.015
N6680 X40.929 Y92.302
N6685 X40.769 Y91.582
N6690 X40.639 Y90.856
N6695 X40.54 Y90.124
N6700 X40.472 Y89.39
N6705 X40.434 Y88.653
N6710 X40.427 Y87.915
N6715 X40.451 Y87.178
N6720 X40.506 Y86.442
N6725 X40.591 Y85.709
N6730 X40.706 Y84.98
N6735 X40.851 Y84.257
N6740 X41.027 Y83.54
N6745 X41.232 Y82.832
N6750 X41.467 Y82.132
N6755 X41.731 Y81.443
N6760 X42.025 Y80.766
N6765 X42.346 Y80.102
N6770 X42.694 Y79.452
N6775 X43.07 Y78.817
N6780 X43.471 Y78.198
N6785 X43.898 Y77.596
N6790 X44.35 Y77.012
N6795 X44.825 Y76.448
N6800 X45.324 Y75.904
N6805 X45.844 Y75.381
N6810 X46.386 Y74.88
N6815 X46.948 Y74.402
N6820 X47.529 Y73.948
N6825 X48.129 Y73.519
N6830 X48.747 Y73.116
N6835 X49.381 Y72.739
N6840 X50.031 Y72.388
N6845 X50.694 Y72.065
N6850 X51.37 Y71.769
N6855 X52.058 Y71.502
N6860 X52.756 Y71.264
N6865 X53.464 Y71.056
N6870 X54.179 Y70.876
N6875 X54.902 Y70.727
N6880 X55.63 Y70.607
N6885 X56.362 Y70.517
N6890 X57.098 Y70.458
N6895 X57.835 Y70.431
N6900 X58.573 Y70.434
N6905 X59.31 Y70.468
N6910 X60.045 Y70.533
N6915 X60.777 Y70.628
N6920 X61.504 Y70.753
N6925 X62.225 Y70.909
N6930 X62.939 Y71.094
N6935 X63.645 Y71.308
N6940 X64.342 Y71.551
N6945 X65.028 Y71.823
N6950 X65.702 Y72.122
N6955 X66.364 Y72.449
N6960 X67.012 Y72.802
N6965 X67.644 Y73.182
N6970 X68.26 Y73.587
N6975 X68.859 Y74.018
N6980 X69.44 Y74.473
N6985 X70.002 Y74.951
N6990 X70.544 Y75.451
N6995 X71.066 Y75.973
N7000 X71.566 Y76.516
N7005 X72.043 Y77.079
N7010 X72.498 Y77.66
N7015 X72.928 Y78.259
N7020 X73.335 Y78.875
N7025 X73.716 Y79.506
N7030 X74.072 Y80.153
N7035 X74.402 Y80.813
N7040 X74.704 Y81.486
N7045 X74.979 Y82.17
N7050 X75.226 Y82.866
N7055 X75.444 Y83.57
N7060 X75.635 Y84.283
N7065 X75.796 Y85.003
N7070 X75.928 Y85.729
N7075 X76.031 Y86.46
N7080 X76.103 Y87.194
N7085 X76.146 Y87.931
N7090 X76.16 Y88.668
N7095 X76.144 Y89.406
N7100 X76.098 Y90.142
N7105 X76.023 Y90.876
N7110 X75.918 Y91.607
N7115 X75.783 Y92.332
N7120 X75.618 Y93.051
N7125 X75.424 Y93.763
N7130 X75.202 Y94.466
N7135 X74.951 Y95.16
N7140 X74.673 Y95.844
N7145 X74.367 Y96.515
N7150 X74.034 Y97.173
N7155 X73.674 Y97.818
N7160 X73.289 Y98.447
N7165 X72.879 Y99.06
N7170 X72.444 Y99.657
N7175 X71.986 Y100.235
N7180 X71.505 Y100.795
N7185 X71.002 Y101.334
N7190 X70.477 Y101.853
N7195 X69.931 Y102.349
N7200 X69.366 Y102.823
N7205 X68.782 Y103.274
N7210 X68.18 Y103.701
N7215 X67.562 Y104.104
N7220 X66.928 Y104.481
N7225 X66.28 Y104.833
N7230 X65.617 Y105.158
N7235 X64.942 Y105.456
N7240 X64.256 Y105.727
N7245 X63.559 Y105.97
N7250 X62.854 Y106.186
N7255 X62.14 Y106.373
N7260 X61.419 Y106.531
N7265 X60.693 Y106.659
N7270 X59.962 Y106.758
N7275 X59.227 Y106.828
N7280 X58.49 Y106.868
N7285 X57.753 Y106.878
N7290 X57.015 Y106.859
N7295 X56.279 Y106.811
N7300 X55.545 Y106.733
N7305 X54.815 Y106.626
N7310 X54.09 Y106.491
N7315 X53.371 Y106.326
N7320 X52.658 Y106.134
N7325 X51.954 Y105.913
N7330 X51.259 Y105.666
N7335 X50.575 Y105.39
N7340 X49.902 Y105.088
N7345 X49.242 Y104.759
N7350 X48.595 Y104.404
N7355 X47.962 Y104.023
N7360 X47.346 Y103.618
N7365 X46.745 Y103.19
N7370 X46.162 Y102.737
N7375 X45.598 Y102.262
N7380 X45.053 Y101.765
N7385 X44.528 Y101.247
N7390 X44.023 Y100.708
N7395 X43.54 Y100.151
N7400 X43.079 Y99.574
N7405 X42.641 Y98.981
N7410 X42.227 Y98.37
N7415 X41.837 Y97.744
N7420 X41.473 Y97.102
N7425 X41.134 Y96.447
N7430 X40.821 Y95.779
N7435 X40.534 Y95.099
N7440 X40.273 Y94.409
N7445 X40.04 Y93.709
N7450 X39.835 Y93.
N7455 X39.658 Y92.284
N7460 X39.509 Y91.561
N7465 X39.388 Y90.833
N7470 X39.296 Y90.101
N7475 X39.232 Y89.366
N7480 X39.197 Y88.629
N7485 X39.191 Y87.891
N7490 X39.214 Y87.154
N7495 X39.266 Y86.418
N7500 X39.347 Y85.685
N7505 X39.457 Y84.955
N7510 X39.594 Y84.23
N7515 X39.76 Y83.511
N7520 X39.953 Y82.799
N7525 X40.174 Y82.095
N7530 X40.423 Y81.401
N7535 X40.699 Y80.716
N7540 X41.001 Y80.043
N7545 X41.329 Y79.382
N7550 X41.682 Y78.734
N7555 X42.06 Y78.101
N7560 X42.463 Y77.482
N7565 X42.889 Y76.88
N7570 X43.339 Y76.296
N7575 X43.812 Y75.729
N7580 X44.307 Y75.182
N7585 X44.822 Y74.653
N7590 X45.357 Y74.146
N7595 X45.911 Y73.659
N7600 X46.484 Y73.194
N7605 X47.075 Y72.752
N7610 X47.683 Y72.334
N7615 X48.306 Y71.939
N7620 X48.945 Y71.569
N7625 X49.597 Y71.224
N7630 X50.262 Y70.904
N7635 X50.939 Y70.611
N7640 X51.626 Y70.344
N7645 X52.324 Y70.104
N7650 X53.031 Y69.893
N7655 X53.746 Y69.709
N7660 X54.467 Y69.553
N7665 X55.193 Y69.424
N7670 X55.924 Y69.324
N7675 X56.659 Y69.252
N7680 X57.395 Y69.209
N7685 X58.133 Y69.195
N7690 X58.871 Y69.21
N7695 X59.607 Y69.253
N7700 X60.341 Y69.325
N7705 X61.072 Y69.424
N7710 X61.799 Y69.552
N7715 X62.52 Y69.708
N7720 X63.235 Y69.892
N7725 X63.941 Y70.104
N7730 X64.639 Y70.344
N7735 X65.327 Y70.61
N7740 X66.005 Y70.902
N7745 X66.671 Y71.219
N7750 X67.324 Y71.562
N7755 X67.964 Y71.93
N7760 X68.589 Y72.322
N7765 X69.198 Y72.738
N7770 X69.792 Y73.177
N7775 X70.368 Y73.638
N7780 X70.926 Y74.12
N7785 X71.466 Y74.623
N7790 X71.986 Y75.146
N7795 X72.486 Y75.689
N7800 X72.964 Y76.25
N7805 X73.421 Y76.83
N7810 X73.856 Y77.426
N7815 X74.267 Y78.039
N7820 X74.656 Y78.666
N7825 X75.021 Y79.307
N7830 X75.361 Y79.962
N7835 X75.677 Y80.629
N7840 X75.967 Y81.307
N7845 X76.231 Y81.996
N7850 X76.469 Y82.694
N7855 X76.68 Y83.401
N7860 X76.865 Y84.115
N7865 X77.023 Y84.836
N7870 X77.154 Y85.562
N7875 X77.257 Y86.293
N7880 X77.331 Y87.027
N7885 X77.377 Y87.763
N7890 X77.396 Y88.501
N7895 X77.387 Y89.239
N7900 X77.35 Y89.976
N7905 X77.285 Y90.711
N7910 X77.192 Y91.443
N7915 X77.072 Y92.17
N7920 X76.924 Y92.893
N7925 X76.749 Y93.61
N7930 X76.546 Y94.319
N7935 X76.317 Y95.021
N7940 X76.062 Y95.713
N7945 X75.781 Y96.395
N7950 X75.474 Y97.066
N7955 X75.142 Y97.725
N7960 X74.784 Y98.37
N7965 X74.402 Y99.001
N7970 X73.996 Y99.618
N7975 X73.568 Y100.218
N7980 X73.117 Y100.802
N7985 X72.644 Y101.369
N7990 X72.151 Y101.918
N7995 X71.637 Y102.447
N8000 X71.103 Y102.956
N8005 X70.551 Y103.445
N8010 X69.98 Y103.913
N8015 X69.392 Y104.359
N8020 X68.788 Y104.782
N8025 X68.168 Y105.183
N8030 X67.534 Y105.56
N8035 X66.886 Y105.912
N8040 X66.225 Y106.239
N8045 X65.551 Y106.541
N8050 X64.867 Y106.818
N8055 X64.173 Y107.068
N8060 X63.47 Y107.293
N8065 X62.76 Y107.491
N8070 X62.042 Y107.662
N8075 X61.318 Y107.806
N8080 X60.59 Y107.922
N8085 X59.857 Y108.011
N8090 X59.122 Y108.073
N8095 X58.385 Y108.107
N8100 X57.647 Y108.114
N8105 X56.91 Y108.093
N8110 X56.174 Y108.044
N8115 X55.44 Y107.968
N8120 X54.709 Y107.863
N8125 X53.983 Y107.731
N8130 X53.263 Y107.573
N8135 X52.549 Y107.388
N8140 X51.842 Y107.177
N8145 X51.143 Y106.94
N8150 X50.454 Y106.677
N8155 X49.774 Y106.388
N8160 X49.106 Y106.075
N8165 X48.451 Y105.737
N8170 X47.808 Y105.375
N8175 X47.179 Y104.99
N8180 X46.564 Y104.582
N8185 X45.965 Y104.151
N8190 X45.382 Y103.698
N8195 X44.817 Y103.224
N8200 X44.27 Y102.728
N8205 X43.742 Y102.213
N8210 X43.234 Y101.679
N8215 X42.745 Y101.126
N8220 X42.277 Y100.556
N8225 X41.83 Y99.968
N8230 X41.405 Y99.365
N8235 X41.003 Y98.747
N8240 X40.623 Y98.114
N8245 X40.268 Y97.468
N8250 X39.936 Y96.809
N8255 X39.628 Y96.138
N8260 X39.345 Y95.457
N8265 X39.087 Y94.765
N8270 X38.855 Y94.065
N8275 X38.649 Y93.357
N8280 X38.47 Y92.641
N8285 X38.317 Y91.919
N8290 X38.191 Y91.192
N8295 X38.092 Y90.461
N8300 X38.019 Y89.727
N8305 X37.974 Y88.99
N8310 X37.955 Y88.253
N8315 X37.963 Y87.515
N8320 X37.999 Y86.778
N8325 X38.062 Y86.043
N8330 X38.151 Y85.311
N8335 X38.267 Y84.582
N8340 X38.409 Y83.858
N8345 X38.578 Y83.14
N8350 X38.772 Y82.428
N8355 X38.993 Y81.724
N8360 X39.24 Y81.029
N8365 X39.513 Y80.343
N8370 X39.81 Y79.668
N8375 X40.132 Y79.004
N8380 X40.478 Y78.352
N8385 X40.848 Y77.714
N8390 X41.24 Y77.089
N8395 X41.655 Y76.479
N8400 X42.093 Y75.885
N8405 X42.551 Y75.307
N8410 X43.031 Y74.746
N8415 X43.53 Y74.203
N8420 X44.049 Y73.679
N8425 X44.587 Y73.173
N8430 X45.143 Y72.688
N8435 X45.716 Y72.223
N8440 X46.306 Y71.78
N8445 X46.912 Y71.359
N8450 X47.533 Y70.961
N8455 X48.168 Y70.586
N8460 X48.816 Y70.234
N8465 X49.477 Y69.906
N8470 X50.15 Y69.602
N8475 X50.833 Y69.323
N8480 X51.525 Y69.069
N8485 X52.227 Y68.841
N8490 X52.936 Y68.638
N8495 X53.653 Y68.461
N8500 X54.375 Y68.311
N8505 X55.102 Y68.187
N8510 X55.834 Y68.089
N8515 X56.568 Y68.017
N8520 X57.305 Y67.974
N8525 X58.042 Y67.957
N8530 X58.78 Y67.968
N8535 X59.517 Y68.006
N8540 X60.252 Y68.07
N8545 X60.984 Y68.161
N8550 X61.712 Y68.278
N8555 X62.436 Y68.422
N8560 X63.154 Y68.592
N8565 X63.865 Y68.788
N8570 X64.569 Y69.01
N8575 X65.264 Y69.257
N8580 X65.95 Y69.529
N8585 X66.626 Y69.825
N8590 X67.29 Y70.146
N8595 X67.943 Y70.489
N8600 X68.583 Y70.857
N8605 X69.209 Y71.248
N8610 X69.82 Y71.661
N8615 X70.416 Y72.096
N8620 X70.996 Y72.552
N8625 X71.56 Y73.028
N8630 X72.106 Y73.524
N8635 X72.634 Y74.039
N8640 X73.143 Y74.573
N8645 X73.633 Y75.124
N8650 X74.103 Y75.693
N8655 X74.553 Y76.278
N8660 X74.981 Y76.879
N8665 X75.388 Y77.494
N8670 X75.774 Y78.124
N8675 X76.136 Y78.766
N8680 X76.476 Y79.421
N8685 X76.792 Y80.088
N8690 X77.084 Y80.765
N8695 X77.351 Y81.453
N8700 X77.594 Y82.15
N8705 X77.812 Y82.855
N8710 X78.005 Y83.567
N8715 X78.172 Y84.286
N8720 X78.314 Y85.01
N8725 X78.431 Y85.738
N8730 X78.521 Y86.47
N8735 X78.584 Y87.205
N8740 X78.622 Y87.942
N8745 X78.633 Y88.68
N8750 X78.619 Y89.418
N8755 X78.578 Y90.154
N8760 X78.511 Y90.889
N8765 X78.418 Y91.621
N8770 X78.299 Y92.349
N8775 X78.153 Y93.073
N8780 X77.982 Y93.79
N8785 X77.784 Y94.501
N8790 X77.562 Y95.205
N8795 X77.315 Y95.9
N8800 X77.044 Y96.586
N8805 X76.748 Y97.262
N8810 X76.428 Y97.927
N8815 X76.085 Y98.58
N8820 X75.718 Y99.22
N8825 X75.329 Y99.847
N8830 X74.918 Y100.46
N8835 X74.486 Y101.057
N8840 X74.032 Y101.64
N8845 X73.559 Y102.205
N8850 X73.065 Y102.754
N8855 X72.552 Y103.284
N8860 X72.02 Y103.796
N8865 X71.471 Y104.288
N8870 X70.904 Y104.76
N8875 X70.321 Y105.212
N8880 X69.722 Y105.643
N8885 X69.108 Y106.053
N8890 X68.48 Y106.44
N8895 X67.839 Y106.805
N8900 X67.185 Y107.147
N8905 X66.52 Y107.466
N8910 X65.843 Y107.76
N8915 X65.157 Y108.031
N8920 X64.462 Y108.277
N8925 X63.758 Y108.499
N8930 X63.047 Y108.696
N8935 X62.329 Y108.868
N8940 X61.606 Y109.013
N8945 X60.878 Y109.133
N8950 X60.146 Y109.226
N8955 X59.411 Y109.294
N8960 X58.675 Y109.336
N8965 X57.937 Y109.352
N8970 X57.199 Y109.342
N8975 X56.462 Y109.306
N8980 X55.727 Y109.244
N8985 X54.995 Y109.156
N8990 X54.266 Y109.043
N8995 X53.541 Y108.904
N9000 X52.822 Y108.739
N9005 X52.108 Y108.55
N9010 X51.402 Y108.337
N9015 X50.704 Y108.099
N9020 X50.014 Y107.836
N9025 X49.335 Y107.55
N9030 X48.665 Y107.239
N9035 X48.007 Y106.905
N9040 X47.361 Y106.548
N9045 X46.728 Y106.17
N9050 X46.109 Y105.769
N9055 X45.503 Y105.347
N9060 X44.913 Y104.905
N9065 X44.339 Y104.441
N9070 X43.781 Y103.958
N9075 X43.241 Y103.456
N9080 X42.718 Y102.935
N9085 X42.214 Y102.397
N9090 X41.728 Y101.841
N9095 X41.262 Y101.269
N9100 X40.816 Y100.682
N9105 X40.391 Y100.079
N9110 X39.987 Y99.461
N9115 X39.605 Y98.83
N9120 X39.246 Y98.185
N9125 X38.908 Y97.529
N9130 X38.594 Y96.862
N9135 X38.303 Y96.184
N9140 X38.035 Y95.496
N9145 X37.791 Y94.8
N9150 X37.572 Y94.096
N9155 X37.377 Y93.384
N9160 X37.207 Y92.666
N9165 X37.062 Y91.942
N9170 X36.943 Y91.214
N9175 X36.848 Y90.483
N9180 X36.778 Y89.748
N9185 X36.734 Y89.012
N9190 X36.715 Y88.274
N9195 X36.722 Y87.536
N9200 X36.755 Y86.799
N9205 X36.814 Y86.064
N9210 X36.898 Y85.331
N9215 X37.007 Y84.601
N9220 X37.14 Y83.875
N9225 X37.299 Y83.155
N9230 X37.482 Y82.44
N9235 X37.69 Y81.732
N9240 X37.922 Y81.032
N9245 X38.179 Y80.34
N9250 X38.459 Y79.658
N9255 X38.763 Y78.985
N9260 X39.089 Y78.324
N9265 X39.438 Y77.673
N9270 X39.809 Y77.036
N9275 X40.202 Y76.411
N9280 X40.616 Y75.8
N9285 X41.052 Y75.205
N9290 X41.508 Y74.625
N9295 X41.983 Y74.061
N9300 X42.478 Y73.513
N9305 X42.991 Y72.983
N9310 X43.522 Y72.471
N9315 X44.07 Y71.977
N9320 X44.635 Y71.502
N9325 X45.216 Y71.047
N9330 X45.812 Y70.613
N9335 X46.423 Y70.199
N9340 X47.048 Y69.807
N9345 X47.686 Y69.436
N9350 X48.336 Y69.088
N9355 X48.998 Y68.761
N9360 X49.671 Y68.458
N9365 X50.353 Y68.178
N9370 X51.045 Y67.923
N9375 X51.746 Y67.691
N9380 X52.454 Y67.484
N9385 X53.169 Y67.302
N9390 X53.89 Y67.144
N9395 X54.615 Y67.01
N9400 X55.345 Y66.902
N9405 X56.078 Y66.818
N9410 X56.814 Y66.76
N9415 X57.551 Y66.727
N9420 X58.289 Y66.72
N9425 X59.026 Y66.739
N9430 X59.763 Y66.782
N9435 X60.497 Y66.851
N9440 X61.229 Y66.944
N9445 X61.957 Y67.062
N9450 X62.681 Y67.206
N9455 X63.4 Y67.375
N9460 X64.111 Y67.568
N9465 X64.816 Y67.786
N9470 X65.513 Y68.028
N9475 X66.202 Y68.293
N9480 X66.881 Y68.581
N9485 X67.55 Y68.892
N9490 X68.208 Y69.226
N9495 X68.855 Y69.582
N9500 X69.488 Y69.959
N9505 X70.109 Y70.358
N9510 X70.716 Y70.778
N9515 X71.308 Y71.218
N9520 X71.885 Y71.678
N9525 X72.446 Y72.157
N9530 X72.991 Y72.654
N9535 X73.519 Y73.17
N9540 X74.029 Y73.703
N9545 X74.521 Y74.253
N9550 X74.993 Y74.82
N9555 X75.446 Y75.402
N9560 X75.88 Y75.999
N9565 X76.293 Y76.61
N9570 X76.686 Y77.235
N9575 X77.058 Y77.872
N9580 X77.408 Y78.521
N9585 X77.737 Y79.182
N9590 X78.043 Y79.854
N9595 X78.326 Y80.535
N9600 X78.586 Y81.225
N9605 X78.823 Y81.924
N9610 X79.037 Y82.63
N9615 X79.227 Y83.343
N9620 X79.393 Y84.062
N9625 X79.535 Y84.786
N9630 X79.652 Y85.514
N9635 X79.744 Y86.246
N9640 X79.812 Y86.981
N9645 X79.854 Y87.718
N9650 X79.872 Y88.455
N9655 X79.866 Y89.193
N9660 X79.834 Y89.93
N9665 X79.779 Y90.666
N9670 X79.698 Y91.399
N9675 X79.593 Y92.13
N9680 X79.463 Y92.856
N9685 X79.308 Y93.577
N9690 X79.13 Y94.293
N9695 X78.927 Y95.003
N9700 X78.701 Y95.705
N9705 X78.452 Y96.4
N9710 X78.18 Y97.085
N9715 X77.884 Y97.761
N9720 X77.566 Y98.427
N9725 X77.224 Y99.081
N9730 X76.861 Y99.723
N9735 X76.477 Y100.353
N9740 X76.072 Y100.97
N9745 X75.646 Y101.572
N9750 X75.201 Y102.161
N9755 X74.736 Y102.734
N9760 X74.252 Y103.291
N9765 X73.75 Y103.831
N9770 X73.23 Y104.354
N9775 X72.692 Y104.86
N9780 X72.138 Y105.347
N9785 X71.568 Y105.815
N9790 X70.983 Y106.264
N9795 X70.383 Y106.694
N9800 X69.769 Y107.103
N9805 X69.141 Y107.491
N9810 X68.501 Y107.858
N9815 X67.848 Y108.202
N9820 X67.185 Y108.525
N9825 X66.511 Y108.825
N9830 X65.827 Y109.102
N9835 X65.135 Y109.357
N9840 X64.434 Y109.589
N9845 X63.726 Y109.797
N9850 X63.012 Y109.981
N9855 X62.292 Y110.142
N9860 X61.567 Y110.278
N9865 X60.837 Y110.389
N9870 X60.105 Y110.477
N9875 X59.37 Y110.54
N9880 X58.633 Y110.578
N9885 X57.895 Y110.592
N9890 X57.157 Y110.582
N9895 X56.42 Y110.547
N9900 X55.685 Y110.487
N9905 X54.952 Y110.403
N9910 X54.222 Y110.293
N9915 X53.497 Y110.16
N9920 X52.776 Y110.004
N9925 X52.06 Y109.823
N9930 X51.351 Y109.619
N9935 X50.649 Y109.393
N9940 X49.955 Y109.143
N9945 X49.269 Y108.87
N9950 X48.593 Y108.574
N9955 X47.927 Y108.257
N9960 X47.272 Y107.917
N9965 X46.629 Y107.557
N9970 X45.997 Y107.175
N9975 X45.378 Y106.773
N9980 X44.773 Y106.351
N9985 X44.182 Y105.909
N9990 X43.607 Y105.447
N9995 X43.047 Y104.967
N10000 X42.504 Y104.468
N10005 X41.977 Y103.951
N10010 X41.467 Y103.418
N10015 X40.975 Y102.868
N10020 X40.501 Y102.303
N10025 X40.046 Y101.722
N10030 X39.61 Y101.127
N10035 X39.194 Y100.517
N10040 X38.798 Y99.895
N10045 X38.423 Y99.259
N10050 X38.069 Y98.612
N10055 X37.736 Y97.954
N10060 X37.424 Y97.285
N10065 X37.135 Y96.606
N10070 X36.868 Y95.919
N10075 X36.623 Y95.222
N10080 X36.402 Y94.518
N10085 X36.205 Y93.808
N10090 X36.031 Y93.091
N10095 X35.88 Y92.368
N10100 X35.753 Y91.641
N10105 X35.65 Y90.911
N10110 X35.571 Y90.177
N10115 X35.515 Y89.442
N10120 X35.483 Y88.704
N10125 X35.476 Y87.967
N10130 X35.493 Y87.229
N10135 X35.534 Y86.492
N10140 X35.599 Y85.757
N10145 X35.688 Y85.025
N10150 X35.8 Y84.296
N10155 X35.936 Y83.571
N10160 X36.095 Y82.85
N10165 X36.278 Y82.135
N10170 X36.485 Y81.427
N10175 X36.714 Y80.726
N10180 X36.967 Y80.033
N10185 X37.243 Y79.348
N10190 X37.54 Y78.673
N10195 X37.859 Y78.008
N10200 X38.2 Y77.353
N10205 X38.561 Y76.71
N10210 X38.943 Y76.079
N10215 X39.346 Y75.461
N10220 X39.768 Y74.856
N10225 X40.211 Y74.265
N10230 X40.672 Y73.689
N10235 X41.152 Y73.129
N10240 X41.649 Y72.584
N10245 X42.164 Y72.056
N10250 X42.696 Y71.544
N10255 X43.244 Y71.05
N10260 X43.808 Y70.574
N10265 X44.387 Y70.118
N10270 X44.981 Y69.68
N10275 X45.59 Y69.263
N10280 X46.211 Y68.865
N10285 X46.845 Y68.487
N10290 X47.491 Y68.131
N10295 X48.148 Y67.795
N10300 X48.815 Y67.481
N10305 X49.493 Y67.188
N10310 X50.18 Y66.919
N10315 X50.875 Y66.671
N10320 X51.578 Y66.447
N10325 X52.287 Y66.245
N10330 X53.003 Y66.067
N10335 X53.724 Y65.911
N10340 X54.45 Y65.779
N10345 X55.18 Y65.671
N10350 X55.913 Y65.586
N10355 X56.648 Y65.526
N10360 X57.385 Y65.491
N10365 X58.123 Y65.479
N10370 X58.861 Y65.491
N10375 X59.598 Y65.527
N10380 X60.333 Y65.587
N10385 X61.066 Y65.67
N10390 X61.796 Y65.777
N10395 X62.522 Y65.908
N10400 X63.244 Y66.062
N10405 X63.96 Y66.24
N10410 X64.67 Y66.441
N10415 X65.373 Y66.664
N10420 X66.069 Y66.91
N10425 X66.756 Y67.179
N10430 X67.434 Y67.469
N10435 X68.103 Y67.78
N10440 X68.762 Y68.113
N10445 X69.409 Y68.468
N10450 X70.044 Y68.843
N10455 X70.667 Y69.239
N10460 X71.276 Y69.654
N10465 X71.873 Y70.089
N10470 X72.455 Y70.542
N10475 X73.022 Y71.014
N10480 X73.574 Y71.503
N10485 X74.11 Y72.01
N10490 X74.63 Y72.534
N10495 X75.133 Y73.074
N10500 X75.618 Y73.629
N10505 X76.085 Y74.2
N10510 X76.534 Y74.786
N10515 X76.965 Y75.385
N10520 X77.376 Y75.998
N10525 X77.768 Y76.623
N10530 X78.139 Y77.26
N10535 X78.491 Y77.909
N10540 X78.821 Y78.569
N10545 X79.13 Y79.239
N10550 X79.417 Y79.919
N10555 X79.682 Y80.607
N10560 X79.926 Y81.304
N10565 X80.148 Y82.007
N10570 X80.347 Y82.718
N10575 X80.524 Y83.434
N10580 X80.678 Y84.156
N10585 X80.809 Y84.882
N10590 X80.917 Y85.612
N10595 X81.001 Y86.345
N10600 X81.062 Y87.08
N10605 X81.1 Y87.817
N10610 X81.114 Y88.554
N10615 X81.105 Y89.292
N10620 X81.073 Y90.029
N10625 X81.017 Y90.765
N10630 X80.938 Y91.499
N10635 X80.835 Y92.229
N10640 X80.708 Y92.956
N10645 X80.559 Y93.678
N10650 X80.386 Y94.396
N10655 X80.191 Y95.107
N10660 X79.973 Y95.812
N10665 X79.733 Y96.51
N10670 X79.472 Y97.2
N10675 X79.188 Y97.881
N10680 X78.883 Y98.553
N10685 X78.556 Y99.214
N10690 X78.209 Y99.865
N10695 X77.84 Y100.504
N10700 X77.452 Y101.132
N10705 X77.044 Y101.747
N10710 X76.617 Y102.348
N10715 X76.171 Y102.936
N10720 X75.707 Y103.51
N10725 X75.224 Y104.068
N10730 X74.724 Y104.61
N10735 X74.207 Y105.136
N10740 X73.673 Y105.645
N10745 X73.123 Y106.137
N10750 X72.558 Y106.612
N10755 X71.978 Y107.068
N10760 X71.384 Y107.506
N10765 X70.777 Y107.925
N10770 X70.157 Y108.324
N10775 X69.524 Y108.704
N10780 X68.879 Y109.063
N10785 X68.224 Y109.401
N10790 X67.558 Y109.719
N10795 X66.882 Y110.015
N10800 X66.197 Y110.29
N10805 X65.504 Y110.543
N10810 X64.804 Y110.775
N10815 X64.096 Y110.984
N10820 X63.382 Y111.17
N10825 X62.663 Y111.333
N10830 X61.938 Y111.473
N10835 X61.21 Y111.59
N10840 X60.478 Y111.685
N10845 X59.744 Y111.756
N10850 X59.008 Y111.804
N10855 X58.27 Y111.829
N10860 X57.532 Y111.831
N10865 X56.795 Y111.81
N10870 X56.058 Y111.765
N10875 X55.324 Y111.697
N10880 X54.592 Y111.605
N10885 X53.863 Y111.491
N10890 X53.138 Y111.354
N10895 X52.417 Y111.195
N10900 X51.702 Y111.013
N10905 X50.993 Y110.81
N10910 X50.291 Y110.584
N10915 X49.596 Y110.336
N10920 X48.909 Y110.065
N10925 X48.231 Y109.774
N10930 X47.563 Y109.461
N10935 X46.905 Y109.128
N10940 X46.257 Y108.775
N10945 X45.621 Y108.401
N10950 X44.996 Y108.008
N10955 X44.384 Y107.596
N10960 X43.786 Y107.165
N10965 X43.201 Y106.715
N10970 X42.63 Y106.247
N10975 X42.075 Y105.762
N10980 X41.535 Y105.259
N10985 X41.011 Y104.74
N10990 X40.503 Y104.204
N10995 X40.012 Y103.654
N11000 X39.538 Y103.088
N11005 X39.082 Y102.508
N11010 X38.644 Y101.914
N11015 X38.226 Y101.306
N11020 X37.827 Y100.686
N11025 X37.447 Y100.054
N11030 X37.087 Y99.41
N11035 X36.747 Y98.755
N11040 X36.427 Y98.09
N11045 X36.128 Y97.415
N11050 X35.849 Y96.732
N11055 X35.592 Y96.04
N11060 X35.357 Y95.341
N11065 X35.144 Y94.635
N11070 X34.953 Y93.922
N11075 X34.784 Y93.204
N11080 X34.638 Y92.481
N11085 X34.514 Y91.753
N11090 X34.412 Y91.023
N11095 X34.332 Y90.289
N11100 X34.276 Y89.554
N11105 X34.243 Y88.816
N11110 X34.233 Y88.079
N11115 X34.246 Y87.341
N11120 X34.281 Y86.604
N11125 X34.34 Y85.869
N11130 X34.421 Y85.135
N11135 X34.524 Y84.405
N11140 X34.65 Y83.678
N11145 X34.798 Y82.955
N11150 X34.968 Y82.237
N11155 X35.161 Y81.525
N11160 X35.376 Y80.819
N11165 X35.612 Y80.12
N11170 X35.87 Y79.429
N11175 X36.15 Y78.746
N11180 X36.45 Y78.072
N11185 X36.77 Y77.407
N11190 X37.111 Y76.753
N11195 X37.472 Y76.109
N11200 X37.853 Y75.477
N11205 X38.253 Y74.858
N11210 X38.673 Y74.251
N11215 X39.111 Y73.657
N11220 X39.568 Y73.078
N11225 X40.042 Y72.512
N11230 X40.533 Y71.962
N11235 X41.04 Y71.426
N11240 X41.564 Y70.906
N11245 X42.103 Y70.403
N11250 X42.658 Y69.917
N11255 X43.228 Y69.448
N11260 X43.812 Y68.997
N11265 X44.41 Y68.565
N11270 X45.021 Y68.151
N11275 X45.644 Y67.756
N11280 X46.279 Y67.38
N11285 X46.925 Y67.024
N11290 X47.582 Y66.688
N11295 X48.249 Y66.372
N11300 X48.925 Y66.078
N11305 X49.611 Y65.805
N11310 X50.304 Y65.553
N11315 X51.005 Y65.323
N11320 X51.713 Y65.115
N11325 X52.427 Y64.928
N11330 X53.146 Y64.763
N11335 X53.87 Y64.62
N11340 X54.598 Y64.5
N11345 X55.329 Y64.402
N11350 X56.063 Y64.327
N11355 X56.799 Y64.274
N11360 X57.536 Y64.245
N11365 X58.274 Y64.238
N11370 X59.012 Y64.254
N11375 X59.748 Y64.292
N11380 X60.484 Y64.353
N11385 X61.217 Y64.436
N11390 X61.947 Y64.542
N11395 X62.674 Y64.671
N11400 X63.396 Y64.822
N11405 X64.113 Y64.995
N11410 X64.824 Y65.191
N11415 X65.529 Y65.408
N11420 X66.228 Y65.647
N11425 X66.918 Y65.906
N11430 X67.601 Y66.186
N11435 X68.274 Y66.487
N11440 X68.939 Y66.809
N11445 X69.593 Y67.15
N11450 X70.236 Y67.512
N11455 X70.867 Y67.893
N11460 X71.487 Y68.293
N11465 X72.095 Y68.712
N11470 X72.689 Y69.149
N11475 X73.27 Y69.603
N11480 X73.838 Y70.075
N11485 X74.39 Y70.564
N11490 X74.928 Y71.07
N11495 X75.449 Y71.592
N11500 X75.955 Y72.129
N11505 X76.443 Y72.682
N11510 X76.915 Y73.249
N11515 X77.37 Y73.83
N11520 X77.807 Y74.424
N11525 X78.226 Y75.031
N11530 X78.627 Y75.651
N11535 X79.009 Y76.282
N11540 X79.372 Y76.924
N11545 X79.716 Y77.577
N11550 X80.039 Y78.241
N11555 X80.342 Y78.913
N11560 X80.625 Y79.595
N11565 X80.887 Y80.284
N11570 X81.129 Y80.982
N11575 X81.349 Y81.686
N11580 X81.549 Y82.396
N11585 X81.727 Y83.112
N11590 X81.882 Y83.833
N11595 X82.016 Y84.559
N11600 X82.128 Y85.288
N11605 X82.217 Y86.021
N11610 X82.284 Y86.755
N11615 X82.329 Y87.492
N11620 X82.353 Y88.229
N11625 X82.354 Y88.967
N11630 X82.333 Y89.705
N11635 X82.29 Y90.441
N11640 X82.224 Y91.176
N11645 X82.136 Y91.909
N11650 X82.026 Y92.638
N11655 X81.894 Y93.364
N11660 X81.74 Y94.086
N11665 X81.564 Y94.802
N11670 X81.367 Y95.513
N11675 X81.149 Y96.218
N11680 X80.91 Y96.916
N11685 X80.649 Y97.606
N11690 X80.367 Y98.288
N11695 X80.065 Y98.961
N11700 X79.742 Y99.624
N11705 X79.399 Y100.278
N11710 X79.037 Y100.921
N11715 X78.656 Y101.552
N11720 X78.256 Y102.172
N11725 X77.837 Y102.78
N11730 X77.401 Y103.375
N11735 X76.947 Y103.956
N11740 X76.475 Y104.524
N11745 X75.986 Y105.076
N11750 X75.481 Y105.614
N11755 X74.96 Y106.136
N11760 X74.423 Y106.643
N11765 X73.872 Y107.133
N11770 X73.306 Y107.606
N11775 X72.726 Y108.062
N11780 X72.132 Y108.501
N11785 X71.526 Y108.921
N11790 X70.907 Y109.322
N11795 X70.276 Y109.705
N11800 X69.634 Y110.068
N11805 X68.981 Y110.412
N11810 X68.318 Y110.736
N11815 X67.646 Y111.04
N11820 X66.965 Y111.323
N11825 X66.275 Y111.587
N11830 X65.579 Y111.83
N11835 X64.875 Y112.051
N11840 X64.165 Y112.252
N11845 X63.449 Y112.43
N11850 X62.728 Y112.588
N11855 X62.003 Y112.723
N11860 X61.274 Y112.836
N11865 X60.542 Y112.928
N11870 X59.807 Y112.998
N11875 X59.071 Y113.046
N11880 X58.334 Y113.072
N11885 X57.596 Y113.076
N11890 X56.858 Y113.057
N11895 X56.122 Y113.016
N11900 X55.386 Y112.953
N11905 X54.654 Y112.868
N11910 X53.924 Y112.761
N11915 X53.197 Y112.633
N11920 X52.475 Y112.483
N11925 X51.757 Y112.312
N11930 X51.044 Y112.12
N11935 X50.338 Y111.906
N11940 X49.638 Y111.672
N11945 X48.946 Y111.417
N11950 X48.262 Y111.141
N11955 X47.586 Y110.846
N11960 X46.919 Y110.53
N11965 X46.262 Y110.195
N11970 X45.615 Y109.84
N11975 X44.978 Y109.467
N11980 X44.353 Y109.075
N11985 X43.74 Y108.664
N11990 X43.14 Y108.235
N11995 X42.553 Y107.788
N12000 X41.979 Y107.324
N12005 X41.42 Y106.843
N12010 X40.875 Y106.346
N12015 X40.345 Y105.833
N12020 X39.83 Y105.304
N12025 X39.331 Y104.761
N12030 X38.848 Y104.203
N12035 X38.381 Y103.631
N12040 X37.932 Y103.046
N12045 X37.501 Y102.447
N12050 X37.087 Y101.836
N12055 X36.692 Y101.213
N12060 X36.315 Y100.579
N12065 X35.957 Y99.934
N12070 X35.618 Y99.279
N12075 X35.298 Y98.614
N12080 X34.998 Y97.94
N12085 X34.718 Y97.257
N12090 X34.459 Y96.566
N12095 X34.22 Y95.868
N12100 X34.003 Y95.163
N12105 X33.806 Y94.452
N12110 X33.63 Y93.736
N12115 X33.475 Y93.014
N12120 X33.342 Y92.289
N12125 X33.229 Y91.559
N12130 X33.138 Y90.827
N12135 X33.069 Y90.093
N12140 X33.021 Y89.356
N12145 X32.995 Y88.619
N12150 X32.992 Y87.881
N12155 X33.009 Y87.144
N12160 X33.049 Y86.407
N12165 X33.11 Y85.672
N12170 X33.192 Y84.938
N12175 X33.296 Y84.208
N12180 X33.42 Y83.481
N12185 X33.567 Y82.758
N12190 X33.735 Y82.039
N12195 X33.924 Y81.326
N12200 X34.135 Y80.619
N12205 X34.366 Y79.918
N12210 X34.617 Y79.224
N12215 X34.889 Y78.538
N12220 X35.18 Y77.861
N12225 X35.491 Y77.192
N12230 X35.822 Y76.532
N12235 X36.172 Y75.882
N12240 X36.541 Y75.243
N12245 X36.928 Y74.615
N12250 X37.334 Y73.999
N12255 X37.758 Y73.395
N12260 X38.199 Y72.804
N12265 X38.658 Y72.226
N12270 X39.133 Y71.662
N12275 X39.624 Y71.111
N12280 X40.131 Y70.575
N12285 X40.654 Y70.055
N12290 X41.192 Y69.55
N12295 X41.745 Y69.061
N12300 X42.312 Y68.589
N12305 X42.892 Y68.134
N12310 X43.486 Y67.696
N12315 X44.092 Y67.275
N12320 X44.711 Y66.873
N12325 X45.34 Y66.488
N12330 X45.981 Y66.122
N12335 X46.632 Y65.775
N12340 X47.293 Y65.447
N12345 X47.963 Y65.139
N12350 X48.643 Y64.851
N12355 X49.33 Y64.583
N12360 X50.025 Y64.335
N12365 X50.727 Y64.108
N12370 X51.435 Y63.901
N12375 X52.149 Y63.715
N12380 X52.868 Y63.55
N12385 X53.592 Y63.406
N12390 X54.319 Y63.283
N12395 X55.05 Y63.182
N12400 X55.784 Y63.103
N12405 X56.519 Y63.045
N12410 X57.256 Y63.009
N12415 X57.994 Y62.995
N12420 X58.732 Y63.002
N12425 X59.469 Y63.03
N12430 X60.205 Y63.08
N12435 X60.94 Y63.151
N12440 X61.672 Y63.244
N12445 X62.401 Y63.358
N12450 X63.126 Y63.494
N12455 X63.847 Y63.651
N12460 X64.563 Y63.828
N12465 X65.273 Y64.027
N12470 X65.978 Y64.246
N12475 X66.676 Y64.485
N12480 X67.367 Y64.745
N12485 X68.049 Y65.024
N12490 X68.724 Y65.324
N12495 X69.389 Y65.643
N12500 X70.045 Y65.981
N12505 X70.69 Y66.338
N12510 X71.325 Y66.714
N12515 X71.949 Y67.108
N12520 X72.561 Y67.52
N12525 X73.161 Y67.949
N12530 X73.749 Y68.396
N12535 X74.323 Y68.859
N12540 X74.884 Y69.338
N12545 X75.431 Y69.833
N12550 X75.963 Y70.344
N12555 X76.48 Y70.871
N12560 X76.982 Y71.411
N12565 X77.468 Y71.967
N12570 X77.938 Y72.535
N12575 X78.391 Y73.117
N12580 X78.828 Y73.712
N12585 X79.248 Y74.319
N12590 X79.65 Y74.937
N12595 X80.034 Y75.568
N12600 X80.399 Y76.208
N12605 X80.746 Y76.86
N12610 X81.074 Y77.521
N12615 X81.383 Y78.191
N12620 X81.673 Y78.869
N12625 X81.943 Y79.556
N12630 X82.194 Y80.25
N12635 X82.425 Y80.95
N12640 X82.635 Y81.657
N12645 X82.826 Y82.37
N12650 X82.995 Y83.088
N12655 X83.144 Y83.811
N12660 X83.272 Y84.538
N12665 X83.379 Y85.268
N12670 X83.465 Y86.
N12675 X83.53 Y86.735
N12680 X83.574 Y87.472
N12685 X83.598 Y88.209
N12690 X83.599 Y88.947
N12695 X83.58 Y89.685
N12700 X83.539 Y90.421
N12705 X83.477 Y91.157
N12710 X83.394 Y91.89
N12715 X83.289 Y92.62
N12720 X83.164 Y93.347
N12725 X83.017 Y94.07
N12730 X82.85 Y94.789
N12735 X82.663 Y95.503
N12740 X82.455 Y96.211
N12745 X82.228 Y96.912
N12750 X81.98 Y97.607
N12755 X81.712 Y98.295
N12760 X81.424 Y98.974
N12765 X81.117 Y99.645
N12770 X80.79 Y100.306
N12775 X80.445 Y100.958
N12780 X80.081 Y101.6
N12785 X79.699 Y102.232
N12790 X79.299 Y102.852
N12795 X78.882 Y103.46
N12800 X78.447 Y104.056
N12805 X77.995 Y104.639
N12810 X77.526 Y105.209
N12815 X77.041 Y105.765
N12820 X76.54 Y106.307
N12825 X76.024 Y106.834
N12830 X75.493 Y107.346
N12835 X74.948 Y107.843
N12840 X74.388 Y108.324
N12845 X73.816 Y108.79
N12850 X73.23 Y109.238
N12855 X72.632 Y109.67
N12860 X72.021 Y110.084
N12865 X71.399 Y110.48
N12870 X70.765 Y110.858
N12875 X70.121 Y111.218
N12880 X69.467 Y111.56
N12885 X68.803 Y111.882
N12890 X68.131 Y112.186
N12895 X67.45 Y112.471
N12900 X66.761 Y112.735
N12905 X66.065 Y112.98
N12910 X65.479 Y113.167
N12915 X65.435 Y113.18
N12920 X65.39 Y113.19
N12925 X65.345 Y113.197
N12930 X63.012 Y113.487
N12935 X62.844 Y113.504
N12940 X62.341 Y113.538
N12945 X58.485 Y113.697
N12950 X58.318 Y113.699
N12955 X57.982
N12960 X57.815 Y113.697
N12965 X53.959 Y113.538
N12970 X53.456 Y113.504
N12975 X53.288 Y113.487
N12980 X51.108 Y113.216
N12985 X50.382 Y113.088
N12990 X49.662 Y112.925
N12995 X48.956 Y112.712
N13000 X48.261 Y112.465
N13005 X47.576 Y112.191
N13010 X46.9 Y111.894
N13015 X46.234 Y111.576
N13020 X45.578 Y111.239
N13025 X44.932 Y110.883
N13030 X44.296 Y110.508
N13035 X43.671 Y110.116
N13040 X43.058 Y109.706
N13045 X42.457 Y109.278
N13050 X41.868 Y108.833
N13055 X41.293 Y108.372
N13060 X40.73 Y107.894
N13065 X40.182 Y107.401
N13070 X39.647 Y106.892
N13075 X39.127 Y106.369
N13080 X38.621 Y105.831
N13085 X38.131 Y105.28
N13090 X37.657 Y104.715
N13095 X37.198 Y104.137
N13100 X36.757 Y103.546
N13105 X36.332 Y102.943
N13110 X35.924 Y102.328
N13115 X35.533 Y101.702
N13120 X35.16 Y101.065
N13125 X34.805 Y100.419
N13130 X34.468 Y99.762
N13135 X34.15 Y99.097
N13140 X33.85 Y98.422
N13145 X33.57 Y97.74
N13150 X33.309 Y97.05
N13155 X33.069 Y96.352
N13160 X32.848 Y95.648
N13165 X32.647 Y94.938
N13170 X32.466 Y94.223
N13175 X32.305 Y93.503
N13180 X32.164 Y92.779
N13185 X32.044 Y92.051
N13190 X31.943 Y91.32
N13195 X31.864 Y90.586
N13200 X31.804 Y89.851
N13205 X31.766 Y89.114
N13210 X31.748 Y88.376
N13215 X31.751 Y87.639
N13220 X31.775 Y86.901
N13225 X31.819 Y86.165
N13230 X31.883 Y85.43
N13235 X31.968 Y84.697
N13240 X32.073 Y83.966
N13245 X32.199 Y83.239
N13250 X32.345 Y82.516
N13255 X32.512 Y81.797
N13260 X32.699 Y81.084
N13265 X32.906 Y80.376
N13270 X33.133 Y79.674
N13275 X33.38 Y78.978
N13280 X33.646 Y78.29
N13285 X33.931 Y77.61
N13290 X34.235 Y76.937
N13295 X34.557 Y76.274
N13300 X34.898 Y75.619
N13305 X35.257 Y74.974
N13310 X35.634 Y74.34
N13315 X36.028 Y73.717
N13320 X36.44 Y73.104
N13325 X36.869 Y72.504
N13330 X37.314 Y71.916
N13335 X37.775 Y71.34
N13340 X38.252 Y70.777
N13345 X38.745 Y70.228
N13350 X39.253 Y69.692
N13355 X39.775 Y69.172
N13360 X40.313 Y68.666
N13365 X40.864 Y68.176
N13370 X41.429 Y67.701
N13375 X42.007 Y67.243
N13380 X42.598 Y66.801
N13385 X43.201 Y66.376
N13390 X43.816 Y65.968
N13395 X44.441 Y65.576
N13400 X45.077 Y65.203
N13405 X45.724 Y64.847
N13410 X46.38 Y64.509
N13415 X47.045 Y64.19
N13420 X47.719 Y63.89
N13425 X48.401 Y63.608
N13430 X49.09 Y63.346
N13435 X49.787 Y63.103
N13440 X50.49 Y62.879
N13445 X51.199 Y62.675
N13450 X51.914 Y62.491
N13455 X52.633 Y62.327
N13460 X53.357 Y62.182
N13465 X54.084 Y62.059
N13470 X54.35 Y62.022
N13475 X54.495 Y62.016
N13480 X54.639 Y62.038
N13485 X54.775 Y62.088
N13490 X55.132 Y62.261
N13495 X55.3 Y62.332
N13500 X55.719 Y62.49
N13505 X55.854 Y62.509
N13510 X56.138 Y62.549
N13515 X56.306 Y62.567
N13520 X56.641 Y62.586
N13525 X56.809 Y62.593
N13530 X57.982 Y62.61
N13535 X58.485 Y62.615
N13540 X58.988 Y62.614
N13545 X59.491 Y62.598
N13550 X59.659 Y62.588
N13555 X59.994 Y62.565
N13560 X60.162 Y62.548
N13565 X60.571 Y62.492
N13570 X60.581 Y62.49
N13575 X60.665 Y62.458
N13580 X60.843 Y62.4
N13585 X61.123 Y62.334
N13590 X61.463 Y62.282
N13595 X61.917 Y62.249
N13600 X62.5 Y62.254
N13605 X63.235 Y62.32
N13610 X63.963 Y62.438
N13615 X64.684 Y62.594
N13620 X65.399 Y62.778
N13625 X66.106 Y62.986
N13630 X66.808 Y63.215
N13635 X67.502 Y63.465
N13640 X68.189 Y63.735
N13645 X68.867 Y64.024
N13650 X69.538 Y64.332
N13655 X70.2 Y64.659
N13660 X70.852 Y65.003
N13665 X71.494 Y65.366
N13670 X72.127 Y65.746
N13675 X72.748 Y66.144
N13680 X73.358 Y66.558
N13685 X73.957 Y66.989
N13690 X74.544 Y67.437
N13695 X75.119 Y67.9
N13700 X75.68 Y68.378
N13705 X76.228 Y68.873
N13710 X76.762 Y69.382
N13715 X77.281 Y69.906
N13720 X77.786 Y70.444
N13725 X78.276 Y70.996
N13730 X78.75 Y71.561
N13735 X79.21 Y72.138
N13740 X79.653 Y72.728
N13745 X80.08 Y73.33
N13750 X80.49 Y73.943
N13755 X80.884 Y74.567
N13760 X81.26 Y75.202
N13765 X81.619 Y75.846
N13770 X81.96 Y76.501
N13775 X82.282 Y77.164
N13780 X82.587 Y77.836
N13785 X82.873 Y78.516
N13790 X83.141 Y79.204
N13795 X83.39 Y79.898
N13800 X83.62 Y80.599
N13805 X83.831 Y81.306
N13810 X84.022 Y82.019
N13815 X84.194 Y82.736
N13820 X84.345 Y83.459
N13825 X84.477 Y84.185
N13830 X84.588 Y84.914
N13835 X84.68 Y85.646
N13840 X84.751 Y86.38
N13845 X84.803 Y87.116
N13850 X84.834 Y87.854
N13855 X84.845 Y88.591
N13860 X84.836 Y89.329
N13865 X84.807 Y90.066
N13870 X84.758 Y90.802
N13875 X84.688 Y91.537
N13880 X84.598 Y92.269
N13885 X84.488 Y92.999
N13890 X84.358 Y93.725
N13895 X84.209 Y94.448
N13900 X84.04 Y95.166
N13905 X83.851 Y95.879
N13910 X83.643 Y96.587
N13915 X83.416 Y97.289
N13920 X83.169 Y97.984
N13925 X82.903 Y98.672
N13930 X82.618 Y99.353
N13935 X82.314 Y100.025
N13940 X81.992 Y100.689
N13945 X81.652 Y101.344
N13950 X81.294 Y101.989
N13955 X80.919 Y102.624
N13960 X80.527 Y103.249
N13965 X80.117 Y103.863
N13970 X79.691 Y104.465
N13975 X79.249 Y105.056
N13980 X78.79 Y105.634
N13985 X78.316 Y106.199
N13990 X77.826 Y106.751
N13995 X77.322 Y107.29
N14000 X76.803 Y107.814
N14005 X76.27 Y108.324
N14010 X75.723 Y108.82
N14015 X75.164 Y109.3
N14020 X74.591 Y109.766
N14025 X74.006 Y110.215
N14030 X73.408 Y110.647
N14035 X72.799 Y111.063
N14040 X72.178 Y111.463
N14045 X71.547 Y111.844
N14050 X71.041 Y112.132
N14055 X70.973 Y112.166
N14060 X70.901 Y112.193
N14065 X70.827 Y112.213
N14070 X67.539 Y112.903
N14075 X67.371 Y112.936
N14080 X66.868 Y113.006
N14085 X66.03 Y113.111
N14090 X65.345 Y113.197
N14095 X64.566 Y113.294
N14100 X63.012 Y113.487
N14105 X62.844 Y113.504
N14110 X62.341 Y113.538
N14115 X58.485 Y113.697
N14120 X58.318 Y113.699
N14125 X57.982
N14130 X57.815 Y113.697
N14135 X53.959 Y113.538
N14140 X53.456 Y113.504
N14145 X53.288 Y113.487
N14150 X51.888 Y113.313
N14155 X51.108 Y113.216
N14160 X49.599 Y113.028
N14165 X49.432 Y113.006
N14170 X48.929 Y112.936
N14175 X48.761 Y112.903
N14180 X45.576 Y112.234
N14185 X45.089 Y112.106
N14190 X44.58 Y111.928
N14195 X43.905 Y111.629
N14200 X43.257 Y111.277
N14205 X42.628 Y110.891
N14210 X42.015 Y110.48
N14215 X41.417 Y110.048
N14220 X40.833 Y109.597
N14225 X40.262 Y109.13
N14230 X39.704 Y108.647
N14235 X39.16 Y108.149
N14240 X38.629 Y107.636
N14245 X38.112 Y107.11
N14250 X37.61 Y106.57
N14255 X37.122 Y106.016
N14260 X36.649 Y105.45
N14265 X36.191 Y104.871
N14270 X35.749 Y104.28
N14275 X35.324 Y103.678
N14280 X34.914 Y103.064
N14285 X34.522 Y102.439
N14290 X34.146 Y101.804
N14295 X33.788 Y101.159
N14300 X33.447 Y100.505
N14305 X33.123 Y99.842
N14310 X32.817 Y99.17
N14315 X32.53 Y98.491
N14320 X32.261 Y97.804
N14325 X32.011 Y97.11
N14330 X31.779 Y96.409
N14335 X31.567 Y95.702
N14340 X31.374 Y94.99
N14345 X31.199 Y94.273
N14350 X31.044 Y93.552
N14355 X30.908 Y92.827
N14360 X30.792 Y92.098
N14365 X30.694 Y91.367
N14370 X30.617 Y90.633
N14375 X30.559 Y89.898
N14380 X30.52 Y89.161
N14385 X30.502 Y88.423
N14390 X30.503 Y87.686
N14395 X30.525 Y86.948
N14400 X30.566 Y86.211
N14405 X30.626 Y85.476
N14410 X30.706 Y84.743
N14415 X30.806 Y84.011
N14420 X30.925 Y83.283
N14425 X31.064 Y82.559
N14430 X31.222 Y81.838
N14435 X31.4 Y81.122
N14440 X31.596 Y80.411
N14445 X31.812 Y79.705
N14450 X32.047 Y79.006
N14455 X32.3 Y78.313
N14460 X32.572 Y77.627
N14465 X32.862 Y76.948
N14470 X33.169 Y76.278
N14475 X33.494 Y75.615
N14480 X33.837 Y74.962
N14485 X34.197 Y74.318
N14490 X34.574 Y73.684
N14495 X34.968 Y73.06
N14500 X35.379 Y72.447
N14505 X35.806 Y71.845
N14510 X36.249 Y71.255
N14515 X36.707 Y70.677
N14520 X37.181 Y70.111
N14525 X37.669 Y69.558
N14530 X38.172 Y69.019
N14535 X38.689 Y68.493
N14540 X39.221 Y67.981
N14545 X39.766 Y67.483
N14550 X40.324 Y67.001
N14555 X40.895 Y66.534
N14560 X41.478 Y66.082
N14565 X42.073 Y65.645
N14570 X42.68 Y65.225
N14575 X43.297 Y64.821
N14580 X43.925 Y64.433
N14585 X44.563 Y64.063
N14590 X45.21 Y63.709
N14595 X45.867 Y63.372
N14600 X46.532 Y63.054
N14605 X47.206 Y62.753
N14610 X47.887 Y62.47
N14615 X48.576 Y62.206
N14620 X49.272 Y61.961
N14625 X49.974 Y61.734
N14630 X50.682 Y61.525
N14635 X51.395 Y61.336
N14640 X52.113 Y61.165
N14645 X52.835 Y61.014
N14650 X53.347 Y60.925
N14655 X53.563 Y60.937
N14660 X53.766 Y61.011
N14665 X53.94 Y61.141
N14670 X54.069 Y61.315
N14675 X54.126 Y61.423
N14680 G3 X53.703 Y61.848 I-0.285 J0.139
N14685 G1 X53.64 Y61.818 Z15.389
N14690 X53.579 Y61.789 Z15.412
N14695 X53.525 Y61.763 Z15.45
N14700 X53.48 Y61.741 Z15.5
N14705 X53.445 Y61.724 Z15.56
N14710 X53.424 Y61.714 Z15.627
N14715 X53.417 Y61.711 Z15.698
N14720 Z22.381
N14725 X46.659 Y112.07
N14730 Z16.016
N14735 Z15.698
N14740 X46.652 Y112.072 Z15.627
N14745 X46.629 Y112.08 Z15.56
N14750 X46.593 Y112.092 Z15.5
N14755 X46.546 Y112.108 Z15.45
N14760 X46.489 Y112.128 Z15.412
N14765 X46.425 Y112.15 Z15.389
N14770 X46.359 Y112.172 Z15.381
N14775 G3 X45.576 Y112.234 I-0.512 J-1.497
N14780 G1 X45.073 Y112.129
N14785 X44.905 Y112.092
N14790 X44.57 Y112.017
N14795 X44.402 Y111.978
N14800 X41.552 Y111.13
N14805 X41.159 Y110.991
N14810 X40.756 Y110.811
N14815 X40.264 Y110.542
N14820 X39.647 Y110.138
N14825 X39.063 Y109.688
N14830 X38.501 Y109.209
N14835 X37.959 Y108.709
N14840 X37.433 Y108.192
N14845 X36.922 Y107.659
N14850 X36.426 Y107.113
N14855 X35.945 Y106.553
N14860 X35.479 Y105.982
N14865 X35.027 Y105.398
N14870 X34.591 Y104.803
N14875 X34.17 Y104.197
N14880 X33.766 Y103.58
N14885 X33.377 Y102.953
N14890 X33.004 Y102.316
N14895 X32.647 Y101.67
N14900 X32.308 Y101.016
N14905 X31.985 Y100.352
N14910 X31.679 Y99.681
N14915 X31.391 Y99.002
N14920 X31.12 Y98.315
N14925 X30.868 Y97.622
N14930 X30.634 Y96.922
N14935 X30.418 Y96.217
N14940 X30.22 Y95.506
N14945 X30.04 Y94.79
N14950 X29.878 Y94.07
N14955 X29.735 Y93.347
N14960 X29.611 Y92.619
N14965 X29.504 Y91.889
N14970 X29.417 Y91.157
N14975 X29.348 Y90.422
N14980 X29.298 Y89.686
N14985 X29.267 Y88.949
N14990 X29.254 Y88.211
N14995 X29.261 Y87.473
N15000 X29.287 Y86.736
N15005 X29.331 Y85.999
N15010 X29.394 Y85.264
N15015 X29.476 Y84.531
N15020 X29.576 Y83.8
N15025 X29.695 Y83.072
N15030 X29.833 Y82.347
N15035 X29.99 Y81.626
N15040 X30.166 Y80.91
N15045 X30.36 Y80.198
N15050 X30.572 Y79.491
N15055 X30.802 Y78.79
N15060 X31.05 Y78.095
N15065 X31.316 Y77.407
N15070 X31.599 Y76.725
N15075 X31.899 Y76.051
N15080 X32.216 Y75.385
N15085 X32.55 Y74.727
N15090 X32.901 Y74.078
N15095 X33.268 Y73.438
N15100 X33.651 Y72.808
N15105 X34.05 Y72.187
N15110 X34.466 Y71.577
N15115 X34.896 Y70.978
N15120 X35.342 Y70.39
N15125 X35.802 Y69.814
N15130 X36.277 Y69.249
N15135 X36.767 Y68.697
N15140 X37.27 Y68.157
N15145 X37.787 Y67.631
N15150 X38.317 Y67.118
N15155 X38.861 Y66.619
N15160 X39.417 Y66.134
N15165 X39.986 Y65.664
N15170 X40.566 Y65.209
N15175 X41.158 Y64.768
N15180 X41.761 Y64.343
N15185 X42.374 Y63.933
N15190 X42.998 Y63.538
N15195 X43.631 Y63.16
N15200 X44.274 Y62.798
N15205 X44.926 Y62.452
N15210 X45.586 Y62.123
N15215 X46.255 Y61.811
N15220 X46.931 Y61.516
N15225 X47.615 Y61.239
N15230 X48.305 Y60.979
N15235 X49.002 Y60.737
N15240 X49.705 Y60.512
N15245 X50.413 Y60.306
N15250 X51.127 Y60.117
N15255 X51.845 Y59.947
N15260 X52.301 Y59.858
N15265 X52.597 Y59.825
N15270 X52.874 Y59.816
N15275 X53.013 Y59.823
N15280 X53.212 Y59.86
N15285 X53.393 Y59.95
N15290 X53.543 Y60.085
N15295 X53.651 Y60.256
N15300 X53.709 Y60.45
N15305 X53.724 Y60.55
N15310 X53.91 Y61.
N15315 X53.959 Y61.108
N15320 X54.069 Y61.315
N15325 G3 X53.646 Y61.74 I-0.285 J0.139
N15330 G1 X53.582 Y61.71 Z15.389
N15335 X53.522 Y61.681 Z15.412
N15340 X53.467 Y61.655 Z15.45
N15345 X53.422 Y61.633 Z15.5
N15350 X53.388 Y61.616 Z15.56
N15355 X53.367 Y61.606 Z15.627
N15360 X53.36 Y61.603 Z15.698
N15365 Z22.381
N15370 X42.645 Y111.055
N15375 Z16.016
N15380 Z15.698
N15385 X42.638 Y111.057 Z15.627
N15390 X42.615 Y111.063 Z15.56
N15395 X42.578 Y111.072 Z15.5
N15400 X42.529 Y111.084 Z15.45
N15405 X42.471 Y111.099 Z15.412
N15410 X42.406 Y111.115 Z15.389
N15415 X42.337 Y111.133 Z15.381
N15420 G3 X41.552 Y111.13 I-0.387 J-1.535
N15425 G1 X40.546 Y110.83
N15430 X40.378 Y110.777
N15435 X40.043 Y110.667
N15440 X39.921 Y110.627
N15445 X38.203 Y109.956
N15450 X37.831 Y109.789
N15455 X37.496 Y109.605
N15460 X37.068 Y109.324
N15465 X36.523 Y108.898
N15470 X35.98 Y108.398
N15475 X35.467 Y107.868
N15480 X34.976 Y107.317
N15485 X34.505 Y106.75
N15490 X34.05 Y106.169
N15495 X33.611 Y105.576
N15500 X33.188 Y104.971
N15505 X32.781 Y104.356
N15510 X32.389 Y103.731
N15515 X32.012 Y103.096
N15520 X31.652 Y102.453
N15525 X31.307 Y101.8
N15530 X30.978 Y101.14
N15535 X30.666 Y100.471
N15540 X30.371 Y99.795
N15545 X30.092 Y99.112
N15550 X29.83 Y98.422
N15555 X29.586 Y97.726
N15560 X29.359 Y97.024
N15565 X29.149 Y96.316
N15570 X28.957 Y95.604
N15575 X28.782 Y94.887
N15580 X28.625 Y94.167
N15585 X28.485 Y93.442
N15590 X28.363 Y92.715
N15595 X28.258 Y91.984
N15600 X28.172 Y91.251
N15605 X28.103 Y90.517
N15610 X28.052 Y89.781
N15615 X28.02 Y89.044
N15620 X28.006 Y88.306
N15625 X28.011 Y87.568
N15630 X28.033 Y86.831
N15635 X28.073 Y86.094
N15640 X28.132 Y85.358
N15645 X28.208 Y84.625
N15650 X28.302 Y83.893
N15655 X28.415 Y83.164
N15660 X28.545 Y82.437
N15665 X28.693 Y81.715
N15670 X28.859 Y80.996
N15675 X29.043 Y80.281
N15680 X29.244 Y79.571
N15685 X29.463 Y78.867
N15690 X29.698 Y78.167
N15695 X29.951 Y77.474
N15700 X30.221 Y76.788
N15705 X30.507 Y76.107
N15710 X30.81 Y75.435
N15715 X31.129 Y74.769
N15720 X31.464 Y74.112
N15725 X31.815 Y73.463
N15730 X32.181 Y72.823
N15735 X32.564 Y72.192
N15740 X32.962 Y71.57
N15745 X33.375 Y70.959
N15750 X33.803 Y70.358
N15755 X34.245 Y69.768
N15760 X34.702 Y69.188
N15765 X35.173 Y68.62
N15770 X35.658 Y68.064
N15775 X36.156 Y67.52
N15780 X36.667 Y66.988
N15785 X37.191 Y66.469
N15790 X37.729 Y65.963
N15795 X38.278 Y65.47
N15800 X38.839 Y64.991
N15805 X39.412 Y64.527
N15810 X39.996 Y64.076
N15815 X40.591 Y63.639
N15820 X41.197 Y63.218
N15825 X41.812 Y62.811
N15830 X42.437 Y62.419
N15835 X43.071 Y62.042
N15840 X43.715 Y61.681
N15845 X44.367 Y61.335
N15850 X45.027 Y61.006
N15855 X45.695 Y60.693
N15860 X46.371 Y60.397
N15865 X47.054 Y60.117
N15870 X47.743 Y59.855
N15875 X48.439 Y59.609
N15880 X49.14 Y59.38
N15885 X49.847 Y59.169
N15890 X50.559 Y58.975
N15895 X51.276 Y58.801
N15900 X51.797 Y58.714
N15905 X52.169 Y58.682
N15910 X52.43 Y58.681
N15915 X52.686 Y58.7
N15920 X52.888 Y58.732
N15925 X53.089 Y58.781
N15930 X53.103 Y58.785
N15935 X53.303 Y58.886
N15940 X53.463 Y59.042
N15945 X53.57 Y59.238
N15950 X53.613 Y59.457
N15955 X53.624 Y59.659
N15960 X53.645 Y59.994
N15965 X53.665 Y60.162
N15970 X53.709 Y60.45
N15975 G3 X53.169 Y60.712 I-0.315 J0.037
N15980 G1 X53.119 Y60.662 Z15.389
N15985 X53.072 Y60.615 Z15.412
N15990 X53.029 Y60.572 Z15.45
N15995 X52.994 Y60.537 Z15.5
N16000 X52.967 Y60.51 Z15.56
N16005 X52.95 Y60.493 Z15.627
N16010 X52.945 Y60.488 Z15.698
N16015 Z22.381
N16020 X39.298 Y109.972
N16025 Z16.016
N16030 Z15.698
N16035 X39.29 Y109.973 Z15.627
N16040 X39.267 Y109.977 Z15.56
N16045 X39.23 Y109.983 Z15.5
N16050 X39.18 Y109.992 Z15.45
N16055 X39.121 Y110.001 Z15.412
N16060 X39.055 Y110.012 Z15.389
N16065 X38.985 Y110.024 Z15.381
N16070 G3 X38.203 Y109.956 I-0.259 J-1.561
N16075 G1 X36.019 Y109.104
N16080 X35.516 Y108.876
N16085 X35.349 Y108.795
N16090 X34.924 Y108.56
N16095 X34.603 Y108.348
N16100 X34.217 Y108.045
N16105 X33.734 Y107.599
N16110 X33.234 Y107.057
N16115 X32.769 Y106.485
N16120 X32.328 Y105.893
N16125 X31.908 Y105.286
N16130 X31.506 Y104.667
N16135 X31.121 Y104.038
N16140 X30.751 Y103.4
N16145 X30.397 Y102.752
N16150 X30.059 Y102.097
N16155 X29.736 Y101.433
N16160 X29.43 Y100.762
N16165 X29.139 Y100.084
N16170 X28.865 Y99.399
N16175 X28.607 Y98.708
N16180 X28.365 Y98.011
N16185 X28.14 Y97.308
N16190 X27.932 Y96.6
N16195 X27.74 Y95.888
N16200 X27.565 Y95.171
N16205 X27.407 Y94.45
N16210 X27.266 Y93.726
N16215 X27.142 Y92.999
N16220 X27.036 Y92.269
N16225 X26.946 Y91.536
N16230 X26.874 Y90.802
N16235 X26.819 Y90.066
N16240 X26.781 Y89.329
N16245 X26.761 Y88.592
N16250 X26.759 Y87.854
N16255 X26.774 Y87.116
N16260 X26.806 Y86.379
N16265 X26.855 Y85.643
N16270 X26.922 Y84.908
N16275 X27.006 Y84.175
N16280 X27.107 Y83.444
N16285 X27.225 Y82.716
N16290 X27.361 Y81.991
N16295 X27.513 Y81.269
N16300 X27.683 Y80.551
N16305 X27.87 Y79.837
N16310 X28.073 Y79.128
N16315 X28.294 Y78.424
N16320 X28.53 Y77.725
N16325 X28.783 Y77.032
N16330 X29.052 Y76.345
N16335 X29.337 Y75.664
N16340 X29.638 Y74.991
N16345 X29.955 Y74.324
N16350 X30.287 Y73.666
N16355 X30.635 Y73.015
N16360 X30.998 Y72.372
N16365 X31.376 Y71.739
N16370 X31.769 Y71.114
N16375 X32.177 Y70.499
N16380 X32.598 Y69.894
N16385 X33.035 Y69.299
N16390 X33.484 Y68.714
N16395 X33.948 Y68.14
N16400 X34.424 Y67.577
N16405 X34.914 Y67.025
N16410 X35.417 Y66.485
N16415 X35.932 Y65.957
N16420 X36.46 Y65.441
N16425 X37. Y64.938
N16430 X37.551 Y64.448
N16435 X38.114 Y63.971
N16440 X38.688 Y63.507
N16445 X39.273 Y63.057
N16450 X39.868 Y62.621
N16455 X40.473 Y62.199
N16460 X41.087 Y61.791
N16465 X41.712 Y61.397
N16470 X42.345 Y61.019
N16475 X42.987 Y60.655
N16480 X43.637 Y60.307
N16485 X44.296 Y59.974
N16490 X44.962 Y59.656
N16495 X45.635 Y59.355
N16500 X46.315 Y59.069
N16505 X47.002 Y58.799
N16510 X47.695 Y58.546
N16515 X48.394 Y58.309
N16520 X49.098 Y58.088
N16525 X49.807 Y57.885
N16530 X50.523 Y57.705
N16535 X51.145 Y57.587
N16540 X51.651 Y57.533
N16545 X52.065 Y57.522
N16550 X52.362 Y57.539
N16555 X52.643 Y57.577
N16560 X52.853 Y57.622
N16565 X53.063 Y57.686
N16570 X53.118 Y57.708
N16575 X53.308 Y57.818
N16580 X53.457 Y57.979
N16585 X53.553 Y58.176
N16590 X53.587 Y58.393
N16595 X53.593 Y58.988
N16600 X53.613 Y59.457
N16605 G3 X53.048 Y59.659 I-0.317 J0.003
N16610 G1 X53.004 Y59.604 Z15.389
N16615 X52.962 Y59.551 Z15.412
N16620 X52.924 Y59.504 Z15.45
N16625 X52.893 Y59.465 Z15.5
N16630 X52.869 Y59.436 Z15.56
N16635 X52.854 Y59.417 Z15.627
N16640 X52.849 Y59.411 Z15.698
N16645 Z22.381
N16650 X36.44 Y108.896
N16655 Z16.016
N16660 Z15.698
N16665 X36.432 Y108.897 Z15.627
N16670 X36.408 Y108.899 Z15.56
N16675 X36.371 Y108.902 Z15.5
N16680 X36.321 Y108.906 Z15.45
N16685 X36.261 Y108.912 Z15.412
N16690 X36.194 Y108.917 Z15.389
N16695 X36.123 Y108.924 Z15.381
N16700 G3 X35.349 Y108.795 I-0.137 J-1.577
N16705 G1 X32.834 Y107.566
N16710 X32.482 Y107.372
N16715 X32.237 Y107.209
N16720 X31.935 Y106.972
N16725 X31.586 Y106.65
N16730 X31.145 Y106.172
N16735 X30.69 Y105.591
N16740 X30.272 Y104.983
N16745 X29.881 Y104.357
N16750 X29.511 Y103.719
N16755 X29.16 Y103.07
N16760 X28.825 Y102.413
N16765 X28.507 Y101.747
N16770 X28.204 Y101.074
N16775 X27.917 Y100.395
N16780 X27.646 Y99.708
N16785 X27.391 Y99.016
N16790 X27.151 Y98.318
N16795 X26.928 Y97.615
N16800 X26.72 Y96.907
N16805 X26.528 Y96.195
N16810 X26.353 Y95.478
N16815 X26.194 Y94.758
N16820 X26.051 Y94.034
N16825 X25.925 Y93.307
N16830 X25.816 Y92.577
N16835 X25.723 Y91.845
N16840 X25.647 Y91.111
N16845 X25.587 Y90.376
N16850 X25.544 Y89.639
N16855 X25.518 Y88.902
N16860 X25.509 Y88.164
N16865 X25.516 Y87.426
N16870 X25.54 Y86.689
N16875 X25.581 Y85.952
N16880 X25.638 Y85.217
N16885 X25.712 Y84.483
N16890 X25.802 Y83.75
N16895 X25.909 Y83.02
N16900 X26.032 Y82.293
N16905 X26.172 Y81.568
N16910 X26.328 Y80.847
N16915 X26.501 Y80.13
N16920 X26.69 Y79.417
N16925 X26.895 Y78.708
N16930 X27.116 Y78.004
N16935 X27.353 Y77.305
N16940 X27.605 Y76.612
N16945 X27.873 Y75.924
N16950 X28.157 Y75.243
N16955 X28.456 Y74.569
N16960 X28.77 Y73.902
N16965 X29.1 Y73.241
N16970 X29.444 Y72.589
N16975 X29.803 Y71.944
N16980 X30.176 Y71.308
N16985 X30.564 Y70.68
N16990 X30.966 Y70.061
N16995 X31.382 Y69.452
N17000 X31.811 Y68.852
N17005 X32.254 Y68.262
N17010 X32.71 Y67.682
N17015 X33.179 Y67.112
N17020 X33.661 Y66.553
N17025 X34.155 Y66.005
N17030 X34.661 Y65.469
N17035 X35.18 Y64.944
N17040 X35.71 Y64.431
N17045 X36.252 Y63.93
N17050 X36.805 Y63.442
N17055 X37.369 Y62.966
N17060 X37.943 Y62.503
N17065 X38.528 Y62.053
N17070 X39.123 Y61.616
N17075 X39.727 Y61.193
N17080 X40.341 Y60.784
N17085 X40.965 Y60.389
N17090 X41.597 Y60.008
N17095 X42.237 Y59.642
N17100 X42.885 Y59.29
N17105 X43.542 Y58.953
N17110 X44.205 Y58.631
N17115 X44.876 Y58.324
N17120 X45.554 Y58.032
N17125 X46.238 Y57.755
N17130 X46.928 Y57.495
N17135 X47.624 Y57.249
N17140 X48.325 Y57.02
N17145 X49.032 Y56.808
N17150 X49.745 Y56.619
N17155 X50.467 Y56.466
N17160 X51.091 Y56.379
N17165 X51.609 Y56.349
N17170 X52.049 Y56.359
N17175 X52.379 Y56.393
N17180 X52.675 Y56.448
N17185 X52.896 Y56.508
N17190 X53.104 Y56.582
N17195 X53.157 Y56.606
N17200 X53.341 Y56.724
N17205 X53.482 Y56.891
N17210 X53.568 Y57.091
N17215 X53.592 Y57.308
N17220 X53.586 Y57.815
N17225 Y58.15
N17230 X53.587 Y58.393
N17235 G3 X53.014 Y58.573 I-0.317 J-0.01
N17240 G1 X52.972 Y58.516 Z15.389
N17245 X52.932 Y58.462 Z15.412
N17250 X52.897 Y58.414 Z15.45
N17255 X52.867 Y58.374 Z15.5
N17260 X52.844 Y58.343 Z15.56
N17265 X52.83 Y58.324 Z15.627
N17270 X52.825 Y58.318 Z15.698
N17275 Z22.381
N17280 X33.924 Y107.672
N17285 Z16.016
N17290 Z15.698
N17295 X33.916 Y107.673 Z15.627
N17300 X33.893 Y107.675 Z15.56
N17305 X33.855 Y107.678 Z15.5
N17310 X33.805 Y107.682 Z15.45
N17315 X33.745 Y107.687 Z15.412
N17320 X33.678 Y107.692 Z15.389
N17325 X33.608 Y107.698 Z15.381
N17330 G3 X32.834 Y107.566 I-0.129 J-1.577
N17335 G1 X32.163 Y107.238
N17340 X31.995 Y107.154
N17345 X31.585 Y106.938
N17350 X31.492 Y106.887
N17355 X30.319 Y106.188
N17360 X29.987 Y105.967
N17365 X29.748 Y105.778
N17370 X29.462 Y105.513
N17375 X29.129 Y105.15
N17380 X28.712 Y104.616
N17385 X28.307 Y103.999
N17390 X27.939 Y103.36
N17395 X27.597 Y102.706
N17400 X27.277 Y102.041
N17405 X26.975 Y101.368
N17410 X26.691 Y100.687
N17415 X26.422 Y100.
N17420 X26.169 Y99.307
N17425 X25.931 Y98.608
N17430 X25.709 Y97.905
N17435 X25.503 Y97.197
N17440 X25.311 Y96.484
N17445 X25.136 Y95.767
N17450 X24.976 Y95.047
N17455 X24.833 Y94.323
N17460 X24.705 Y93.597
N17465 X24.594 Y92.867
N17470 X24.498 Y92.136
N17475 X24.419 Y91.402
N17480 X24.355 Y90.667
N17485 X24.308 Y89.931
N17490 X24.276 Y89.194
N17495 X24.261 Y88.456
N17500 X24.262 Y87.718
N17505 X24.278 Y86.98
N17510 X24.311 Y86.243
N17515 X24.36 Y85.507
N17520 X24.425 Y84.772
N17525 X24.506 Y84.039
N17530 X24.602 Y83.307
N17535 X24.715 Y82.578
N17540 X24.843 Y81.852
N17545 X24.987 Y81.128
N17550 X25.148 Y80.408
N17555 X25.323 Y79.691
N17560 X25.514 Y78.979
N17565 X25.721 Y78.27
N17570 X25.943 Y77.567
N17575 X26.18 Y76.868
N17580 X26.433 Y76.175
N17585 X26.7 Y75.487
N17590 X26.983 Y74.806
N17595 X27.281 Y74.131
N17600 X27.593 Y73.462
N17605 X27.92 Y72.801
N17610 X28.262 Y72.147
N17615 X28.617 Y71.5
N17620 X28.987 Y70.862
N17625 X29.37 Y70.231
N17630 X29.767 Y69.609
N17635 X30.178 Y68.996
N17640 X30.601 Y68.392
N17645 X31.038 Y67.797
N17650 X31.487 Y67.212
N17655 X31.949 Y66.637
N17660 X32.424 Y66.072
N17665 X32.91 Y65.517
N17670 X33.409 Y64.973
N17675 X33.919 Y64.44
N17680 X34.441 Y63.919
N17685 X34.973 Y63.408
N17690 X35.517 Y62.91
N17695 X36.072 Y62.423
N17700 X36.637 Y61.949
N17705 X37.212 Y61.487
N17710 X37.798 Y61.037
N17715 X38.392 Y60.601
N17720 X38.997 Y60.177
N17725 X39.61 Y59.767
N17730 X40.232 Y59.371
N17735 X40.863 Y58.989
N17740 X41.502 Y58.62
N17745 X42.149 Y58.265
N17750 X42.804 Y57.925
N17755 X43.465 Y57.598
N17760 X44.134 Y57.287
N17765 X44.81 Y56.99
N17770 X45.491 Y56.707
N17775 X46.179 Y56.44
N17780 X46.872 Y56.187
N17785 X47.571 Y55.95
N17790 X48.275 Y55.731
N17795 X48.986 Y55.533
N17800 X49.704 Y55.364
N17805 X50.431 Y55.237
N17810 X51.09 Y55.172
N17815 X51.62 Y55.163
N17820 X52.086 Y55.192
N17825 X52.439 Y55.243
N17830 X52.738 Y55.311
N17835 X52.967 Y55.382
N17840 X53.171 Y55.465
N17845 X53.246 Y55.503
N17850 X53.431 Y55.634
N17855 X53.567 Y55.814
N17860 X53.642 Y56.027
N17865 X53.65 Y56.253
N17870 X53.644 Y56.306
N17875 X53.621 Y56.641
N17880 X53.611 Y56.809
N17885 X53.592 Y57.308
N17890 G3 X53.013 Y57.464 I-0.317 J-0.023
N17895 G1 X52.973 Y57.406 Z15.389
N17900 X52.936 Y57.35 Z15.412
N17905 X52.902 Y57.3 Z15.45
N17910 X52.874 Y57.259 Z15.5
N17915 X52.852 Y57.227 Z15.56
N17920 X52.839 Y57.208 Z15.627
N17925 X52.835 Y57.201 Z15.698
N17930 Z22.381
N17935 X31.397 Y106.384
N17940 Z16.016
N17945 Z15.698
N17950 X31.389 Z15.627
N17955 X31.366 Z15.56
N17960 X31.328 Z15.5
N17965 X31.277 Z15.45
N17970 X31.217 Z15.412
N17975 X31.15 Z15.389
N17980 X31.079 Z15.381
N17985 G3 X30.319 Y106.188 I0.002 J-1.583
N17990 G1 X28.202 Y104.927
N17995 X27.875 Y104.702
N18000 X27.665 Y104.532
N18005 X27.418 Y104.297
N18010 X27.14 Y103.986
N18015 X26.805 Y103.545
N18020 X26.408 Y102.923
N18025 X26.06 Y102.272
N18030 X25.745 Y101.605
N18035 X25.455 Y100.927
N18040 X25.185 Y100.24
N18045 X24.932 Y99.547
N18050 X24.696 Y98.848
N18055 X24.476 Y98.144
N18060 X24.271 Y97.435
N18065 X24.082 Y96.722
N18070 X23.907 Y96.005
N18075 X23.748 Y95.285
N18080 X23.604 Y94.561
N18085 X23.476 Y93.834
N18090 X23.363 Y93.105
N18095 X23.266 Y92.374
N18100 X23.184 Y91.64
N18105 X23.118 Y90.906
N18110 X23.068 Y90.169
N18115 X23.033 Y89.433
N18120 X23.013 Y88.695
N18125 X23.009 Y87.957
N18130 X23.02 Y87.219
N18135 X23.047 Y86.482
N18140 X23.089 Y85.745
N18145 X23.147 Y85.01
N18150 X23.22 Y84.276
N18155 X23.308 Y83.543
N18160 X23.412 Y82.813
N18165 X23.531 Y82.085
N18170 X23.665 Y81.359
N18175 X23.814 Y80.637
N18180 X23.979 Y79.917
N18185 X24.159 Y79.202
N18190 X24.353 Y78.49
N18195 X24.563 Y77.783
N18200 X24.787 Y77.08
N18205 X25.026 Y76.382
N18210 X25.279 Y75.689
N18215 X25.547 Y75.001
N18220 X25.83 Y74.32
N18225 X26.127 Y73.644
N18230 X26.439 Y72.976
N18235 X26.764 Y72.313
N18240 X27.104 Y71.658
N18245 X27.457 Y71.011
N18250 X27.824 Y70.371
N18255 X28.204 Y69.738
N18260 X28.597 Y69.114
N18265 X29.004 Y68.498
N18270 X29.423 Y67.891
N18275 X29.855 Y67.293
N18280 X30.299 Y66.704
N18285 X30.755 Y66.124
N18290 X31.224 Y65.554
N18295 X31.704 Y64.994
N18300 X32.196 Y64.444
N18305 X32.699 Y63.904
N18310 X33.213 Y63.375
N18315 X33.739 Y62.857
N18320 X34.275 Y62.35
N18325 X34.822 Y61.855
N18330 X35.379 Y61.371
N18335 X35.946 Y60.899
N18340 X36.522 Y60.439
N18345 X37.109 Y59.991
N18350 X37.704 Y59.555
N18355 X38.309 Y59.132
N18360 X38.922 Y58.722
N18365 X39.544 Y58.325
N18370 X40.174 Y57.942
N18375 X40.813 Y57.572
N18380 X41.459 Y57.215
N18385 X42.112 Y56.872
N18390 X42.772 Y56.543
N18395 X43.44 Y56.228
N18400 X44.113 Y55.928
N18405 X44.793 Y55.641
N18410 X45.479 Y55.368
N18415 X46.17 Y55.11
N18420 X46.867 Y54.868
N18425 X47.569 Y54.642
N18430 X48.278 Y54.437
N18435 X48.994 Y54.258
N18440 X49.717 Y54.112
N18445 X50.448 Y54.01
N18450 X51.132 Y53.967
N18455 X51.683 Y53.976
N18460 X52.159 Y54.023
N18465 X52.541 Y54.091
N18470 X52.842 Y54.171
N18475 X53.084 Y54.256
N18480 X53.279 Y54.343
N18485 X53.475 Y54.45
N18490 X53.629 Y54.551
N18495 X53.765 Y54.687
N18500 X53.86 Y54.854
N18505 X53.91 Y55.039
N18510 Y55.231
N18515 X53.861 Y55.417
N18520 X53.724 Y55.75
N18525 X53.664 Y56.138
N18530 X53.65 Y56.253
N18535 G3 X53.06 Y56.36 I-0.314 J-0.049
N18540 G1 X53.025 Y56.299 Z15.389
N18545 X52.992 Y56.241 Z15.412
N18550 X52.963 Y56.188 Z15.45
N18555 X52.938 Y56.144 Z15.5
N18560 X52.919 Y56.111 Z15.56
N18565 X52.908 Y56.091 Z15.627
N18570 X52.904 Y56.084 Z15.698
N18575 Z22.381
N18580 X29.28 Y105.122
N18585 Z16.016
N18590 Z15.698
N18595 X29.272 Z15.627
N18600 X29.248 Z15.56
N18605 X29.211 Z15.5
N18610 X29.16 Z15.45
N18615 X29.1 Z15.412
N18620 X29.033 Z15.389
N18625 X28.962 Z15.381
N18630 G3 X28.202 Y104.927 I0.002 J-1.583
N18635 G1 X28.139 Y104.888
N18640 X27.636 Y104.572
N18645 X27.424 Y104.424
N18650 X25.96 Y103.378
N18655 X25.687 Y103.162
N18660 X25.488 Y102.976
N18665 X25.259 Y102.725
N18670 X24.997 Y102.387
N18675 X24.684 Y101.909
N18680 X24.331 Y101.261
N18685 X24.027 Y100.589
N18690 X23.757 Y99.902
N18695 X23.511 Y99.207
N18700 X23.285 Y98.504
N18705 X23.076 Y97.797
N18710 X22.884 Y97.084
N18715 X22.707 Y96.368
N18720 X22.546 Y95.648
N18725 X22.399 Y94.925
N18730 X22.268 Y94.199
N18735 X22.152 Y93.47
N18740 X22.051 Y92.739
N18745 X21.965 Y92.007
N18750 X21.893 Y91.272
N18755 X21.837 Y90.536
N18760 X21.796 Y89.8
N18765 X21.77 Y89.062
N18770 X21.758 Y88.325
N18775 X21.762 Y87.587
N18780 X21.78 Y86.849
N18785 X21.813 Y86.112
N18790 X21.862 Y85.376
N18795 X21.925 Y84.641
N18800 X22.003 Y83.907
N18805 X22.095 Y83.175
N18810 X22.203 Y82.445
N18815 X22.325 Y81.718
N18820 X22.462 Y80.993
N18825 X22.613 Y80.271
N18830 X22.78 Y79.552
N18835 X22.96 Y78.836
N18840 X23.155 Y78.125
N18845 X23.365 Y77.417
N18850 X23.588 Y76.714
N18855 X23.826 Y76.016
N18860 X24.079 Y75.323
N18865 X24.345 Y74.635
N18870 X24.626 Y73.952
N18875 X24.92 Y73.276
N18880 X25.229 Y72.605
N18885 X25.551 Y71.942
N18890 X25.886 Y71.285
N18895 X26.235 Y70.634
N18900 X26.597 Y69.991
N18905 X26.972 Y69.356
N18910 X27.36 Y68.728
N18915 X27.76 Y68.108
N18920 X28.173 Y67.497
N18925 X28.598 Y66.894
N18930 X29.035 Y66.299
N18935 X29.484 Y65.714
N18940 X29.944 Y65.138
N18945 X30.417 Y64.571
N18950 X30.9 Y64.013
N18955 X31.395 Y63.466
N18960 X31.901 Y62.929
N18965 X32.417 Y62.402
N18970 X32.944 Y61.885
N18975 X33.481 Y61.38
N18980 X34.029 Y60.885
N18985 X34.586 Y60.402
N18990 X35.153 Y59.929
N18995 X35.729 Y59.469
N19000 X36.315 Y59.02
N19005 X36.91 Y58.583
N19010 X37.513 Y58.159
N19015 X38.126 Y57.747
N19020 X38.746 Y57.348
N19025 X39.375 Y56.962
N19030 X40.011 Y56.588
N19035 X40.655 Y56.228
N19040 X41.306 Y55.881
N19045 X41.964 Y55.547
N19050 X42.628 Y55.226
N19055 X43.299 Y54.919
N19060 X43.976 Y54.626
N19065 X44.659 Y54.346
N19070 X45.347 Y54.08
N19075 X46.041 Y53.83
N19080 X46.741 Y53.595
N19085 X47.446 Y53.379
N19090 X48.158 Y53.186
N19095 X48.877 Y53.019
N19100 X49.603 Y52.886
N19105 X50.335 Y52.795
N19110 X51.035 Y52.76
N19115 X51.659 Y52.778
N19120 X52.169 Y52.835
N19125 X52.601 Y52.918
N19130 X52.988 Y53.025
N19135 X53.268 Y53.128
N19140 X53.519 Y53.244
N19145 X53.707 Y53.349
N19150 X53.889 Y53.472
N19155 X54.035 Y53.589
N19160 X54.153 Y53.699
N19165 X54.29 Y53.872
N19170 X54.369 Y54.078
N19175 X54.383 Y54.298
N19180 X54.332 Y54.513
N19185 X54.219 Y54.703
N19190 X53.959 Y55.189
N19195 X53.909 Y55.3
N19200 X53.861 Y55.417
N19205 G3 X53.263 Y55.363 I-0.289 J-0.131
N19210 G1 X53.246 Y55.295 Z15.389
N19215 X53.23 Y55.229 Z15.412
N19220 X53.215 Y55.171 Z15.45
N19225 X53.203 Y55.122 Z15.5
N19230 X53.194 Y55.085 Z15.56
N19235 X53.189 Y55.063 Z15.627
N19240 X53.187 Y55.055 Z15.698
N19245 Z22.381
N19250 X27.018 Y103.662
N19255 Z16.016
N19260 Z15.698
N19265 X27.01 Y103.661 Z15.627
N19270 X26.987 Y103.659 Z15.56
N19275 X26.949 Y103.656 Z15.5
N19280 X26.899 Y103.652 Z15.45
N19285 X26.839 Y103.647 Z15.412
N19290 X26.772 Y103.641 Z15.389
N19295 X26.702 Y103.635 Z15.381
N19300 G3 X25.96 Y103.378 I0.132 J-1.577
N19305 G1 X24.283 Y102.181
N19310 X24.147 Y102.076
N19315 X23.948 Y101.918
N19320 X23.72 Y101.717
N19325 X23.523 Y101.512
N19330 X23.312 Y101.255
N19335 X23.061 Y100.895
N19340 X22.782 Y100.415
N19345 X22.464 Y99.749
N19350 X22.196 Y99.062
N19355 X21.962 Y98.362
N19360 X21.753 Y97.654
N19365 X21.565 Y96.941
N19370 X21.394 Y96.223
N19375 X21.24 Y95.502
N19380 X21.1 Y94.777
N19385 X20.976 Y94.05
N19390 X20.867 Y93.32
N19395 X20.772 Y92.588
N19400 X20.691 Y91.855
N19405 X20.625 Y91.12
N19410 X20.574 Y90.384
N19415 X20.537 Y89.647
N19420 X20.514 Y88.91
N19425 X20.506 Y88.172
N19430 X20.512 Y87.434
N19435 X20.533 Y86.697
N19440 X20.568 Y85.96
N19445 X20.617 Y85.224
N19450 X20.681 Y84.488
N19455 X20.759 Y83.755
N19460 X20.852 Y83.023
N19465 X20.958 Y82.293
N19470 X21.079 Y81.565
N19475 X21.215 Y80.84
N19480 X21.365 Y80.117
N19485 X21.528 Y79.398
N19490 X21.706 Y78.682
N19495 X21.898 Y77.969
N19500 X22.104 Y77.261
N19505 X22.323 Y76.556
N19510 X22.557 Y75.856
N19515 X22.804 Y75.161
N19520 X23.065 Y74.471
N19525 X23.339 Y73.786
N19530 X23.627 Y73.107
N19535 X23.929 Y72.433
N19540 X24.243 Y71.766
N19545 X24.571 Y71.105
N19550 X24.912 Y70.451
N19555 X25.265 Y69.803
N19560 X25.631 Y69.162
N19565 X26.01 Y68.529
N19570 X26.401 Y67.903
N19575 X26.804 Y67.285
N19580 X27.219 Y66.675
N19585 X27.646 Y66.074
N19590 X28.084 Y65.48
N19595 X28.534 Y64.895
N19600 X28.995 Y64.32
N19605 X29.468 Y63.753
N19610 X29.951 Y63.195
N19615 X30.445 Y62.647
N19620 X30.95 Y62.109
N19625 X31.465 Y61.581
N19630 X31.991 Y61.064
N19635 X32.527 Y60.556
N19640 X33.072 Y60.06
N19645 X33.627 Y59.574
N19650 X34.192 Y59.098
N19655 X34.765 Y58.634
N19660 X35.348 Y58.182
N19665 X35.94 Y57.741
N19670 X36.54 Y57.312
N19675 X37.148 Y56.894
N19680 X37.765 Y56.489
N19685 X38.389 Y56.096
N19690 X39.022 Y55.716
N19695 X39.661 Y55.348
N19700 X40.308 Y54.993
N19705 X40.961 Y54.65
N19710 X41.621 Y54.32
N19715 X42.288 Y54.004
N19720 X42.96 Y53.7
N19725 X43.639 Y53.41
N19730 X44.322 Y53.133
N19735 X45.012 Y52.87
N19740 X45.707 Y52.622
N19745 X46.407 Y52.391
N19750 X47.114 Y52.178
N19755 X47.826 Y51.987
N19760 X48.546 Y51.823
N19765 X49.272 Y51.692
N19770 X50.004 Y51.6
N19775 X50.74 Y51.554
N19780 X51.435 Y51.561
N19785 X52.032 Y51.615
N19790 X52.559 Y51.706
N19795 X53.011 Y51.821
N19800 X53.393 Y51.953
N19805 X53.734 Y52.102
N19810 X54.003 Y52.246
N19815 X54.244 Y52.401
N19820 X54.416 Y52.533
N19825 X54.581 Y52.68
N19830 X54.716 Y52.823
N19835 X54.822 Y52.955
N19840 X54.926 Y53.109
N19845 X54.995 Y53.23
N19850 X55.077 Y53.451
N19855 X55.086 Y53.686
N19860 X55.021 Y53.912
N19865 X54.887 Y54.107
N19870 X54.7 Y54.249
N19875 X54.472 Y54.424
N19880 X54.462 Y54.434
N19885 X54.228 Y54.692
N19890 X54.219 Y54.703
N19895 G3 X53.664 Y54.475 I-0.238 J-0.21
N19900 G1 X53.667 Y54.405 Z15.389
N19905 X53.671 Y54.338 Z15.412
N19910 X53.674 Y54.278 Z15.45
N19915 X53.677 Y54.228 Z15.5
N19920 X53.679 Y54.19 Z15.56
N19925 X53.68 Y54.166 Z15.627
N19930 X53.681 Y54.158 Z15.698
N19935 Z22.381
N19940 X24.99 Y102.257
N19945 Z16.016
N19950 Z15.698
N19955 X24.982 Y102.256 Z15.627
N19960 X24.959 Y102.253 Z15.56
N19965 X24.921 Y102.248 Z15.5
N19970 X24.871 Y102.241 Z15.45
N19975 X24.812 Y102.233 Z15.412
N19980 X24.745 Y102.224 Z15.389
N19985 X24.675 Y102.214 Z15.381
N19990 G3 X23.948 Y101.918 I0.215 J-1.568
N19995 G1 X23.726 Y101.741
N20000 X23.613 Y101.647
N20005 X22.014 Y100.294
N20010 X21.851 Y100.14
N20015 X21.672 Y99.945
N20020 X21.483 Y99.699
N20025 X21.264 Y99.363
N20030 X21.023 Y98.919
N20035 X20.74 Y98.277
N20040 X20.496 Y97.581
N20045 X20.292 Y96.872
N20050 X20.115 Y96.155
N20055 X19.96 Y95.434
N20060 X19.822 Y94.709
N20065 X19.701 Y93.981
N20070 X19.595 Y93.251
N20075 X19.504 Y92.519
N20080 X19.427 Y91.785
N20085 X19.364 Y91.05
N20090 X19.315 Y90.314
N20095 X19.281 Y89.577
N20100 X19.26 Y88.839
N20105 X19.253 Y88.102
N20110 X19.26 Y87.364
N20115 X19.282 Y86.626
N20120 X19.317 Y85.889
N20125 X19.366 Y85.153
N20130 X19.428 Y84.418
N20135 X19.505 Y83.684
N20140 X19.596 Y82.952
N20145 X19.701 Y82.222
N20150 X19.82 Y81.494
N20155 X19.952 Y80.768
N20160 X20.099 Y80.045
N20165 X20.259 Y79.324
N20170 X20.432 Y78.607
N20175 X20.62 Y77.894
N20180 X20.82 Y77.184
N20185 X21.034 Y76.478
N20190 X21.262 Y75.776
N20195 X21.503 Y75.078
N20200 X21.757 Y74.386
N20205 X22.024 Y73.698
N20210 X22.304 Y73.015
N20215 X22.598 Y72.338
N20220 X22.904 Y71.667
N20225 X23.223 Y71.002
N20230 X23.555 Y70.343
N20235 X23.899 Y69.69
N20240 X24.255 Y69.044
N20245 X24.624 Y68.405
N20250 X25.004 Y67.773
N20255 X25.397 Y67.148
N20260 X25.801 Y66.531
N20265 X26.217 Y65.921
N20270 X26.644 Y65.32
N20275 X27.083 Y64.727
N20280 X27.532 Y64.142
N20285 X27.993 Y63.565
N20290 X28.464 Y62.998
N20295 X28.946 Y62.439
N20300 X29.439 Y61.89
N20305 X29.942 Y61.35
N20310 X30.456 Y60.82
N20315 X30.979 Y60.3
N20320 X31.512 Y59.79
N20325 X32.055 Y59.29
N20330 X32.606 Y58.8
N20335 X33.168 Y58.321
N20340 X33.738 Y57.853
N20345 X34.316 Y57.395
N20350 X34.904 Y56.949
N20355 X35.5 Y56.514
N20360 X36.104 Y56.09
N20365 X36.716 Y55.678
N20370 X37.336 Y55.278
N20375 X37.963 Y54.89
N20380 X38.598 Y54.513
N20385 X39.239 Y54.149
N20390 X39.888 Y53.797
N20395 X40.543 Y53.458
N20400 X41.204 Y53.131
N20405 X41.872 Y52.816
N20410 X42.545 Y52.515
N20415 X43.224 Y52.226
N20420 X43.908 Y51.95
N20425 X44.598 Y51.688
N20430 X45.293 Y51.441
N20435 X45.994 Y51.21
N20440 X46.701 Y50.999
N20445 X47.414 Y50.809
N20450 X48.133 Y50.645
N20455 X48.859 Y50.511
N20460 X49.59 Y50.412
N20465 X50.325 Y50.353
N20470 X51.063 Y50.339
N20475 X51.784 Y50.379
N20480 X52.418 Y50.465
N20485 X52.965 Y50.585
N20490 X53.454 Y50.734
N20495 X53.89 Y50.907
N20500 X54.252 Y51.085
N20505 X54.572 Y51.275
N20510 X54.853 Y51.474
N20515 X55.096 Y51.679
N20520 X55.285 Y51.865
N20525 X55.458 Y52.064
N20530 X55.578 Y52.229
N20535 X55.684 Y52.401
N20540 X55.774 Y52.577
N20545 X55.837 Y52.731
N20550 X55.888 Y52.889
N20555 X55.928 Y53.06
N20560 X55.935 Y53.104
N20565 X55.937 Y53.304
N20570 X55.886 Y53.498
N20575 X55.785 Y53.671
N20580 X55.641 Y53.811
N20585 X55.465 Y53.907
N20590 X55.3 Y53.97
N20595 X55.132 Y54.041
N20600 X54.719 Y54.239
N20605 X54.7 Y54.249
N20610 G3 X54.274 Y53.827 I-0.14 J-0.285
N20615 G1 X54.305 Y53.763 Z15.389
N20620 X54.334 Y53.703 Z15.412
N20625 X54.36 Y53.648 Z15.45
N20630 X54.381 Y53.603 Z15.5
N20635 X54.398 Y53.569 Z15.56
N20640 X54.408 Y53.548 Z15.627
N20645 X54.411 Y53.54 Z15.698
N20650 Z22.381
N20655 X59.841 Y63.181
N20660 Z16.016
N20665 Z15.698
N20670 X59.846 Y63.175 Z15.627
N20675 X59.861 Y63.156 Z15.56
N20680 X59.885 Y63.127 Z15.5
N20685 X59.916 Y63.088 Z15.45
N20690 X59.953 Y63.04 Z15.412
N20695 X59.995 Y62.988 Z15.389
N20700 X60.039 Y62.933 Z15.381
N20705 G3 X60.665 Y62.458 I1.239 J0.985
N20710 G1 X61. Y62.331
N20715 X61.168 Y62.259
N20720 X61.582 Y62.062
N20725 X61.601 Y62.051
N20730 X61.818 Y61.885
N20735 X61.982 Y61.772
N20740 X62.119 Y61.693
N20745 X62.27 Y61.621
N20750 X62.455 Y61.551
N20755 X62.69 Y61.483
N20760 X62.963 Y61.427
N20765 X63.303 Y61.386
N20770 X63.728 Y61.368
N20775 X64.283 Y61.39
N20780 X65.005 Y61.477
N20785 X65.728 Y61.623
N20790 X66.442 Y61.81
N20795 X67.147 Y62.028
N20800 X67.844 Y62.27
N20805 X68.533 Y62.534
N20810 X69.214 Y62.818
N20815 X69.887 Y63.12
N20820 X70.551 Y63.441
N20825 X71.206 Y63.78
N20830 X71.853 Y64.136
N20835 X72.489 Y64.509
N20840 X73.116 Y64.898
N20845 X73.732 Y65.304
N20850 X74.338 Y65.726
N20855 X74.932 Y66.163
N20860 X75.514 Y66.616
N20865 X76.085 Y67.084
N20870 X76.642 Y67.567
N20875 X77.187 Y68.065
N20880 X77.719 Y68.576
N20885 X78.236 Y69.102
N20890 X78.74 Y69.641
N20895 X79.23 Y70.193
N20900 X79.705 Y70.757
N20905 X80.165 Y71.334
