%
(ROSETTEFINE)
(T2  D=0.5 CR=0.25 - ZMIN=8.587 - BALL END MILL)
N10 G90 G94 G17 G91.1
N15 G21
(WHEN USING FUSION 360 FOR PERSONAL USE, THE FEEDRATE OF)
(RAPID MOVES IS REDUCED TO MATCH THE FEEDRATE OF CUTTING)
(MOVES, WHICH CAN INCREASE MACHINING TIME. UNRESTRICTED RAPID)
(MOVES ARE AVAILABLE WITH A FUSION 360 SUBSCRIPTION.)
N20 G53 G0 Z0.
(CONTOUR1)
N25 T2 M6
N30 S18000 M3
N35 G54
N40 M8
N45 G0 X6.664 Y56.365
N50 G43 Z32.381 H2
N55 G1 Z16.431 F1600.
N60 Z14.431
N65 X6.669 Y56.37 Z14.406
N70 X6.681 Y56.384 Z14.387
N75 X6.697 Y56.402 Z14.381
N80 X6.926 Y56.659
N85 X6.937 Y56.682
N90 X6.936 Y56.708
N95 X6.921 Y56.73
N100 X6.4 Y57.193
N105 X6.378 Y57.213
N110 X6.369 Y57.222
N115 X6.361 Y57.231
N120 X6.354 Y57.241
N125 X6.348 Y57.25
N130 X6.34 Y57.264
N135 X6.334 Y57.278
N140 X6.257 Y57.475
N145 X6.233 Y57.531
N150 X6.011 Y58.037
N155 X5.988 Y58.094
N160 X5.984 Y58.105
N165 X5.982 Y58.116
N170 X5.98 Y58.127
N175 X5.979 Y58.139
N180 X5.978 Y58.15
N185 X5.979 Y58.161
N190 X5.98 Y58.173
N195 X5.982 Y58.184
N200 X5.984 Y58.195
N205 X5.988 Y58.206
N210 X5.993 Y58.22
N215 X6. Y58.234
N220 X6.007 Y58.248
N225 X6.017 Y58.263
N230 X6.626 Y59.154
N235 X6.627 Y59.155
N240 X6.66 Y59.237
N245 X6.663 Y59.265
N250 X6.651 Y59.289
N255 X6.628 Y59.304
N260 X6.281 Y59.408
N265 X6.257 Y59.415 Z14.387
N270 X6.239 Y59.42 Z14.406
N275 X6.233 Y59.422 Z14.431
N280 Z22.381
N285 X7.677 Y58.949
N290 Z16.43
N295 Z14.431
N300 X7.672 Y58.954 Z14.406
N305 X7.66 Y58.968 Z14.387
N310 X7.644 Y58.986 Z14.381
N315 X7.457 Y59.199
N320 X7.436 Y59.213
N325 X7.41 Y59.215
N330 X7.386 Y59.203
N335 X7.189 Y59.03
N340 X7.188 Y59.028
N345 X6.76 Y58.338
N350 X6.759 Y58.336
N355 X6.674 Y58.15
N360 X6.772 Y57.936
N365 X6.777 Y57.925
N370 X6.799 Y57.869
N375 X6.926 Y57.54
N380 X6.928 Y57.538
N385 X7.222 Y57.282
N390 X7.259 Y57.25
N395 X7.269 Y57.24
N400 X7.274 Y57.235
N405 X7.276 Y57.232
N410 X7.299 Y57.219
N415 X7.324
N420 X7.347 Y57.232
N425 X7.367 Y57.244
N430 X7.39 Y57.246
N435 X7.412 Y57.237
N440 X20.594 Y47.619
N445 Z13.882
N450 S5000
N455 X20.595 Y47.62 Z13.869 F333.33
N460 X20.597 Y47.624 Z13.857
N465 X20.6 Y47.631 Z13.847
N470 X20.603 Y47.641 Z13.839
N475 X20.604 Y47.653 Z13.834
N480 X20.603 Y47.665 Z13.832
N485 X20.589 Y47.693 Z13.831
N490 X20.563 Y47.711 Z13.829
N495 X20.531 Y47.714 Z13.828
N500 X20.503 Y47.701 Z13.827
N505 X20.484 Y47.676 Z13.826
N510 X20.479 Y47.645 Z13.825
N515 X20.491 Y47.616 Z13.824
N520 X20.515 Y47.596 Z13.823
N525 X20.545 Y47.59 Z13.822
N530 X20.575 Y47.599 Z13.821
N535 X20.596 Y47.622 Z13.819
N540 X20.604 Y47.653 Z13.818
N545 X20.596 Y47.683 Z13.817
N550 X20.574 Y47.705 Z13.816
N555 X20.544 Y47.714 Z13.815
N560 X20.513 Y47.708 Z13.814
N565 X20.49 Y47.687 Z13.813
N570 X20.479 Y47.657 Z13.812
N575 X20.484 Y47.627 Z13.811
N580 X20.504 Y47.602 Z13.81
N585 X20.533 Y47.59 Z13.808
N590 X20.564 Y47.594 Z13.807
N595 X20.59 Y47.612 Z13.806
N600 X20.603 Y47.641 Z13.805
N605 X20.601 Y47.672 Z13.804
N610 X20.584 Y47.698 Z13.803
N615 X20.556 Y47.713 Z13.802
N620 X20.525 Y47.712 Z13.801
N625 X20.498 Y47.696 Z13.8
N630 X20.481 Y47.67 Z13.798
N635 Y47.638 Z13.797
N640 X20.495 Y47.61 Z13.796
N645 X20.521 Y47.593 Z13.795
N650 X20.552 Y47.59 Z13.794
N655 X20.581 Y47.603 Z13.793
N660 X20.599 Y47.629 Z13.792
N665 X20.603 Y47.66 Z13.791
N670 X20.592 Y47.689 Z13.79
N675 X20.568 Y47.709 Z13.789
N680 X20.537 Y47.714 Z13.787
N685 X20.507 Y47.704 Z13.786
N690 X20.486 Y47.681 Z13.785
N695 X20.479 Y47.65 Z13.784
N700 X20.488 Y47.62 Z13.783
N705 X20.51 Y47.598 Z13.782
N710 X20.54 Y47.59 Z13.781
N715 X20.57 Y47.597 Z13.78
N720 X20.594 Y47.618 Z13.779
N725 X20.604 Y47.647 Z13.777
N730 X20.598 Y47.678 Z13.776
N735 X20.578 Y47.703 Z13.775
N740 X20.549 Y47.714 Z13.774
N745 X20.518 Y47.71 Z13.773
N750 X20.493 Y47.691 Z13.772
N755 X20.48 Y47.663 Z13.771
N760 X20.482 Y47.631 Z13.77
N765 X20.5 Y47.605 Z13.769
N770 X20.528 Y47.591 Z13.767
N775 X20.559 Y47.592 Z13.766
N780 X20.586 Y47.608 Z13.765
N785 X20.602 Y47.635 Z13.764
N790 Y47.667 Z13.763
N795 X20.587 Y47.694 Z13.762
N800 X20.561 Y47.711 Z13.761
N805 X20.53 Y47.713 Z13.76
N810 X20.501 Y47.7 Z13.759
N815 X20.483 Y47.675 Z13.758
N820 X20.48 Y47.643 Z13.756
N825 X20.492 Y47.614 Z13.755
N830 X20.516 Y47.595 Z13.754
N835 X20.547 Y47.59 Z13.753
N840 X20.577 Y47.6 Z13.752
N845 X20.597 Y47.624 Z13.751
N850 X20.604 Y47.654 Z13.75
N855 X20.595 Y47.684 Z13.749
N860 X20.572 Y47.706 Z13.748
N865 X20.542 Y47.715 Z13.746
N870 X20.512 Y47.707 Z13.745
N875 X20.489 Y47.686 Z13.744
N880 X20.479 Y47.656 Z13.743
N885 X20.485 Y47.625 Z13.742
N890 X20.505 Y47.601 Z13.741
N895 X20.535 Y47.59 Z13.74
N900 X20.566 Y47.594 Z13.739
N905 X20.591 Y47.613 Z13.738
N910 X20.603 Y47.642 Z13.736
N915 X20.6 Y47.673 Z13.735
N920 X20.582 Y47.699 Z13.734
N925 X20.554 Y47.713 Z13.733
N930 X20.523 Y47.712 Z13.732
N935 X20.496 Y47.695 Z13.731
N940 X20.481 Y47.668 Z13.73
N945 Y47.637 Z13.729
N950 X20.496 Y47.609 Z13.728
N955 X20.523 Y47.592 Z13.727
N960 X20.554 Y47.591 Z13.725
N965 X20.582 Y47.605 Z13.724
N970 X20.6 Y47.63 Z13.723
N975 X20.603 Y47.661 Z13.722
N980 X20.591 Y47.69 Z13.721
N985 X20.566 Y47.709 Z13.72
N990 X20.535 Y47.714 Z13.719
N995 X20.506 Y47.703 Z13.718
N1000 X20.485 Y47.68 Z13.717
N1005 X20.479 Y47.649 Z13.715
N1010 X20.488 Y47.619 Z13.714
N1015 X20.511 Y47.597 Z13.713
N1020 X20.542 Y47.59 Z13.712
N1025 X20.572 Y47.597 Z13.711
N1030 X20.595 Y47.619 Z13.71
N1035 X20.604 Y47.649 Z13.709
N1040 X20.597 Y47.68 Z13.708
N1045 X20.577 Y47.703 Z13.707
N1050 X20.547 Y47.714 Z13.706
N1055 X20.517 Y47.709 Z13.704
N1060 X20.492 Y47.69 Z13.703
N1065 X20.48 Y47.661 Z13.702
N1070 X20.483 Y47.63 Z13.701
N1075 X20.501 Y47.604 Z13.7
N1080 X20.529 Y47.591 Z13.699
N1085 X20.561 Y47.593 Z13.698
N1090 X20.587 Y47.609 Z13.697
N1095 X20.602 Y47.637 Z13.696
N1100 Y47.668 Z13.694
N1105 X20.586 Y47.696 Z13.693
N1110 X20.56 Y47.712 Z13.692
N1115 X20.528 Y47.713 Z13.691
N1120 X20.5 Y47.699 Z13.69
N1125 X20.483 Y47.673 Z13.689
N1130 X20.48 Y47.642 Z13.688
N1135 X20.493 Y47.613 Z13.687
N1140 X20.518 Y47.594 Z13.686
N1145 X20.549 Y47.59 Z13.684
N1150 X20.578 Y47.601 Z13.683
N1155 X20.598 Y47.625 Z13.682
N1160 X20.604 Y47.656 Z13.681
N1165 X20.594 Y47.686 Z13.68
N1170 X20.571 Y47.707 Z13.679
N1175 X20.54 Y47.715 Z13.678
N1180 X20.51 Y47.706 Z13.677
N1185 X20.488 Y47.684 Z13.676
N1190 X20.479 Y47.654 Z13.675
N1195 X20.486 Y47.624 Z13.673
N1200 X20.507 Y47.6 Z13.672
N1205 X20.536 Y47.59 Z13.671
N1210 X20.567 Y47.595 Z13.67
N1215 X20.592 Y47.615 Z13.669
N1220 X20.603 Y47.644 Z13.668
N1225 X20.6 Y47.675 Z13.667
N1230 X20.581 Y47.7 Z13.666
N1235 X20.553 Y47.713 Z13.665
N1240 X20.522 Y47.711 Z13.663
N1245 X20.495 Y47.694 Z13.662
N1250 X20.481 Y47.666 Z13.661
N1255 Y47.635 Z13.66
N1260 X20.497 Y47.608 Z13.659
N1265 X20.524 Y47.592 Z13.658
N1270 X20.555 Y47.591 Z13.657
N1275 X20.583 Y47.606 Z13.656
N1280 X20.601 Y47.632 Z13.655
N1285 X20.603 Y47.663 Z13.654
N1290 X20.59 Y47.692 Z13.652
N1295 X20.565 Y47.71 Z13.651
N1300 X20.534 Y47.714 Z13.65
N1305 X20.504 Y47.702 Z13.649
N1310 X20.485 Y47.678 Z13.648
N1315 X20.479 Y47.647 Z13.647
N1320 X20.489 Y47.617 Z13.646
N1325 X20.513 Y47.597 Z13.645
N1330 X20.543 Y47.59 Z13.644
N1335 X20.573 Y47.598 Z13.642
N1340 X20.595 Y47.621 Z13.641
N1345 X20.604 Y47.651 Z13.64
N1350 X20.597 Y47.681 Z13.639
N1355 X20.576 Y47.704 Z13.638
N1360 X20.546 Y47.714 Z13.637
N1365 X20.515 Y47.709 Z13.636
N1370 X20.491 Y47.689 Z13.635
N1375 X20.479 Y47.659 Z13.634
N1380 X20.484 Y47.628 Z13.632
N1385 X20.502 Y47.603 Z13.631
N1390 X20.531 Y47.59 Z13.63
N1395 X20.562 Y47.593 Z13.629
N1400 X20.588 Y47.611 Z13.628
N1405 X20.602 Y47.638 Z13.627
N1410 X20.601 Y47.67 Z13.626
N1415 X20.585 Y47.697 Z13.625
N1420 X20.558 Y47.712 Z13.624
N1425 X20.527 Y47.713 Z13.623
N1430 X20.499 Y47.698 Z13.621
N1435 X20.482 Y47.672 Z13.62
N1440 X20.48 Y47.64 Z13.619
N1445 X20.494 Y47.612 Z13.618
N1450 X20.519 Y47.594 Z13.617
N1455 X20.55 Y47.59 Z13.616
N1460 X20.579 Y47.602 Z13.615
N1465 X20.599 Y47.627 Z13.614
N1470 X20.604 Y47.658 Z13.613
N1475 X20.593 Y47.687 Z13.611
N1480 X20.57 Y47.708 Z13.61
N1485 X20.539 Y47.714 Z13.609
N1490 X20.509 Y47.705 Z13.608
N1495 X20.487 Y47.683 Z13.607
N1500 X20.479 Y47.652 Z13.606
N1505 X20.487 Y47.622 Z13.605
N1510 X20.508 Y47.599 Z13.604
N1515 X20.538 Y47.59 Z13.603
N1520 X20.569 Y47.596 Z13.602
N1525 X20.593 Y47.616 Z13.6
N1530 X20.604 Y47.645 Z13.599
N1535 X20.599 Y47.676 Z13.598
N1540 X20.58 Y47.701 Z13.597
N1545 X20.551 Y47.714 Z13.596
N1550 X20.52 Y47.711 Z13.595
N1555 X20.494 Y47.693 Z13.594
N1560 X20.48 Y47.665 Z13.593
N1565 X20.482 Y47.633 Z13.592
N1570 X20.498 Y47.607 Z13.59
N1575 X20.526 Y47.592 Z13.589
N1580 X20.557 Z13.588
N1585 X20.585 Y47.607 Z13.587
N1590 X20.601 Y47.633 Z13.586
N1595 X20.603 Y47.665 Z13.585
N1600 X20.589 Y47.693 Z13.584
N1605 X20.563 Y47.711 Z13.583
N1610 X20.532 Y47.714 Z13.582
N1615 X20.503 Y47.701 Z13.58
N1620 X20.484 Y47.677 Z13.579
N1625 X20.479 Y47.645 Z13.578
N1630 X20.49 Y47.616 Z13.577
N1635 X20.514 Y47.596 Z13.576
N1640 X20.545 Y47.59 Z13.575
N1645 X20.575 Y47.599 Z13.574
N1650 X20.596 Y47.622 Z13.573
N1655 X20.604 Y47.652 Z13.572
N1660 X20.596 Y47.683 Z13.571
N1665 X20.574 Y47.705 Z13.569
N1670 X20.544 Y47.714 Z13.568
N1675 X20.514 Y47.708 Z13.567
N1680 X20.49 Y47.687 Z13.566
N1685 X20.479 Y47.658 Z13.565
N1690 X20.484 Y47.627 Z13.564
N1695 X20.504 Y47.602 Z13.563
N1700 X20.533 Y47.59 Z13.562
N1705 X20.564 Y47.594 Z13.561
N1710 X20.589 Y47.612 Z13.559
N1715 X20.603 Y47.64 Z13.558
N1720 X20.601 Y47.671 Z13.557
N1725 X20.584 Y47.698 Z13.556
N1730 X20.556 Y47.713 Z13.555
N1735 X20.525 Y47.712 Z13.554
N1740 X20.498 Y47.697 Z13.553
N1745 X20.482 Y47.67 Z13.552
N1750 X20.48 Y47.639 Z13.551
N1755 X20.495 Y47.611 Z13.55
N1760 X20.521 Y47.593 Z13.548
N1765 X20.552 Y47.59 Z13.547
N1770 X20.58 Y47.603 Z13.546
N1775 X20.599 Y47.628 Z13.545
N1780 X20.604 Y47.659 Z13.544
N1785 X20.592 Y47.689 Z13.543
N1790 X20.568 Y47.709 Z13.542
N1795 X20.537 Y47.714 Z13.541
N1800 X20.507 Y47.704 Z13.54
N1805 X20.486 Y47.681 Z13.538
N1810 X20.479 Y47.651 Z13.537
N1815 X20.487 Y47.621 Z13.536
N1820 X20.509 Y47.598 Z13.535
N1825 X20.54 Y47.59 Z13.534
N1830 X20.57 Y47.596 Z13.533
N1835 X20.594 Y47.617 Z13.532
N1840 X20.604 Y47.647 Z13.531
N1845 X20.598 Y47.678 Z13.53
N1850 X20.579 Y47.702 Z13.528
N1855 X20.55 Y47.714 Z13.527
N1860 X20.518 Y47.71 Z13.526
N1865 X20.493 Y47.692 Z13.525
N1870 X20.48 Y47.663 Z13.524
N1875 X20.482 Y47.632 Z13.523
N1880 X20.5 Y47.606 Z13.522
N1885 X20.527 Y47.591 Z13.521
N1890 X20.559 Y47.592 Z13.52
N1895 X20.586 Y47.608 Z13.519
N1900 X20.602 Y47.635 Z13.517
N1905 Y47.666 Z13.516
N1910 X20.588 Y47.694 Z13.515
N1915 X20.562 Y47.711 Z13.514
N1920 X20.53 Y47.714 Z13.513
N1925 X20.502 Y47.7 Z13.512
N1930 X20.483 Y47.675 Z13.511
N1935 X20.48 Y47.644 Z13.51
N1940 X20.491 Y47.615 Z13.509
N1945 X20.516 Y47.595 Z13.507
N1950 X20.547 Y47.59 Z13.506
N1955 X20.576 Y47.6 Z13.505
N1960 X20.597 Y47.623 Z13.504
N1965 X20.604 Y47.654 Z13.503
N1970 X20.595 Y47.684 Z13.502
N1975 X20.573 Y47.706 Z13.501
N1980 X20.543 Y47.715 Z13.5
N1985 X20.512 Y47.707 Z13.499
N1990 X20.489 Y47.686 Z13.498
N1995 X20.479 Y47.656 Z13.496
N2000 X20.485 Y47.625 Z13.495
N2005 X20.505 Y47.601 Z13.494
N2010 X20.534 Y47.59 Z13.493
N2015 X20.565 Y47.594 Z13.492
N2020 X20.59 Y47.613 Z13.491
N2025 X20.603 Y47.642 Z13.49
N2030 X20.6 Y47.673 Z13.489
N2035 X20.583 Y47.699 Z13.488
N2040 X20.555 Y47.713 Z13.486
N2045 X20.523 Y47.712 Z13.485
N2050 X20.497 Y47.696 Z13.484
N2055 X20.481 Y47.668 Z13.483
N2060 Y47.637 Z13.482
N2065 X20.496 Y47.609 Z13.481
N2070 X20.522 Y47.593 Z13.48
N2075 X20.553 Y47.591 Z13.479
N2080 X20.582 Y47.604 Z13.478
N2085 X20.6 Y47.63 Z13.476
N2090 X20.603 Y47.661 Z13.475
N2095 X20.591 Y47.69 Z13.474
N2100 X20.567 Y47.709 Z13.473
N2105 X20.536 Y47.714 Z13.472
N2110 X20.506 Y47.704 Z13.471
N2115 X20.486 Y47.68 Z13.47
N2120 X20.479 Y47.649 Z13.469
N2125 X20.488 Y47.619 Z13.468
N2130 X20.511 Y47.598 Z13.467
N2135 X20.541 Y47.59 Z13.465
N2140 X20.572 Y47.597 Z13.464
N2145 X20.594 Y47.619 Z13.463
N2150 X20.604 Y47.649 Z13.462
N2155 X20.598 Y47.679 Z13.461
N2160 X20.577 Y47.703 Z13.46
N2165 X20.548 Y47.714 Z13.459
N2170 X20.517 Y47.709 Z13.458
N2175 X20.492 Y47.69 Z13.457
N2180 X20.48 Y47.661 Z13.455
N2185 X20.483 Y47.63 Z13.454
N2190 X20.501 Y47.605 Z13.453
N2195 X20.529 Y47.591 Z13.452
N2200 X20.56 Y47.592 Z13.451
N2205 X20.587 Y47.609 Z13.45
N2210 X20.602 Y47.637 Z13.449
N2215 Y47.668 Z13.448
N2220 X20.587 Y47.695 Z13.447
N2225 X20.56 Y47.712 Z13.446
N2230 X20.529 Y47.713 Z13.444
N2235 X20.501 Y47.699 Z13.443
N2240 X20.483 Y47.673 Z13.442
N2245 X20.48 Y47.642 Z13.441
N2250 X20.492 Y47.613 Z13.44
N2255 X20.517 Y47.594 Z13.439
N2260 X20.548 Y47.59 Z13.438
N2265 X20.578 Y47.601 Z13.437
N2270 X20.598 Y47.625 Z13.436
N2275 X20.604 Y47.656 Z13.434
N2280 X20.594 Y47.686 Z13.433
N2285 X20.571 Y47.707 Z13.432
N2290 X20.541 Y47.715 Z13.431
N2295 X20.511 Y47.706 Z13.43
N2300 X20.488 Y47.685 Z13.429
N2305 X20.479 Y47.655 Z13.428
N2310 X20.486 Y47.624 Z13.427
N2315 X20.506 Y47.6 Z13.426
N2320 X20.536 Y47.59 Z13.424
N2325 X20.567 Y47.595 Z13.423
N2330 X20.591 Y47.614 Z13.422
N2335 X20.603 Y47.643 Z13.421
N2340 X20.6 Y47.675 Z13.42
N2345 X20.582 Y47.7 Z13.419
N2350 X20.553 Y47.713 Z13.418
N2355 X20.522 Y47.711 Z13.417
N2360 X20.496 Y47.694 Z13.416
N2365 X20.481 Y47.667 Z13.415
N2370 Y47.635 Z13.413
N2375 X20.497 Y47.608 Z13.412
N2380 X20.524 Y47.592 Z13.411
N2385 X20.555 Y47.591 Z13.41
N2390 X20.583 Y47.605 Z13.409
N2395 X20.6 Y47.631 Z13.408
N2400 X20.603 Y47.663 Z13.407
N2405 X20.59 Y47.691 Z13.406
N2410 X20.565 Y47.71 Z13.405
N2415 X20.534 Y47.714 Z13.403
N2420 X20.505 Y47.703 Z13.402
N2425 X20.485 Y47.678 Z13.401
N2430 X20.479 Y47.648 Z13.4
N2435 X20.489 Y47.618 Z13.399
N2440 X20.512 Y47.597 Z13.398
N2445 X20.543 Y47.59 Z13.397
N2450 X20.573 Y47.598 Z13.396
N2455 X20.595 Y47.62 Z13.395
N2460 X20.604 Y47.65 Z13.394
N2465 X20.597 Y47.681 Z13.392
N2470 X20.576 Y47.704 Z13.391
N2475 X20.546 Y47.714 Z13.39
N2480 X20.515 Y47.709 Z13.389
N2485 X20.491 Y47.689 Z13.388
N2490 X20.479 Y47.66 Z13.387
N2495 X20.483 Y47.629 Z13.386
N2500 X20.502 Y47.604 Z13.385
N2505 X20.531 Y47.59 Z13.384
N2510 X20.562 Y47.593 Z13.382
N2515 X20.588 Y47.61 Z13.381
N2520 X20.602 Y47.638 Z13.38
N2525 X20.601 Y47.669 Z13.379
N2530 X20.585 Y47.696 Z13.378
N2535 X20.558 Y47.712 Z13.377
N2540 X20.527 Y47.713 Z13.376
N2545 X20.499 Y47.698 Z13.375
N2550 X20.482 Y47.672 Z13.374
N2555 X20.48 Y47.641 Z13.372
N2560 X20.493 Y47.612 Z13.371
N2565 X20.519 Y47.594 Z13.37
N2570 X20.55 Y47.59 Z13.369
N2575 X20.579 Y47.602 Z13.368
N2580 X20.598 Y47.626 Z13.367
N2585 X20.604 Y47.657 Z13.366
N2590 X20.593 Y47.687 Z13.365
N2595 X20.57 Y47.708 Z13.364
N2600 X20.539 Y47.714 Z13.363
N2605 X20.509 Y47.706 Z13.361
N2610 X20.487 Y47.683 Z13.36
N2615 X20.479 Y47.653 Z13.359
N2620 X20.486 Y47.622 Z13.358
N2625 X20.508 Y47.599 Z13.357
N2630 X20.538 Y47.59 Z13.356
N2635 X20.568 Y47.596 Z13.355
N2640 X20.592 Y47.616 Z13.354
N2645 X20.604 Y47.645 Z13.353
N2650 X20.599 Y47.676 Z13.351
N2655 X20.58 Y47.701 Z13.35
N2660 X20.552 Y47.714 Z13.349
N2665 X20.52 Y47.711 Z13.348
N2670 X20.494 Y47.693 Z13.347
N2675 X20.48 Y47.665 Z13.346
N2680 X20.482 Y47.634 Z13.345
N2685 X20.498 Y47.607 Z13.344
N2690 X20.525 Y47.592 Z13.343
N2695 X20.557 Y47.591 Z13.342
N2700 X20.584 Y47.606 Z13.34
N2705 X20.601 Y47.633 Z13.339
N2710 X20.603 Y47.664 Z13.338
N2715 X20.589 Y47.692 Z13.337
N2720 X20.563 Y47.711 Z13.336
N2725 X20.532 Y47.714 Z13.335
N2730 X20.503 Y47.702 Z13.334
N2735 X20.484 Y47.677 Z13.333
N2740 X20.479 Y47.646 Z13.332
N2745 X20.49 Y47.616 Z13.33
N2750 X20.514 Y47.596 Z13.329
N2755 X20.545 Y47.59 Z13.328
N2760 X20.574 Y47.599 Z13.327
N2765 X20.596 Y47.622 Z13.326
N2770 X20.604 Y47.652 Z13.325
N2775 X20.596 Y47.682 Z13.324
N2780 X20.575 Y47.705 Z13.323
N2785 X20.545 Y47.714 Z13.322
N2790 X20.514 Y47.708 Z13.32
N2795 X20.49 Y47.688 Z13.319
N2800 X20.479 Y47.658 Z13.318
N2805 X20.484 Y47.627 Z13.317
N2810 X20.503 Y47.602 Z13.316
N2815 X20.532 Y47.59 Z13.315
N2820 X20.563 Y47.593 Z13.314
N2825 X20.589 Y47.612 Z13.313
N2830 X20.603 Y47.64 Z13.312
N2835 X20.601 Y47.671 Z13.311
N2840 X20.584 Y47.698 Z13.309
N2845 X20.557 Y47.713 Z13.308
N2850 X20.525 Y47.712 Z13.307
N2855 X20.498 Y47.697 Z13.306
N2860 X20.482 Y47.67 Z13.305
N2865 X20.48 Y47.639 Z13.304
N2870 X20.494 Y47.611 Z13.303
N2875 X20.52 Y47.593 Z13.302
N2880 X20.551 Y47.59 Z13.301
N2885 X20.58 Y47.603 Z13.299
N2890 X20.599 Y47.628 Z13.298
N2895 X20.604 Y47.659 Z13.297
N2900 X20.592 Y47.688 Z13.296
N2905 X20.568 Y47.708 Z13.295
N2910 X20.538 Y47.714 Z13.294
N2915 X20.508 Y47.705 Z13.293
N2920 X20.486 Y47.682 Z13.292
N2925 X20.479 Y47.651 Z13.291
N2930 X20.487 Y47.621 Z13.29
N2935 X20.509 Y47.599 Z13.288
N2940 X20.539 Y47.59 Z13.287
N2945 X20.57 Y47.596 Z13.286
N2950 X20.593 Y47.617 Z13.285
N2955 X20.604 Y47.647 Z13.284
N2960 X20.599 Y47.678 Z13.283
N2965 X20.579 Y47.702 Z13.282
N2970 X20.55 Y47.714 Z13.281
N2975 X20.519 Y47.71 Z13.28
N2980 X20.493 Y47.692 Z13.278
N2985 X20.48 Y47.664 Z13.277
N2990 X20.482 Y47.632 Z13.276
N2995 X20.499 Y47.606 Z13.275
N3000 X20.527 Y47.591 Z13.274
N3005 X20.558 Y47.592 Z13.273
N3010 X20.585 Y47.608 Z13.272
N3015 X20.601 Y47.635 Z13.271
N3020 X20.602 Y47.666 Z13.27
N3025 X20.588 Y47.694 Z13.268
N3030 X20.562 Y47.711 Z13.267
N3035 X20.531 Y47.714 Z13.266
N3040 X20.502 Y47.701 Z13.265
N3045 X20.483 Y47.675 Z13.264
N3050 X20.479 Y47.644 Z13.263
N3055 X20.491 Y47.615 Z13.262
N3060 X20.515 Y47.595 Z13.261
N3065 X20.546 Y47.59 Z13.26
N3070 X20.576 Y47.6 Z13.259
N3075 X20.597 Y47.623 Z13.257
N3080 X20.604 Y47.654 Z13.256
N3085 X20.595 Y47.684 Z13.255
N3090 X20.573 Y47.706 Z13.254
N3095 X20.543 Y47.715 Z13.253
N3100 X20.512 Y47.707 Z13.252
N3105 X20.489 Y47.686 Z13.251
N3110 X20.479 Y47.657 Z13.25
N3115 X20.485 Y47.626 Z13.249
N3120 X20.505 Y47.602 Z13.247
N3125 X20.534 Y47.59 Z13.246
N3130 X20.565 Y47.594 Z13.245
N3135 X20.59 Y47.613 Z13.244
N3140 X20.603 Y47.641 Z13.243
N3145 X20.6 Y47.673 Z13.242
N3150 X20.583 Y47.699 Z13.241
N3155 X20.555 Y47.713 Z13.24
N3160 X20.524 Y47.712 Z13.239
N3165 X20.497 Y47.696 Z13.238
N3170 X20.481 Y47.669 Z13.236
N3175 Y47.637 Z13.235
N3180 X20.495 Y47.61 Z13.234
N3185 X20.522 Y47.593 Z13.233
N3190 X20.553 Y47.591 Z13.232
N3195 X20.581 Y47.604 Z13.231
N3200 X20.6 Y47.629 Z13.23
N3205 X20.603 Y47.661 Z13.229
N3210 X20.591 Y47.69 Z13.228
N3215 X20.567 Y47.709 Z13.226
N3220 X20.536 Y47.714 Z13.225
N3225 X20.506 Y47.704 Z13.224
N3230 X20.486 Y47.68 Z13.223
N3235 X20.479 Y47.65 Z13.222
N3240 X20.488 Y47.62 Z13.221
N3245 X20.511 Y47.598 Z13.22
N3250 X20.541 Y47.59 Z13.219
N3255 X20.571 Y47.597 Z13.218
N3260 X20.594 Y47.618 Z13.216
N3265 X20.604 Y47.648 Z13.215
N3270 X20.598 Y47.679 Z13.214
N3275 X20.578 Y47.703 Z13.213
N3280 X20.548 Y47.714 Z13.212
N3285 X20.517 Y47.71 Z13.211
N3290 X20.492 Y47.691 Z13.21
N3295 X20.48 Y47.662 Z13.209
N3300 X20.483 Y47.631 Z13.208
N3305 X20.5 Y47.605 Z13.207
N3310 X20.529 Y47.591 Z13.205
N3315 X20.56 Y47.592 Z13.204
N3320 X20.587 Y47.609 Z13.203
N3325 X20.602 Y47.636 Z13.202
N3330 Y47.667 Z13.201
N3335 X20.587 Y47.695 Z13.2
N3340 X20.56 Y47.712 Z13.199
N3345 X20.529 Y47.713 Z13.198
N3350 X20.501 Y47.7 Z13.197
N3355 X20.483 Y47.674 Z13.195
N3360 X20.48 Y47.643 Z13.194
N3365 X20.492 Y47.614 Z13.193
N3370 X20.517 Y47.595 Z13.192
N3375 X20.548 Y47.59 Z13.191
N3380 X20.577 Y47.601 Z13.19
N3385 X20.598 Y47.625 Z13.189
N3390 X20.604 Y47.655 Z13.188
N3395 X20.594 Y47.685 Z13.187
N3400 X20.572 Y47.707 Z13.186
N3405 X20.541 Y47.715 Z13.184
N3410 X20.511 Y47.707 Z13.183
N3415 X20.488 Y47.685 Z13.182
N3420 X20.479 Y47.655 Z13.181
N3425 X20.485 Y47.624 Z13.18
N3430 X20.506 Y47.601 Z13.179
N3435 X20.535 Y47.59 Z13.178
N3440 X20.566 Y47.595 Z13.177
N3445 X20.591 Y47.614 Z13.176
N3450 X20.603 Y47.643 Z13.174
N3455 X20.6 Y47.674 Z13.173
N3460 X20.582 Y47.7 Z13.172
N3465 X20.554 Y47.713 Z13.171
N3470 X20.522 Y47.711 Z13.17
N3475 X20.496 Y47.695 Z13.169
N3480 X20.481 Y47.667 Z13.168
N3485 Y47.636 Z13.167
N3490 X20.497 Y47.609 Z13.166
N3495 X20.523 Y47.592 Z13.164
N3500 X20.555 Y47.591 Z13.163
N3505 X20.583 Y47.605 Z13.162
N3510 X20.6 Y47.631 Z13.161
N3515 X20.603 Y47.662 Z13.16
N3520 X20.59 Y47.691 Z13.159
N3525 X20.565 Y47.71 Z13.158
N3530 X20.534 Y47.714 Z13.157
N3535 X20.505 Y47.703 Z13.156
N3540 X20.485 Y47.679 Z13.155
N3545 X20.479 Y47.648 Z13.153
N3550 X20.489 Y47.618 Z13.152
N3555 X20.512 Y47.597 Z13.151
N3560 X20.542 Y47.59 Z13.15
N3565 X20.573 Y47.598 Z13.149
N3570 X20.595 Y47.62 Z13.148
N3575 X20.604 Y47.65 Z13.147
N3580 X20.597 Y47.681 Z13.146
N3585 X20.576 Y47.704 Z13.145
N3590 X20.547 Y47.714 Z13.143
N3595 X20.516 Y47.709 Z13.142
N3600 X20.491 Y47.689 Z13.141
N3605 X20.48 Y47.66 Z13.14
N3610 X20.483 Y47.629 Z13.139
N3615 X20.502 Y47.604 Z13.138
N3620 X20.53 Y47.591 Z13.137
N3625 X20.561 Y47.593 Z13.136
N3630 X20.588 Y47.61 Z13.135
N3635 X20.602 Y47.638 Z13.134
N3640 Y47.669 Z13.132
N3645 X20.586 Y47.696 Z13.131
N3650 X20.559 Y47.712 Z13.13
N3655 X20.527 Y47.713 Z13.129
N3660 X20.5 Y47.698 Z13.128
N3665 X20.482 Y47.672 Z13.127
N3670 X20.48 Y47.641 Z13.126
N3675 X20.493 Y47.613 Z13.125
N3680 X20.518 Y47.594 Z13.124
N3685 X20.549 Y47.59 Z13.122
N3690 X20.579 Y47.602 Z13.121
N3695 X20.598 Y47.626 Z13.12
N3700 X20.604 Y47.657 Z13.119
N3705 X20.594 Y47.687 Z13.118
N3710 X20.57 Y47.708 Z13.117
N3715 X20.54 Y47.714 Z13.116
N3720 X20.51 Y47.706 Z13.115
N3725 X20.487 Y47.683 Z13.114
N3730 X20.479 Y47.653 Z13.112
N3735 X20.486 Y47.623 Z13.111
N3740 X20.507 Y47.6 Z13.11
N3745 X20.537 Y47.59 Z13.109
N3750 X20.568 Y47.595 Z13.108
N3755 X20.592 Y47.615 Z13.107
N3760 X20.604 Y47.645 Z13.106
N3765 X20.599 Y47.676 Z13.105
N3770 X20.581 Y47.701 Z13.104
N3775 X20.552 Y47.714 Z13.103
N3780 X20.521 Y47.711 Z13.101
N3785 X20.495 Y47.693 Z13.1
N3790 X20.48 Y47.666 Z13.099
N3795 X20.482 Y47.634 Z13.098
N3800 X20.498 Y47.607 Z13.097
N3805 X20.525 Y47.592 Z13.096
N3810 X20.556 Y47.591 Z13.095
N3815 X20.584 Y47.606 Z13.094
N3820 X20.601 Y47.633 Z13.093
N3825 X20.603 Y47.664 Z13.091
N3830 X20.589 Y47.692 Z13.09
N3835 X20.564 Y47.71 Z13.089
N3840 X20.533 Y47.714 Z13.088
N3845 X20.504 Y47.702 Z13.087
N3850 X20.484 Y47.677 Z13.086
N3855 X20.479 Y47.646 Z13.085
N3860 X20.49 Y47.617 Z13.084
N3865 X20.513 Y47.596 Z13.083
N3870 X20.544 Y47.59 Z13.082
N3875 X20.574 Y47.599 Z13.08
N3880 X20.596 Y47.621 Z13.079
N3885 X20.604 Y47.652 Z13.078
N3890 X20.596 Y47.682 Z13.077
N3895 X20.575 Y47.705 Z13.076
N3900 X20.545 Y47.714 Z13.075
N3905 X20.514 Y47.708 Z13.074
N3910 X20.49 Y47.688 Z13.073
N3915 X20.479 Y47.659 Z13.072
N3920 X20.484 Y47.628 Z13.07
N3925 X20.503 Y47.603 Z13.069
N3930 X20.532 Y47.59 Z13.068
N3935 X20.563 Y47.593 Z13.067
N3940 X20.589 Y47.611 Z13.066
N3945 X20.603 Y47.639 Z13.065
N3950 X20.601 Y47.671 Z13.064
N3955 X20.585 Y47.697 Z13.063
N3960 X20.557 Y47.713 Z13.062
N3965 X20.526 Z13.06
N3970 X20.498 Y47.697 Z13.059
N3975 X20.482 Y47.671 Z13.058
N3980 X20.48 Y47.639 Z13.057
N3985 X20.494 Y47.611 Z13.056
N3990 X20.52 Y47.593 Z13.055
N3995 X20.551 Y47.59 Z13.054
N4000 X20.58 Y47.603 Z13.053
N4005 X20.599 Y47.628 Z13.052
N4010 X20.604 Y47.659 Z13.051
N4015 X20.593 Y47.688 Z13.049
N4020 X20.569 Y47.708 Z13.048
N4025 X20.538 Y47.714 Z13.047
N4030 X20.508 Y47.705 Z13.046
N4035 X20.487 Y47.682 Z13.045
N4040 X20.479 Y47.652 Z13.044
N4045 X20.487 Y47.621 Z13.043
N4050 X20.509 Y47.599 Z13.042
N4055 X20.539 Y47.59 Z13.041
N4060 X20.569 Y47.596 Z13.039
N4065 X20.593 Y47.617 Z13.038
N4070 X20.604 Y47.646 Z13.037
N4075 X20.599 Y47.677 Z13.036
N4080 X20.579 Y47.702 Z13.035
N4085 X20.55 Y47.714 Z13.034
N4090 X20.519 Y47.71 Z13.033
N4095 X20.494 Y47.692 Z13.032
N4100 X20.48 Y47.664 Z13.031
N4105 X20.482 Y47.633 Z13.03
N4110 X20.499 Y47.606 Z13.028
N4115 X20.527 Y47.591 Z13.027
N4120 X20.558 Y47.592 Z13.026
N4125 X20.585 Y47.607 Z13.025
N4130 X20.601 Y47.634 Z13.024
N4135 X20.602 Y47.665 Z13.023
N4140 X20.588 Y47.693 Z13.022
N4145 X20.562 Y47.711 Z13.021
N4150 X20.531 Y47.714 Z13.02
N4155 X20.502 Y47.701 Z13.018
N4160 X20.484 Y47.676 Z13.017
N4165 X20.479 Y47.645 Z13.016
N4170 X20.491 Y47.615 Z13.015
N4175 X20.515 Y47.595 Z13.014
N4180 X20.546 Y47.59 Z13.013
N4185 X20.576 Y47.6 Z13.012
N4190 X20.597 Y47.623 Z13.011
N4195 X20.604 Y47.653 Z13.01
N4200 X20.595 Y47.683 Z13.008
N4205 X20.573 Y47.706 Z13.007
N4210 X20.543 Y47.714 Z13.006
N4215 X20.513 Y47.708 Z13.005
N4220 X20.489 Y47.687 Z13.004
N4225 X20.479 Y47.657 Z13.003
N4230 X20.485 Y47.626 Z13.002
N4235 X20.504 Y47.602 Z13.001
N4240 X20.533 Y47.59 Z13.
N4245 X20.565 Y47.594 Z12.999
N4250 X20.59 Y47.612 Z12.997
N4255 X20.603 Y47.641 Z12.996
N4260 X20.601 Y47.672 Z12.995
N4265 X20.583 Y47.698 Z12.994
N4270 X20.556 Y47.713 Z12.993
N4275 X20.524 Y47.712 Z12.992
N4280 X20.497 Y47.696 Z12.991
N4285 X20.481 Y47.669 Z12.99
N4290 Y47.638 Z12.989
N4295 X20.495 Y47.61 Z12.987
N4300 X20.521 Y47.593 Z12.986
N4305 X20.553 Y47.591 Z12.985
N4310 X20.581 Y47.604 Z12.984
N4315 X20.6 Y47.629 Z12.983
N4320 X20.603 Y47.66 Z12.982
N4325 X20.592 Y47.689 Z12.981
N4330 X20.567 Y47.709 Z12.98
N4335 X20.536 Y47.714 Z12.979
N4340 X20.507 Y47.704 Z12.978
N4345 X20.486 Y47.681 Z12.976
N4350 X20.479 Y47.65 Z12.975
N4355 X20.488 Y47.62 Z12.974
N4360 X20.51 Y47.598 Z12.973
N4365 X20.54 Y47.59 Z12.972
N4370 X20.571 Y47.597 Z12.971
N4375 X20.594 Y47.618 Z12.97
N4380 X20.604 Y47.648 Z12.969
N4385 X20.598 Y47.679 Z12.968
N4390 X20.578 Y47.703 Z12.966
N4395 X20.549 Y47.714 Z12.965
N4400 X20.518 Y47.71 Z12.964
N4405 X20.493 Y47.691 Z12.963
N4410 X20.48 Y47.662 Z12.962
N4415 X20.483 Y47.631 Z12.961
N4420 X20.5 Y47.605 Z12.96
N4425 X20.528 Y47.591 Z12.959
N4430 X20.56 Y47.592 Z12.958
N4435 X20.586 Y47.608 Z12.956
N4440 X20.602 Y47.636 Z12.955
N4445 Y47.667 Z12.954
N4450 X20.587 Y47.695 Z12.953
N4455 X20.561 Y47.711 Z12.952
N4460 X20.529 Y47.713 Z12.951
N4465 X20.501 Y47.7 Z12.95
N4470 X20.483 Y47.674 Z12.949
N4475 X20.48 Y47.643 Z12.948
N4480 X20.492 Y47.614 Z12.947
N4485 X20.516 Y47.595 Z12.945
N4490 X20.547 Y47.59 Z12.944
N4495 X20.577 Y47.601 Z12.943
N4500 X20.597 Y47.624 Z12.942
N4505 X20.604 Y47.655 Z12.941
N4510 X20.595 Y47.685 Z12.94
N4515 X20.572 Y47.707 Z12.939
N4520 X20.542 Y47.715 Z12.938
N4525 X20.511 Y47.707 Z12.937
N4530 X20.489 Y47.685 Z12.935
N4535 X20.479 Y47.655 Z12.934
N4540 X20.485 Y47.625 Z12.933
N4545 X20.506 Y47.601 Z12.932
N4550 X20.535 Y47.59 Z12.931
N4555 X20.566 Y47.595 Z12.93
N4560 X20.591 Y47.614 Z12.929
N4565 X20.603 Y47.643 Z12.928
N4570 X20.6 Y47.674 Z12.927
N4575 X20.582 Y47.699 Z12.926
N4580 X20.554 Y47.713 Z12.924
N4585 X20.523 Y47.712 Z12.923
N4590 X20.496 Y47.695 Z12.922
N4595 X20.481 Y47.668 Z12.921
N4600 Y47.636 Z12.92
N4605 X20.496 Y47.609 Z12.919
N4610 X20.523 Y47.592 Z12.918
N4615 X20.554 Y47.591 Z12.917
N4620 X20.582 Y47.605 Z12.916
N4625 X20.6 Y47.631 Z12.914
N4630 X20.603 Y47.662 Z12.913
N4635 X20.591 Y47.691 Z12.912
N4640 X20.566 Y47.71 Z12.911
N4645 X20.535 Y47.714 Z12.91
N4650 X20.505 Y47.703 Z12.909
N4655 X20.485 Y47.679 Z12.908
N4660 X20.479 Y47.648 Z12.907
N4665 X20.489 Y47.618 Z12.906
N4670 X20.512 Y47.597 Z12.904
N4675 X20.542 Y47.59 Z12.903
N4680 X20.572 Y47.598 Z12.902
N4685 X20.595 Y47.62 Z12.901
N4690 X20.604 Y47.65 Z12.9
N4695 X20.597 Y47.68 Z12.899
N4700 X20.577 Y47.704 Z12.898
N4705 X20.547 Y47.714 Z12.897
N4710 X20.516 Y47.709 Z12.896
N4715 X20.492 Y47.69 Z12.895
N4720 X20.48 Y47.661 Z12.893
N4725 X20.483 Y47.63 Z12.892
N4730 X20.501 Y47.604 Z12.891
N4735 X20.53 Y47.591 Z12.89
N4740 X20.561 Y47.593 Z12.889
N4745 X20.587 Y47.61 Z12.888
N4750 X20.602 Y47.637 Z12.887
N4755 Y47.669 Z12.886
N4760 X20.586 Y47.696 Z12.885
N4765 X20.559 Y47.712 Z12.883
N4770 X20.528 Y47.713 Z12.882
N4775 X20.5 Y47.699 Z12.881
N4780 X20.482 Y47.673 Z12.88
N4785 X20.48 Y47.641 Z12.879
N4790 X20.493 Y47.613 Z12.878
N4795 X20.518 Y47.594 Z12.877
N4800 X20.549 Y47.59 Z12.876
N4805 X20.578 Y47.601 Z12.875
N4810 X20.598 Y47.626 Z12.874
N4815 X20.604 Y47.657 Z12.872
N4820 X20.594 Y47.686 Z12.871
N4825 X20.571 Y47.707 Z12.87
N4830 X20.54 Y47.715 Z12.869
N4835 X20.51 Y47.706 Z12.868
N4840 X20.488 Y47.684 Z12.867
N4845 X20.479 Y47.654 Z12.866
N4850 X20.486 Y47.623 Z12.865
N4855 X20.507 Y47.6 Z12.864
N4860 X20.537 Y47.59 Z12.862
N4865 X20.568 Y47.595 Z12.861
N4870 X20.592 Y47.615 Z12.86
N4875 X20.603 Y47.644 Z12.859
N4880 X20.599 Y47.675 Z12.858
N4885 X20.581 Y47.701 Z12.857
N4890 X20.552 Y47.714 Z12.856
N4895 X20.521 Y47.711 Z12.855
N4900 X20.495 Y47.694 Z12.854
N4905 X20.481 Y47.666 Z12.852
N4910 Y47.635 Z12.851
N4915 X20.497 Y47.608 Z12.85
N4920 X20.525 Y47.592 Z12.849
N4925 X20.556 Y47.591 Z12.848
N4930 X20.584 Y47.606 Z12.847
N4935 X20.601 Y47.632 Z12.846
N4940 X20.603 Y47.663 Z12.845
N4945 X20.59 Y47.692 Z12.844
N4950 X20.564 Y47.71 Z12.843
N4955 X20.533 Y47.714 Z12.841
N4960 X20.504 Y47.702 Z12.84
N4965 X20.484 Y47.678 Z12.839
N4970 X20.479 Y47.647 Z12.838
N4975 X20.49 Y47.617 Z12.837
N4980 X20.513 Y47.596 Z12.836
N4985 X20.544 Y47.59 Z12.835
N4990 X20.574 Y47.599 Z12.834
N4995 X20.596 Y47.621 Z12.833
N5000 X20.604 Y47.651 Z12.831
N5005 X20.596 Y47.682 Z12.83
N5010 X20.575 Y47.705 Z12.829
N5015 X20.545 Y47.714 Z12.828
N5020 X20.515 Y47.708 Z12.827
N5025 X20.491 Y47.688 Z12.826
N5030 X20.479 Y47.659 Z12.825
N5035 X20.484 Y47.628 Z12.824
N5040 X20.503 Y47.603 Z12.823
N5045 X20.531 Y47.59 Z12.822
N5050 X20.563 Y47.593 Z12.82
N5055 X20.589 Y47.611 Z12.819
N5060 X20.603 Y47.639 Z12.818
N5065 X20.601 Y47.67 Z12.817
N5070 X20.585 Y47.697 Z12.816
N5075 X20.558 Y47.712 Z12.815
N5080 X20.526 Y47.713 Z12.814
N5085 X20.499 Y47.698 Z12.813
N5090 X20.482 Y47.671 Z12.812
N5095 X20.48 Y47.64 Z12.81
N5100 X20.494 Y47.612 Z12.809
N5105 X20.52 Y47.594 Z12.808
N5110 X20.551 Y47.59 Z12.807
N5115 X20.58 Y47.602 Z12.806
N5120 X20.599 Y47.627 Z12.805
N5125 X20.604 Y47.658 Z12.804
N5130 X20.593 Y47.688 Z12.803
N5135 X20.569 Y47.708 Z12.802
N5140 X20.538 Y47.714 Z12.8
N5145 X20.508 Y47.705 Z12.799
N5150 X20.487 Y47.682 Z12.798
N5155 X20.479 Y47.652 Z12.797
N5160 X20.487 Y47.622 Z12.796
N5165 X20.508 Y47.599 Z12.795
N5170 X20.538 Y47.59 Z12.794
N5175 X20.569 Y47.596 Z12.793
N5180 X20.593 Y47.616 Z12.792
N5185 X20.604 Y47.646 Z12.791
N5190 X20.599 Y47.677 Z12.789
N5195 X20.58 Y47.702 Z12.788
N5200 X20.551 Y47.714 Z12.787
N5205 X20.52 Y47.711 Z12.786
N5210 X20.494 Y47.693 Z12.785
N5215 X20.48 Y47.664 Z12.784
N5220 X20.482 Y47.633 Z12.783
N5225 X20.499 Y47.606 Z12.782
N5230 X20.5 Y47.605
N5235 S18000
N5240 X20.522 Y47.585 F1600.
N5245 X20.545 Y47.572
N5250 X20.571 Y47.568
N5255 X20.597 Y47.575
N5260 X20.618 Y47.591
N5265 X21.516 Y48.602
N5270 X21.535 Y48.624
N5275 X21.555 Y48.641
N5280 X23.951 Y50.554
N5285 X23.992 Y50.586
N5290 X24.024 Y50.61
N5295 X26.355 Y52.3
N5300 X26.412 Y52.342
N5305 X26.427 Y52.354
N5310 X26.468 Y52.387
N5315 X26.504 Y52.411
N5320 X26.591 Y52.467
N5325 X26.614 Y52.481
N5330 X26.637 Y52.494
N5335 X26.749 Y52.552
N5340 X27.819 Y53.101
N5345 X27.875 Y53.129
N5350 X27.899 Y53.136
N5355 X27.924 Y53.142
N5360 X28.212 Y53.21
N5365 X28.269 Y53.224
N5370 X30.801 Y53.831
N5375 X30.857 Y53.841
N5380 X30.889 Y53.846
N5385 X31.045 Y53.874
N5390 X31.195 Y53.9
N5395 X31.307 Y53.92
N5400 X31.42 Y53.94
N5405 X31.533 Y53.959
N5410 X31.645 Y53.979
N5415 X31.758 Y53.999
N5420 X31.87 Y54.019
N5425 X31.983 Y54.038
N5430 X32.095 Y54.058
N5435 X32.208 Y54.078
N5440 X32.328 Y54.099
N5445 X32.433 Y54.117
N5450 X32.546 Y54.136
N5455 X32.658 Y54.156
N5460 X32.771 Y54.175
N5465 X32.883 Y54.195
N5470 X32.996 Y54.214
N5475 X35.922 Y54.718
N5480 X35.978 Y54.727
N5485 X36.034 Y54.735
N5490 X36.091 Y54.743
N5495 X36.147 Y54.749
N5500 X36.203 Y54.756
N5505 X39.073 Y55.069
N5510 X39.13 Y55.074
N5515 X39.186 Y55.079
N5520 X39.242 Y55.083
N5525 X39.298 Y55.086
N5530 X39.355 Y55.088
N5535 X39.523 Y55.089
N5540 X40.93 Y55.099
N5545 X40.987 Y55.1
N5550 X41.043 Y55.099
N5555 X41.099
N5560 X41.155 Y55.097
N5565 X41.212 Y55.095
N5570 X41.268 Y55.091
N5575 X41.324 Y55.085
N5580 X41.38 Y55.076
N5585 X41.409 Y55.069
N5590 X41.437 Y55.06
N5595 X41.445 Y55.055
N5600 X41.462 Y55.041
N5605 X41.465 Y55.027
N5610 X41.459 Y55.013
N5615 X41.445 Y54.999
N5620 X41.437 Y54.993
N5625 X41.409 Y54.975
N5630 X41.38 Y54.961
N5635 X41.337 Y54.943
N5640 X41.324 Y54.938
N5645 X41.268 Y54.917
N5650 X40.818 Y54.755
N5655 X40.761 Y54.735
N5660 X40.71 Y54.718
N5665 X40.705 Y54.716
N5670 X40.649 Y54.699
N5675 X40.593 Y54.684
N5680 X40.536 Y54.67
N5685 X40.502 Y54.661
N5690 X40.48 Y54.656
N5695 X40.424 Y54.644
N5700 X40.368 Y54.631
N5705 X39.974 Y54.548
N5710 X37.948 Y54.122
N5715 X37.892 Y54.109
N5720 X33.257 Y53.087
N5725 X31.267 Y52.599
N5730 X31.251 Y52.592
N5735 X31.239 Y52.579
N5740 X31.231 Y52.573
N5745 X31.2 Y52.566
N5750 X31.191 Y52.567
N5755 X31.174 Y52.573
N5760 X31.156 Y52.572
N5765 X30.98 Y52.529
N5770 X30.963 Y52.521
N5775 X30.95 Y52.507
N5780 X30.937 Y52.493
N5785 X30.92 Y52.484
N5790 X28.387 Y51.805
N5795 X28.371 Y51.804
N5800 X28.356 Y51.807
N5805 X28.337 Y51.81
N5810 X28.318 Y51.805
N5815 X27.215 Y51.298
N5820 X27.214 Y51.297
N5825 X27.028 Y51.173
N5830 X26.974 Y51.131
N5835 X23.443 Y48.369
N5840 X23.441 Y48.367
N5845 X23.317 Y48.242
N5850 X23.289 Y48.215
N5855 X23.262 Y48.19
N5860 X23.26 Y48.189
N5865 X23.204 Y48.143
N5870 X22.872 Y47.875
N5875 X22.502 Y47.576
N5880 X22.433 Y47.521
N5885 X22.42 Y47.504
N5890 X22.415 Y47.483
N5895 X22.419 Y47.462
N5900 X22.431 Y47.445
N5905 X22.97 Y46.961
N5910 X22.996 Y46.947
N5915 X23.026
N5920 X23.053 Y46.961
N5925 X23.07 Y46.986
N5930 X23.073 Y47.016
N5935 X23.062 Y47.044
N5940 X23.039 Y47.064
N5945 X23.01 Y47.07
N5950 X22.981 Y47.062
N5955 X22.959 Y47.042
N5960 S5000
N5965 X22.958 Y47.04 F333.33
N5970 X22.949 Y47.01 Z12.781
N5975 X22.956 Y46.979 Z12.779
N5980 X22.976 Y46.956 Z12.778
N5985 X23.006 Y46.945 Z12.777
N5990 X23.037 Y46.951 Z12.776
N5995 X23.061 Y46.97 Z12.775
N6000 X23.073 Y46.999 Z12.774
N6005 X23.07 Y47.03 Z12.773
N6010 X23.052 Y47.056 Z12.772
N6015 X23.023 Y47.069 Z12.771
N6020 X22.992 Y47.067 Z12.769
N6025 X22.966 Y47.05 Z12.768
N6030 X22.951 Y47.023 Z12.767
N6035 Y46.991 Z12.766
N6040 X22.967 Y46.964 Z12.765
N6045 X22.993 Y46.948 Z12.764
N6050 X23.025 Y46.947 Z12.763
N6055 X23.053 Y46.961 Z12.762
N6060 X23.07 Y46.987 Z12.761
N6065 X23.073 Y47.018 Z12.76
N6070 X23.061 Y47.046 Z12.758
N6075 X23.036 Y47.065 Z12.757
N6080 X23.005 Y47.07 Z12.756
N6085 X22.975 Y47.059 Z12.755
N6090 X22.955 Y47.035 Z12.754
N6095 X22.949 Y47.004 Z12.753
N6100 X22.959 Y46.974 Z12.752
N6105 X22.982 Y46.953 Z12.751
N6110 X23.012 Y46.945 Z12.75
N6115 X23.042 Y46.953 Z12.748
N6120 X23.065 Y46.975 Z12.747
N6125 X23.074 Y47.005 Z12.746
N6130 X23.067 Y47.036 Z12.745
N6135 X23.047 Y47.059 Z12.744
N6140 X23.017 Y47.07 Z12.743
N6145 X22.986 Y47.065 Z12.742
N6150 X22.962 Y47.046 Z12.741
N6155 X22.95 Y47.017 Z12.74
N6160 X22.953 Y46.986 Z12.739
N6165 X22.971 Y46.96 Z12.737
N6170 X22.999 Y46.946 Z12.736
N6175 X23.03 Y46.948 Z12.735
N6180 X23.057 Y46.965 Z12.734
N6185 X23.072 Y46.992 Z12.733
N6190 Y47.024 Z12.732
N6195 X23.057 Y47.051 Z12.731
N6200 X23.03 Y47.067 Z12.73
N6205 X22.999 Y47.069 Z12.729
N6210 X22.971 Y47.055 Z12.727
N6215 X22.953 Y47.029 Z12.726
N6220 X22.95 Y46.998 Z12.725
N6225 X22.962 Y46.969 Z12.724
N6230 X22.987 Y46.95 Z12.723
N6235 X23.018 Y46.946 Z12.722
N6240 X23.047 Y46.956 Z12.721
N6245 X23.068 Y46.98 Z12.72
N6250 X23.074 Y47.011 Z12.719
N6255 X23.064 Y47.041 Z12.718
N6260 X23.042 Y47.062 Z12.716
N6265 X23.011 Y47.07 Z12.715
N6270 X22.981 Y47.062 Z12.714
N6275 X22.958 Y47.041 Z12.713
N6280 X22.949 Y47.011 Z12.712
N6285 X22.955 Y46.98 Z12.711
N6290 X22.976 Y46.956 Z12.71
N6295 X23.005 Y46.946 Z12.709
N6300 X23.036 Y46.95 Z12.708
N6305 X23.061 Y46.969 Z12.706
N6310 X23.073 Y46.998 Z12.705
N6315 X23.07 Y47.029 Z12.704
N6320 X23.052 Y47.055 Z12.703
N6325 X23.024 Y47.069 Z12.702
N6330 X22.993 Y47.067 Z12.701
N6335 X22.966 Y47.051 Z12.7
N6340 X22.951 Y47.024 Z12.699
N6345 Y46.992 Z12.698
N6350 X22.966 Y46.965 Z12.697
N6355 X22.992 Y46.948 Z12.695
N6360 X23.024 Y46.946 Z12.694
N6365 X23.052 Y46.96 Z12.693
N6370 X23.07 Y46.986 Z12.692
N6375 X23.073 Y47.017 Z12.691
N6380 X23.061 Y47.046 Z12.69
N6385 X23.036 Y47.065 Z12.689
N6390 X23.005 Y47.07 Z12.688
N6395 X22.976 Y47.059 Z12.687
N6400 X22.956 Y47.036 Z12.685
N6405 X22.949 Y47.005 Z12.684
N6410 X22.958 Y46.975 Z12.683
N6415 X22.981 Y46.953 Z12.682
N6420 X23.011 Y46.945 Z12.681
N6425 X23.041 Y46.953 Z12.68
N6430 X23.064 Y46.974 Z12.679
N6435 X23.074 Y47.004 Z12.678
N6440 X23.068 Y47.035 Z12.677
N6445 X23.048 Y47.059 Z12.676
N6450 X23.018 Y47.07 Z12.674
N6455 X22.987 Y47.065 Z12.673
N6460 X22.962 Y47.046 Z12.672
N6465 X22.95 Y47.018 Z12.671
N6470 X22.953 Y46.987 Z12.67
N6475 X22.97 Y46.961 Z12.669
N6480 X22.998 Y46.947 Z12.668
N6485 X23.03 Y46.948 Z12.667
N6490 X23.056 Y46.964 Z12.666
N6495 X23.072 Y46.991 Z12.664
N6500 Y47.023 Z12.663
N6505 X23.057 Y47.05 Z12.662
N6510 X23.031 Y47.067 Z12.661
N6515 X23. Y47.069 Z12.66
N6520 X22.971 Y47.056 Z12.659
N6525 X22.953 Y47.03 Z12.658
N6530 X22.95 Y46.999 Z12.657
N6535 X22.962 Y46.97 Z12.656
N6540 X22.986 Y46.951 Z12.655
N6545 X23.017 Y46.945 Z12.653
N6550 X23.046 Y46.956 Z12.652
N6555 X23.067 Y46.979 Z12.651
N6560 X23.074 Y47.01 Z12.65
N6565 X23.065 Y47.04 Z12.649
N6570 X23.043 Y47.062 Z12.648
N6575 X23.012 Y47.07 Z12.647
N6580 X22.982 Y47.063 Z12.646
N6585 X22.959 Y47.042 Z12.645
N6590 X22.949 Y47.012 Z12.643
N6595 X22.955 Y46.981 Z12.642
N6600 X22.975 Y46.957 Z12.641
N6605 X23.004 Y46.946 Z12.64
N6610 X23.035 Y46.95 Z12.639
N6615 X23.06 Y46.969 Z12.638
N6620 X23.073 Y46.997 Z12.637
N6625 X23.07 Y47.028 Z12.636
N6630 X23.053 Y47.054 Z12.635
N6635 X23.025 Y47.069 Z12.634
N6640 X22.994 Y47.068 Z12.632
N6645 X22.967 Y47.052 Z12.631
N6650 X22.951 Y47.024 Z12.63
N6655 Y46.993 Z12.629
N6660 X22.965 Y46.966 Z12.628
N6665 X22.992 Y46.948 Z12.627
N6670 X23.023 Y46.946 Z12.626
N6675 X23.051 Y46.96 Z12.625
N6680 X23.07 Y46.985 Z12.624
N6685 X23.073 Y47.016 Z12.623
N6690 X23.062 Y47.045 Z12.621
N6695 X23.037 Y47.065 Z12.62
N6700 X23.006 Y47.07 Z12.619
N6705 X22.977 Y47.06 Z12.618
N6710 X22.956 Y47.036 Z12.617
N6715 X22.949 Y47.006 Z12.616
N6720 X22.958 Y46.976 Z12.615
N6725 X22.98 Y46.954 Z12.614
N6730 X23.01 Y46.945 Z12.613
N6735 X23.041 Y46.952 Z12.611
N6740 X23.064 Y46.974 Z12.61
N6745 X23.074 Y47.003 Z12.609
N6750 X23.068 Y47.034 Z12.608
N6755 X23.048 Y47.058 Z12.607
N6760 X23.019 Y47.07 Z12.606
N6765 X22.988 Y47.066 Z12.605
N6770 X22.963 Y47.047 Z12.604
N6775 X22.95 Y47.019 Z12.603
N6780 X22.952 Y46.987 Z12.602
N6785 X22.97 Y46.961 Z12.6
N6790 X22.997 Y46.947 Z12.599
N6795 X23.029 Y46.948 Z12.598
N6800 X23.056 Y46.964 Z12.597
N6805 X23.072 Y46.991 Z12.596
N6810 Y47.022 Z12.595
N6815 X23.058 Y47.05 Z12.594
N6820 X23.032 Y47.067 Z12.593
N6825 X23. Y47.069 Z12.592
N6830 X22.972 Y47.056 Z12.59
N6835 X22.953 Y47.031 Z12.589
N6840 X22.949 Y47. Z12.588
N6845 X22.961 Y46.971 Z12.587
N6850 X22.985 Y46.951 Z12.586
N6855 X23.016 Y46.945 Z12.585
N6860 X23.046 Y46.955 Z12.584
N6865 X23.067 Y46.979 Z12.583
N6870 X23.074 Y47.009 Z12.582
N6875 X23.065 Y47.039 Z12.581
N6880 X23.043 Y47.061 Z12.579
N6885 X23.013 Y47.07 Z12.578
N6890 X22.983 Y47.063 Z12.577
N6895 X22.959 Y47.042 Z12.576
N6900 X22.949 Y47.013 Z12.575
N6905 X22.955 Y46.982 Z12.574
N6910 X22.974 Y46.958 Z12.573
N6915 X23.003 Y46.946 Z12.572
N6920 X23.034 Y46.95 Z12.571
N6925 X23.06 Y46.968 Z12.569
N6930 X23.073 Y46.996 Z12.568
N6935 X23.071 Y47.028 Z12.567
N6940 X23.054 Y47.054 Z12.566
N6945 X23.026 Y47.069 Z12.565
N6950 X22.995 Y47.068 Z12.564
N6955 X22.968 Y47.052 Z12.563
N6960 X22.951 Y47.025 Z12.562
N6965 X22.95 Y46.994 Z12.561
N6970 X22.965 Y46.966 Z12.56
N6975 X22.991 Y46.949 Z12.558
N6980 X23.022 Y46.946 Z12.557
N6985 X23.051 Y46.959 Z12.556
N6990 X23.069 Y46.984 Z12.555
N6995 X23.074 Y47.015 Z12.554
N7000 X23.062 Y47.044 Z12.553
N7005 X23.038 Y47.064 Z12.552
N7010 X23.007 Y47.07 Z12.551
N7015 X22.978 Y47.06 Z12.55
N7020 X22.956 Y47.037 Z12.548
N7025 X22.949 Y47.007 Z12.547
N7030 X22.957 Y46.977 Z12.546
N7035 X22.979 Y46.954 Z12.545
N7040 X23.009 Y46.945 Z12.544
N7045 X23.04 Y46.952 Z12.543
N7050 X23.063 Y46.973 Z12.542
N7055 X23.074 Y47.002 Z12.541
N7060 X23.069 Y47.033 Z12.54
N7065 X23.049 Y47.058 Z12.539
N7070 X23.02 Y47.07 Z12.537
N7075 X22.989 Y47.066 Z12.536
N7080 X22.964 Y47.048 Z12.535
N7085 X22.95 Y47.02 Z12.534
N7090 X22.952 Y46.988 Z12.533
N7095 X22.969 Y46.962 Z12.532
N7100 X22.996 Y46.947 Z12.531
N7105 X23.028 Z12.53
N7110 X23.055 Y46.963 Z12.529
N7115 X23.071 Y46.99 Z12.527
N7120 X23.073 Y47.021 Z12.526
N7125 X23.058 Y47.049 Z12.525
N7130 X23.033 Y47.067 Z12.524
N7135 X23.001 Y47.069 Z12.523
N7140 X22.973 Y47.057 Z12.522
N7145 X22.954 Y47.032 Z12.521
N7150 X22.949 Y47.001 Z12.52
N7155 X22.96 Y46.972 Z12.519
N7160 X22.984 Y46.951 Z12.518
N7165 X23.015 Y46.945 Z12.516
N7170 X23.045 Y46.955 Z12.515
N7175 X23.066 Y46.978 Z12.514
N7180 X23.074 Y47.008 Z12.513
N7185 X23.066 Y47.039 Z12.512
N7190 X23.044 Y47.061 Z12.511
N7195 X23.014 Y47.07 Z12.51
N7200 X22.984 Y47.064 Z12.509
N7205 X22.96 Y47.043 Z12.508
N7210 X22.949 Y47.014 Z12.506
N7215 X22.954 Y46.983 Z12.505
N7220 X22.973 Y46.958 Z12.504
N7225 X23.002 Y46.946 Z12.503
N7230 X23.033 Y46.949 Z12.502
N7235 X23.059 Y46.967 Z12.501
N7240 X23.073 Y46.995 Z12.5
N7245 X23.071 Y47.027 Z12.499
N7250 X23.054 Y47.053 Z12.498
N7255 X23.027 Y47.068 Z12.497
N7260 X22.996 Z12.495
N7265 X22.968 Y47.053 Z12.494
N7270 X22.952 Y47.026 Z12.493
N7275 X22.95 Y46.995 Z12.492
N7280 X22.964 Y46.967 Z12.491
N7285 X22.99 Y46.949 Z12.49
N7290 X23.021 Y46.946 Z12.489
N7295 X23.05 Y46.958 Z12.488
N7300 X23.069 Y46.983 Z12.487
N7305 X23.074 Y47.014 Z12.485
N7310 X23.063 Y47.044 Z12.484
N7315 X23.039 Y47.064 Z12.483
N7320 X23.008 Y47.07 Z12.482
N7325 X22.978 Y47.061 Z12.481
N7330 X22.957 Y47.038 Z12.48
N7335 X22.949 Y47.008 Z12.479
N7340 X22.957 Y46.977 Z12.478
N7345 X22.978 Y46.955 Z12.477
N7350 X23.008 Y46.945 Z12.476
N7355 X23.039 Y46.952 Z12.474
N7360 X23.063 Y46.972 Z12.473
N7365 X23.074 Y47.001 Z12.472
N7370 X23.069 Y47.032 Z12.471
N7375 X23.05 Y47.057 Z12.47
N7380 X23.021 Y47.07 Z12.469
N7385 X22.99 Y47.066 Z12.468
N7390 X22.964 Y47.049 Z12.467
N7395 X22.95 Y47.02 Z12.466
N7400 X22.952 Y46.989 Z12.464
N7405 X22.968 Y46.963 Z12.463
N7410 X22.996 Y46.947 Z12.462
N7415 X23.027 Z12.461
N7420 X23.054 Y46.962 Z12.46
N7425 X23.071 Y46.989 Z12.459
N7430 X23.073 Y47.02 Z12.458
N7435 X23.059 Y47.048 Z12.457
N7440 X23.033 Y47.066 Z12.456
N7445 X23.002 Y47.07 Z12.455
N7450 X22.973 Y47.057 Z12.453
N7455 X22.954 Y47.033 Z12.452
N7460 X22.949 Y47.002 Z12.451
N7465 X22.96 Y46.972 Z12.45
N7470 X22.984 Y46.952 Z12.449
N7475 X23.014 Y46.945 Z12.448
N7480 X23.044 Y46.955 Z12.447
N7485 X23.066 Y46.977 Z12.446
N7490 X23.074 Y47.007 Z12.445
N7495 X23.066 Y47.038 Z12.444
N7500 X23.045 Y47.061 Z12.442
N7505 X23.015 Y47.07 Z12.441
N7510 X22.984 Y47.064 Z12.44
N7515 X22.96 Y47.044 Z12.439
N7520 X22.949 Y47.015 Z12.438
N7525 X22.954 Y46.984 Z12.437
N7530 X22.973 Y46.959 Z12.436
N7535 X23.001 Y46.946 Z12.435
N7540 X23.033 Y46.949 Z12.434
N7545 X23.059 Y46.967 Z12.432
N7550 X23.073 Y46.995 Z12.431
N7555 X23.071 Y47.026 Z12.43
N7560 X23.055 Y47.053 Z12.429
N7565 X23.028 Y47.068 Z12.428
N7570 X22.996 Z12.427
N7575 X22.969 Y47.053 Z12.426
N7580 X22.952 Y47.027 Z12.425
N7585 X22.95 Y46.996 Z12.424
N7590 X22.964 Y46.968 Z12.423
N7595 X22.989 Y46.949 Z12.421
N7600 X23.02 Y46.946 Z12.42
N7605 X23.049 Y46.958 Z12.419
N7610 X23.069 Y46.982 Z12.418
N7615 X23.074 Y47.013 Z12.417
N7620 X23.063 Y47.043 Z12.416
N7625 X23.04 Y47.064 Z12.415
N7630 X23.009 Y47.07 Z12.414
N7635 X22.979 Y47.061 Z12.413
N7640 X22.957 Y47.039 Z12.411
N7645 X22.949 Y47.009 Z12.41
N7650 X22.956 Y46.978 Z12.409
N7655 X22.978 Y46.955 Z12.408
N7660 X23.007 Y46.945 Z12.407
N7665 X23.038 Y46.951 Z12.406
N7670 X23.062 Y46.971 Z12.405
N7675 X23.074 Y47. Z12.404
N7680 X23.069 Y47.032 Z12.403
N7685 X23.05 Y47.057 Z12.402
N7690 X23.022 Y47.069 Z12.4
N7695 X22.991 Y47.067 Z12.399
N7700 X22.965 Y47.049 Z12.398
N7705 X22.95 Y47.021 Z12.397
N7710 X22.952 Y46.99 Z12.396
N7715 X22.968 Y46.963 Z12.395
N7720 X22.995 Y46.948 Z12.394
N7725 X23.026 Y46.947 Z12.393
N7730 X23.054 Y46.962 Z12.392
N7735 X23.071 Y46.988 Z12.39
N7740 X23.073 Y47.019 Z12.389
N7745 X23.06 Y47.048 Z12.388
N7750 X23.034 Y47.066 Z12.387
N7755 X23.003 Y47.07 Z12.386
N7760 X22.974 Y47.058 Z12.385
N7765 X22.954 Y47.033 Z12.384
N7770 X22.949 Y47.003 Z12.383
N7775 X22.959 Y46.973 Z12.382
N7780 X22.983 Y46.952 Z12.381
N7785 X23.013 Y46.945 Z12.379
N7790 X23.043 Y46.954 Z12.378
N7795 X23.065 Y46.976 Z12.377
N7800 X23.074 Y47.006 Z12.376
N7805 X23.067 Y47.037 Z12.375
N7810 X23.046 Y47.06 Z12.374
N7815 X23.016 Y47.07 Z12.373
N7820 X22.985 Y47.064 Z12.372
N7825 X22.961 Y47.045 Z12.371
N7830 X22.949 Y47.015 Z12.369
N7835 X22.953 Y46.984 Z12.368
N7840 X22.972 Y46.959 Z12.367
N7845 X23.001 Y46.946 Z12.366
N7850 X23.032 Y46.949 Z12.365
N7855 X23.058 Y46.966 Z12.364
N7860 X23.072 Y46.994 Z12.363
N7865 Y47.025 Z12.362
N7870 X23.056 Y47.052 Z12.361
N7875 X23.029 Y47.068 Z12.36
N7880 X22.997 Y47.069 Z12.358
N7885 X22.97 Y47.054 Z12.357
N7890 X22.952 Y47.028 Z12.356
N7895 X22.95 Y46.997 Z12.355
N7900 X22.963 Y46.968 Z12.354
N7905 X22.988 Y46.95 Z12.353
N7910 X23.019 Y46.946 Z12.352
N7915 X23.048 Y46.957 Z12.351
N7920 X23.068 Y46.982 Z12.35
N7925 X23.074 Y47.012 Z12.348
N7930 X23.064 Y47.042 Z12.347
N7935 X23.04 Y47.063 Z12.346
N7940 X23.01 Y47.07 Z12.345
N7945 X22.98 Y47.062 Z12.344
N7950 X22.958 Y47.04 Z12.343
N7955 X22.949 Y47.009 Z12.342
N7960 X22.956 Y46.979 Z12.341
N7965 X22.977 Y46.956 Z12.34
N7970 X23.007 Y46.945 Z12.339
N7975 X23.037 Y46.951 Z12.337
N7980 X23.062 Y46.971 Z12.336
N7985 X23.073 Y47. Z12.335
N7990 X23.07 Y47.031 Z12.334
N7995 X23.051 Y47.056 Z12.333
N8000 X23.023 Y47.069 Z12.332
N8005 X22.992 Y47.067 Z12.331
N8010 X22.965 Y47.05 Z12.33
N8015 X22.951 Y47.022 Z12.329
N8020 Y46.991 Z12.327
N8025 X22.967 Y46.964 Z12.326
N8030 X22.994 Y46.948 Z12.325
N8035 X23.025 Y46.947 Z12.324
N8040 X23.053 Y46.961 Z12.323
N8045 X23.07 Y46.987 Z12.322
N8050 X23.073 Y47.018 Z12.321
N8055 X23.06 Y47.047 Z12.32
N8060 X23.035 Y47.066 Z12.319
N8065 X23.004 Y47.07 Z12.318
N8070 X22.975 Y47.058 Z12.316
N8075 X22.955 Y47.034 Z12.315
N8080 X22.949 Y47.004 Z12.314
N8085 X22.959 Y46.974 Z12.313
N8090 X22.982 Y46.953 Z12.312
N8095 X23.012 Y46.945 Z12.311
N8100 X23.043 Y46.954 Z12.31
N8105 X23.065 Y46.976 Z12.309
N8110 X23.074 Y47.006 Z12.308
N8115 X23.067 Y47.036 Z12.306
N8120 X23.046 Y47.06 Z12.305
N8125 X23.017 Y47.07 Z12.304
N8130 X22.986 Y47.065 Z12.303
N8135 X22.961 Y47.045 Z12.302
N8140 X22.95 Y47.016 Z12.301
N8145 X22.953 Y46.985 Z12.3
N8150 X22.971 Y46.96 Z12.299
N8155 X23. Y46.946 Z12.298
N8160 X23.031 Y46.948 Z12.297
N8165 X23.057 Y46.965 Z12.295
N8170 X23.072 Y46.993 Z12.294
N8175 Y47.024 Z12.293
N8180 X23.056 Y47.051 Z12.292
N8185 X23.029 Y47.068 Z12.291
N8190 X22.998 Y47.069 Z12.29
N8195 X22.97 Y47.055 Z12.289
N8200 X22.953 Y47.029 Z12.288
N8205 X22.95 Y46.998 Z12.287
N8210 X22.962 Y46.969 Z12.285
N8215 X22.987 Y46.95 Z12.284
N8220 X23.018 Y46.946 Z12.283
N8225 X23.048 Y46.957 Z12.282
N8230 X23.068 Y46.981 Z12.281
N8235 X23.074 Y47.012 Z12.28
N8240 X23.064 Y47.041 Z12.279
N8245 X23.041 Y47.063 Z12.278
N8250 X23.011 Y47.07 Z12.277
N8255 X22.981 Y47.062 Z12.276
N8260 X22.958 Y47.04 Z12.274
N8265 X22.949 Y47.01 Z12.273
N8270 X22.956 Y46.98 Z12.272
N8275 X22.976 Y46.956 Z12.271
N8280 X23.006 Y46.946 Z12.27
N8285 X23.037 Y46.95 Z12.269
N8290 X23.061 Y46.97 Z12.268
N8295 X23.073 Y46.999 Z12.267
N8300 X23.07 Y47.03 Z12.266
N8305 X23.052 Y47.055 Z12.264
N8310 X23.024 Y47.069 Z12.263
N8315 X22.992 Y47.067 Z12.262
N8320 X22.966 Y47.051 Z12.261
N8325 X22.951 Y47.023 Z12.26
N8330 Y46.992 Z12.259
N8335 X22.966 Y46.964 Z12.258
N8340 X22.993 Y46.948 Z12.257
N8345 X23.024 Y46.947 Z12.256
N8350 X23.052 Y46.961 Z12.255
N8355 X23.07 Y46.986 Z12.253
N8360 X23.073 Y47.017 Z12.252
N8365 X23.061 Y47.046 Z12.251
N8370 X23.036 Y47.065 Z12.25
N8375 X23.005 Y47.07 Z12.249
N8380 X22.976 Y47.059 Z12.248
N8385 X22.955 Y47.035 Z12.247
N8390 X22.949 Y47.004 Z12.246
N8395 X22.958 Y46.975 Z12.245
N8400 X22.981 Y46.953 Z12.244
N8405 X23.012 Y46.945 Z12.242
N8410 X23.042 Y46.953 Z12.241
N8415 X23.065 Y46.975 Z12.24
N8420 X23.074 Y47.005 Z12.239
N8425 X23.068 Y47.035 Z12.238
N8430 X23.047 Y47.059 Z12.237
N8435 X23.018 Y47.07 Z12.236
N8440 X22.987 Y47.065 Z12.235
N8445 X22.962 Y47.046 Z12.234
N8450 X22.95 Y47.017 Z12.232
N8455 X22.953 Y46.986 Z12.231
N8460 X22.971 Y46.96 Z12.23
N8465 X22.999 Y46.947 Z12.229
N8470 X23.03 Y46.948 Z12.228
N8475 X23.057 Y46.965 Z12.227
N8480 X23.072 Y46.992 Z12.226
N8485 Y47.023 Z12.225
N8490 X23.057 Y47.051 Z12.224
N8495 X23.03 Y47.067 Z12.223
N8500 X22.999 Y47.069 Z12.221
N8505 X22.971 Y47.055 Z12.22
N8510 X22.953 Y47.03 Z12.219
N8515 X22.95 Y46.998 Z12.218
N8520 X22.962 Y46.97 Z12.217
N8525 X22.987 Y46.95 Z12.216
N8530 X23.018 Y46.946 Z12.215
N8535 X23.047 Y46.956 Z12.214
N8540 X23.067 Y46.98 Z12.213
N8545 X23.074 Y47.011 Z12.211
N8550 X23.065 Y47.041 Z12.21
N8555 X23.042 Y47.062 Z12.209
N8560 X23.012 Y47.07 Z12.208
N8565 X22.981 Y47.063 Z12.207
N8570 X22.959 Y47.041 Z12.206
N8575 X22.949 Y47.011 Z12.205
N8580 X22.955 Y46.981 Z12.204
N8585 X22.975 Y46.957 Z12.203
N8590 X23.005 Y46.946 Z12.202
N8595 X23.036 Y46.95 Z12.2
N8600 X23.061 Y46.969 Z12.199
N8605 X23.073 Y46.998 Z12.198
N8610 X23.07 Y47.029 Z12.197
N8615 X23.053 Y47.055 Z12.196
N8620 X23.025 Y47.069 Z12.195
N8625 X22.993 Y47.068 Z12.194
N8630 X22.967 Y47.051 Z12.193
N8635 X22.951 Y47.024 Z12.192
N8640 Y46.993 Z12.19
N8645 X22.966 Y46.965 Z12.189
N8650 X22.992 Y46.948 Z12.188
N8655 X23.023 Y46.946 Z12.187
N8660 X23.052 Y46.96 Z12.186
N8665 X23.07 Y46.985 Z12.185
N8670 X23.073 Y47.017 Z12.184
N8675 X23.061 Y47.045 Z12.183
N8680 X23.06 Y47.047
N8685 S18000
N8690 X23.041 Y47.07 F1600.
N8695 X23.021 Y47.087
N8700 X22.996 Y47.095
N8705 X22.97 Y47.093
N8710 X22.947 Y47.081
N8715 X22.866 Y47.016
N8720 X22.854 Y47.001
N8725 X22.848 Y46.983
N8730 X22.844 Y46.969
N8735 X22.834 Y46.958
N8740 X22.759 Y46.897
N8745 X22.746 Y46.89
N8750 X22.731 Y46.889
N8755 X22.712 Y46.887
N8760 X22.694 Y46.878
N8765 X22.529 Y46.746
N8770 X22.506 Y46.727
N8775 X22.282 Y46.546
N8780 X22.269 Y46.531
N8785 X22.263 Y46.512
N8790 X22.257 Y46.493
N8795 X22.243 Y46.477
N8800 X21.851 Y46.194
N8805 X21.829 Y46.185
N8810 X21.806 Y46.187
N8815 X21.786 Y46.189
N8820 X21.767 Y46.184
N8825 X21.458 Y46.03
N8830 X21.442 Y46.018
N8835 X21.433 Y46.001
N8840 X21.426 Y45.993
N8845 X21.394 Y45.977
N8850 X21.383 Y45.976
N8855 X21.364 Y45.979
N8860 X21.345 Y45.973
N8865 X21.052 Y45.827
N8870 X21.031 Y45.817
N8875 X21.009 Y45.809
N8880 X20.995 Y45.805
N8885 X20.981 Y45.802
N8890 X20.967 Y45.799
N8895 X20.953 Y45.797
N8900 X20.897 Y45.791
N8905 X20.503 Y45.753
N8910 X20.475 Y45.751
N8915 X20.461
N8920 X20.447 Y45.752
N8925 X20.433 Y45.754
N8930 X20.419 Y45.757
N8935 X20.404 Y45.76
N8940 X20.39 Y45.765
N8945 X20.374 Y45.771
N8950 X20.354 Y45.78
N8955 X20.334 Y45.792
N8960 X20.322 Y45.8
N8965 X20.311 Y45.809
N8970 X20.053 Y46.009
N8975 X20.041 Y46.018
N8980 X20.03 Y46.029
N8985 X20.007 Y46.052
N8990 X19.94 Y46.121
N8995 X19.899 Y46.165
N9000 X19.891 Y46.174
N9005 X19.884 Y46.183
N9010 X19.859 Y46.221
N9015 X19.698 Y46.475
N9020 X19.689 Y46.489
N9025 X19.682 Y46.502
N9030 X19.676 Y46.516
N9035 X19.67 Y46.53
N9040 X19.666 Y46.545
N9045 X19.662 Y46.559
N9050 X19.659 Y46.577
N9055 X19.657 Y46.596
N9060 X19.656 Y46.615
N9065 X19.658 Y46.671
N9070 X19.671 Y47.009
N9075 X19.673 Y47.037
N9080 X19.674 Y47.051
N9085 Y47.058
N9090 X19.675 Y47.06
N9095 X19.67 Y47.086
N9100 X19.653 Y47.107
N9105 X19.628 Y47.115
N9110 X18.813 Y47.167
N9115 X18.788 Y47.168 Z12.189
N9120 X18.77 Y47.169 Z12.208
N9125 X18.763 Y47.17 Z12.233
N9130 Z22.381
N9135 X20.96 Y44.083
N9140 Z13.231
N9145 Z11.233
N9150 Y44.09 Z11.208
N9155 X20.959 Y44.108 Z11.189
N9160 X20.958 Y44.133 Z11.183
N9165 X20.9 Y45.103
N9170 X20.892 Y45.127
N9175 X20.872 Y45.144
N9180 X20.847 Y45.15
N9185 X20.841 Y45.149
N9190 X20.828
N9195 X20.816
N9200 X20.804 Y45.15
N9205 X20.792 Y45.152
N9210 X20.784 Y45.153
N9215 X20.77 Y45.156
N9220 X20.767 Y45.157
N9225 X20.765
N9230 X20.74
N9235 X20.718 Y45.144
N9240 X20.705 Y45.123
N9245 X20.704 Y45.097
N9250 X20.716 Y45.075
N9255 X20.737 Y45.061
N9260 X20.762 Y45.06
N9265 X21.984 Y45.295
N9270 X22.008 Y45.308
N9275 X22.023 Y45.332
N9280 X22.022 Y45.36
N9285 X22.006 Y45.383
N9290 X21.981 Y45.394
N9295 X21.953 Y45.39
N9300 X21.952 Y45.389
N9305 X21.949 Y45.388
N9310 X21.943 Y45.385
N9315 X21.92 Y45.377
N9320 X21.91 Y45.374
N9325 X21.896 Y45.37
N9330 X21.882 Y45.368
N9335 X21.854 Y45.364
N9340 X21.481 Y45.322
N9345 X21.48
N9350 X21.333 Y45.281
N9355 X21.311 Y45.268
N9360 X21.298 Y45.245
N9365 Y45.219
N9370 X21.311 Y45.197
N9375 X21.334 Y45.184
N9380 X21.36 Y45.185
N9385 X22.248 Y45.43
N9390 X22.272 Y45.444
N9395 X22.284 Y45.469
N9400 X22.282 Y45.496
N9405 X22.265 Y45.518
N9410 X22.239 Y45.528
N9415 X22.212 Y45.522
N9420 X22.131 Y45.481
N9425 X22.112 Y45.463
N9430 X22.104 Y45.438
N9435 X22.111 Y45.412
N9440 X22.129 Y45.393
N9445 X22.155 Y45.387
N9450 X22.181 Y45.394
N9455 X22.723 Y45.731
N9460 X22.741 Y45.75
N9465 X22.747 Y45.776
N9470 X22.738 Y45.801
N9475 X22.718 Y45.818
N9480 X22.693 Y45.823
N9485 X22.668 Y45.814
N9490 X22.564 Y45.741
N9495 X22.547 Y45.721
N9500 X22.543 Y45.696
N9505 X22.552 Y45.671
N9510 X22.572 Y45.655
N9515 X22.597 Y45.65
N9520 X22.622 Y45.659
N9525 X22.952 Y45.893
N9530 X22.969 Y45.913
N9535 X22.973 Y45.938
N9540 X22.964 Y45.963
N9545 X22.944 Y45.979
N9550 X22.919 Y45.983
N9555 X22.895 Y45.975
N9560 X22.825 Y45.926
N9565 X22.809 Y45.906
N9570 X22.805 Y45.88
N9575 X22.814 Y45.856
N9580 X22.833 Y45.839
N9585 X22.859 Y45.835
N9590 X22.883 Y45.844
N9595 X23.384 Y46.198
N9600 X23.401 Y46.218
N9605 X23.405 Y46.243
N9610 X23.396 Y46.267
N9615 X23.376 Y46.284
N9620 X23.351 Y46.288
N9625 X23.326 Y46.279
N9630 X23.202 Y46.191
N9635 X23.185 Y46.171
N9640 X23.181 Y46.146
N9645 X23.19 Y46.122
N9650 X23.209 Y46.105
N9655 X23.235 Y46.101
N9660 X23.259 Y46.11
N9665 X23.644 Y46.382
N9670 X23.661 Y46.402
N9675 X23.665 Y46.427
N9680 X23.656 Y46.451
N9685 X23.637 Y46.468
N9690 X23.611 Y46.472
N9695 X23.587 Y46.463
N9700 X23.484 Y46.391
N9705 X23.468 Y46.371
N9710 X23.463 Y46.347
N9715 X23.471 Y46.323
N9720 X23.49 Y46.306
N9725 X23.515 Y46.3
N9730 X23.539 Y46.307
N9735 X24.068 Y46.629
N9740 X24.086 Y46.648
N9745 X24.092 Y46.672
N9750 X24.086 Y46.697
N9755 X24.068 Y46.715
N9760 X24.044 Y46.722
N9765 X24.019 Y46.716
N9770 X23.863 Y46.634
N9775 X23.843 Y46.616
N9780 X23.836 Y46.59
N9785 X23.843 Y46.565
N9790 X23.862 Y46.546
N9795 X23.888 Y46.54
N9800 X23.913 Y46.548
N9805 X24.759 Y47.09
N9810 X24.777 Y47.11
N9815 X24.782 Y47.138
N9820 X24.771 Y47.163
N9825 X24.749 Y47.179
N9830 X24.721 Y47.181
N9835 X24.697 Y47.168
N9840 X24.591 Y47.065
N9845 X24.577 Y47.043
N9850 Y47.017
N9855 X24.59 Y46.994
N9860 X24.612 Y46.981
N9865 X24.638
N9870 X24.66 Y46.993
N9875 X24.989 Y47.311
N9880 X25.002 Y47.333
N9885 Y47.359
N9890 X24.99 Y47.381
N9895 X24.968 Y47.395
N9900 X24.942
N9905 X24.919 Y47.382
N9910 X24.857 Y47.323
N9915 X24.845 Y47.303
N9920 X24.843 Y47.28
N9925 X24.851 Y47.258
N9930 X24.869 Y47.243
N9935 X28.174 Y45.529
N9940 X28.199 Y45.523
N9945 X28.224 Y45.53
N9950 X28.241 Y45.549
N9955 X29.482 Y47.853
N9960 X29.507 Y47.895
N9965 X29.515 Y47.909
N9970 X29.535 Y47.937
N9975 X29.557 Y47.965
N9980 X30.191 Y48.753
N9985 X30.238 Y48.805
N9990 X31.211 Y49.782
N9995 X31.209 Y49.785
N10000 X30.126 Y49.794
N10005 X30.112
N10010 X30.098 Y49.797
N10015 X30.084 Y49.801
N10020 X30.069 Y49.807
N10025 X30.058 Y49.814
N10030 X30.047 Y49.822
N10035 X30.013 Y49.856
N10040 X29.939 Y49.933
N10045 X29.938 Y49.934
N10050 X29.901 Y49.929
N10055 X29.844 Y49.922
N10060 X29.788 Y49.916
N10065 X29.732 Y49.912
N10070 X29.676 Y49.909
N10075 X29.619 Y49.908
N10080 X28.156 Y49.915
N10085 X28.1 Y49.912
N10090 X27.739 Y49.88
N10095 X27.738
N10100 X27.476 Y49.7
N10105 X27.474 Y49.699
N10110 X26.074 Y48.415
N10115 X26.018 Y48.364
N10120 X25.346 Y47.775
N10125 X25.331 Y47.753
N10130 X25.33 Y47.726
N10135 X25.343 Y47.702
N10140 X27.928 Y45.096
N10145 X27.947 Y45.084
N10150 X27.971 Y45.082
N10155 X27.992 Y45.09
N10160 X28.008 Y45.108
N10165 X28.118 Y45.321
N10170 X28.133 Y45.349
N10175 X28.143 Y45.366
N10180 X28.149 Y45.392
N10185 X28.141 Y45.417
N10190 X28.122 Y45.434
N10195 X28.097 Y45.44
N10200 X28.072 Y45.432
N10205 X28.054 Y45.413
N10210 X27.687 Y44.709
N10215 X27.682 Y44.684
N10220 X27.69 Y44.659
N10225 X27.709 Y44.642
N10230 X27.734 Y44.636
N10235 X27.759 Y44.644
N10240 X27.776 Y44.663
N10245 X27.908 Y44.916
N10250 X27.913 Y44.942
N10255 X27.905 Y44.967
N10260 X27.886 Y44.984
N10265 X27.86 Y44.989
N10270 X27.836 Y44.981
N10275 X27.818 Y44.961
N10280 X27.449 Y44.2
N10285 X27.444 Y44.174
N10290 X27.454 Y44.148
N10295 X27.475 Y44.132
N10300 X27.502 Y44.129
N10305 X27.526 Y44.14
N10310 X27.541 Y44.163
N10315 X27.571 Y44.252
N10320 X27.58 Y44.28
N10325 X27.585 Y44.294
N10330 X27.592 Y44.308
N10335 X27.593 Y44.312
N10340 X27.621 Y44.364
N10345 X27.658 Y44.436
N10350 X27.664 Y44.463
N10355 X27.655 Y44.488
N10360 X27.634 Y44.505
N10365 X27.607 Y44.509
N10370 X27.582 Y44.498
N10375 X27.567 Y44.476
N10380 X27.224 Y43.527
N10385 X27.221 Y43.502
N10390 X27.231 Y43.479
N10395 X27.251 Y43.464
N10400 X27.276 Y43.461
N10405 X27.299 Y43.469
N10410 X27.316 Y43.489
N10415 X27.325 Y43.508
N10420 X27.326 Y43.51
N10425 X27.401 Y43.736
N10430 X27.402 Y43.761
N10435 X27.391 Y43.784
N10440 X27.371 Y43.799
N10445 X27.346 Y43.802
N10450 X27.323 Y43.792
N10455 X27.307 Y43.772
N10460 X26.984 Y43.033
N10465 X26.98 Y43.007
N10470 X26.99 Y42.983
N10475 X27.009 Y42.967
N10480 X27.034 Y42.963
N10485 X27.059 Y42.971
N10490 X27.075 Y42.991
N10495 X27.132 Y43.109
N10500 X27.137 Y43.134
N10505 X27.128 Y43.158
N10510 X27.109 Y43.175
N10515 X27.083 Y43.18
N10520 X27.059 Y43.172
N10525 X27.042 Y43.152
N10530 X26.76 Y42.569
N10535 X26.756 Y42.544
N10540 X26.764 Y42.519
N10545 X26.784 Y42.502
N10550 X26.809 Y42.497
N10555 X26.834 Y42.506
N10560 X26.851 Y42.526
N10565 X26.917 Y42.663
N10570 X26.922 Y42.688
N10575 X26.913 Y42.713
N10580 X26.893 Y42.73
N10585 X26.868 Y42.734
N10590 X26.844 Y42.726
N10595 X26.827 Y42.706
N10600 X26.538 Y42.109
N10605 X26.533 Y42.083
N10610 X26.542 Y42.059
N10615 X26.561 Y42.042
N10620 X26.587 Y42.037
N10625 X26.611 Y42.046
N10630 X26.628 Y42.065
N10635 X26.695 Y42.204
N10640 X26.7 Y42.231
N10645 X26.691 Y42.256
N10650 X26.669 Y42.272
N10655 X26.643 Y42.276
N10660 X26.618 Y42.264
N10665 X26.603 Y42.242
N10670 X26.346 Y41.484
N10675 X26.344 Y41.46
N10680 X26.354 Y41.437
N10685 X26.373 Y41.422
N10690 X26.397 Y41.418
N10695 X26.42 Y41.425
N10700 X26.437 Y41.443
N10705 X26.443 Y41.466
N10710 X26.448 Y41.607
N10715 X26.449 Y41.663
N10720 X26.451 Y41.677
N10725 X26.453 Y41.691
N10730 X26.454 Y41.695
N10735 X26.453 Y41.722
N10740 X26.438 Y41.744
N10745 X26.413 Y41.755
N10750 X25.745 Y41.862
N10755 X25.721 Y41.866 Z11.189
N10760 X25.703 Y41.869 Z11.208
N10765 X25.696 Y41.87 Z11.233
N10770 Z22.381
N10775 X25.759 Y39.527
N10780 Z13.231
N10785 Z11.233
N10790 X25.765 Y39.53 Z11.208
N10795 X25.78 Y39.54 Z11.189
N10800 X25.802 Y39.552 Z11.183
N10805 X26.522 Y39.975
N10810 X26.541 Y39.994
N10815 X26.547 Y40.019
N10820 X26.54 Y40.044
N10825 X26.468 Y40.167
N10830 X26.458 Y40.183
N10835 X26.45 Y40.2
N10840 X26.445 Y40.214
N10845 X26.44 Y40.228
N10850 X26.437 Y40.242
N10855 X26.434 Y40.256
N10860 X26.433 Y40.271
N10865 Y40.285
N10870 Y40.288
N10875 X26.427 Y40.313
N10880 X26.409 Y40.331
N10885 X26.384 Y40.338
N10890 X26.36 Y40.332
N10895 X26.341 Y40.315
N10900 X26.333 Y40.291
N10905 X26.338 Y40.266
N10910 X26.594 Y39.755
N10915 X26.612 Y39.735
N10920 X26.637 Y39.728
N10925 X26.663 Y39.734
N10930 X26.682 Y39.752
N10935 X26.689 Y39.778
N10940 X26.681 Y39.804
N10945 X26.68 Y39.806
N10950 X26.647 Y39.863
N10955 X26.634 Y39.884
N10960 X26.615 Y39.903
N10965 X26.589 Y39.909
N10970 X26.563 Y39.901
N10975 X25.854 Y39.432
N10980 X25.834 Y39.418 Z11.189
N10985 X25.818 Y39.408 Z11.208
N10990 X25.813 Y39.405 Z11.233
N10995 Z22.381
N11000 X31.089 Y38.128
N11005 Z13.232
N11010 Z11.233
N11015 X31.086 Y38.134 Z11.208
N11020 X31.078 Y38.151 Z11.189
N11025 X31.067 Y38.173 Z11.183
N11030 X30.663 Y38.984
N11035 X30.646 Y39.003
N11040 X30.621 Y39.011
N11045 X30.596 Y39.006
N11050 X30.483 Y38.95
N11055 X30.464 Y38.933
N11060 X30.455 Y38.908
N11065 X30.461 Y38.883
N11070 X30.478 Y38.863
N11075 X30.502 Y38.855
N11080 X30.528 Y38.86
N11085 X31.105 Y39.148
N11090 X31.125 Y39.166
N11095 X31.133 Y39.19
N11100 X31.128 Y39.215
N11105 X31.111 Y39.235
N11110 X31.086 Y39.243
N11115 X31.061 Y39.238
N11120 X30.748 Y39.082
N11125 X30.728 Y39.064
N11130 X30.721 Y39.039
N11135 X30.727 Y39.013
N11140 X31.159 Y38.249
N11145 X31.171 Y38.227 Z11.189
N11150 X31.18 Y38.211 Z11.208
N11155 X31.183 Y38.205 Z11.233
N11160 Z22.381
N11165 X32.012 Y39.56
N11170 Z13.231
N11175 Z11.233
N11180 X32.005 Y39.562 Z11.208
N11185 X31.987 Y39.566 Z11.189
N11190 X31.963 Y39.573 Z11.183
N11195 X31.363 Y39.728
N11200 X31.337
N11205 X31.315 Y39.715
N11210 X31.302 Y39.692
N11215 X31.267 Y39.557
N11220 X31.268 Y39.53
N11225 X31.282 Y39.507
N11230 X31.306 Y39.495
N11235 X31.916 Y39.381
N11240 X31.94 Y39.377 Z11.189
N11245 X31.958 Y39.373 Z11.208
N11250 X31.965 Y39.372 Z11.233
N11255 Z22.381
N11260 X30.452 Y39.003
N11265 Z14.231
N11270 Z12.233
N11275 X30.448 Y39.008 Z12.208
N11280 X30.436 Y39.022 Z12.189
N11285 X30.42 Y39.041 Z12.183
N11290 X30.065 Y39.461
N11295 X30.043 Y39.476
N11300 X30.018 Y39.478
N11305 X29.994 Y39.467
N11310 X29.518 Y39.063
N11315 X29.503 Y39.041
N11320 X29.501 Y39.014
N11325 X29.514 Y38.99
N11330 X30.032 Y38.447
N11335 X30.049 Y38.429 Z12.189
N11340 X30.062 Y38.415 Z12.208
N11345 X30.067 Y38.41 Z12.233
N11350 Z22.381
N11355 Y38.413
N11360 Z14.231
N11365 Z12.233
N11370 X30.062 Y38.418 Z12.208
N11375 X30.051 Y38.432 Z12.189
N11380 X30.034 Y38.451 Z12.183
N11385 X29.549 Y39.024
N11390 X29.528 Y39.038
N11395 X29.502 Y39.041
N11400 X29.478 Y39.03
N11405 X29.45 Y39.006
N11410 X29.436 Y38.994
N11415 X29.422 Y38.984
N11420 X29.408 Y38.976
N11425 X29.394 Y38.969
N11430 X29.379 Y38.962
N11435 X29.359 Y38.955
N11440 X29.338 Y38.95
N11445 X29.324 Y38.948
N11450 X29.31 Y38.946
N11455 X29.282 Y38.944
N11460 X28.719 Y38.919
N11465 X28.691
N11470 X28.677 Y38.92
N11475 X28.663 Y38.921
N11480 X28.606 Y38.932
N11485 X28.55 Y38.943
N11490 X28.536 Y38.946
N11495 X28.522 Y38.95
N11500 X28.508 Y38.955
N11505 X28.494 Y38.96
N11510 X27.986 Y39.187
N11515 X27.959 Y39.2
N11520 X27.945 Y39.208
N11525 X27.931 Y39.217
N11530 X27.914 Y39.229
N11535 X27.898 Y39.244
N11540 X27.885 Y39.257
N11545 X27.875 Y39.27
N11550 X27.864 Y39.285
N11555 X27.855 Y39.3
N11560 X27.493 Y39.919
N11565 X27.481 Y39.939
N11570 X27.471 Y39.957
N11575 X27.467 Y39.966
N11580 X27.465 Y39.971
N11585 X27.447 Y39.991
N11590 X27.421 Y39.999
N11595 X27.395 Y39.993
N11600 X26.899 Y39.717
N11605 X26.877 Y39.705 Z12.189
N11610 X26.861 Y39.696 Z12.208
N11615 X26.855 Y39.692 Z12.233
N11620 Z22.381
N11625 X27.01 Y42.24
N11630 Z14.229
N11635 Z12.233
N11640 X27.017 Y42.238 Z12.208
N11645 X27.034 Y42.232 Z12.189
N11650 X27.058 Y42.224 Z12.183
N11655 X27.58 Y42.052
N11660 X27.606 Y42.05
N11665 X27.629 Y42.062
N11670 X27.643 Y42.084
N11675 X27.83 Y42.65
N11680 X27.832 Y42.669
N11685 X27.827 Y42.688
N11690 X27.823 Y42.704
N11695 X27.825 Y42.721
N11700 X27.86 Y42.829
N11705 X27.869 Y42.844
N11710 X27.882 Y42.855
N11715 X27.898 Y42.867
N11720 X27.907 Y42.884
N11725 X28.054 Y43.327
N11730 X28.056 Y43.346
N11735 X28.051 Y43.365
N11740 X28.046 Y43.388
N11745 X28.052 Y43.411
N11750 X28.123 Y43.545
N11755 X28.135 Y43.559
N11760 X28.151 Y43.569
N11765 X28.168 Y43.578
N11770 X28.18 Y43.594
N11775 X28.181 Y43.597
N11780 X28.185 Y43.604
N11785 X28.199 Y43.633
N11790 X28.3 Y43.826
N11795 X28.306 Y43.845
N11800 X28.303 Y43.864
N11805 X28.305 Y43.879
N11810 X28.328 Y43.924
N11815 X28.339 Y43.933
N11820 X28.357 Y43.943
N11825 X28.369 Y43.958
N11830 X28.552 Y44.31
N11835 X28.557 Y44.328
N11840 X28.555 Y44.348
N11845 X28.557 Y44.365
N11850 X28.584 Y44.418
N11855 X28.597 Y44.429
N11860 X28.615 Y44.439
N11865 X28.627 Y44.454
N11870 X28.778 Y44.744
N11875 X28.783 Y44.763
N11880 X28.781 Y44.782
N11885 X28.782 Y44.799
N11890 X28.809 Y44.851
N11895 X28.822 Y44.862
N11900 X28.84 Y44.871
N11905 X28.852 Y44.886
N11910 X29.011 Y45.192
N11915 X29.016 Y45.211
N11920 X29.014 Y45.23
N11925 X29.016 Y45.25
N11930 X29.046 Y45.308
N11935 X29.061 Y45.321
N11940 X29.078 Y45.33
N11945 X29.091 Y45.345
N11950 X29.235 Y45.623
N11955 X29.24 Y45.642
N11960 X29.238 Y45.661
N11965 X29.24 Y45.677
N11970 X29.265 Y45.722
N11975 X29.272 Y45.729
N11980 X29.28 Y45.732
N11985 X29.299 Y45.739
N11990 X29.313 Y45.751
N11995 X29.419 Y45.891
N12000 X29.427 Y45.909
N12005 X29.429 Y45.928
N12010 X29.432 Y45.943
N12015 X29.464 Y45.984
N12020 X29.477 Y45.992
N12025 X29.495 Y45.998
N12030 X29.51 Y46.011
N12035 X29.541 Y46.052
N12040 X29.563 Y46.082
N12045 X29.616 Y46.152
N12050 X29.623 Y46.166
N12055 X29.624 Y46.182
N12060 X29.626 Y46.19
N12065 X29.643 Y46.213
N12070 X29.651 Y46.218
N12075 X29.666 Y46.223
N12080 X29.678 Y46.234
N12085 X29.905 Y46.535
N12090 X29.913 Y46.552
N12095 X29.914 Y46.572
N12100 X29.918 Y46.587
N12105 X29.95 Y46.63
N12110 X29.964 Y46.638
N12115 X29.982 Y46.644
N12120 X29.997 Y46.657
N12125 X30.101 Y46.795
N12130 X30.109 Y46.812
N12135 X30.11 Y46.832
N12140 X30.114 Y46.848
N12145 X30.148 Y46.892
N12150 X30.162 Y46.9
N12155 X30.18 Y46.907
N12160 X30.195 Y46.92
N12165 X30.296 Y47.053
N12170 X30.304 Y47.071
N12175 X30.305 Y47.09
N12180 X30.306 Y47.103
N12185 X30.312 Y47.114
N12190 X30.361 Y47.18
N12195 X30.37 Y47.188
N12200 X30.382 Y47.192
N12205 X30.4 Y47.198
N12210 X30.415 Y47.211
N12215 X30.587 Y47.44
N12220 X30.596 Y47.457
N12225 X30.597 Y47.477
N12230 X30.601 Y47.493
N12235 X30.634 Y47.537
N12240 X30.648 Y47.545
N12245 X30.667 Y47.551
N12250 X30.681 Y47.564
N12255 X30.782 Y47.699
N12260 X30.791 Y47.716
N12265 X30.792 Y47.736
N12270 X30.796 Y47.752
N12275 X30.83 Y47.796
N12280 X30.844 Y47.804
N12285 X30.862 Y47.811
N12290 X30.877 Y47.824
N12295 X30.995 Y47.981
N12300 X31.004 Y47.999
N12305 X31.005 Y48.018
N12310 X31.007 Y48.028
N12315 X31.025 Y48.061
N12320 X31.031 Y48.067
N12325 X31.039 Y48.069
N12330 X31.058 Y48.072
N12335 X31.075 Y48.082
N12340 X31.076 Y48.084
N12345 X31.082 Y48.089
N12350 X32.827 Y49.577
N12355 X32.85 Y49.597
N12360 X32.883 Y49.624
N12365 X33.39 Y50.036
N12370 X33.404 Y50.047
N12375 X33.415 Y50.055
N12380 X33.425 Y50.061
N12385 X34.327 Y50.555
N12390 X34.328 Y50.556
N12395 X36.26 Y51.855
N12400 X36.288 Y51.873
N12405 X36.316 Y51.885
N12410 X38.268 Y52.608
N12415 X38.266 Y52.61
N12420 X37.779 Y52.669
N12425 X37.723 Y52.68
N12430 X37.716 Y52.692
N12435 X37.723 Y52.7
N12440 X37.779 Y52.739
N12445 X38.374 Y53.148
N12450 X38.372 Y53.15
N12455 X35.415 Y52.521
N12460 X35.359 Y52.509
N12465 X33.84 Y52.144
N12470 X33.784 Y52.13
N12475 X30.11 Y51.285
N12480 X30.069 Y51.274
N12485 X29.901 Y51.224
N12490 X29.873 Y51.216
N12495 X29.844 Y51.211
N12500 X29.788 Y51.206
N12505 X29.749 Y51.204
N12510 X29.731 Y51.198
N12515 X29.715 Y51.187
N12520 X29.701 Y51.175
N12525 X29.684 Y51.17
N12530 X27.929 Y50.93
N12535 X27.913 Y50.931
N12540 X27.897 Y50.937
N12545 X27.878 Y50.943
N12550 X27.859 Y50.942
N12555 X27.706 Y50.904
N12560 X27.653 Y50.891
N12565 X27.65
N12570 X27.643 Y50.889
N12575 X27.639
N12580 X27.637
N12585 X27.636 Y50.888
N12590 X27.597 Y50.862
N12595 X27.583 Y50.849
N12600 X27.576 Y50.831
N12605 X27.57 Y50.822
N12610 X27.541 Y50.802
N12615 X27.531 Y50.8
N12620 X27.511
N12625 X27.493 Y50.793
N12630 X26.918 Y50.409
N12635 X26.903 Y50.397
N12640 X26.886 Y50.376
N12645 X26.883 Y50.349
N12650 X26.894 Y50.325
N12655 X27.378 Y49.75
N12660 X27.394 Y49.731 Z12.189
N12665 X27.406 Y49.717 Z12.208
N12670 X27.41 Y49.712 Z12.233
N12675 Z22.381
N12680 X27.395 Y49.696
N12685 Z14.228
N12690 Z12.233
N12695 X27.391 Y49.701 Z12.208
N12700 X27.379 Y49.715 Z12.189
N12705 X27.364 Y49.735 Z12.183
N12710 X26.898 Y50.33
N12715 X26.878 Y50.346
N12720 X26.852 Y50.349
N12725 X26.828 Y50.339
N12730 X26.643 Y50.194
N12735 X26.627 Y50.173
N12740 X26.625 Y50.146
N12745 X26.637 Y50.122
N12750 X27.133 Y49.558
N12755 X27.15 Y49.54 Z12.189
N12760 X27.162 Y49.526 Z12.208
N12765 X27.166 Y49.521 Z12.233
N12770 Z22.381
N12775 X27.132 Y49.49
N12780 Z14.228
N12785 Z12.233
N12790 X27.128 Y49.495 Z12.208
N12795 X27.117 Y49.51 Z12.189
N12800 X27.101 Y49.53 Z12.183
N12805 X26.636 Y50.125
N12810 X26.615 Y50.14
N12815 X26.589 Y50.144
N12820 X26.566 Y50.133
N12825 X26.39 Y49.997
N12830 X26.38 Y49.985
N12835 X26.375 Y49.97
N12840 X26.371 Y49.963
N12845 X26.349 Y49.945
N12850 X26.341 Y49.943
N12855 X26.325 Y49.942
N12860 X26.311 Y49.935
N12865 X26.149 Y49.808
N12870 X26.147 Y49.806
N12875 X26.13 Y49.789
N12880 X26.107 Y49.766
N12885 X26.074 Y49.734
N12890 X26.063 Y49.718
N12895 X26.059 Y49.699
N12900 X26.055 Y49.684
N12905 X26.046 Y49.672
N12910 X25.977 Y49.613
N12915 X25.965 Y49.606
N12920 X25.951 Y49.604
N12925 X25.932 Y49.602
N12930 X25.915 Y49.592
N12935 X25.814 Y49.503
N12940 X25.802 Y49.488
N12945 X25.797 Y49.469
N12950 X25.793 Y49.455
N12955 X25.785 Y49.444
N12960 X25.715 Y49.382
N12965 X25.702 Y49.375
N12970 X25.688 Y49.373
N12975 X25.669 Y49.371
N12980 X25.652 Y49.361
N12985 X25.588 Y49.305
N12990 X25.577 Y49.289
N12995 X25.572 Y49.27
N13000 X25.568 Y49.257
N13005 X25.559 Y49.246
N13010 X25.489 Y49.184
N13015 X25.476 Y49.176
N13020 X25.462 Y49.175
N13025 X25.443 Y49.172
N13030 X25.426 Y49.162
N13035 X24.471 Y48.322
N13040 X24.459 Y48.306
N13045 X24.454 Y48.288
N13050 X24.451 Y48.277
N13055 X24.444 Y48.269
N13060 X24.391 Y48.222
N13065 X24.382 Y48.216
N13070 X24.371 Y48.215
N13075 X24.352 Y48.212
N13080 X24.335 Y48.202
N13085 X24.263 Y48.139
N13090 X24.251 Y48.124
N13095 X24.246 Y48.105
N13100 X24.241 Y48.085
N13105 X24.228 Y48.069
N13110 X23.898 Y47.807
N13115 X23.881 Y47.798
N13120 X23.862 Y47.796
N13125 X23.842 Y47.795
N13130 X23.825 Y47.786
N13135 X23.351 Y47.405
N13140 X23.338 Y47.39
N13145 X23.333 Y47.372
N13150 X23.329 Y47.36
N13155 X23.321 Y47.351
N13160 X23.258 Y47.3
N13165 X23.248 Y47.295
N13170 X23.236 Y47.294
N13175 X23.216 Y47.292
N13180 X23.199 Y47.283
N13185 X23.13 Y47.228
N13190 X23.115 Y47.206
N13195 X23.113 Y47.179
N13200 X23.125 Y47.155
N13205 X23.539 Y46.707
N13210 X23.556 Y46.688 Z12.189
N13215 X23.568 Y46.675 Z12.208
N13220 X23.573 Y46.67 Z12.233
N13225 Z22.381
N13230 X19.866 Y47.325
N13235 Z14.83
N13240 Z12.832
N13245 X19.872 Y47.321 Z12.807
N13250 X19.889 Y47.313 Z12.788
N13255 X19.911 Y47.301 Z12.782
N13260 X20.235 Y47.13
N13265 X20.261 Y47.125
N13270 X20.285 Y47.132
N13275 X20.303 Y47.151
N13280 X20.317 Y47.178
N13285 X20.334 Y47.211
N13290 X20.364 Y47.283
N13295 X20.367 Y47.31
N13300 X20.355 Y47.335
N13305 X20.333 Y47.35
N13310 X19.978 Y47.46
N13315 X19.954 Y47.468 Z12.788
N13320 X19.936 Y47.473 Z12.807
N13325 X19.93 Y47.475 Z12.832
N13330 Z22.381
N13335 X28.145 Y43.457
N13340 Z14.831
N13345 Z12.832
N13350 X28.151 Y43.454 Z12.807
N13355 X28.167 Y43.446 Z12.788
N13360 X28.19 Y43.435 Z12.782
N13365 X28.642 Y43.216
N13370 X28.667 Y43.211
N13375 X28.692 Y43.219
N13380 X28.709 Y43.239
N13385 X29.475 Y44.814
N13390 X29.503 Y44.871
N13395 X29.796 Y45.433
N13400 X29.803 Y45.447
N13405 X29.813 Y45.461
N13410 X29.962 Y45.658
N13415 X30.839 Y46.817
N13420 X30.849 Y46.842
N13425 X30.844 Y46.869
N13430 X30.826 Y46.889
N13435 X30.391 Y47.168
N13440 X30.37 Y47.182 Z12.788
N13445 X30.354 Y47.192 Z12.807
N13450 X30.349 Y47.195 Z12.832
N13455 Z22.381
N13460 X30.375 Y47.227
N13465 Z14.831
N13470 Z12.832
N13475 X30.381 Y47.223 Z12.807
N13480 X30.395 Y47.212 Z12.788
N13485 X30.415 Y47.197 Z12.782
N13490 X30.827 Y46.885
N13495 X30.851 Y46.875
N13500 X30.877 Y46.879
N13505 X30.897 Y46.895
N13510 X30.966 Y46.986
N13515 X30.976 Y47.011
N13520 X30.971 Y47.038
N13525 X30.953 Y47.058
N13530 X30.522 Y47.334
N13535 X30.501 Y47.348 Z12.788
N13540 X30.486 Y47.358 Z12.807
N13545 X30.48 Y47.361 Z12.832
N13550 Z22.381
N13555 X31.825 Y44.926
N13560 Z14.831
N13565 Z12.832
N13570 X31.819 Y44.93 Z12.807
N13575 X31.805 Y44.941 Z12.788
N13580 X31.786 Y44.957 Z12.782
N13585 X31.376 Y45.288
N13590 X31.352 Y45.298
N13595 X31.327 Y45.295
N13600 X31.306 Y45.28
N13605 X31.272 Y45.238
N13610 X31.263 Y45.221
N13615 X31.261 Y45.202
N13620 X31.26 Y45.182
N13625 X31.251 Y45.165
N13630 X31.085 Y44.96
N13635 X31.07 Y44.947
N13640 X31.052 Y44.942
N13645 X31.033 Y44.936
N13650 X31.018 Y44.923
N13655 X30.962 Y44.854
N13660 Y44.853
N13665 X30.888 Y44.668
N13670 X30.884 Y44.649
N13675 X30.888 Y44.63
N13680 X30.892 Y44.611
N13685 X30.889 Y44.592
N13690 X30.65 Y43.995
N13695 X30.639 Y43.979
N13700 X30.623 Y43.968
N13705 X30.607 Y43.957
N13710 X30.596 Y43.94
N13715 X30.573 Y43.882
N13720 X30.57 Y43.856
N13725 X30.58 Y43.832
N13730 X30.601 Y43.817
N13735 X30.617 Y43.806
N13740 X30.628 Y43.79
N13745 X30.974 Y42.962
N13750 X30.992 Y42.938
N13755 X31.019 Y42.925
N13760 X31.049 Y42.926
N13765 X31.075 Y42.941
N13770 X31.091 Y42.966
N13775 X31.094 Y42.995
N13780 X31.083 Y43.023
N13785 X31.06 Y43.042
N13790 X31.031 Y43.049
N13795 X31.002 Y43.041
N13800 X30.98 Y43.021
N13805 X30.97 Y42.993
N13810 S5000
N13815 Y42.991 F333.33
N13820 X30.975 Y42.96 Z12.781
N13825 X30.995 Y42.936 Z12.779
N13830 X31.024 Y42.924 Z12.778
N13835 X31.055 Y42.928 Z12.777
N13840 X31.08 Y42.947 Z12.776
N13845 X31.093 Y42.975 Z12.775
N13850 X31.091 Y43.006 Z12.774
N13855 X31.074 Y43.033 Z12.773
N13860 X31.046 Y43.047 Z12.772
N13865 X31.015 Z12.771
N13870 X30.988 Y43.031 Z12.769
N13875 X30.972 Y43.004 Z12.768
N13880 X30.971 Y42.973 Z12.767
N13885 X30.985 Y42.945 Z12.766
N13890 X31.011 Y42.927 Z12.765
N13895 X31.043 Y42.925 Z12.764
N13900 X31.071 Y42.938 Z12.763
N13905 X31.09 Y42.963 Z12.762
N13910 X31.094 Y42.994 Z12.761
N13915 X31.083 Y43.023 Z12.76
N13920 X31.058 Y43.043 Z12.758
N13925 X31.028 Y43.049 Z12.757
N13930 X30.998 Y43.039 Z12.756
N13935 X30.977 Y43.016 Z12.755
N13940 X30.969 Y42.985 Z12.754
N13945 X30.978 Y42.955 Z12.753
N13950 X31. Y42.933 Z12.752
N13955 X31.03 Y42.924 Z12.751
N13960 X31.06 Y42.931 Z12.75
N13965 X31.084 Y42.951 Z12.748
N13970 X31.094 Y42.981 Z12.747
N13975 X31.089 Y43.012 Z12.746
N13980 X31.069 Y43.036 Z12.745
N13985 X31.04 Y43.048 Z12.744
N13990 X31.009 Y43.045 Z12.743
N13995 X30.984 Y43.026 Z12.742
N14000 X30.971 Y42.998 Z12.741
N14005 X30.973 Y42.967 Z12.74
N14010 X30.989 Y42.941 Z12.739
N14015 X31.017 Y42.926 Z12.737
N14020 X31.048 Z12.736
N14025 X31.076 Y42.942 Z12.735
N14030 X31.092 Y42.968 Z12.734
N14035 X31.093 Y43. Z12.733
N14040 X31.079 Y43.028 Z12.732
N14045 X31.053 Y43.045 Z12.731
N14050 X31.022 Y43.048 Z12.73
N14055 X30.993 Y43.035 Z12.729
N14060 X30.974 Y43.01 Z12.727
N14065 X30.97 Y42.979 Z12.726
N14070 X30.981 Y42.95 Z12.725
N14075 X31.005 Y42.93 Z12.724
N14080 X31.036 Y42.924 Z12.723
N14085 X31.066 Y42.934 Z12.722
N14090 X31.087 Y42.957 Z12.721
N14095 X31.094 Y42.987 Z12.72
N14100 X31.086 Y43.017 Z12.719
N14105 X31.064 Y43.04 Z12.718
N14110 X31.035 Y43.049 Z12.716
N14115 X31.004 Y43.042 Z12.715
N14120 X30.98 Y43.022 Z12.714
N14125 X30.97 Y42.992 Z12.713
N14130 X30.975 Y42.961 Z12.712
N14135 X30.994 Y42.937 Z12.711
N14140 X31.023 Y42.925 Z12.71
N14145 X31.054 Y42.928 Z12.709
N14150 X31.08 Y42.946 Z12.708
N14155 X31.093 Y42.974 Z12.706
N14160 X31.091 Y43.006 Z12.705
N14165 X31.075 Y43.032 Z12.704
N14170 X31.047 Y43.047 Z12.703
N14175 X31.016 Z12.702
N14180 X30.989 Y43.031 Z12.701
N14185 X30.972 Y43.005 Z12.7
N14190 X30.971 Y42.973 Z12.699
N14195 X30.985 Y42.945 Z12.698
N14200 X31.01 Y42.928 Z12.697
N14205 X31.042 Y42.925 Z12.695
N14210 X31.07 Y42.937 Z12.694
N14215 X31.089 Y42.962 Z12.693
N14220 X31.094 Y42.993 Z12.692
N14225 X31.083 Y43.022 Z12.691
N14230 X31.059 Y43.043 Z12.69
N14235 X31.029 Y43.049 Z12.689
N14240 X30.999 Y43.039 Z12.688
N14245 X30.977 Y43.017 Z12.687
N14250 X30.969 Y42.986 Z12.685
N14255 X30.977 Y42.956 Z12.684
N14260 X30.999 Y42.933 Z12.683
N14265 X31.029 Y42.924 Z12.682
N14270 X31.06 Y42.93 Z12.681
N14275 X31.083 Y42.951 Z12.68
N14280 X31.094 Y42.98 Z12.679
N14285 X31.089 Y43.011 Z12.678
N14290 X31.07 Y43.036 Z12.677
N14295 X31.041 Y43.048 Z12.676
N14300 X31.01 Y43.045 Z12.674
N14305 X30.984 Y43.027 Z12.673
N14310 X30.971 Y42.999 Z12.672
N14315 X30.972 Y42.968 Z12.671
N14320 X30.989 Y42.941 Z12.67
N14325 X31.016 Y42.926 Z12.669
N14330 X31.048 Z12.668
N14335 X31.075 Y42.941 Z12.667
N14340 X31.092 Y42.968 Z12.666
N14345 X31.093 Y42.999 Z12.664
N14350 X31.079 Y43.027 Z12.663
N14355 X31.054 Y43.045 Z12.662
N14360 X31.023 Y43.048 Z12.661
N14365 X30.994 Y43.036 Z12.66
N14370 X30.975 Y43.011 Z12.659
N14375 X30.97 Y42.98 Z12.658
N14380 X30.98 Y42.951 Z12.657
N14385 X31.004 Y42.93 Z12.656
N14390 X31.035 Y42.924 Z12.655
N14395 X31.065 Y42.933 Z12.653
N14400 X31.086 Y42.956 Z12.652
N14405 X31.094 Y42.986 Z12.651
N14410 X31.087 Y43.016 Z12.65
N14415 X31.065 Y43.039 Z12.649
N14420 X31.035 Y43.049 Z12.648
N14425 X31.005 Y43.043 Z12.647
N14430 X30.981 Y43.022 Z12.646
N14435 X30.97 Y42.993 Z12.645
N14440 X30.974 Y42.962 Z12.643
N14445 X30.993 Y42.937 Z12.642
N14450 X31.022 Y42.925 Z12.641
N14455 X31.053 Y42.928 Z12.64
N14460 X31.079 Y42.945 Z12.639
N14465 X31.093 Y42.973 Z12.638
N14470 X31.092 Y43.005 Z12.637
N14475 X31.075 Y43.031 Z12.636
N14480 X31.048 Y43.047 Z12.635
N14485 X31.017 Z12.634
N14490 X30.989 Y43.032 Z12.632
N14495 X30.972 Y43.006 Z12.631
N14500 X30.971 Y42.974 Z12.63
N14505 X30.984 Y42.946 Z12.629
N14510 X31.01 Y42.928 Z12.628
N14515 X31.041 Y42.925 Z12.627
N14520 X31.07 Y42.937 Z12.626
N14525 X31.089 Y42.961 Z12.625
N14530 X31.094 Y42.992 Z12.624
N14535 X31.084 Y43.022 Z12.623
N14540 X31.06 Y43.042 Z12.621
N14545 X31.029 Y43.049 Z12.62
N14550 X30.999 Y43.04 Z12.619
N14555 X30.978 Y43.017 Z12.618
N14560 X30.969 Y42.987 Z12.617
N14565 X30.977 Y42.957 Z12.616
N14570 X30.998 Y42.934 Z12.615
N14575 X31.028 Y42.924 Z12.614
N14580 X31.059 Y42.93 Z12.613
N14585 X31.083 Y42.95 Z12.611
N14590 X31.094 Y42.979 Z12.61
N14595 X31.09 Y43.01 Z12.609
N14600 X31.071 Y43.035 Z12.608
N14605 X31.042 Y43.048 Z12.607
N14610 X31.011 Y43.045 Z12.606
N14615 X30.985 Y43.028 Z12.605
N14620 X30.971 Y43. Z12.604
N14625 X30.972 Y42.969 Z12.603
N14630 X30.988 Y42.942 Z12.602
N14635 X31.015 Y42.926 Z12.6
N14640 X31.047 Z12.599
N14645 X31.074 Y42.94 Z12.598
N14650 X31.091 Y42.967 Z12.597
N14655 X31.093 Y42.998 Z12.596
N14660 X31.08 Y43.026 Z12.595
N14665 X31.055 Y43.045 Z12.594
N14670 X31.024 Y43.048 Z12.593
N14675 X30.995 Y43.036 Z12.592
N14680 X30.975 Y43.012 Z12.59
N14685 X30.97 Y42.981 Z12.589
N14690 X30.98 Y42.952 Z12.588
N14695 X31.003 Y42.931 Z12.587
N14700 X31.034 Y42.924 Z12.586
N14705 X31.064 Y42.933 Z12.585
N14710 X31.086 Y42.955 Z12.584
N14715 X31.094 Y42.985 Z12.583
N14720 X31.087 Y43.016 Z12.582
N14725 X31.066 Y43.039 Z12.581
N14730 X31.036 Y43.049 Z12.579
N14735 X31.006 Y43.043 Z12.578
N14740 X30.981 Y43.023 Z12.577
N14745 X30.97 Y42.994 Z12.576
N14750 X30.974 Y42.963 Z12.575
N14755 X30.993 Y42.938 Z12.574
N14760 X31.021 Y42.925 Z12.573
N14765 X31.052 Y42.927 Z12.572
N14770 X31.078 Y42.945 Z12.571
N14775 X31.093 Y42.972 Z12.569
N14780 X31.092 Y43.004 Z12.568
N14785 X31.076 Y43.031 Z12.567
N14790 X31.049 Y43.047 Z12.566
N14795 X31.018 Z12.565
N14800 X30.99 Y43.033 Z12.564
N14805 X30.973 Y43.006 Z12.563
N14810 X30.97 Y42.975 Z12.562
N14815 X30.984 Y42.947 Z12.561
N14820 X31.009 Y42.928 Z12.56
N14825 X31.04 Y42.924 Z12.558
N14830 X31.069 Y42.936 Z12.557
N14835 X31.089 Y42.96 Z12.556
N14840 X31.094 Y42.991 Z12.555
N14845 X31.084 Y43.021 Z12.554
N14850 X31.061 Y43.042 Z12.553
N14855 X31.03 Y43.049 Z12.552
N14860 X31. Y43.04 Z12.551
N14865 X30.978 Y43.018 Z12.55
N14870 X30.969 Y42.988 Z12.548
N14875 X30.976 Y42.958 Z12.547
N14880 X30.997 Y42.934 Z12.546
N14885 X31.027 Y42.924 Z12.545
N14890 X31.058 Y42.93 Z12.544
N14895 X31.082 Y42.949 Z12.543
N14900 X31.094 Y42.978 Z12.542
N14905 X31.09 Y43.009 Z12.541
N14910 X31.072 Y43.035 Z12.54
N14915 X31.043 Y43.048 Z12.539
N14920 X31.012 Y43.046 Z12.537
N14925 X30.986 Y43.028 Z12.536
N14930 X30.971 Y43.001 Z12.535
N14935 X30.972 Y42.969 Z12.534
N14940 X30.988 Y42.942 Z12.533
N14945 X31.014 Y42.926 Z12.532
N14950 X31.046 Y42.925 Z12.531
N14955 X31.074 Y42.94 Z12.53
N14960 X31.091 Y42.966 Z12.529
N14965 X31.093 Y42.997 Z12.527
N14970 X31.081 Y43.026 Z12.526
N14975 X31.055 Y43.044 Z12.525
N14980 X31.024 Y43.048 Z12.524
N14985 X30.995 Y43.037 Z12.523
N14990 X30.975 Y43.013 Z12.522
N14995 X30.97 Y42.982 Z12.521
N15000 X30.979 Y42.952 Z12.52
N15005 X31.003 Y42.931 Z12.519
N15010 X31.033 Y42.924 Z12.518
N15015 X31.063 Y42.932 Z12.516
N15020 X31.086 Y42.954 Z12.515
N15025 X31.094 Y42.984 Z12.514
N15030 X31.088 Y43.015 Z12.513
N15035 X31.067 Y43.038 Z12.512
N15040 X31.037 Y43.049 Z12.511
N15045 X31.006 Y43.043 Z12.51
N15050 X30.982 Y43.024 Z12.509
N15055 X30.97 Y42.995 Z12.508
N15060 X30.974 Y42.964 Z12.506
N15065 X30.992 Y42.938 Z12.505
N15070 X31.02 Y42.925 Z12.504
N15075 X31.052 Y42.927 Z12.503
N15080 X31.078 Y42.944 Z12.502
N15085 X31.093 Y42.972 Z12.501
N15090 X31.092 Y43.003 Z12.5
N15095 X31.077 Y43.03 Z12.499
N15100 X31.05 Y43.046 Z12.498
N15105 X31.019 Y43.047 Z12.497
N15110 X30.991 Y43.033 Z12.495
N15115 X30.973 Y43.007 Z12.494
N15120 X30.97 Y42.976 Z12.493
N15125 X30.983 Y42.948 Z12.492
N15130 X31.008 Y42.929 Z12.491
N15135 X31.039 Y42.924 Z12.49
N15140 X31.068 Y42.936 Z12.489
N15145 X31.088 Y42.96 Z12.488
N15150 X31.094 Y42.99 Z12.487
N15155 X31.085 Y43.02 Z12.485
N15160 X31.062 Y43.041 Z12.484
N15165 X31.031 Y43.049 Z12.483
N15170 X31.001 Y43.041 Z12.482
N15175 X30.979 Y43.019 Z12.481
N15180 X30.969 Y42.989 Z12.48
N15185 X30.976 Y42.958 Z12.479
N15190 X30.997 Y42.935 Z12.478
N15195 X31.026 Y42.924 Z12.477
N15200 X31.057 Y42.929 Z12.476
N15205 X31.082 Y42.949 Z12.474
N15210 X31.094 Y42.977 Z12.473
N15215 X31.09 Y43.009 Z12.472
N15220 X31.072 Y43.034 Z12.471
N15225 X31.044 Y43.048 Z12.47
N15230 X31.013 Y43.046 Z12.469
N15235 X30.986 Y43.029 Z12.468
N15240 X30.971 Y43.002 Z12.467
N15245 X30.972 Y42.97 Z12.466
N15250 X30.987 Y42.943 Z12.464
N15255 X31.014 Y42.927 Z12.463
N15260 X31.045 Y42.925 Z12.462
N15265 X31.073 Y42.939 Z12.461
N15270 X31.091 Y42.965 Z12.46
N15275 X31.094 Y42.996 Z12.459
N15280 X31.081 Y43.025 Z12.458
N15285 X31.056 Y43.044 Z12.457
N15290 X31.025 Y43.049 Z12.456
N15295 X30.996 Y43.038 Z12.455
N15300 X30.976 Y43.014 Z12.453
N15305 X30.97 Y42.983 Z12.452
N15310 X30.979 Y42.953 Z12.451
N15315 X31.002 Y42.932 Z12.45
N15320 X31.032 Y42.924 Z12.449
N15325 X31.062 Y42.932 Z12.448
N15330 X31.085 Y42.954 Z12.447
N15335 X31.094 Y42.983 Z12.446
N15340 X31.088 Y43.014 Z12.445
N15345 X31.067 Y43.038 Z12.444
N15350 X31.038 Y43.049 Z12.442
N15355 X31.007 Y43.044 Z12.441
N15360 X30.982 Y43.025 Z12.44
N15365 X30.97 Y42.996 Z12.439
N15370 X30.973 Y42.965 Z12.438
N15375 X30.991 Y42.939 Z12.437
N15380 X31.019 Y42.925 Z12.436
N15385 X31.051 Y42.927 Z12.435
N15390 X31.077 Y42.943 Z12.434
N15395 X31.092 Y42.971 Z12.432
N15400 Y43.002 Z12.431
N15405 X31.077 Y43.029 Z12.43
N15410 X31.051 Y43.046 Z12.429
N15415 X31.019 Y43.048 Z12.428
N15420 X30.991 Y43.034 Z12.427
N15425 X30.973 Y43.008 Z12.426
N15430 X30.97 Y42.977 Z12.425
N15435 X30.982 Y42.948 Z12.424
N15440 X31.007 Y42.929 Z12.423
N15445 X31.038 Y42.924 Z12.421
N15450 X31.068 Y42.935 Z12.42
N15455 X31.088 Y42.959 Z12.419
N15460 X31.094 Y42.989 Z12.418
N15465 X31.085 Y43.019 Z12.417
N15470 X31.062 Y43.041 Z12.416
N15475 X31.032 Y43.049 Z12.415
N15480 X31.002 Y43.041 Z12.414
N15485 X30.979 Y43.02 Z12.413
N15490 X30.97 Y42.99 Z12.411
N15495 X30.976 Y42.959 Z12.41
N15500 X30.996 Y42.935 Z12.409
N15505 X31.025 Y42.924 Z12.408
N15510 X31.056 Y42.929 Z12.407
N15515 X31.081 Y42.948 Z12.406
N15520 X31.094 Y42.977 Z12.405
N15525 X31.091 Y43.008 Z12.404
N15530 X31.073 Y43.034 Z12.403
N15535 X31.045 Y43.048 Z12.402
N15540 X31.014 Y43.046 Z12.4
N15545 X30.987 Y43.03 Z12.399
N15550 X30.972 Y43.002 Z12.398
N15555 X30.971 Y42.971 Z12.397
N15560 X30.986 Y42.944 Z12.396
N15565 X31.013 Y42.927 Z12.395
N15570 X31.044 Y42.925 Z12.394
N15575 X31.072 Y42.939 Z12.393
N15580 X31.09 Y42.964 Z12.392
N15585 X31.094 Y42.995 Z12.39
N15590 X31.082 Y43.024 Z12.389
N15595 X31.057 Y43.044 Z12.388
N15600 X31.026 Y43.049 Z12.387
N15605 X30.997 Y43.038 Z12.386
N15610 X30.976 Y43.014 Z12.385
N15615 X30.969 Y42.984 Z12.384
N15620 X30.979 Y42.954 Z12.383
N15625 X31.001 Y42.932 Z12.382
N15630 X31.031 Y42.924 Z12.381
N15635 X31.062 Y42.931 Z12.379
N15640 X31.085 Y42.953 Z12.378
N15645 X31.094 Y42.983 Z12.377
N15650 X31.088 Y43.013 Z12.376
N15655 X31.068 Y43.037 Z12.375
N15660 X31.039 Y43.048 Z12.374
N15665 X31.008 Y43.044 Z12.373
N15670 X30.983 Y43.025 Z12.372
N15675 X30.97 Y42.997 Z12.371
N15680 X30.973 Y42.965 Z12.369
N15685 X30.991 Y42.94 Z12.368
N15690 X31.019 Y42.925 Z12.367
N15695 X31.05 Y42.927 Z12.366
N15700 X31.077 Y42.943 Z12.365
N15705 X31.092 Y42.97 Z12.364
N15710 X31.093 Y43.001 Z12.363
N15715 X31.078 Y43.029 Z12.362
N15720 X31.052 Y43.046 Z12.361
N15725 X31.02 Y43.048 Z12.36
N15730 X30.992 Y43.034 Z12.358
N15735 X30.974 Y43.009 Z12.357
N15740 X30.97 Y42.978 Z12.356
N15745 X30.982 Y42.949 Z12.355
N15750 X31.006 Y42.929 Z12.354
N15755 X31.037 Y42.924 Z12.353
N15760 X31.067 Y42.935 Z12.352
N15765 X31.088 Y42.958 Z12.351
N15770 X31.094 Y42.988 Z12.35
N15775 X31.086 Y43.019 Z12.348
N15780 X31.063 Y43.04 Z12.347
N15785 X31.033 Y43.049 Z12.346
N15790 X31.003 Y43.042 Z12.345
N15795 X30.979 Y43.02 Z12.344
N15800 X30.97 Y42.991 Z12.343
N15805 X30.975 Y42.96 Z12.342
N15810 X30.995 Y42.936 Z12.341
N15815 X31.024 Y42.924 Z12.34
N15820 X31.055 Y42.928 Z12.339
N15825 X31.081 Y42.947 Z12.337
N15830 X31.093 Y42.976 Z12.336
N15835 X31.091 Y43.007 Z12.335
N15840 X31.074 Y43.033 Z12.334
N15845 X31.046 Y43.047 Z12.333
N15850 X31.014 Y43.046 Z12.332
N15855 X30.988 Y43.03 Z12.331
N15860 X30.972 Y43.003 Z12.33
N15865 X30.971 Y42.972 Z12.329
N15870 X30.986 Y42.944 Z12.327
N15875 X31.012 Y42.927 Z12.326
N15880 X31.043 Y42.925 Z12.325
N15885 X31.072 Y42.938 Z12.324
N15890 X31.09 Y42.963 Z12.323
N15895 X31.094 Y42.994 Z12.322
N15900 X31.082 Y43.023 Z12.321
N15905 X31.058 Y43.043 Z12.32
N15910 X31.027 Y43.049 Z12.319
N15915 X30.997 Y43.039 Z12.318
N15920 X30.976 Y43.015 Z12.316
N15925 X30.969 Y42.985 Z12.315
N15930 X30.978 Y42.955 Z12.314
N15935 X31. Y42.933 Z12.313
N15940 X31.03 Y42.924 Z12.312
N15945 X31.061 Y42.931 Z12.311
N15950 X31.084 Y42.952 Z12.31
N15955 X31.094 Y42.982 Z12.309
N15960 X31.089 Y43.012 Z12.308
N15965 X31.069 Y43.037 Z12.306
N15970 X31.04 Y43.048 Z12.305
N15975 X31.009 Y43.044 Z12.304
N15980 X30.984 Y43.026 Z12.303
N15985 X30.97 Y42.998 Z12.302
N15990 X30.973 Y42.966 Z12.301
N15995 X30.99 Y42.94 Z12.3
N16000 X31.018 Y42.926 Z12.299
N16005 X31.049 Z12.298
N16010 X31.076 Y42.942 Z12.297
N16015 X31.092 Y42.969 Z12.295
N16020 X31.093 Y43. Z12.294
N16025 X31.078 Y43.028 Z12.293
N16030 X31.052 Y43.045 Z12.292
N16035 X31.021 Y43.048 Z12.291
N16040 X30.993 Y43.035 Z12.29
N16045 X30.974 Y43.01 Z12.289
N16050 X30.97 Y42.979 Z12.288
N16055 X30.981 Y42.95 Z12.287
N16060 X31.006 Y42.93 Z12.285
N16065 X31.036 Y42.924 Z12.284
N16070 X31.066 Y42.934 Z12.283
N16075 X31.087 Y42.957 Z12.282
N16080 X31.094 Y42.988 Z12.281
N16085 X31.086 Y43.018 Z12.28
N16090 X31.064 Y43.04 Z12.279
N16095 X31.034 Y43.049 Z12.278
N16100 X31.003 Y43.042 Z12.277
N16105 X30.98 Y43.021 Z12.276
N16110 X30.97 Y42.992 Z12.274
N16115 X30.975 Y42.961 Z12.273
N16120 X30.995 Y42.936 Z12.272
N16125 X31.024 Y42.924 Z12.271
N16130 X31.055 Y42.928 Z12.27
N16135 X31.08 Y42.946 Z12.269
N16140 X31.093 Y42.975 Z12.268
N16145 X31.091 Y43.006 Z12.267
N16150 X31.074 Y43.032 Z12.266
N16155 X31.047 Y43.047 Z12.264
N16160 X31.015 Z12.263
N16165 X30.988 Y43.031 Z12.262
N16170 X30.972 Y43.004 Z12.261
N16175 X30.971 Y42.973 Z12.26
N16180 X30.985 Y42.945 Z12.259
N16185 X31.011 Y42.927 Z12.258
N16190 X31.042 Y42.925 Z12.257
N16195 X31.071 Y42.938 Z12.256
N16200 X31.09 Y42.963 Z12.255
N16205 X31.094 Y42.994 Z12.253
N16210 X31.083 Y43.023 Z12.252
N16215 X31.059 Y43.043 Z12.251
N16220 X31.028 Y43.049 Z12.25
N16225 X30.998 Y43.039 Z12.249
N16230 X30.977 Y43.016 Z12.248
N16235 X30.969 Y42.986 Z12.247
N16240 X30.978 Y42.955 Z12.246
N16245 X30.999 Y42.933 Z12.245
N16250 X31.029 Y42.924 Z12.244
N16255 X31.06 Y42.931 Z12.242
N16260 X31.084 Y42.951 Z12.241
N16265 X31.094 Y42.981 Z12.24
N16270 X31.089 Y43.012 Z12.239
N16275 X31.07 Y43.036 Z12.238
N16280 X31.041 Y43.048 Z12.237
N16285 X31.01 Y43.045 Z12.236
N16290 X30.984 Y43.027 Z12.235
N16295 X30.971 Y42.998 Z12.234
N16300 X30.972 Y42.967 Z12.232
N16305 X30.989 Y42.941 Z12.231
N16310 X31.017 Y42.926 Z12.23
N16315 X31.048 Z12.229
N16320 X31.075 Y42.941 Z12.228
N16325 X31.092 Y42.968 Z12.227
N16330 X31.093 Y42.999 Z12.226
N16335 X31.079 Y43.027 Z12.225
N16340 X31.053 Y43.045 Z12.224
N16345 X31.022 Y43.048 Z12.223
N16350 X30.993 Y43.036 Z12.221
N16355 X30.974 Y43.011 Z12.22
N16360 X30.97 Y42.98 Z12.219
N16365 X30.981 Y42.95 Z12.218
N16370 X31.005 Y42.93 Z12.217
N16375 X31.035 Y42.924 Z12.216
N16380 X31.065 Y42.934 Z12.215
N16385 X31.087 Y42.956 Z12.214
N16390 X31.094 Y42.987 Z12.213
N16395 X31.086 Y43.017 Z12.211
N16400 X31.065 Y43.04 Z12.21
N16405 X31.035 Y43.049 Z12.209
N16410 X31.004 Y43.042 Z12.208
N16415 X30.98 Y43.022 Z12.207
N16420 X30.97 Y42.993 Z12.206
N16425 X30.975 Y42.962 Z12.205
N16430 X30.994 Y42.937 Z12.204
N16435 X31.023 Y42.925 Z12.203
N16440 X31.054 Y42.928 Z12.202
N16445 X31.079 Y42.946 Z12.2
N16450 X31.093 Y42.974 Z12.199
N16455 X31.092 Y43.005 Z12.198
N16460 X31.075 Y43.032 Z12.197
N16465 X31.048 Y43.047 Z12.196
N16470 X31.016 Z12.195
N16475 X30.989 Y43.032 Z12.194
N16480 X30.972 Y43.005 Z12.193
N16485 X30.971 Y42.974 Z12.192
N16490 X30.985 Y42.946 Z12.19
N16495 X31.01 Y42.928 Z12.189
N16500 X31.041 Y42.925 Z12.188
N16505 X31.07 Y42.937 Z12.187
N16510 X31.089 Y42.962 Z12.186
N16515 X31.094 Y42.993 Z12.185
N16520 X31.083 Y43.022 Z12.184
N16525 X31.06 Y43.042 Z12.183
N16530 X31.058 Y43.043
N16535 S18000
N16540 X31.031 Y43.056 F1600.
N16545 X31.005 Y43.062
N16550 X30.979 Y43.058
N16555 X30.957 Y43.044
N16560 X30.941 Y43.022
N16565 X30.802 Y42.718
N16570 X30.798 Y42.692
N16575 X30.808 Y42.667
N16580 X30.83 Y42.651
N16585 X31.431 Y42.422
N16590 X31.454 Y42.413 Z12.189
N16595 X31.471 Y42.407 Z12.208
N16600 X31.478 Y42.405 Z12.233
N16605 Z22.381
N16610 X30.708 Y42.623
N16615 Z14.831
N16620 Z12.832
N16625 X30.702 Y42.626 Z12.807
N16630 X30.685 Y42.633 Z12.788
N16635 X30.662 Y42.642 Z12.782
N16640 X30.204 Y42.825
N16645 X30.178 Y42.828
N16650 X30.154 Y42.818
N16655 X30.139 Y42.797
N16660 X30.116 Y42.74
N16665 X30.112 Y42.721
N16670 X30.116 Y42.702
N16675 X30.12 Y42.682
N16680 X30.116 Y42.662
N16685 X29.946 Y42.279
N16690 X29.935 Y42.262
N16695 X29.918 Y42.252
N16700 X29.901 Y42.242
N16705 X29.89 Y42.226
N16710 X29.851 Y42.141
N16715 X29.85 Y42.14
N16720 X29.837 Y42.073
N16725 X29.839 Y42.048
N16730 X29.854 Y42.026
N16735 X29.877 Y42.015
N16740 X29.897 Y42.006
N16745 X29.912 Y41.988
N16750 X29.917 Y41.966
N16755 X29.958 Y38.559
N16760 Z12.283
N16765 S5000
N16770 X29.957 Y38.558 Z12.27 F333.33
N16775 X29.952 Y38.557 Z12.258
N16780 X29.945 Y38.553 Z12.248
N16785 X29.937 Y38.548 Z12.24
N16790 X29.929 Y38.54 Z12.235
N16795 X29.921 Y38.529 Z12.233
N16800 X29.914 Y38.499 Z12.232
N16805 X29.922 Y38.469 Z12.23
N16810 X29.943 Y38.446 Z12.229
N16815 X29.973 Y38.437 Z12.228
N16820 X30.004 Y38.443 Z12.227
N16825 X30.028 Y38.463 Z12.226
N16830 X30.038 Y38.493 Z12.225
N16835 X30.033 Y38.524 Z12.224
N16840 X30.014 Y38.549 Z12.223
N16845 X29.985 Y38.561 Z12.222
N16850 X29.954 Y38.557 Z12.221
N16855 X29.928 Y38.539 Z12.219
N16860 X29.915 Y38.511 Z12.218
N16865 X29.917 Y38.48 Z12.217
N16870 X29.933 Y38.453 Z12.216
N16875 X29.961 Y38.438 Z12.215
N16880 X29.992 Y38.439 Z12.214
N16885 X30.02 Y38.454 Z12.213
N16890 X30.036 Y38.481 Z12.212
N16895 X30.037 Y38.512 Z12.211
N16900 X30.023 Y38.54 Z12.209
N16905 X29.997 Y38.558 Z12.208
N16910 X29.966 Y38.561 Z12.207
N16915 X29.937 Y38.548 Z12.206
N16920 X29.918 Y38.523 Z12.205
N16925 X29.914 Y38.492 Z12.204
N16930 X29.925 Y38.463 Z12.203
N16935 X29.949 Y38.442 Z12.202
N16940 X29.98 Y38.437 Z12.201
N16945 X30.01 Y38.446 Z12.2
N16950 X30.031 Y38.469 Z12.198
N16955 X30.039 Y38.5 Z12.197
N16960 X30.03 Y38.53 Z12.196
N16965 X30.008 Y38.552 Z12.195
N16970 X29.978 Y38.561 Z12.194
N16975 X29.948 Y38.555 Z12.193
N16980 X29.924 Y38.534 Z12.192
N16985 X29.914 Y38.504 Z12.191
N16990 X29.919 Y38.473 Z12.19
N16995 X29.939 Y38.449 Z12.188
N17000 X29.968 Y38.437 Z12.187
N17005 X29.999 Y38.441 Z12.186
N17010 X30.024 Y38.459 Z12.185
N17015 X30.038 Y38.488 Z12.184
N17020 X30.035 Y38.519 Z12.183
N17025 X30.018 Y38.545 Z12.182
N17030 X29.991 Y38.56 Z12.181
N17035 X29.959 Y38.559 Z12.18
N17040 X29.932 Y38.543 Z12.178
N17045 X29.916 Y38.516 Z12.177
N17050 X29.915 Y38.485 Z12.176
N17055 X29.93 Y38.457 Z12.175
N17060 X29.956 Y38.44 Z12.174
N17065 X29.987 Y38.437 Z12.173
N17070 X30.016 Y38.45 Z12.172
N17075 X30.034 Y38.476 Z12.171
N17080 X30.038 Y38.507 Z12.17
N17085 X30.027 Y38.536 Z12.169
N17090 X30.002 Y38.556 Z12.167
N17095 X29.971 Y38.561 Z12.166
N17100 X29.942 Y38.551 Z12.165
N17105 X29.921 Y38.528 Z12.164
N17110 X29.914 Y38.497 Z12.163
N17115 X29.922 Y38.467 Z12.162
N17120 X29.945 Y38.445 Z12.161
N17125 X29.975 Y38.436 Z12.16
N17130 X30.005 Y38.444 Z12.159
N17135 X30.028 Y38.465 Z12.157
N17140 X30.038 Y38.494 Z12.156
N17145 X30.033 Y38.525 Z12.155
N17150 X30.013 Y38.55 Z12.154
N17155 X29.984 Y38.561 Z12.153
N17160 X29.953 Y38.557 Z12.152
N17165 X29.927 Y38.538 Z12.151
N17170 X29.915 Y38.51 Z12.15
N17175 X29.917 Y38.478 Z12.149
N17180 X29.935 Y38.452 Z12.148
N17185 X29.963 Y38.438 Z12.146
N17190 X29.994 Y38.439 Z12.145
N17195 X30.021 Y38.455 Z12.144
N17200 X30.036 Y38.482 Z12.143
N17205 X30.037 Y38.514 Z12.142
N17210 X30.022 Y38.541 Z12.141
N17215 X29.996 Y38.558 Z12.14
N17220 X29.964 Y38.56 Z12.139
N17225 X29.936 Y38.547 Z12.138
N17230 X29.918 Y38.521 Z12.136
N17235 X29.914 Y38.49 Z12.135
N17240 X29.926 Y38.461 Z12.134
N17245 X29.951 Y38.442 Z12.133
N17250 X29.982 Y38.437 Z12.132
N17255 X30.011 Y38.447 Z12.131
N17260 X30.032 Y38.471 Z12.13
N17265 X30.039 Y38.501 Z12.129
N17270 X30.03 Y38.531 Z12.128
N17275 X30.007 Y38.553 Z12.126
N17280 X29.977 Y38.561 Z12.125
N17285 X29.946 Y38.554 Z12.124
N17290 X29.923 Y38.532 Z12.123
N17295 X29.914 Y38.503 Z12.122
N17300 X29.92 Y38.472 Z12.121
N17305 X29.94 Y38.448 Z12.12
N17310 X29.969 Y38.437 Z12.119
N17315 X30. Y38.441 Z12.118
N17320 X30.025 Y38.46 Z12.117
N17325 X30.038 Y38.489 Z12.115
N17330 X30.035 Y38.52 Z12.114
N17335 X30.017 Y38.546 Z12.113
N17340 X29.989 Y38.56 Z12.112
N17345 X29.958 Y38.559 Z12.111
N17350 X29.931 Y38.542 Z12.11
N17355 X29.916 Y38.515 Z12.109
N17360 Y38.483 Z12.108
N17365 X29.931 Y38.456 Z12.107
N17370 X29.957 Y38.439 Z12.105
N17375 X29.989 Y38.438 Z12.104
N17380 X30.017 Y38.452 Z12.103
N17385 X30.035 Y38.477 Z12.102
N17390 X30.038 Y38.508 Z12.101
N17395 X30.026 Y38.537 Z12.1
N17400 X30.001 Y38.556 Z12.099
N17405 X29.97 Y38.561 Z12.098
N17410 X29.94 Y38.55 Z12.097
N17415 X29.92 Y38.526 Z12.096
N17420 X29.914 Y38.496 Z12.094
N17425 X29.923 Y38.466 Z12.093
N17430 X29.946 Y38.444 Z12.092
N17435 X29.976 Y38.436 Z12.091
N17440 X30.007 Y38.444 Z12.09
N17445 X30.029 Y38.466 Z12.089
N17450 X30.039 Y38.496 Z12.088
N17455 X30.032 Y38.527 Z12.087
N17460 X30.012 Y38.55 Z12.086
N17465 X29.982 Y38.561 Z12.084
N17470 X29.951 Y38.556 Z12.083
N17475 X29.926 Y38.537 Z12.082
N17480 X29.914 Y38.508 Z12.081
N17485 X29.918 Y38.477 Z12.08
N17490 X29.936 Y38.451 Z12.079
N17495 X29.964 Y38.438 Z12.078
N17500 X29.995 Y38.439 Z12.077
N17505 X30.022 Y38.456 Z12.076
N17510 X30.037 Y38.484 Z12.074
N17515 X30.036 Y38.515 Z12.073
N17520 X30.021 Y38.543 Z12.072
N17525 X29.994 Y38.559 Z12.071
N17530 X29.963 Y38.56 Z12.07
N17535 X29.935 Y38.546 Z12.069
N17540 X29.917 Y38.52 Z12.068
N17545 X29.914 Y38.489 Z12.067
N17550 X29.927 Y38.46 Z12.066
N17555 X29.952 Y38.441 Z12.065
N17560 X29.983 Y38.437 Z12.063
N17565 X30.013 Y38.448 Z12.062
N17570 X30.033 Y38.472 Z12.061
N17575 X30.039 Y38.503 Z12.06
N17580 X30.029 Y38.533 Z12.059
N17585 X30.006 Y38.554 Z12.058
N17590 X29.975 Y38.561 Z12.057
N17595 X29.945 Y38.553 Z12.056
N17600 X29.923 Y38.531 Z12.055
N17605 X29.914 Y38.501 Z12.053
N17610 X29.921 Y38.47 Z12.052
N17615 X29.941 Y38.447 Z12.051
N17620 X29.971 Y38.437 Z12.05
N17625 X30.002 Y38.442 Z12.049
N17630 X30.026 Y38.462 Z12.048
N17635 X30.038 Y38.491 Z12.047
N17640 X30.034 Y38.522 Z12.046
N17645 X30.016 Y38.547 Z12.045
N17650 X29.987 Y38.56 Z12.044
N17655 X29.956 Y38.558 Z12.042
N17660 X29.93 Y38.541 Z12.041
N17665 X29.915 Y38.513 Z12.04
N17670 X29.916 Y38.482 Z12.039
N17675 X29.932 Y38.455 Z12.038
N17680 X29.959 Y38.439 Z12.037
N17685 X29.99 Y38.438 Z12.036
N17690 X30.018 Y38.453 Z12.035
N17695 X30.035 Y38.479 Z12.034
N17700 X30.038 Y38.51 Z12.032
N17705 X30.025 Y38.539 Z12.031
N17710 X29.999 Y38.557 Z12.03
N17715 X29.968 Y38.561 Z12.029
N17720 X29.939 Y38.549 Z12.028
N17725 X29.919 Y38.525 Z12.027
N17730 X29.914 Y38.494 Z12.026
N17735 X29.924 Y38.464 Z12.025
N17740 X29.947 Y38.443 Z12.024
N17745 X29.978 Y38.436 Z12.022
N17750 X30.008 Y38.445 Z12.021
N17755 X30.03 Y38.468 Z12.02
N17760 X30.039 Y38.498 Z12.019
N17765 X30.031 Y38.528 Z12.018
N17770 X30.01 Y38.551 Z12.017
N17775 X29.98 Y38.561 Z12.016
N17780 X29.95 Y38.556 Z12.015
N17785 X29.925 Y38.535 Z12.014
N17790 X29.914 Y38.506 Z12.013
N17795 X29.918 Y38.475 Z12.011
N17800 X29.937 Y38.45 Z12.01
N17805 X29.966 Y38.437 Z12.009
