%
(SNOWFLAKEMALE3175FLAT_FIRST)
(T1  D=3.175 CR=0. - ZMIN=-2.175 - FLAT END MILL)
N10 G90 G94 G17 G91.1
N15 G21
(WHEN USING FUSION 360 FOR PERSONAL USE, THE FEEDRATE OF)
(RAPID MOVES IS REDUCED TO MATCH THE FEEDRATE OF CUTTING)
(MOVES, WHICH CAN INCREASE MACHINING TIME. UNRESTRICTED RAPID)
(MOVES ARE AVAILABLE WITH A FUSION 360 SUBSCRIPTION.)
N20 G53 G0 Z0.
(SNOWFLAKEMALECLEARINGBIT3175MM)
N25 T1 M6
N30 S7000 M3
N35 G54
N40 M8
N45 G0 X8.744 Y-22.037
N50 G43 Z15. H1
N55 G1 Z5. F2000.
N60 Z2.5
N65 Z-2.175 F666.67
N70 X10.049 Y-23.353 F2000.
N75 G3 X10.297 Y-23.25 I0.103 J0.102
N80 G1 Y-21.327
N85 G3 X10.081 Y-20.805 I-0.739 J0.
N90 G1 X9.779 Y-20.503
N95 G3 X9.209 Y-20.406 I-0.353 J-0.353
N100 X8.748 Y-20.633 I14.919 J-30.916
N105 G2 X8.276 Y-20.833 I-1.796 J3.583
N110 G1 X8.149 Y-20.873
N115 X8.021 Y-20.913
N120 G3 X7.947 Y-21.234 I0.064 J-0.184
N125 G1 X8.744 Y-22.037
N130 X8.791 Y-22.076 Z-2.163
N135 X8.844 Y-22.105 Z-2.151
N140 X8.893 Y-22.122 Z-2.116
N145 X8.943 Y-22.13 Z-2.082
N150 X9.012 Y-22.128 Z-1.979
N155 X9.036 Y-22.124 Z-1.858
N160 Z5.
N165 X-9.127 Y-22.037
N170 Z2.5 F666.67
N175 Z-2.175
N180 X-8.33 Y-21.234 F2000.
N185 G3 X-8.404 Y-20.913 I-0.138 J0.137
N190 X-8.779 Y-20.786 I-6.189 J-17.696
N195 G2 X-9.146 Y-20.639 I0.915 J2.805
N200 X-9.369 Y-20.522 I1.747 J3.62
N205 G3 X-9.592 Y-20.406 I-1.969 J-3.504
N210 X-10.162 Y-20.503 I-0.217 J-0.45
N215 G1 X-10.409 Y-20.75
N220 X-10.463 Y-20.805
N225 G3 X-10.68 Y-21.328 I0.523 J-0.523
N230 G1 Y-23.25
N235 G3 X-10.431 Y-23.353 I0.145 J0.
N240 G1 X-9.127 Y-22.037
N245 X-9.088 Y-21.99 Z-2.163
N250 X-9.059 Y-21.937 Z-2.151
N255 X-9.043 Y-21.888 Z-2.116
N260 X-9.035 Y-21.837 Z-2.082
N265 X-9.038 Y-21.769 Z-1.979
N270 X-9.042 Y-21.745 Z-1.858
N275 Z5.
N280 X-21.238 Y-9.931
N285 Z2.5 F666.67
N290 Z-2.175
N295 X-20.986 Y-9.678 F2000.
N300 G3 X-20.889 Y-9.108 I-0.353 J0.353
N305 X-21.116 Y-8.648 I-31.003 J-14.961
N310 G2 X-21.316 Y-8.175 I3.584 J1.796
N315 G1 X-21.356 Y-8.048
N320 X-21.396 Y-7.922
N325 G3 X-21.717 Y-7.848 I-0.184 J-0.064
N330 G1 X-22.512 Y-8.637
N335 X-23.832 Y-9.948
N340 G3 X-23.73 Y-10.196 I0.102 J-0.103
N345 G1 X-21.81
N350 G3 X-21.288 Y-9.98 I0. J0.739
N355 G1 X-21.238 Y-9.931
N360 X-21.2 Y-9.884 Z-2.163
N365 X-21.171 Y-9.83 Z-2.151
N370 X-21.154 Y-9.782 Z-2.116
N375 X-21.146 Y-9.731 Z-2.082
N380 X-21.148 Y-9.662 Z-1.979
N385 X-21.153 Y-9.638 Z-1.858
N390 Z5.
N395 X-21.88 Y10.78
N400 Z2.5 F666.67
N405 Z-2.175
N410 X-23.73 F2000.
N415 G3 X-23.833 Y10.531 I0. J-0.145
N420 G1 X-21.717 Y8.432
N425 G3 X-21.396 Y8.505 I0.137 J0.138
N430 X-21.269 Y8.88 I-17.764 J6.212
N435 G2 X-21.122 Y9.247 I2.803 J-0.915
N440 X-21.006 Y9.47 I3.618 J-1.746
N445 G3 X-20.89 Y9.692 I-3.502 J1.968
N450 X-20.986 Y10.262 I-0.45 J0.217
N455 G1 X-21.234 Y10.51
N460 X-21.288 Y10.564
N465 G3 X-21.811 Y10.78 I-0.523 J-0.523
N470 G1 X-21.88
N475 X-21.941 Y10.774 Z-2.163
N480 X-21.999 Y10.757 Z-2.151
N485 X-22.045 Y10.734 Z-2.116
N490 X-22.087 Y10.704 Z-2.082
N495 X-22.134 Y10.654 Z-1.979
N500 X-22.148 Y10.634 Z-1.858
N505 Z5.
N510 X-9.126 Y22.621
N515 Z2.5 F666.67
N520 Z-2.175
N525 X-10.431 Y23.936 F2000.
N530 G3 X-10.679 Y23.834 I-0.103 J-0.102
N535 G1 Y21.911
N540 G3 X-10.463 Y21.388 I0.739 J0.
N545 G1 X-10.161 Y21.086
N550 G3 X-9.591 Y20.99 I0.353 J0.353
N555 X-9.13 Y21.216 I-14.92 J30.919
N560 G2 X-8.658 Y21.417 I1.796 J-3.583
N565 G1 X-8.53 Y21.457
N570 X-8.403 Y21.497
N575 G3 X-8.329 Y21.818 I-0.064 J0.184
N580 G1 X-9.12 Y22.614
N585 X-9.126 Y22.621
N590 X-9.173 Y22.659 Z-2.163
N595 X-9.226 Y22.689 Z-2.151
N600 X-9.274 Y22.705 Z-2.116
N605 X-9.325 Y22.714 Z-2.082
N610 X-9.394 Y22.712 Z-1.979
N615 X-9.418 Y22.708 Z-1.858
N620 Z5.
N625 X10.032 Y21.339
N630 Z2.5 F666.67
N635 Z-2.175
N640 X10.081 Y21.388 F2000.
N645 G3 X10.298 Y21.911 I-0.523 J0.523
N650 G1 Y23.834
N655 G3 X10.049 Y23.936 I-0.145 J0.
N660 G1 X7.948 Y21.818
N665 G3 X8.022 Y21.497 I0.138 J-0.137
N670 X8.397 Y21.37 I6.188 J17.695
N675 G2 X8.764 Y21.222 I-0.915 J-2.805
N680 X8.987 Y21.106 I-1.747 J-3.62
N685 G3 X9.209 Y20.99 I1.97 J3.504
N690 X9.779 Y21.086 I0.217 J0.45
N695 G1 X10.026 Y21.334
N700 X10.032 Y21.339
N705 X10.07 Y21.385 Z-2.163
N710 X10.099 Y21.439 Z-2.151
N715 X10.115 Y21.488 Z-2.116
N720 X10.124 Y21.538 Z-2.082
N725 X10.122 Y21.607 Z-1.979
N730 X10.117 Y21.631 Z-1.858
N735 Z5.
N740 X20.856 Y10.514
N745 Z2.5 F666.67
N750 Z-2.175
N755 X20.604 Y10.262 F2000.
N760 G3 X20.507 Y9.692 I0.353 J-0.353
N765 X20.734 Y9.231 I31.067 J14.992
N770 G2 X20.934 Y8.758 I-3.585 J-1.796
N775 G1 X20.974 Y8.632
N780 X21.014 Y8.505
N785 G3 X21.335 Y8.431 I0.184 J0.064
N790 G1 X22.13 Y9.221
N795 X23.451 Y10.531
N800 G3 X23.348 Y10.78 I-0.102 J0.103
N805 G1 X21.428
N810 G3 X20.906 Y10.563 I0. J-0.739
N815 G1 X20.856 Y10.514
N820 X20.818 Y10.467 Z-2.163
N825 X20.789 Y10.414 Z-2.151
N830 X20.772 Y10.365 Z-2.116
N835 X20.764 Y10.314 Z-2.082
N840 X20.766 Y10.246 Z-1.979
N845 X20.771 Y10.222 Z-1.858
N850 Z5.
N855 X22.138 Y-8.645
N860 Z2.5 F666.67
N865 Z-2.175
N870 X21.335 Y-7.848 F2000.
N875 G3 X21.014 Y-7.922 I-0.137 J-0.138
N880 X20.887 Y-8.297 I17.721 J-6.197
N885 G2 X20.74 Y-8.663 I-2.802 J0.914
N890 X20.624 Y-8.886 I-3.619 J1.747
N895 G3 X20.508 Y-9.109 I3.503 J-1.969
N900 X20.604 Y-9.679 I0.45 J-0.217
N905 G1 X20.852 Y-9.926
N910 X20.906 Y-9.98
N915 G3 X21.429 Y-10.197 I0.523 J0.523
N920 G1 X21.499
N925 X21.502
N930 X23.348
N935 G3 X23.451 Y-9.948 I0. J0.145
N940 G1 X22.138 Y-8.645
N945 X22.091 Y-8.606 Z-2.163
N950 X22.037 Y-8.578 Z-2.151
N955 X21.989 Y-8.562 Z-2.116
N960 X21.938 Y-8.554 Z-2.082
N965 X21.869 Y-8.556 Z-1.979
N970 X21.845 Y-8.56 Z-1.858
N975 Z5.
N980 X49.282 Y-19.878
N985 Z2.5 F666.67
N990 Z-2.175
N995 X49.278 Y-19.875 F2000.
N1000 G3 X48.914 Y-19.815 I-0.223 J-0.223
N1005 G2 X48.03 Y-20.214 I-5.615 J11.264
N1010 G1 X47.997 Y-20.235
N1015 X47.973 Y-20.265
N1020 X47.961 Y-20.301
N1025 X47.962 Y-20.34
N1030 X47.976 Y-20.376
N1035 X48.001 Y-20.405
N1040 X48.034 Y-20.424
N1045 X48.072 Y-20.43
N1050 X49.046 Y-20.429
N1055 X49.471 Y-20.428
N1060 G3 X49.576 Y-20.174 I0. J0.149
N1065 G1 X49.282 Y-19.878
N1070 G2 X49.108 Y-18.7 I0.709 J0.706
N1075 G3 X48.274 Y-17.85 I-0.55 J0.294
N1080 G2 X47.536 Y-18.203 I-7.554 J14.826
N1085 X45.796 Y-18.854 I-5.93 J13.206
N1090 X45.154 Y-19.005 I-1.532 J5.066
N1095 G1 X44.506 Y-19.116
N1100 G3 X44.375 Y-19.419 I0.033 J-0.194
N1105 G2 X45.152 Y-20.742 I-11.822 J-7.835
N1110 X45.769 Y-22.147 I-10.778 J-5.571
N1115 G3 X46.239 Y-22.475 I0.469 J0.171
N1120 G1 X54.53 Y-22.468
N1125 G3 X54.618 Y-22.233 I0.004 J0.132
N1130 G2 X52.106 Y-19.883 I17.843 J21.593
N1135 G3 X49.71 Y-17.415 I-93.949 J-88.815
N1140 X49.186 Y-17.349 I-0.305 J-0.304
N1145 G2 X48.274 Y-17.85 I-8.467 J14.324
N1150 G1 X48.224 Y-17.884 Z-2.163
N1155 X48.18 Y-17.926 Z-2.151
N1160 X48.151 Y-17.968 Z-2.116
N1165 X48.128 Y-18.014 Z-2.082
N1170 X48.11 Y-18.081 Z-1.979
N1175 X48.107 Y-18.105 Z-1.858
N1180 Z5.
N1185 X49.281 Y20.462
N1190 Z2.5 F666.67
N1195 Z-2.175
N1200 X49.286 Y20.467 F2000.
N1205 X49.574 Y20.756
N1210 G3 X49.469 Y21.01 I-0.106 J0.105
N1215 G1 X48.075 Y21.012
N1220 X48.037 Y21.006
N1225 X48.003 Y20.987
N1230 X47.978 Y20.958
N1235 X47.965 Y20.922
N1240 X47.964 Y20.883
N1245 X47.976 Y20.847
N1250 X48. Y20.817
N1255 X48.032 Y20.796
N1260 G2 X48.914 Y20.399 I-4.731 J-11.663
N1265 G3 X49.278 Y20.458 I0.141 J0.282
N1270 G1 X49.281 Y20.462
N1275 G2 X51.07 Y20.836 I1.179 J-1.176
N1280 G3 X52.859 Y21.209 I0.613 J1.533
N1285 G2 X53.637 Y21.994 I140.326 J-138.351
N1290 X54.117 Y22.417 I3.483 J-3.472
N1295 G3 X54.616 Y22.815 I-11.608 J15.054
N1300 X54.528 Y23.05 I-0.084 J0.102
N1305 G2 X50.383 Y23.024 I-2.693 J97.813
N1310 G3 X46.238 Y23.057 I-4.587 J-309.053
N1315 X45.769 Y22.73 I-0.001 J-0.499
N1320 G2 X45.152 Y21.325 I-11.354 J4.147
N1325 X44.376 Y20.002 I-12.634 J6.532
N1330 G3 X44.507 Y19.699 I0.164 J-0.109
N1335 G2 X46.453 Y19.23 I-2.497 J-14.636
N1340 X48.299 Y18.454 I-3.189 J-10.166
N1345 X48.745 Y18.198 I-4.101 J-7.649
N1350 G3 X49.186 Y17.932 I14.962 J24.324
N1355 X49.709 Y17.999 I0.219 J0.371
N1360 X51.673 Y19.996 I-139.548 J139.136
N1365 G2 X52.859 Y21.209 I141.512 J-137.138
N1370 G1 X52.897 Y21.256 Z-2.163
N1375 X52.926 Y21.31 Z-2.151
N1380 X52.942 Y21.358 Z-2.116
N1385 X52.95 Y21.409 Z-2.082
N1390 X52.948 Y21.478 Z-1.979
N1395 X52.944 Y21.502 Z-1.858
N1400 Z5.
N1405 X20.53 Y49.535
N1410 Z2.5 F666.67
N1415 Z-2.175
N1420 Y49.543 F2000.
N1425 X20.529 Y49.952
N1430 G3 X20.275 Y50.057 I-0.149 J0.
N1435 G1 X19.976 Y49.759
N1440 G3 X19.916 Y49.395 I0.223 J-0.223
N1445 G2 X20.315 Y48.511 I-11.264 J-5.614
N1450 G1 X20.336 Y48.479
N1455 X20.366 Y48.455
N1460 X20.402 Y48.443
N1465 X20.441
N1470 X20.477 Y48.457
N1475 X20.506 Y48.482
N1480 X20.525 Y48.516
N1485 X20.531 Y48.554
N1490 X20.53 Y49.528
N1495 Y49.532
N1500 Y49.535
N1505 G2 X21.55 Y51.07 I1.66 J0.002
N1510 G3 X22.571 Y52.604 I-0.641 J1.533
N1515 G1 X22.569 Y55.011
N1520 G3 X22.334 Y55.099 I-0.132 J0.004
N1525 G2 X19.985 Y52.587 I-21.372 J17.629
N1530 G3 X17.516 Y50.191 I87.622 J-92.777
N1535 X17.45 Y49.668 I0.304 J-0.305
N1540 G2 X18.304 Y48.018 I-14.329 J-8.468
N1545 X18.955 Y46.277 I-13.203 J-5.928
N1550 X19.106 Y45.636 I-5.066 J-1.531
N1555 G1 X19.217 Y44.988
N1560 G3 X19.52 Y44.857 I0.194 J0.033
N1565 G2 X20.843 Y45.634 I7.833 J-11.817
N1570 X22.248 Y46.251 I5.572 J-10.781
N1575 G3 X22.576 Y46.721 I-0.171 J0.469
N1580 G1 X22.571 Y52.604
N1585 X22.565 Y52.664 Z-2.163
N1590 X22.548 Y52.723 Z-2.151
N1595 X22.525 Y52.769 Z-2.116
N1600 X22.495 Y52.81 Z-2.082
N1605 X22.445 Y52.857 Z-1.979
N1610 X22.425 Y52.871 Z-1.858
N1615 Z5.
N1620 X-20.362 Y49.763
N1625 Z2.5 F666.67
N1630 Z-2.175
N1635 X-20.655 Y50.056 F2000.
N1640 G3 X-20.91 Y49.95 I-0.105 J-0.106
N1645 G1 X-20.912 Y48.557
N1650 X-20.905 Y48.519
N1655 X-20.886 Y48.486
N1660 X-20.857 Y48.46
N1665 X-20.821 Y48.447
N1670 X-20.783 Y48.446
N1675 X-20.747 Y48.458
N1680 X-20.716 Y48.482
N1685 X-20.696 Y48.515
N1690 G2 X-20.299 Y49.396 I11.663 J-4.73
N1695 G3 X-20.358 Y49.76 I-0.282 J0.141
N1700 G1 X-20.362 Y49.763
N1705 G2 X-20.736 Y51.552 I1.176 J1.179
N1710 G3 X-21.11 Y53.34 I-1.533 J0.613
N1715 G2 X-21.892 Y54.116 I137.837 J139.843
N1720 X-22.316 Y54.597 I3.479 J3.49
N1725 G3 X-22.715 Y55.098 I-15.635 J-12.058
N1730 X-22.95 Y55.01 I-0.102 J-0.084
N1735 G2 X-22.923 Y50.866 I-96.496 J-2.695
N1740 G3 X-22.957 Y46.722 I305.125 J-4.581
N1745 X-22.629 Y46.253 I0.499 J-0.001
N1750 G2 X-21.224 Y45.636 I-4.147 J-11.355
N1755 X-19.901 Y44.859 I-6.53 J-12.631
N1760 G3 X-19.598 Y44.99 I0.109 J0.164
N1765 G2 X-19.129 Y46.936 I14.639 J-2.498
N1770 X-18.353 Y48.782 I10.165 J-3.188
N1775 X-18.097 Y49.228 I7.643 J-4.098
N1780 G3 X-17.832 Y49.668 I-24.177 J14.87
N1785 X-17.898 Y50.191 I-0.371 J0.219
N1790 X-19.895 Y52.154 I-138.619 J-139.067
N1795 G2 X-21.11 Y53.34 I136.622 J141.029
N1800 G1 X-21.157 Y53.379 Z-2.163
N1805 X-21.21 Y53.408 Z-2.151
N1810 X-21.259 Y53.424 Z-2.116
N1815 X-21.31 Y53.432 Z-2.082
N1820 X-21.378 Y53.43 Z-1.979
N1825 X-21.402 Y53.426 Z-1.858
N1830 Z5.
N1835 X-49.664 Y20.462
N1840 Z2.5 F666.67
N1845 Z-2.175
N1850 X-49.66 Y20.458 F2000.
N1855 G3 X-49.296 Y20.399 I0.223 J0.223
N1860 G2 X-48.412 Y20.798 I5.615 J-11.264
N1865 G1 X-48.379 Y20.818
N1870 X-48.355 Y20.848
N1875 X-48.343 Y20.885
N1880 X-48.344 Y20.923
N1885 X-48.358 Y20.959
N1890 X-48.383 Y20.988
N1895 X-48.416 Y21.007
N1900 X-48.454 Y21.014
N1905 X-49.428 Y21.012
N1910 X-49.432
N1915 X-49.852
N1920 G3 X-49.958 Y20.757 I0. J-0.149
N1925 G1 X-49.664 Y20.462
N1930 G2 X-49.49 Y19.284 I-0.709 J-0.707
N1935 G3 X-48.656 Y18.434 I0.551 J-0.294
N1940 G2 X-47.918 Y18.787 I7.554 J-14.826
N1945 X-46.178 Y19.438 I5.931 J-13.207
N1950 X-45.536 Y19.589 I1.532 J-5.066
N1955 G1 X-44.888 Y19.699
N1960 G3 X-44.757 Y20.003 I-0.033 J0.194
N1965 G2 X-45.534 Y21.326 I11.82 J7.834
N1970 X-46.151 Y22.731 I10.781 J5.572
N1975 G3 X-46.621 Y23.059 I-0.469 J-0.171
N1980 G1 X-54.911 Y23.051
N1985 G3 X-54.999 Y22.816 I-0.004 J-0.133
N1990 G2 X-52.488 Y20.466 I-18.11 J-21.863
N1995 G3 X-50.092 Y17.999 I95.612 J90.474
N2000 X-49.568 Y17.932 I0.305 J0.304
N2005 G2 X-48.656 Y18.434 I8.467 J-14.324
N2010 G1 X-48.605 Y18.467 Z-2.163
N2015 X-48.562 Y18.51 Z-2.151
N2020 X-48.532 Y18.552 Z-2.116
N2025 X-48.51 Y18.598 Z-2.082
N2030 X-48.492 Y18.664 Z-1.979
N2035 X-48.489 Y18.688 Z-1.858
N2040 Z5.
N2045 X-49.436 Y-20.427
N2050 Z2.5 F666.67
N2055 Z-2.175
N2060 X-48.457 Y-20.429 F2000.
N2065 X-48.419 Y-20.422
N2070 X-48.386 Y-20.403
N2075 X-48.361 Y-20.374
N2080 X-48.347 Y-20.338
N2085 X-48.346 Y-20.3
N2090 X-48.359 Y-20.263
N2095 X-48.382 Y-20.233
N2100 X-48.415 Y-20.213
N2105 G2 X-49.296 Y-19.815 I4.731 J11.663
N2110 G3 X-49.66 Y-19.875 I-0.141 J-0.282
N2115 G1 X-49.668 Y-19.883
N2120 X-49.956 Y-20.172
N2125 G3 X-49.851 Y-20.427 I0.106 J-0.105
N2130 G1 X-49.436
N2135 G2 X-47.848 Y-21.522 I-0.002 J-1.702
N2140 G3 X-45.92 Y-21.558 I0.971 J0.371
N2145 G2 X-45.536 Y-20.741 I11.122 J-4.735
N2150 X-44.759 Y-19.419 I12.634 J-6.532
N2155 G3 X-44.89 Y-19.116 I-0.164 J0.109
N2160 G2 X-46.836 Y-18.646 I2.5 J14.642
N2165 X-48.681 Y-17.871 I3.189 J10.165
N2170 X-49.127 Y-17.614 I4.101 J7.649
N2175 G3 X-49.568 Y-17.349 I-14.954 J-24.312
N2180 X-50.091 Y-17.415 I-0.219 J-0.371
N2185 X-52.055 Y-19.413 I139.581 J-139.168
N2190 G2 X-54.019 Y-21.411 I-141.545 J137.171
N2195 X-54.498 Y-21.833 I-3.483 J3.472
N2200 G3 X-54.998 Y-22.232 I11.669 J-15.132
N2205 X-54.91 Y-22.466 I0.084 J-0.102
N2210 G2 X-50.766 Y-22.44 I2.691 J-98.263
N2215 G3 X-46.622 Y-22.474 I4.588 J310.396
N2220 X-46.152 Y-22.146 I0.001 J0.499
N2225 G2 X-45.92 Y-21.558 I11.354 J-4.147
N2230 G1 X-45.901 Y-21.5 Z-2.163
N2235 X-45.894 Y-21.44 Z-2.151
N2240 X-45.896 Y-21.389 Z-2.116
N2245 X-45.908 Y-21.338 Z-2.082
N2250 X-45.935 Y-21.275 Z-1.979
N2255 X-45.947 Y-21.255 Z-1.858
N2260 Z5.
N2265 X-20.362 Y-49.18
N2270 Z2.5 F666.67
N2275 Z-2.175
N2280 X-20.358 Y-49.176 F2000.
N2285 G3 X-20.299 Y-48.812 I-0.223 J0.223
N2290 G2 X-20.698 Y-47.928 I11.264 J5.614
N2295 G1 X-20.718 Y-47.895
N2300 X-20.748 Y-47.871
N2305 X-20.784 Y-47.859
N2310 X-20.823 Y-47.86
N2315 X-20.859 Y-47.874
N2320 X-20.888 Y-47.899
N2325 X-20.907 Y-47.932
N2330 X-20.913 Y-47.97
N2335 X-20.912 Y-48.944
N2340 X-20.911 Y-49.368
N2345 G3 X-20.657 Y-49.474 I0.149 J0.
N2350 G1 X-20.362 Y-49.18
N2355 G2 X-19.184 Y-49.006 I0.706 J-0.709
N2360 G3 X-18.333 Y-48.172 I0.294 J0.55
N2365 G2 X-18.686 Y-47.434 I14.83 J7.556
N2370 X-19.337 Y-45.694 I13.203 J5.928
N2375 X-19.488 Y-45.052 I5.066 J1.531
N2380 G1 X-19.599 Y-44.404
N2385 G3 X-19.902 Y-44.273 I-0.194 J-0.033
N2390 G2 X-21.225 Y-45.05 I-7.83 J11.815
N2395 X-22.631 Y-45.667 I-5.563 J10.766
N2400 G3 X-22.958 Y-46.137 I0.171 J-0.469
N2405 G1 X-22.951 Y-54.428
N2410 G3 X-22.717 Y-54.516 I0.132 J-0.004
N2415 G2 X-20.367 Y-52.003 I21.348 J-17.605
N2420 G3 X-17.898 Y-49.608 I-87.478 J92.634
N2425 X-17.832 Y-49.085 I-0.304 J0.305
N2430 G2 X-18.333 Y-48.172 I14.329 J8.468
N2435 G1 X-18.367 Y-48.122 Z-2.163
N2440 X-18.409 Y-48.079 Z-2.151
N2445 X-18.451 Y-48.049 Z-2.116
N2450 X-18.497 Y-48.026 Z-2.082
N2455 X-18.564 Y-48.008 Z-1.979
N2460 X-18.588 Y-48.006 Z-1.858
N2465 Z5.
N2470 X20.528 Y-48.952
N2475 Z2.5 F666.67
N2480 Z-2.175
N2485 X20.53 Y-47.974 F2000.
N2490 X20.523 Y-47.936
N2495 X20.504 Y-47.903
N2500 X20.475 Y-47.878
N2505 X20.439 Y-47.864
N2510 X20.401 Y-47.863
N2515 X20.364 Y-47.875
N2520 X20.334 Y-47.899
N2525 X20.314 Y-47.932
N2530 G2 X19.917 Y-48.812 I-11.663 J4.73
N2535 G3 X19.976 Y-49.176 I0.282 J-0.141
N2540 G1 X20.273 Y-49.472
N2545 G3 X20.528 Y-49.366 I0.105 J0.106
N2550 G1 Y-48.952
N2555 G2 X21.624 Y-47.364 I1.702 J-0.002
N2560 G3 X21.66 Y-45.436 I-0.371 J0.972
N2565 G2 X20.842 Y-45.051 I4.737 J11.133
N2570 X19.52 Y-44.274 I6.52 J12.617
N2575 G3 X19.216 Y-44.405 I-0.109 J-0.164
N2580 G2 X18.747 Y-46.353 I-14.635 J2.496
N2585 X17.971 Y-48.199 I-10.166 J3.188
N2590 X17.715 Y-48.644 I-7.642 J4.098
N2595 G3 X17.45 Y-49.084 I24.159 J-14.86
N2600 X17.516 Y-49.608 I0.371 J-0.219
N2605 X19.513 Y-51.57 I138.668 J139.116
N2610 G2 X21.511 Y-53.533 I-136.671 J-141.079
N2615 X21.934 Y-54.013 I-3.478 J-3.489
N2620 G3 X22.333 Y-54.514 I15.643 J12.064
N2625 X22.567 Y-54.426 I0.102 J0.084
N2630 G2 X22.541 Y-50.281 I96.311 J2.695
N2635 G3 X22.575 Y-46.137 I-304.575 J4.583
N2640 X22.247 Y-45.668 I-0.499 J0.001
N2645 G2 X21.66 Y-45.436 I4.15 J11.365
N2650 G1 X21.602 Y-45.417 Z-2.163
N2655 X21.542 Y-45.41 Z-2.151
N2660 X21.491 Y-45.412 Z-2.116
N2665 X21.441 Y-45.423 Z-2.082
N2670 X21.378 Y-45.45 Z-1.979
N2675 X21.357 Y-45.463 Z-1.858
N2680 Z5.
N2685 X103.091 Y-99.261
N2690 Z1. F666.67
N2695 Z-2.175 F2000.
N2700 X103.083 Y-99.27
N2705 G2 X99.279 Y-103.085 I-44.896 J40.97
N2710 G3 X99.237 Y-104.106 I0.487 J-0.531
N2715 X100.258 Y-104.142 I0.529 J0.49
N2720 G1 X102.105 Y-102.415
N2725 X102.158 Y-102.361
N2730 X102.204 Y-102.301
N2735 X102.244 Y-102.237
N2740 X103.615 Y-99.756
N2745 X103.651 Y-99.681
N2750 X103.679 Y-99.602
N2755 X103.696 Y-99.521
N2760 X104.348 Y-95.432
N2765 G3 X103.077 Y-94.863 I-0.712 J0.113
N2770 G2 X102.888 Y-95.094 I-46.916 J38.229
N2775 X94.878 Y-103.086 I-44.703 J36.795
N2780 G3 X94.789 Y-104.109 I0.455 J-0.555
N2785 X95.814 Y-104.174 I0.544 J0.468
N2790 G1 X100.095 Y-100.314
N2795 X100.151 Y-100.257
N2800 X100.201 Y-100.194
N2805 X103.634 Y-95.316
N2810 G3 X103.757 Y-95.005 I-0.587 J0.413
N2815 G1 X104.382 Y-90.638
N2820 G3 X103.087 Y-90.119 I-0.711 J0.102
N2825 G2 X100.672 Y-93.269 I-46.931 J33.49
N2830 X90.164 Y-103.081 I-42.488 J34.971
N2835 G3 X90.015 Y-104.1 I0.415 J-0.581
N2840 X91.04 Y-104.207 I0.564 J0.438
N2845 G1 X98.059 Y-98.275
N2850 X98.122 Y-98.214
N2855 X98.177 Y-98.147
N2860 X103.669 Y-90.534
N2865 G3 X103.798 Y-90.206 I-0.579 J0.418
N2870 G1 X104.406 Y-85.381
N2875 G3 X103.086 Y-84.923 I-0.708 J0.089
N2880 G2 X98.466 Y-91.454 I-46.935 J28.298
N2885 X84.949 Y-103.082 I-40.284 J33.157
N2890 G3 X84.728 Y-104.092 I0.364 J-0.609
N2895 X85.749 Y-104.252 I0.586 J0.401
N2900 G1 X95.999 Y-96.282
N2905 X96.053 Y-96.235
N2910 X96.102 Y-96.183
N2915 X96.146 Y-96.127
N2920 X103.694 Y-85.289
N2925 G3 X103.817 Y-84.96 I-0.582 J0.406
N2930 G1 X104.43 Y-79.319
N2935 G3 X103.084 Y-78.938 I-0.706 J0.077
N2940 G2 X96.274 Y-89.65 I-46.939 J22.318
N2945 X80.896 Y-102.093 I-38.094 J31.355
N2950 X78.875 Y-103.087 I-24.079 J46.425
N2955 G3 X78.561 Y-104.078 I0.298 J-0.64
N2960 X79.575 Y-104.306 I0.612 J0.351
N2965 G1 X93.912 Y-94.34
N2970 G3 X94.102 Y-94.143 I-0.403 J0.579
N2975 G1 X103.721 Y-79.24
N2980 G3 X103.831 Y-78.918 I-0.593 J0.383
N2985 G1 X104.46 Y-71.556
N2990 G3 X103.084 Y-71.284 I-0.703 J0.06
N2995 G1 X103.042 Y-71.415
N3000 G2 X94.096 Y-87.857 I-47.145 J14.999
N3005 X79.568 Y-99.603 I-35.917 J29.563
N3010 X70.936 Y-103.087 I-22.751 J43.939
N3015 G1 X70.924 Y-103.091
N3020 X70.856 Y-103.111 Z-2.167
N3025 X70.792 Y-103.13 Z-2.144
N3030 X70.734 Y-103.147 Z-2.106
N3035 X70.686 Y-103.161 Z-2.055
N3040 X70.649 Y-103.172 Z-1.995
N3045 X70.627 Y-103.179 Z-1.928
N3050 X70.619 Y-103.181 Z-1.857
N3055 Z5.
N3060 X103.089 Y-41.406
N3065 Z1. F666.67
N3070 Z-2.175 F2000.
N3075 X103.079 Y-41.414
N3080 G2 X102.311 Y-41.999 I-29.252 J37.59
N3085 G3 X102.036 Y-42.637 I0.416 J-0.557
N3090 G2 X102.383 Y-47.405 I-55.039 J-6.403
N3095 X102.221 Y-52.184 I-37.712 J-1.113
N3100 G3 X102.222 Y-53.073 I4.491 J-0.438
N3105 G2 X100.361 Y-70.598 I-43.503 J-4.242
N3110 X91.932 Y-86.076 I-44.466 J14.184
N3115 X78.249 Y-97.13 I-33.755 J27.784
N3120 X61.381 Y-102.118 I-21.432 J41.469
N3125 X53.139 Y-102.117 I-4.119 J41.933
N3130 G3 X52.706 Y-102.098 I-0.396 J-4.024
N3135 X52.273 Y-102.121 I0.046 J-4.938
N3140 G2 X47.501 Y-102.282 I-3.654 J37.526
N3145 X42.739 Y-101.935 I1.645 J55.475
N3150 G3 X42.102 Y-102.21 I-0.08 J-0.691
N3155 G2 X41.439 Y-103.078 I-38.136 J28.45
N3160 G1 X41.431 Y-103.088
N3165 X41.388 Y-103.143 Z-2.167
N3170 X41.346 Y-103.196 Z-2.144
N3175 X41.309 Y-103.243 Z-2.106
N3180 X41.278 Y-103.283 Z-2.055
N3185 X41.255 Y-103.313 Z-1.995
N3190 X41.241 Y-103.331 Z-1.928
N3195 X41.236 Y-103.338 Z-1.857
N3200 Z5.
N3205 X103.091 Y-37.85
N3210 Z1. F666.67
N3215 Z-2.175 F2000.
N3220 X103.081 Y-37.858
N3225 G2 X99.308 Y-40.734 I-29.388 J34.641
N3230 G3 X99.054 Y-41.322 I0.337 J-0.494
N3235 G2 X99.401 Y-52.506 I-43.692 J-6.953
N3240 G3 X99.411 Y-52.925 I1.762 J-0.172
N3245 G2 X99.46 Y-53.343 I-9.602 J-1.358
N3250 X97.707 Y-69.79 I-40.744 J-3.973
N3255 X89.789 Y-84.312 I-41.814 J13.378
N3260 X76.943 Y-94.682 I-31.615 J26.022
N3265 X61.109 Y-99.356 I-20.127 J39.024
N3270 X56.963 Y-99.53 I-3.626 J36.906
N3275 X52.819 Y-99.298 I0.695 J49.447
N3280 G3 X52.41 Y-99.309 I-0.161 J-1.637
N3285 G2 X52.004 Y-99.359 I-1.136 J7.442
N3290 X46.701 Y-99.494 I-3.59 J36.868
N3295 X41.425 Y-98.954 I2.202 J47.574
N3300 G3 X40.837 Y-99.208 I-0.094 J-0.591
N3305 G2 X37.881 Y-103.074 I-37.456 J25.568
N3310 G1 X37.873 Y-103.084
N3315 X37.827 Y-103.138 Z-2.167
N3320 X37.783 Y-103.189 Z-2.144
N3325 X37.744 Y-103.234 Z-2.106
N3330 X37.712 Y-103.273 Z-2.055
N3335 X37.687 Y-103.301 Z-1.995
N3340 X37.672 Y-103.319 Z-1.928
N3345 X37.667 Y-103.325 Z-1.857
N3350 Z5.
N3355 X103.088 Y-34.177
N3360 Z1. F666.67
N3365 Z-2.175 F2000.
N3370 X103.079 Y-34.186
N3375 G2 X101.476 Y-35.646 I-25.264 J26.126
N3380 X96.256 Y-39.448 I-26.466 J30.857
N3385 G3 X96.024 Y-39.986 I0.266 J-0.434
N3390 G2 X96.675 Y-52.239 I-39.197 J-8.229
N3395 G3 X96.671 Y-52.925 I3.73 J-0.364
N3400 X96.734 Y-53.608 I60.847 J5.244
N3405 G2 X95.086 Y-68.991 I-38.021 J-3.707
N3410 X87.674 Y-82.571 I-39.197 J12.582
N3415 X75.654 Y-92.265 I-29.503 J24.283
N3420 X60.842 Y-96.63 I-18.838 J36.611
N3425 X56.963 Y-96.791 I-3.362 J34.225
N3430 X53.087 Y-96.572 I0.703 J46.79
N3435 G3 X52.412 Y-96.569 I-0.35 J-3.556
N3440 X51.739 Y-96.633 I11.028 J-120.227
N3445 G2 X45.887 Y-96.722 I-3.465 J35.587
N3450 X40.088 Y-95.923 I2.793 J41.748
N3455 G3 X39.55 Y-96.155 I-0.104 J-0.498
N3460 G2 X35.509 Y-101.611 I-33.058 J20.261
N3465 X34.14 Y-103.083 I-31.051 J27.52
N3470 G1 X34.131 Y-103.092
N3475 X34.082 Y-103.142 Z-2.167
N3480 X34.035 Y-103.19 Z-2.144
N3485 X33.993 Y-103.233 Z-2.106
N3490 X33.958 Y-103.269 Z-2.055
N3495 X33.931 Y-103.296 Z-1.995
N3500 X33.915 Y-103.313 Z-1.928
N3505 X33.909 Y-103.319 Z-1.857
N3510 Z5.
N3515 X103.095 Y-30.267
N3520 Z1. F666.67
N3525 Z-2.175 F2000.
N3530 X103.079 Y-30.286
N3535 G2 X98.951 Y-34.256 I-25.666 J22.553
N3540 X93.137 Y-38.132 I-23.446 J28.873
N3545 G3 X92.926 Y-38.624 I0.204 J-0.379
N3550 G2 X94.066 Y-45.252 I-34.321 J-9.317
N3555 X93.994 Y-51.978 I-38.814 J-2.943
N3560 G3 X93.977 Y-52.925 I5.919 J-0.578
N3565 X94.052 Y-53.87 I27.022 J1.683
N3570 G2 X92.509 Y-68.206 I-35.344 J-3.446
N3575 X85.594 Y-80.859 I-36.623 J11.8
N3580 X74.386 Y-89.888 I-27.425 J22.574
N3585 X60.578 Y-93.948 I-17.57 J34.238
N3590 X56.963 Y-94.096 I-3.104 J31.594
N3595 X53.351 Y-93.89 I0.712 J44.19
N3600 G3 X52.413 Y-93.875 I-0.561 J-5.71
N3605 X51.478 Y-93.951 I1.968 J-29.892
N3610 G2 X45.051 Y-93.967 I-3.297 J33.865
N3615 X38.726 Y-92.826 I3.424 J37.069
N3620 G3 X38.234 Y-93.037 I-0.113 J-0.416
N3625 G2 X34.335 Y-98.878 I-32.872 J17.719
N3630 X30.269 Y-103.083 I-26.456 J21.512
N3635 G1 X30.26 Y-103.092
N3640 X30.206 Y-103.138 Z-2.167
N3645 X30.156 Y-103.182 Z-2.144
N3650 X30.11 Y-103.222 Z-2.106
N3655 X30.072 Y-103.255 Z-2.055
N3660 X30.044 Y-103.279 Z-1.995
N3665 X30.026 Y-103.295 Z-1.928
N3670 X30.02 Y-103.3 Z-1.857
N3675 Z5.
N3680 X103.088 Y-26.32
N3685 Z1. F666.67
N3690 Z-2.175 F2000.
N3695 X103.079 Y-26.328
N3700 G3 X102.795 Y-26.581 I10.328 J-11.867
N3705 X102.219 Y-27.19 I3.862 J-4.226
N3710 G2 X97.519 Y-32.004 I-29.142 J23.755
N3715 X91.969 Y-35.807 I-20.497 J23.959
N3720 X90.944 Y-36.324 I-10.279 J19.091
N3725 G1 X89.946 Y-36.795
N3730 G3 X89.752 Y-37.246 I0.158 J-0.336
N3735 G2 X90.754 Y-40.814 I-42.396 J-13.832
N3740 X91.361 Y-44.469 I-26.697 J-6.314
N3745 X91.36 Y-51.721 I-37.18 J-3.62
N3750 X91.299 Y-52.171 I-5.817 J0.568
N3755 G3 X91.259 Y-52.623 I2.557 J-0.452
N3760 X91.321 Y-53.377 I4.63 J0.001
N3765 G2 X91.419 Y-54.127 I-11.235 J-1.855
N3770 X89.978 Y-67.435 I-32.715 J-3.19
N3775 X83.551 Y-79.178 I-34.096 J11.032
N3780 X73.141 Y-87.553 I-25.386 J20.895
N3785 X60.32 Y-91.315 I-16.325 J31.909
N3790 X56.963 Y-91.451 I-2.851 J29.016
N3795 X53.61 Y-91.257 I0.723 J41.656
N3800 X53.17 Y-91.197 I0.561 J5.71
N3805 G3 X52.728 Y-91.158 I-0.442 J-2.495
N3810 X51.972 Y-91.22 I0. J-4.641
N3815 G2 X51.221 Y-91.318 I-1.856 J11.251
N3820 X44.518 Y-91.242 I-3.005 J30.859
N3825 X37.957 Y-89.864 I4.577 J38.093
N3830 X37.652 Y-89.759 I1.287 J4.242
N3835 G3 X37.348 Y-89.652 I-2.222 J-5.774
N3840 X36.897 Y-89.846 I-0.115 J-0.353
N3845 G2 X32.097 Y-97.43 I-32.919 J15.526
N3850 X29.785 Y-99.916 I-22.484 J18.588
N3855 X27.24 Y-102.161 I-28.715 J29.998
N3860 G3 X26.642 Y-102.732 I3.198 J-3.94
N3865 X26.337 Y-103.083 I16.441 J-14.592
N3870 G1 X26.329 Y-103.093
N3875 X26.283 Y-103.147 Z-2.167
N3880 X26.24 Y-103.198 Z-2.144
N3885 X26.201 Y-103.244 Z-2.106
N3890 X26.168 Y-103.282 Z-2.055
N3895 X26.144 Y-103.311 Z-1.995
N3900 X26.129 Y-103.329 Z-1.928
N3905 X26.123 Y-103.335 Z-1.857
N3910 Z5.
N3915 X103.096 Y-22.897
N3920 Z1. F666.67
N3925 Z-2.175 F2000.
N3930 X103.078 Y-22.914
N3935 G2 X101.791 Y-24.035 I-19.661 J21.275
N3940 X101.267 Y-24.436 I-6.413 J7.817
N3945 G3 X100.765 Y-24.864 I2.291 J-3.197
N3950 X100.29 Y-25.429 I3.195 J-3.168
N3955 G2 X99.843 Y-26.017 I-8.983 J6.371
N3960 X93.86 Y-31.586 I-23.142 J18.864
N3965 X86.626 Y-35.394 I-18.453 J26.277
N3970 G3 X86.455 Y-35.793 I0.105 J-0.282
N3975 G2 X88.6 Y-43.485 I-28.968 J-12.226
N3980 X88.789 Y-51.47 I-32.736 J-4.77
N3985 X88.707 Y-52.045 I-6.486 J0.633
N3990 G3 X88.653 Y-52.624 I3.064 J-0.578
N3995 X88.729 Y-53.503 I5.115 J0.001
N4000 G2 X88.848 Y-54.377 I-11.491 J-2.007
N4005 X87.507 Y-66.682 I-30.149 J-2.94
N4010 X81.557 Y-77.536 I-31.63 J10.283
N4015 X71.925 Y-85.274 I-23.395 J19.257
N4020 X60.067 Y-88.745 I-15.11 J29.636
N4025 X56.963 Y-88.868 I-2.604 J26.508
N4030 X53.863 Y-88.686 I0.735 J39.203
N4035 X53.297 Y-88.605 I0.63 J6.405
N4040 G3 X52.727 Y-88.552 I-0.569 J-3.01
N4045 X51.847 Y-88.628 I0. J-5.125
N4050 G2 X50.971 Y-88.747 I-2.007 J11.503
N4055 X43.283 Y-88.491 I-2.867 J29.44
N4060 X35.894 Y-86.354 I5.337 J32.305
N4065 G3 X35.495 Y-86.526 I-0.117 J-0.277
N4070 G2 X31.466 Y-94.002 I-28.995 J10.804
N4075 X25.612 Y-100.155 I-26.737 J19.577
N4080 X25.282 Y-100.402 I-3.315 J4.084
N4085 G3 X24.965 Y-100.665 I1.318 J-1.912
N4090 X24.524 Y-101.182 I2.864 J-2.888
N4095 G2 X24.11 Y-101.72 I-8.395 J6.026
N4100 X22.925 Y-103.077 I-23.398 J19.244
N4105 G1 X22.916 Y-103.086
N4110 X22.868 Y-103.138 Z-2.167
N4115 X22.823 Y-103.187 Z-2.144
N4120 X22.782 Y-103.231 Z-2.106
N4125 X22.747 Y-103.268 Z-2.055
N4130 X22.722 Y-103.296 Z-1.995
N4135 X22.706 Y-103.313 Z-1.928
N4140 X22.7 Y-103.319 Z-1.857
N4145 Z5.
N4150 X103.095 Y-19.36
N4155 Z1. F666.67
N4160 Z-2.175 F2000.
N4165 X103.086 Y-19.369
N4170 G2 X100.213 Y-22.112 I-19.682 J17.747
N4175 X99.585 Y-22.589 I-6.692 J8.157
N4180 G3 X98.983 Y-23.097 I2.558 J-3.641
N4185 X98.433 Y-23.758 I3.514 J-3.484
N4190 G2 X97.915 Y-24.445 I-9.198 J6.389
N4195 X93.831 Y-28.473 I-20.542 J16.745
N4200 X89.04 Y-31.625 I-20.249 J25.557
N4205 X86.693 Y-32.728 I-11.282 J20.955
N4210 X84.249 Y-33.594 I-10.939 J27.003
N4215 X83.956 Y-33.673 I-1.415 J4.642
N4220 G3 X83.663 Y-33.753 I1.14 J-4.79
N4225 X83.363 Y-34.189 I0.124 J-0.406
N4230 G2 X83.404 Y-34.925 I-26.101 J-1.836
N4235 G3 X83.508 Y-35.329 I1.007 J0.042
N4240 G2 X85.404 Y-40.31 I-25.005 J-12.373
N4245 X86.372 Y-45.55 I-30.061 J-8.262
N4250 X86.461 Y-48.389 I-21.481 J-2.092
N4255 X86.273 Y-51.224 I-45.312 J1.571
N4260 G1 X86.264 Y-51.295
N4265 X86.255 Y-51.366
N4270 G3 Y-53.882 I12.183 J-1.257
N4275 X86.303 Y-54.251 I7.121 J0.736
N4280 G2 X86.351 Y-54.621 I-5.776 J-0.937
N4285 X85.117 Y-65.956 I-27.786 J-2.709
N4290 X79.636 Y-75.955 I-29.124 J9.461
N4295 X70.754 Y-83.08 I-21.479 J17.679
N4300 X59.824 Y-86.269 I-13.94 J27.448
N4305 X57.261 Y-86.383 I-2.352 J23.939
N4310 X54.699 Y-86.247 I0.252 J28.764
N4315 X54.342 Y-86.2 I0.556 J5.658
N4320 G3 X53.985 Y-86.153 I-1.045 J-6.621
N4325 X51.469 Y-86.154 I-1.257 J-12.186
N4330 X51.098 Y-86.202 I0.74 J-7.165
N4335 G2 X50.728 Y-86.25 I-0.939 J5.791
N4340 X42.879 Y-85.899 I-2.696 J27.688
N4345 X35.428 Y-83.406 I5.345 J28.357
N4350 G3 X35.023 Y-83.303 I-0.447 J-0.903
N4355 G2 X34.291 Y-83.261 I1.107 J26.142
N4360 G3 X33.855 Y-83.561 I-0.03 J-0.423
N4365 X33.768 Y-83.881 I5.516 J-1.676
N4370 G2 X33.681 Y-84.2 I-5.133 J1.228
N4375 X29.907 Y-91.93 I-26.362 J8.086
N4380 X24.044 Y-98.224 I-25.411 J17.791
N4385 X23.613 Y-98.543 I-3.734 J4.601
N4390 G3 X23.197 Y-98.883 I1.577 J-2.35
N4395 X22.677 Y-99.499 I3.216 J-3.244
N4400 G2 X22.189 Y-100.14 I-8.76 J6.162
N4405 X19.382 Y-103.085 I-21.481 J17.668
N4410 G1 X19.372 Y-103.093
N4415 X19.32 Y-103.141 Z-2.167
N4420 X19.27 Y-103.186 Z-2.144
N4425 X19.226 Y-103.226 Z-2.106
N4430 X19.188 Y-103.26 Z-2.055
N4435 X19.16 Y-103.285 Z-1.995
N4440 X19.143 Y-103.301 Z-1.928
N4445 X19.137 Y-103.306 Z-1.857
N4450 Z5.
N4455 X-99.63 Y-103.095
N4460 Z1. F666.67
N4465 Z-2.175 F2000.
N4470 X-99.639 Y-103.087
N4475 G2 X-103.086 Y-99.698 I40.857 J45.004
N4480 G3 X-104.105 Y-99.667 I-0.525 J-0.494
N4485 X-104.135 Y-100.687 I0.494 J-0.525
N4490 G1 X-102.603 Y-102.308
N4495 X-102.543 Y-102.364
N4500 X-102.478 Y-102.413
N4505 X-102.407 Y-102.455
N4510 X-100.123 Y-103.62
N4515 X-100.055 Y-103.651
N4520 X-99.984 Y-103.674
N4525 X-99.91 Y-103.69
N4530 X-95.786 Y-104.353
N4535 G3 X-95.218 Y-103.082 I0.114 J0.712
N4540 G2 X-95.566 Y-102.798 I38.098 J47.02
N4545 X-103.084 Y-95.363 I36.784 J44.716
N4550 G3 X-104.107 Y-95.286 I-0.549 J-0.462
N4555 X-104.161 Y-96.311 I0.474 J-0.539
N4560 G1 X-100.462 Y-100.329
N4565 X-100.404 Y-100.385
N4570 X-100.34 Y-100.434
N4575 X-95.67 Y-103.639
N4580 G3 X-95.364 Y-103.758 I0.406 J0.592
N4585 G1 X-90.987 Y-104.377
N4590 G3 X-90.471 Y-103.08 I0.1 J0.711
N4595 G2 X-93.742 Y-100.58 I33.356 J47.024
N4600 X-103.078 Y-90.734 I34.962 J42.501
N4605 G3 X-104.099 Y-90.6 I-0.575 J-0.424
N4610 X-104.192 Y-91.626 I0.446 J-0.558
N4615 G1 X-98.396 Y-98.319
N4620 X-98.336 Y-98.38
N4625 X-98.269 Y-98.434
N4630 X-90.884 Y-103.663
N4635 G3 X-90.562 Y-103.789 I0.413 J0.583
N4640 G1 X-85.695 Y-104.407
N4645 G3 X-85.238 Y-103.086 I0.09 J0.708
N4650 G2 X-91.927 Y-98.375 I28.127 J47.035
N4655 X-103.081 Y-85.645 I33.148 J40.296
N4660 G3 X-104.093 Y-85.441 I-0.603 J-0.375
N4665 X-104.237 Y-86.464 I0.41 J-0.579
N4670 G1 X-96.351 Y-96.31
N4675 X-96.28 Y-96.387
N4680 X-96.198 Y-96.452
N4685 X-85.602 Y-103.695
N4690 G3 X-85.278 Y-103.815 I0.401 J0.586
N4695 G1 X-79.591 Y-104.429
N4700 G3 X-79.213 Y-103.081 I0.076 J0.706
N4705 G2 X-90.123 Y-96.182 I22.106 J47.036
N4710 X-102.581 Y-80.789 I31.346 J38.105
N4715 X-103.081 Y-79.799 I46.423 J24.071
N4720 G1 X-103.086 Y-79.788
N4725 X-103.117 Y-79.725 Z-2.167
N4730 X-103.147 Y-79.664 Z-2.144
N4735 X-103.174 Y-79.61 Z-2.106
N4740 X-103.196 Y-79.565 Z-2.055
N4745 X-103.213 Y-79.531 Z-1.995
N4750 X-103.223 Y-79.51 Z-1.928
N4755 X-103.226 Y-79.503 Z-1.857
N4760 Z5.
N4765 X-71.42 Y-103.091
N4770 Z1. F666.67
N4775 Z-2.175 F2000.
N4780 X-71.443 Y-103.083
N4785 G2 X-71.877 Y-102.948 I13.645 J44.464
N4790 X-88.331 Y-94.003 I14.975 J47.151
N4795 X-100.091 Y-79.461 I29.555 J35.928
N4800 X-103.084 Y-72.382 I43.936 J22.744
N4805 G1 X-103.087 Y-72.37
N4810 X-103.11 Y-72.303 Z-2.167
N4815 X-103.131 Y-72.239 Z-2.144
N4820 X-103.15 Y-72.182 Z-2.106
N4825 X-103.166 Y-72.134 Z-2.055
N4830 X-103.178 Y-72.098 Z-1.995
N4835 X-103.185 Y-72.076 Z-1.928
N4840 X-103.188 Y-72.069 Z-1.857
N4845 Z5.
N4850 X-41.808 Y-103.095
N4855 Z1. F666.67
N4860 Z-2.175 F2000.
N4865 X-41.823 Y-103.075
N4870 G2 X-42.484 Y-102.21 I37.496 J29.332
N4875 G3 X-43.122 Y-101.935 I-0.557 J-0.416
N4880 G2 X-47.89 Y-102.282 I-6.401 J55.049
N4885 X-52.667 Y-102.12 I-1.112 J37.708
N4890 G3 X-53.096 Y-102.098 I-0.457 J-4.685
N4895 X-53.525 Y-102.118 I-0.025 J-4.132
N4900 G2 X-71.061 Y-100.266 I-4.274 J43.501
N4905 X-86.55 Y-91.838 I14.161 J44.472
N4910 X-97.618 Y-78.143 I27.776 J33.766
N4915 X-102.605 Y-61.255 I41.466 J21.425
N4920 X-102.6 Y-53.016 I41.936 J4.096
N4925 G3 X-102.582 Y-52.591 I-3.764 J0.372
N4930 X-102.606 Y-52.165 I-5.15 J-0.073
N4935 G2 X-102.766 Y-47.395 I37.534 J3.648
N4940 X-102.419 Y-42.635 I55.463 J-1.651
N4945 G3 X-102.694 Y-41.997 I-0.691 J0.08
N4950 G2 X-103.081 Y-41.705 I30.64 J41.063
N4955 G1 X-103.091 Y-41.698
N4960 X-103.148 Y-41.655 Z-2.167
N4965 X-103.201 Y-41.615 Z-2.144
N4970 X-103.249 Y-41.578 Z-2.106
N4975 X-103.289 Y-41.548 Z-2.055
N4980 X-103.319 Y-41.525 Z-1.995
N4985 X-103.338 Y-41.511 Z-1.928
N4990 X-103.344 Y-41.506 Z-1.857
N4995 Z5.
N5000 X-38.249 Y-103.092
N5005 Z1. F666.67
N5010 Z-2.175 F2000.
N5015 X-38.257 Y-103.082
N5020 G2 X-41.219 Y-99.208 I34.519 J29.462
N5025 G3 X-41.807 Y-98.954 I-0.494 J-0.337
N5030 G2 X-52.989 Y-99.301 I-6.951 J43.694
N5035 G3 X-53.394 Y-99.309 I-0.169 J-1.728
N5040 G2 X-53.796 Y-99.356 I-1.427 J10.378
N5045 X-70.254 Y-97.612 I-4.003 J40.743
N5050 X-84.787 Y-89.695 I13.356 J41.82
N5055 X-95.169 Y-76.837 I26.015 J31.625
N5060 X-99.843 Y-60.985 I39.021 J20.12
N5065 X-100.015 Y-56.84 I36.91 J3.605
N5070 X-99.78 Y-52.699 I49.434 J-0.719
N5075 G3 X-99.793 Y-52.296 I-1.561 J0.154
N5080 G2 X-99.844 Y-51.897 I6.405 J1.027
N5085 X-99.978 Y-46.596 I36.875 J3.584
N5090 X-99.438 Y-41.321 I47.565 J-2.206
N5095 G3 X-99.691 Y-40.733 I-0.591 J0.094
N5100 G2 X-103.08 Y-38.178 I25.603 J37.498
N5105 G1 X-103.09 Y-38.17
N5110 X-103.144 Y-38.125 Z-2.167
N5115 X-103.196 Y-38.082 Z-2.144
N5120 X-103.242 Y-38.044 Z-2.106
N5125 X-103.281 Y-38.012 Z-2.055
N5130 X-103.31 Y-37.988 Z-1.995
N5135 X-103.328 Y-37.973 Z-1.928
N5140 X-103.334 Y-37.968 Z-1.857
N5145 Z5.
N5150 X-34.564 Y-103.089
N5155 Z1. F666.67
N5160 Z-2.175 F2000.
N5165 X-34.572 Y-103.08
N5170 G2 X-36.113 Y-101.396 I26.018 J25.355
N5175 X-39.933 Y-96.155 I30.823 J26.475
N5180 G3 X-40.471 Y-95.923 I-0.434 J-0.266
N5185 G2 X-52.722 Y-96.574 I-8.227 J39.199
N5190 G3 X-53.395 Y-96.569 I-0.364 J-3.727
N5195 X-54.064 Y-96.63 I3.579 J-43.309
N5200 G2 X-69.457 Y-94.991 I-3.735 J38.02
N5205 X-83.047 Y-87.58 I12.561 J39.202
N5210 X-92.752 Y-75.548 I24.277 J29.512
N5215 X-97.117 Y-60.719 I36.608 J18.831
N5220 X-97.275 Y-56.842 I34.229 J3.343
N5225 X-97.054 Y-52.968 I46.777 J-0.726
N5230 G3 Y-52.287 I-3.475 J0.343
N5235 G1 X-97.118 Y-51.632
N5240 G2 X-97.205 Y-45.781 I35.593 J3.46
N5245 X-96.407 Y-39.985 I41.742 J-2.797
N5250 G3 X-96.639 Y-39.446 I-0.498 J0.105
N5255 G2 X-102.068 Y-35.428 I20.273 J33.069
N5260 X-103.078 Y-34.505 I27.523 J31.11
N5265 G1 X-103.087 Y-34.496
N5270 X-103.138 Y-34.447 Z-2.167
N5275 X-103.187 Y-34.401 Z-2.144
N5280 X-103.231 Y-34.36 Z-2.106
N5285 X-103.268 Y-34.325 Z-2.055
N5290 X-103.295 Y-34.299 Z-1.995
N5295 X-103.312 Y-34.283 Z-1.928
N5300 X-103.318 Y-34.278 Z-1.857
N5305 Z5.
N5310 X-30.645 Y-103.089
N5315 Z1. F666.67
N5320 Z-2.175 F2000.
N5325 X-30.655 Y-103.081
N5330 G2 X-34.726 Y-98.871 I22.444 J25.779
N5335 X-38.617 Y-93.037 I28.757 J23.393
N5340 G3 X-39.108 Y-92.826 I-0.379 J-0.204
N5345 G2 X-45.736 Y-93.966 I-9.316 J34.322
N5350 X-52.461 Y-93.893 I-2.942 J38.814
N5355 G3 X-53.396 Y-93.875 I-0.58 J-5.946
N5360 X-54.328 Y-93.948 I1.438 J-24.205
N5365 G2 X-68.673 Y-92.413 I-3.472 J35.343
N5370 X-81.336 Y-85.499 I11.78 J36.628
N5375 X-90.375 Y-74.28 I22.568 J27.435
N5380 X-94.435 Y-60.457 I34.235 J17.564
N5385 X-94.581 Y-56.844 I31.597 J3.086
N5390 X-94.373 Y-53.233 I44.177 J-0.734
N5395 G3 X-94.359 Y-52.301 I-5.576 J0.551
N5400 X-94.436 Y-51.371 I-32.366 J-2.209
N5405 G2 X-94.451 Y-44.946 I33.87 J3.292
N5410 X-93.309 Y-38.623 I37.064 J-3.427
N5415 G3 X-93.521 Y-38.13 I-0.416 J0.113
N5420 G2 X-99.335 Y-34.252 I17.758 J32.922
N5425 X-103.084 Y-30.707 I21.493 J26.481
N5430 G1 X-103.092 Y-30.698
N5435 X-103.14 Y-30.646 Z-2.167
N5440 X-103.185 Y-30.596 Z-2.144
N5445 X-103.225 Y-30.551 Z-2.106
N5450 X-103.259 Y-30.514 Z-2.055
N5455 X-103.284 Y-30.486 Z-1.995
N5460 X-103.3 Y-30.469 Z-1.928
N5465 X-103.306 Y-30.463 Z-1.857
N5470 Z5.
N5475 X-26.711 Y-103.094
N5480 Z1. F666.67
N5485 Z-2.175 F2000.
N5490 X-26.719 Y-103.084
N5495 G3 X-27.047 Y-102.71 I-13.301 J-11.326
N5500 X-27.64 Y-102.147 I-3.931 J-3.545
N5505 G2 X-32.478 Y-97.431 I23.667 J29.125
N5510 X-36.298 Y-91.858 I23.953 J20.51
N5515 X-36.803 Y-90.855 I18.793 J10.107
N5520 G1 X-37.28 Y-89.846
N5525 G3 X-37.73 Y-89.652 I-0.336 J-0.158
N5530 G2 X-41.297 Y-90.653 I-13.837 J42.419
N5535 X-44.952 Y-91.261 I-6.313 J26.69
N5540 X-52.204 Y-91.259 I-3.62 J37.18
N5545 X-52.656 Y-91.198 I0.57 J5.839
N5550 G3 X-53.11 Y-91.158 I-0.455 J-2.57
N5555 X-53.85 Y-91.218 I0. J-4.531
N5560 G2 X-54.586 Y-91.315 I-1.835 J11.086
N5565 X-67.903 Y-89.882 I-3.214 J32.714
N5570 X-79.655 Y-83.456 I11.014 J34.1
N5575 X-88.04 Y-73.035 I20.89 J25.395
N5580 X-91.802 Y-60.2 I31.906 J16.319
N5585 X-91.935 Y-56.845 I29.02 J2.835
N5590 X-91.74 Y-53.493 I41.642 J-0.743
N5595 X-91.68 Y-53.06 I5.638 J-0.557
N5600 G3 X-91.642 Y-52.624 I-2.454 J0.436
N5605 X-91.704 Y-51.868 I-4.652 J0.
N5610 G2 X-91.802 Y-51.115 I11.268 J1.857
N5615 X-91.727 Y-44.418 I30.866 J3.
N5620 X-90.351 Y-37.862 I38.091 J-4.574
N5625 X-90.244 Y-37.553 I4.291 J-1.301
N5630 G3 X-90.135 Y-37.245 I-5.868 J2.257
N5635 X-90.33 Y-36.794 I-0.353 J0.115
N5640 G2 X-97.92 Y-31.987 I15.539 J32.93
N5645 X-100.381 Y-29.7 I18.585 J22.466
N5650 X-102.606 Y-27.183 I30.066 J28.827
N5655 G3 X-103.087 Y-26.664 I-4.362 J-3.554
N5660 G1 X-103.096 Y-26.655
N5665 X-103.147 Y-26.606 Z-2.167
N5670 X-103.196 Y-26.56 Z-2.144
N5675 X-103.239 Y-26.518 Z-2.106
N5680 X-103.276 Y-26.484 Z-2.055
N5685 X-103.303 Y-26.458 Z-1.995
N5690 X-103.32 Y-26.441 Z-1.928
N5695 X-103.326 Y-26.436 Z-1.857
N5700 Z5.
N5705 X-23.286 Y-103.096
N5710 Z1. F666.67
N5715 Z-2.175 F2000.
N5720 X-23.303 Y-103.078
N5725 G2 X-24.517 Y-101.691 I21.179 J19.76
N5730 X-24.918 Y-101.168 I7.805 J6.404
N5735 G3 X-25.346 Y-100.667 I-3.191 J-2.286
N5740 X-25.896 Y-100.205 I-3.067 J-3.094
N5745 G2 X-26.469 Y-99.77 I6.23 J8.805
N5750 X-32.059 Y-93.777 I18.813 J23.151
N5755 X-35.878 Y-86.526 I26.259 J18.463
N5760 G3 X-36.277 Y-86.354 I-0.282 J-0.105
N5765 G2 X-43.969 Y-88.5 I-12.226 J28.97
N5770 X-51.953 Y-88.689 I-4.769 J32.734
N5775 X-52.53 Y-88.606 I0.635 J6.503
N5780 G3 X-53.11 Y-88.552 I-0.581 J-3.076
N5785 X-53.977 Y-88.627 I0. J-5.027
N5790 G2 X-54.839 Y-88.745 I-1.992 J11.383
N5795 X-67.152 Y-87.41 I-2.962 J30.148
N5800 X-78.014 Y-81.461 I10.266 J31.634
N5805 X-85.761 Y-71.82 I19.252 J23.404
N5810 X-89.231 Y-59.949 I29.632 J15.105
N5815 X-89.352 Y-56.846 I26.511 J2.589
N5820 X-89.17 Y-53.747 I39.189 J-0.755
N5825 X-89.089 Y-53.187 I6.35 J-0.627
N5830 G3 X-89.036 Y-52.624 I-2.973 J0.563
N5835 X-89.113 Y-51.742 I-5.134 J0.
N5840 G2 X-89.232 Y-50.865 I11.516 J2.008
N5845 X-88.974 Y-43.179 I29.445 J2.862
N5850 X-86.838 Y-35.792 I32.3 J-5.338
N5855 G3 X-87.01 Y-35.393 I-0.277 J0.117
N5860 G2 X-94.463 Y-31.378 I10.814 J29.002
N5865 X-100.604 Y-25.552 I19.581 J26.785
N5870 X-100.866 Y-25.202 I4.281 J3.488
N5875 G3 X-101.146 Y-24.865 I-2.039 J-1.408
N5880 X-101.663 Y-24.424 I-2.891 J-2.867
N5885 G2 X-102.201 Y-24.01 I6.03 J8.401
N5890 X-103.084 Y-23.256 I19.243 J23.399
N5895 G1 X-103.093 Y-23.248
N5900 X-103.146 Y-23.201 Z-2.167
N5905 X-103.196 Y-23.156 Z-2.144
N5910 X-103.241 Y-23.116 Z-2.106
N5915 X-103.279 Y-23.083 Z-2.055
N5920 X-103.307 Y-23.058 Z-1.995
N5925 X-103.324 Y-23.042 Z-1.928
N5930 X-103.33 Y-23.037 Z-1.857
N5935 Z5.
N5940 X-19.732 Y-103.094
N5945 Z1. F666.67
N5950 Z-2.175 F2000.
N5955 X-19.75 Y-103.077
N5960 G2 X-22.594 Y-100.113 I17.642 J19.772
N5965 X-23.071 Y-99.486 I8.148 J6.685
N5970 G3 X-23.579 Y-98.884 I-3.636 J-2.554
N5975 X-24.227 Y-98.346 I-3.394 J-3.425
N5980 G2 X-24.9 Y-97.84 I6.284 J9.067
N5985 X-28.948 Y-93.744 I16.704 J20.556
N5990 X-32.113 Y-88.933 I25.506 J20.231
N5995 X-33.211 Y-86.597 I20.98 J11.283
N6000 X-34.074 Y-84.163 I26.971 J10.93
N6005 X-34.155 Y-83.863 I4.768 J1.455
N6010 G3 X-34.237 Y-83.562 I-5.035 J-1.205
N6015 X-34.673 Y-83.262 I-0.406 J-0.123
N6020 G2 X-35.407 Y-83.303 I-1.838 J26.101
N6025 G3 X-35.812 Y-83.407 I0.042 J-1.007
N6030 G2 X-40.792 Y-85.303 I-12.375 J25.006
N6035 X-46.033 Y-86.271 I-8.262 J30.058
N6040 X-48.872 Y-86.36 I-2.092 J21.486
N6045 X-51.707 Y-86.173 I1.569 J45.288
N6050 G1 X-51.779 Y-86.163
N6055 X-51.852 Y-86.154
N6060 G3 X-54.368 I-1.259 J-12.19
N6065 X-54.726 Y-86.2 I0.692 J-6.705
N6070 G2 X-55.084 Y-86.247 I-0.915 J5.624
N6075 X-66.427 Y-85.019 I-2.73 J27.79
N6080 X-76.433 Y-79.54 I9.443 J29.123
N6085 X-83.566 Y-70.65 I17.675 J21.487
N6090 X-86.755 Y-59.707 I27.444 J13.935
N6095 X-86.868 Y-57.145 I23.905 J2.335
N6100 X-86.73 Y-54.584 I28.814 J-0.272
N6105 X-86.684 Y-54.233 I5.572 J-0.55
N6110 G3 X-86.638 Y-53.883 I-6.415 J1.018
N6115 Y-51.366 I-12.19 J1.258
N6120 X-86.686 Y-50.994 I-7.204 J-0.744
N6125 G2 X-86.734 Y-50.623 I5.805 J0.941
N6130 X-86.383 Y-42.776 I27.692 J2.692
N6135 X-83.891 Y-35.327 I28.355 J-5.346
N6140 G3 X-83.787 Y-34.923 I-0.903 J0.447
N6145 G2 X-83.746 Y-34.188 I26.142 J-1.101
N6150 G3 X-84.046 Y-33.752 I-0.424 J0.03
N6155 X-84.349 Y-33.67 I-1.521 J-5.
N6160 G2 X-84.652 Y-33.587 I1.165 J4.888
N6165 X-92.378 Y-29.826 I8.06 J26.372
N6170 X-98.675 Y-23.98 I17.774 J25.459
N6175 X-99.009 Y-23.531 I4.746 J3.867
N6180 G3 X-99.364 Y-23.098 I-2.461 J-1.656
N6185 X-99.98 Y-22.577 I-3.246 J-3.22
N6190 G2 X-100.621 Y-22.089 I6.165 J8.765
N6195 X-103.083 Y-19.802 I17.666 J21.482
N6200 G1 X-103.091 Y-19.793
N6205 X-103.14 Y-19.742 Z-2.167
N6210 X-103.186 Y-19.693 Z-2.144
N6215 X-103.228 Y-19.65 Z-2.106
N6220 X-103.263 Y-19.614 Z-2.055
N6225 X-103.289 Y-19.586 Z-1.995
N6230 X-103.305 Y-19.569 Z-1.928
N6235 X-103.31 Y-19.563 Z-1.857
N6240 Z5.
N6245 X-103.096 Y100.274
N6250 Z1. F666.67
N6255 Z-2.175 F2000.
N6260 X-103.079 Y100.292
N6265 G2 X-100.282 Y103.082 I44.305 J-41.609
N6270 G3 X-101.26 Y104.141 I-0.492 J0.527
N6275 G1 X-102.551 Y102.965
N6280 G3 X-102.721 Y102.73 I0.486 J-0.533
N6285 G1 X-103.604 Y100.785
N6290 X-103.637 Y100.698
N6295 X-103.659 Y100.607
N6300 X-104.352 Y96.481
N6305 G3 X-103.087 Y95.901 I0.711 J-0.119
N6310 G2 X-95.971 Y103.079 I44.524 J-37.02
N6315 G3 X-95.896 Y104.101 I-0.464 J0.548
N6320 X-96.92 Y104.155 I-0.538 J-0.475
N6325 G1 X-100.598 Y100.78
N6330 X-100.655 Y100.721
N6335 X-100.705 Y100.656
N6340 X-103.638 Y96.36
N6345 G3 X-103.756 Y96.057 I0.593 J-0.405
N6350 G1 X-104.376 Y91.761
N6355 G3 X-103.086 Y91.235 I0.71 J-0.102
N6360 G2 X-101.057 Y93.849 I46.55 J-34.022
N6365 X-91.349 Y103.081 I42.496 J-34.97
N6370 G3 X-91.217 Y104.101 I-0.425 J0.574
N6375 X-92.241 Y104.195 I-0.557 J-0.446
N6380 G1 X-98.568 Y98.733
N6385 X-98.629 Y98.674
N6390 X-98.682 Y98.608
N6395 X-103.663 Y91.656
N6400 G3 X-103.79 Y91.331 I0.58 J-0.416
N6405 G1 X-104.396 Y86.608
N6410 G3 X-103.081 Y86.14 I0.708 J-0.091
N6415 G2 X-98.852 Y92.034 I46.55 J-28.932
N6420 X-86.282 Y103.085 I40.292 J-33.157
N6425 G3 X-86.08 Y104.097 I-0.377 J0.601
N6430 X-87.102 Y104.241 I-0.579 J-0.411
N6435 G1 X-96.523 Y96.724
N6440 X-96.598 Y96.655
N6445 X-96.663 Y96.576
N6450 X-103.684 Y86.515
N6455 G3 X-103.807 Y86.188 I0.582 J-0.406
N6460 G1 X-104.422 Y80.709
N6465 G3 X-103.081 Y80.314 I0.705 J-0.079
N6470 G2 X-96.66 Y90.23 I46.556 J-23.111
N6475 X-81.265 Y102.685 I38.101 J-31.354
N6480 X-80.477 Y103.085 I24.063 J-46.425
N6485 G3 X-80.187 Y104.081 I-0.314 J0.632
N6490 X-81.203 Y104.29 I-0.604 J-0.364
N6495 G1 X-94.476 Y94.743
N6500 G3 X-94.656 Y94.555 I0.412 J-0.573
N6505 G1 X-103.713 Y80.628
N6510 G3 X-103.824 Y80.307 I0.591 J-0.385
N6515 G1 X-104.454 Y73.322
N6520 G3 X-103.084 Y73.031 I0.703 J-0.063
N6525 G2 X-94.481 Y88.437 I46.806 J-16.031
N6530 X-79.938 Y100.195 I35.924 J-29.563
N6535 X-73.153 Y103.087 I22.736 J-43.938
N6540 G1 X-73.141 Y103.091
N6545 X-73.074 Y103.114 Z-2.167
N6550 X-73.011 Y103.135 Z-2.144
N6555 X-72.954 Y103.155 Z-2.106
N6560 X-72.906 Y103.171 Z-2.055
N6565 X-72.87 Y103.183 Z-1.995
N6570 X-72.848 Y103.191 Z-1.928
N6575 X-72.841 Y103.193 Z-1.857
N6580 Z5.
N6585 X-103.088 Y42.284
N6590 Z1. F666.67
N6595 Z-2.175 F2000.
N6600 X-103.079 Y42.292
N6605 G2 X-102.693 Y42.582 I28.847 J-37.858
N6610 G3 X-102.418 Y43.22 I-0.416 J0.557
N6615 G2 X-102.765 Y47.985 I55.041 J6.404
N6620 X-102.604 Y52.76 I37.713 J1.116
N6625 G3 Y53.651 I-4.578 J0.446
N6630 G2 X-100.745 Y71.177 I43.5 J4.249
N6635 X-92.317 Y86.657 I44.47 J-14.18
N6640 X-78.619 Y97.722 I33.762 J-27.783
N6645 X-61.731 Y102.706 I21.418 J-41.468
N6650 X-53.498 Y102.701 I4.089 J-41.936
N6655 G3 X-53.077 Y102.682 I0.372 J3.769
N6660 X-52.655 Y102.706 I-0.065 J5.021
N6665 G2 X-47.883 Y102.867 I3.654 J-37.528
N6670 X-43.121 Y102.52 I-1.646 J-55.471
N6675 G3 X-42.483 Y102.795 I0.08 J0.691
N6680 G2 X-42.264 Y103.086 I40.986 J-30.578
N6685 G1 X-42.257 Y103.095
N6690 X-42.214 Y103.152 Z-2.167
N6695 X-42.174 Y103.205 Z-2.144
N6700 X-42.137 Y103.253 Z-2.106
N6705 X-42.107 Y103.293 Z-2.055
N6710 X-42.084 Y103.324 Z-1.995
N6715 X-42.07 Y103.342 Z-1.928
N6720 X-42.065 Y103.349 Z-1.857
N6725 Z5.
N6730 X-103.095 Y38.75
N6735 Z1. F666.67
N6740 Z-2.175 F2000.
N6745 X-103.076 Y38.766
N6750 G2 X-99.69 Y41.317 I28.976 J-34.934
N6755 G3 X-99.437 Y41.905 I-0.337 J0.494
N6760 G2 X-99.784 Y53.082 I43.692 J6.953
N6765 G3 X-99.793 Y53.503 I-1.794 J0.175
N6770 G2 X-99.842 Y53.92 I10.552 J1.453
N6775 X-98.091 Y70.369 I40.741 J3.979
N6780 X-90.174 Y84.893 I41.818 J-13.374
N6785 X-77.314 Y95.273 I31.622 J-26.022
N6790 X-61.462 Y99.944 I20.113 J-39.022
N6795 X-57.32 Y100.115 I3.599 J-36.909
N6800 X-53.181 Y99.881 I-0.724 J-49.441
N6805 G3 X-52.782 Y99.893 I0.153 J1.546
N6810 G2 X-52.386 Y99.944 I1.019 J-6.35
N6815 X-47.083 Y100.079 I3.59 J-36.869
N6820 X-41.806 Y99.538 I-2.203 J-47.572
N6825 G3 X-41.218 Y99.792 I0.094 J0.591
N6830 G2 X-38.752 Y103.075 I37.462 J-25.573
N6835 G1 X-38.744 Y103.084
N6840 X-38.699 Y103.139 Z-2.167
N6845 X-38.657 Y103.19 Z-2.144
N6850 X-38.618 Y103.237 Z-2.106
N6855 X-38.586 Y103.276 Z-2.055
N6860 X-38.562 Y103.305 Z-1.995
N6865 X-38.547 Y103.323 Z-1.928
N6870 X-38.542 Y103.329 Z-1.857
N6875 Z5.
N6880 X-103.088 Y35.124
N6885 Z1. F666.67
N6890 Z-2.175 F2000.
N6895 X-103.079 Y35.133
N6900 G2 X-101.868 Y36.22 I24.881 J-26.488
N6905 X-96.638 Y40.031 I26.463 J-30.83
N6910 G3 X-96.406 Y40.569 I-0.266 J0.434
N6915 G2 X-97.058 Y52.816 I39.197 J8.229
N6920 G3 X-97.054 Y53.503 I-3.781 J0.368
N6925 X-97.116 Y54.187 I-50.698 J-4.262
N6930 G2 X-95.47 Y69.571 I38.018 J3.713
N6935 X-88.059 Y83.153 I39.201 J-12.578
N6940 X-76.025 Y92.856 I29.51 J-24.284
N6945 X-61.196 Y97.218 I18.825 J-36.609
N6950 X-57.322 Y97.376 I3.338 J-34.228
N6955 X-53.451 Y97.155 I-0.73 J-46.784
N6960 G3 X-52.77 Y97.154 I0.343 J3.469
N6965 G1 X-52.121 Y97.217
N6970 G2 X-46.268 Y97.306 I3.465 J-35.587
N6975 X-40.47 Y96.508 I-2.794 J-41.747
N6980 G3 X-39.932 Y96.74 I0.104 J0.498
N6985 G2 X-35.894 Y102.191 I33.059 J-20.263
N6990 X-35.076 Y103.087 I31.06 J-27.521
N6995 G1 X-35.068 Y103.096
N7000 X-35.019 Y103.148 Z-2.167
N7005 X-34.973 Y103.197 Z-2.144
N7010 X-34.932 Y103.241 Z-2.106
N7015 X-34.898 Y103.277 Z-2.055
N7020 X-34.872 Y103.305 Z-1.995
N7025 X-34.856 Y103.322 Z-1.928
N7030 X-34.85 Y103.328 Z-1.857
N7035 Z5.
N7040 X-103.094 Y31.281
N7045 Z1. F666.67
N7050 Z-2.175 F2000.
N7055 X-103.085 Y31.29
N7060 G2 X-99.342 Y34.83 I25.232 J-22.926
N7065 X-93.52 Y38.715 I23.591 J-29.056
N7070 G3 X-93.308 Y39.207 I-0.205 J0.38
N7075 G2 X-94.448 Y45.833 I34.318 J9.316
N7080 X-94.376 Y52.555 I38.821 J2.946
N7085 G3 X-94.359 Y53.503 I-5.985 J0.583
N7090 X-94.434 Y54.449 I-25.852 J-1.572
N7095 G2 X-92.893 Y68.786 I35.34 J3.452
N7100 X-85.978 Y81.441 I36.627 J-11.796
N7105 X-74.758 Y90.478 I27.432 J-22.574
N7110 X-60.934 Y94.536 I17.558 J-34.236
N7115 X-57.323 Y94.681 I3.081 J-31.597
N7120 X-53.716 Y94.473 I-0.738 J-44.184
N7125 G3 X-52.786 Y94.459 I0.55 J5.567
N7130 X-51.86 Y94.536 I-2.159 J31.764
N7135 G2 X-45.433 Y94.552 I3.297 J-33.865
N7140 X-39.108 Y93.41 I-3.424 J-37.068
N7145 G3 X-38.615 Y93.622 I0.113 J0.416
N7150 G2 X-34.72 Y99.458 I32.851 J-17.705
N7155 X-31.3 Y103.087 I26.464 J-21.516
N7160 G1 X-31.291 Y103.095
N7165 X-31.239 Y103.143 Z-2.167
N7170 X-31.19 Y103.188 Z-2.144
N7175 X-31.145 Y103.229 Z-2.106
N7180 X-31.108 Y103.263 Z-2.055
N7185 X-31.08 Y103.288 Z-1.995
N7190 X-31.063 Y103.304 Z-1.928
N7195 X-31.057 Y103.31 Z-1.857
N7200 Z5.
N7205 X-103.089 Y27.244
N7210 Z1. F666.67
N7215 Z-2.175 F2000.
N7220 X-103.08 Y27.253
N7225 G3 X-102.616 Y27.755 I-3.768 J3.947
N7230 G2 X-97.92 Y32.571 I29.148 J-23.724
N7235 X-92.374 Y36.378 I20.515 J-23.945
N7240 X-91.302 Y36.919 I10.588 J-19.628
N7245 G1 X-90.329 Y37.378
N7250 G3 X-90.134 Y37.829 I-0.158 J0.336
N7255 G2 X-91.137 Y41.399 I42.381 J13.827
N7260 X-91.744 Y45.057 I26.701 J6.313
N7265 X-91.743 Y52.298 I37.19 J3.615
N7270 X-91.681 Y52.752 I5.851 J-0.57
N7275 G3 X-91.641 Y53.208 I-2.577 J0.456
N7280 X-91.703 Y53.959 I-4.61 J0.
N7285 G2 X-91.801 Y54.706 I11.205 J1.851
N7290 X-90.362 Y68.015 I32.712 J3.195
N7295 X-83.935 Y79.759 I34.1 J-11.029
N7300 X-73.514 Y88.143 I25.392 J-20.896
N7305 X-60.678 Y91.903 I16.314 J-31.906
N7310 X-57.325 Y92.036 I2.83 J-29.019
N7315 X-53.976 Y91.84 I-0.747 J-41.649
N7320 X-53.543 Y91.781 I-0.557 J-5.636
N7325 G3 X-53.107 Y91.742 I0.435 J2.452
N7330 X-52.354 Y91.804 I0. J4.633
N7335 G2 X-51.603 Y91.902 I1.854 J-11.239
N7340 X-44.9 Y91.827 I3.005 J-30.859
N7345 X-38.339 Y90.449 I-4.577 J-38.093
N7350 X-38.034 Y90.344 I-1.288 J-4.247
N7355 G3 X-37.729 Y90.236 I2.225 J5.783
N7360 X-37.279 Y90.43 I0.115 J0.353
N7365 G2 X-32.479 Y98.013 I32.922 J-15.528
N7370 X-30.171 Y100.496 I22.482 J-18.586
N7375 X-27.628 Y102.739 I28.734 J-30.009
N7380 G3 X-27.242 Y103.087 I-3.251 J4.004
N7385 G1 X-27.233 Y103.096
N7390 X-27.183 Y103.145 Z-2.167
N7395 X-27.135 Y103.193 Z-2.144
N7400 X-27.092 Y103.235 Z-2.106
N7405 X-27.057 Y103.271 Z-2.055
N7410 X-27.03 Y103.297 Z-1.995
N7415 X-27.013 Y103.314 Z-1.928
N7420 X-27.008 Y103.32 Z-1.857
N7425 Z5.
N7430 X-103.094 Y23.829
N7435 Z1. F666.67
N7440 Z-2.175 F2000.
N7445 X-103.085 Y23.838
N7450 G2 X-102.171 Y24.62 I19.284 J-21.613
N7455 X-101.648 Y25.021 I6.409 J-7.813
N7460 G3 X-101.146 Y25.449 I-2.289 J3.195
N7465 X-100.678 Y26.005 I-3.136 J3.109
N7470 G2 X-100.239 Y26.584 I8.882 J-6.293
N7475 X-94.251 Y32.163 I23.153 J-18.844
N7480 X-87.008 Y35.977 I18.449 J-26.252
N7485 G3 X-86.837 Y36.375 I-0.105 J0.282
N7490 G2 X-88.982 Y44.066 I28.966 J12.226
N7495 X-89.172 Y52.048 I32.74 J4.773
N7500 X-89.09 Y52.626 I6.512 J-0.635
N7505 G3 X-89.035 Y53.208 I-3.082 J0.581
N7510 X-89.111 Y54.085 I-5.097 J-0.001
N7515 G2 X-89.23 Y54.957 I11.469 J2.004
N7520 X-87.891 Y67.263 I30.146 J2.945
N7525 X-81.941 Y78.118 I31.633 J-10.28
N7530 X-72.299 Y85.864 I23.402 J-19.257
N7535 X-60.427 Y89.332 I15.099 J-29.633
N7540 X-57.327 Y89.453 I2.585 J-26.51
N7545 X-54.23 Y89.27 I-0.758 J-39.196
N7550 X-53.67 Y89.19 I-0.627 J-6.348
N7555 G3 X-53.107 Y89.137 I0.563 J2.972
N7560 X-52.228 Y89.213 I0. J5.117
N7565 G2 X-51.353 Y89.332 I2.005 J-11.494
N7570 X-43.665 Y89.075 I2.867 J-29.44
N7575 X-36.275 Y86.938 I-5.337 J-32.304
N7580 G3 X-35.877 Y87.11 I0.117 J0.277
N7585 G2 X-31.85 Y94.583 I28.995 J-10.805
N7590 X-26. Y100.734 I26.744 J-19.577
N7595 X-25.667 Y100.983 I3.342 J-4.115
N7600 G3 X-25.347 Y101.249 I-1.332 J1.932
N7605 X-24.906 Y101.766 I-2.867 J2.892
N7610 G2 X-24.491 Y102.305 I8.401 J-6.031
N7615 X-23.829 Y103.083 I23.397 J-19.245
N7620 G1 X-23.821 Y103.092
N7625 X-23.774 Y103.145 Z-2.167
N7630 X-23.729 Y103.196 Z-2.144
N7635 X-23.69 Y103.241 Z-2.106
N7640 X-23.656 Y103.279 Z-2.055
N7645 X-23.631 Y103.307 Z-1.995
N7650 X-23.616 Y103.325 Z-1.928
N7655 X-23.611 Y103.331 Z-1.857
N7660 Z5.
N7665 X-103.095 Y20.358
N7670 Z1. F666.67
N7675 Z-2.175 F2000.
N7680 X-103.078 Y20.376
N7685 G2 X-100.593 Y22.697 I19.29 J-18.167
N7690 X-99.966 Y23.173 I6.689 J-8.155
N7695 G3 X-99.363 Y23.682 I-2.556 J3.639
N7700 X-98.82 Y24.335 I-3.462 J3.432
N7705 G2 X-98.31 Y25.013 I9.126 J-6.333
N7710 X-94.231 Y29.042 I20.548 J-16.724
N7715 X-89.444 Y32.197 I20.259 J-25.529
N7720 X-87.108 Y33.298 I11.348 J-21.037
N7725 X-84.675 Y34.165 I10.927 J-26.844
N7730 X-84.36 Y34.251 I1.528 J-4.984
N7735 G3 X-84.045 Y34.336 I-1.321 J5.467
N7740 X-83.745 Y34.772 I-0.123 J0.406
N7745 G2 X-83.786 Y35.508 I26.101 J1.836
N7750 G3 X-83.89 Y35.912 I-1.007 J-0.042
N7755 G2 X-85.787 Y40.894 I25.004 J12.374
N7760 X-86.755 Y46.137 I30.058 J8.259
N7765 X-86.843 Y48.972 I21.483 J2.088
N7770 X-86.656 Y51.803 I45.333 J-1.569
N7775 G1 X-86.647 Y51.876
N7780 X-86.637 Y51.95
N7785 G3 Y54.466 I-12.179 J1.257
N7790 X-86.685 Y54.834 I-7.047 J-0.729
N7795 G2 X-86.733 Y55.201 I5.749 J0.934
N7800 X-85.5 Y66.537 I27.784 J2.714
N7805 X-80.02 Y76.538 I29.126 J-9.459
N7810 X-71.129 Y83.669 I21.485 J-17.68
N7815 X-60.185 Y86.856 I13.93 J-27.444
N7820 X-57.625 Y86.968 I2.331 J-23.901
N7825 X-55.067 Y86.83 I-0.275 J-28.821
N7830 X-54.716 Y86.784 I-0.55 J-5.568
N7835 G3 X-54.366 Y86.738 I1.017 J6.408
N7840 X-51.849 I1.258 J12.189
N7845 X-51.479 Y86.786 I-0.736 J7.125
N7850 G2 X-51.11 Y86.834 I0.937 J-5.777
N7855 X-43.261 Y86.484 I2.696 J-27.689
N7860 X-35.81 Y83.991 I-5.345 J-28.356
N7865 G3 X-35.406 Y83.887 I0.447 J0.903
N7870 G2 X-34.672 Y83.846 I-1.107 J-26.142
N7875 G3 X-34.237 Y84.146 I0.03 J0.423
N7880 X-34.15 Y84.465 I-5.507 J1.673
N7885 G2 X-34.063 Y84.784 I5.128 J-1.227
N7890 X-30.291 Y92.51 I26.362 J-8.086
N7895 X-24.432 Y98.803 I25.417 J-17.791
N7900 X-23.997 Y99.124 I3.755 J-4.624
N7905 G3 X-23.579 Y99.466 I-1.589 J2.367
N7910 X-23.059 Y100.083 I-3.22 J3.247
N7915 G2 X-22.57 Y100.724 I8.764 J-6.165
N7920 X-20.396 Y103.078 I21.48 J-17.669
N7925 G1 X-20.387 Y103.086
N7930 X-20.336 Y103.135 Z-2.167
N7935 X-20.288 Y103.182 Z-2.144
N7940 X-20.244 Y103.224 Z-2.106
N7945 X-20.208 Y103.259 Z-2.055
N7950 X-20.181 Y103.285 Z-1.995
N7955 X-20.164 Y103.301 Z-1.928
N7960 X-20.158 Y103.307 Z-1.857
N7965 Z5.
N7970 X-103.09 Y16.238
N7975 Z1. F666.67
N7980 Z-2.175 F2000.
N7985 X-103.083 Y16.248
N7990 G2 X-102.552 Y16.938 I23.388 J-17.442
N7995 X-98.908 Y20.642 I19.13 J-15.175
N8000 X-98.661 Y20.832 I3.162 J-3.855
N8005 G3 X-98.413 Y21.022 I-3.047 J4.217
N8010 X-96.696 Y22.754 I-7.437 J9.091
N8015 X-96.474 Y23.046 I-5.546 J4.459
N8020 G2 X-96.251 Y23.338 I4.697 J-3.349
N8025 X-89.572 Y29.099 I19.538 J-15.902
N8030 X-81.358 Y32.315 I13.92 J-23.452
N8035 G3 X-80.917 Y32.941 I-0.118 J0.552
N8040 G2 X-81.155 Y35.586 I31.825 J4.2
N8045 G3 X-81.545 Y37.109 I-3.814 J-0.166
N8050 G2 X-83.26 Y41.633 I22.689 J11.189
N8055 X-84.135 Y46.392 I27.54 J7.521
N8060 X-84.209 Y49.239 I19.985 J1.943
N8065 X-83.974 Y52.078 I38.061 J-1.716
N8070 G3 X-83.975 Y54.339 I-9.38 J1.129
N8075 G2 X-84.21 Y57.198 I37.601 J4.536
N8080 X-84.132 Y60.065 I20.089 J0.89
N8085 X-81.235 Y70.01 I28.021 J-2.769
N8090 X-74.759 Y78.093 I22.481 J-11.376
N8095 X-65.653 Y83.094 I17.837 J-21.687
N8100 X-55.324 Y84.223 I7.847 J-23.986
N8105 X-54.781 Y84.152 I-0.875 J-8.858
N8110 G3 X-54.238 Y84.076 I2.172 J13.451
N8115 X-51.976 I1.131 J9.387
N8120 G2 X-49.133 Y84.311 I4.545 J-37.728
N8125 X-46.281 Y84.236 I0.9 J-20.071
N8130 X-41.527 Y83.36 I-2.774 J-28.418
N8135 X-37.007 Y81.647 I-6.676 J-24.426
N8140 G3 X-35.483 Y81.256 I1.691 J3.431
N8145 G2 X-32.841 Y81.018 I-1.258 J-28.716
N8150 G3 X-32.215 Y81.46 I0.074 J0.56
N8155 G2 X-30.081 Y87.625 I26.095 J-5.58
N8160 X-26.542 Y93.106 I24.978 J-12.244
N8165 X-24.962 Y94.819 I16.543 J-13.676
N8170 X-23.22 Y96.368 I18.213 J-18.734
N8175 X-22.936 Y96.584 I3.553 J-4.374
N8180 G3 X-22.652 Y96.8 I-3.919 J5.445
N8185 X-20.921 Y98.516 I-7.346 J9.14
N8190 X-20.72 Y98.776 I-4.453 J3.642
N8195 G2 X-20.519 Y99.037 I4.251 J-3.071
N8200 X-16.324 Y103.081 I19.546 J-16.078
N8205 G1 X-16.314 Y103.089
N8210 X-16.258 Y103.131 Z-2.167
N8215 X-16.204 Y103.172 Z-2.144
N8220 X-16.157 Y103.209 Z-2.106
N8225 X-16.117 Y103.239 Z-2.055
N8230 X-16.087 Y103.262 Z-1.995
N8235 X-16.068 Y103.276 Z-1.928
N8240 X-16.062 Y103.281 Z-1.857
N8245 Z5.
N8250 X99.9 Y103.093
N8255 Z1. F666.67
N8260 Z-2.175 F2000.
N8265 X99.909 Y103.084
N8270 G2 X103.08 Y99.861 I-41.709 J-44.21
N8275 G3 X104.146 Y100.832 I0.532 J0.486
N8280 G1 X102.758 Y102.356
N8285 G3 X102.552 Y102.513 I-0.533 J-0.485
N8290 G1 X100.404 Y103.608
N8295 X100.336 Y103.639
N8300 X100.266 Y103.662
N8305 X100.194 Y103.677
N8310 X96.117 Y104.351
N8315 G3 X95.537 Y103.087 I-0.118 J-0.711
N8320 G2 X103.084 Y95.486 I-37.14 J-44.424
N8325 G3 X104.106 Y95.399 I0.554 J0.456
N8330 X104.171 Y96.422 I-0.468 J0.544
N8335 G1 X100.626 Y100.365
N8340 X100.569 Y100.423
N8345 X100.505 Y100.473
N8350 X95.997 Y103.638
N8355 G3 X95.687 Y103.761 I-0.412 J-0.587
N8360 G1 X91.418 Y104.372
N8365 G3 X90.891 Y103.084 I-0.102 J-0.71
N8370 G2 X93.366 Y101.158 I-34.162 J-46.446
N8375 X103.078 Y90.792 I-34.97 J-42.496
N8380 G3 X104.096 Y90.646 I0.58 J0.417
N8385 X104.203 Y91.669 I-0.439 J0.563
N8390 G1 X98.608 Y98.308
N8395 X98.549 Y98.37
N8400 X98.483 Y98.424
N8405 X91.314 Y103.659
N8410 G3 X90.984 Y103.791 I-0.421 J-0.577
N8415 G1 X86.288 Y104.394
N8420 G3 X85.818 Y103.08 I-0.091 J-0.708
N8425 G2 X91.551 Y98.952 I-29.093 J-46.448
N8430 X103.082 Y85.6 I-33.157 J-40.292
N8435 G3 X104.092 Y85.381 I0.608 J0.366
N8440 X104.251 Y86.402 I-0.401 J0.585
N8445 G1 X96.645 Y96.217
N8450 X96.575 Y96.294
N8455 X96.495 Y96.36
N8460 X86.195 Y103.682
N8465 G3 X85.863 Y103.808 I-0.411 J-0.579
N8470 G1 X80.43 Y104.42
N8475 G3 X80.032 Y103.081 I-0.079 J-0.705
N8480 G2 X89.747 Y96.76 I-23.312 J-46.454
N8485 X102.202 Y81.365 I-31.354 J-38.101
N8490 X103.085 Y79.579 I-46.426 J-24.062
N8495 G3 X104.075 Y79.268 I0.638 J0.301
N8500 X104.303 Y80.281 I-0.352 J0.611
N8505 G1 X94.746 Y94.084
N8510 G3 X94.557 Y94.27 I-0.58 J-0.402
N8515 G1 X80.349 Y103.711
N8520 G3 X80.023 Y103.826 I-0.39 J-0.588
N8525 G1 X73.125 Y104.455
N8530 G3 X72.829 Y103.087 I-0.064 J-0.703
N8535 G2 X87.954 Y94.581 I-16.313 J-46.708
N8540 X99.712 Y80.038 I-29.563 J-35.924
N8545 X103.083 Y71.769 I-43.938 J-22.735
N8550 G1 X103.086 Y71.757
N8555 X103.107 Y71.69 Z-2.167
N8560 X103.127 Y71.625 Z-2.144
N8565 X103.144 Y71.568 Z-2.106
N8570 X103.159 Y71.52 Z-2.055
N8575 X103.17 Y71.484 Z-1.995
N8580 X103.177 Y71.461 Z-1.928
N8585 X103.179 Y71.453 Z-1.857
N8590 Z5.
N8595 X41.878 Y103.092
N8600 Z1. F666.67
N8605 Z-2.175 F2000.
N8610 X41.886 Y103.082
N8615 G2 X42.102 Y102.794 I-37.94 J-28.755
N8620 G3 X42.74 Y102.519 I0.557 J0.416
N8625 G2 X47.507 Y102.866 I6.401 J-55.051
N8630 X52.284 Y102.704 I1.112 J-37.708
N8635 G3 X53.174 Y102.705 I0.439 J4.499
N8640 G2 X70.697 Y100.844 I4.242 J-43.502
N8645 X86.173 Y92.417 I-14.183 J-44.468
N8650 X97.238 Y78.719 I-27.783 J-33.762
N8655 X102.222 Y61.831 I-41.468 J-21.417
N8660 X102.217 Y53.599 I-41.936 J-4.088
N8665 G3 X102.199 Y53.177 I3.768 J-0.372
N8670 X102.222 Y52.756 I5.021 J0.065
N8675 G2 X102.383 Y47.984 I-37.527 J-3.654
N8680 X102.036 Y43.222 I-55.473 J1.646
N8685 G3 X102.311 Y42.584 I0.691 J-0.08
N8690 G2 X103.083 Y41.996 I-30.51 J-40.899
N8695 G1 X103.093 Y41.989
N8700 X103.149 Y41.945 Z-2.167
N8705 X103.202 Y41.904 Z-2.144
N8710 X103.25 Y41.867 Z-2.106
N8715 X103.289 Y41.836 Z-2.055
N8720 X103.319 Y41.813 Z-1.995
N8725 X103.338 Y41.799 Z-1.928
N8730 X103.344 Y41.794 Z-1.857
N8735 Z5.
N8740 X103.089 Y-15.132
N8745 Z1. F666.67
N8750 Z-2.175 F2000.
N8755 X103.082 Y-15.142
N8760 G2 X102.172 Y-16.352 I-23.765 J16.917
N8765 X98.527 Y-20.057 I-19.133 J15.174
N8770 X98.28 Y-20.248 I-3.166 J3.859
N8775 G3 X98.032 Y-20.438 I3.055 J-4.227
N8780 X96.315 Y-22.17 I7.436 J-9.09
N8785 X96.087 Y-22.469 I5.837 J-4.692
N8790 G2 X95.859 Y-22.768 I-4.793 J3.422
N8795 X89.182 Y-28.519 I-19.522 J15.913
N8800 X80.976 Y-31.732 I-13.928 J23.49
N8805 G3 X80.535 Y-32.358 I0.118 J-0.552
N8810 G2 X80.773 Y-35.003 I-31.828 J-4.2
N8815 G3 X81.163 Y-36.526 I3.815 J0.166
N8820 G2 X82.878 Y-41.048 I-22.69 J-11.189
N8825 X83.753 Y-45.805 I-27.543 J-7.524
N8830 X83.827 Y-48.654 I-19.98 J-1.945
N8835 X83.592 Y-51.494 I-38.07 J1.715
N8840 G3 Y-53.755 I9.383 J-1.129
N8845 G2 X83.828 Y-56.613 I-37.589 J-4.534
N8850 X83.75 Y-59.48 I-20.093 J-0.89
N8855 X80.853 Y-69.426 I-28.022 J2.768
N8860 X74.376 Y-77.509 I-22.48 J11.375
N8865 X65.276 Y-82.508 I-17.836 J21.687
N8870 X54.955 Y-83.639 I-7.852 J23.984
N8875 X54.406 Y-83.568 I0.879 J8.941
N8880 G3 X53.857 Y-83.491 I-2.21 J-13.724
N8885 X51.596 I-1.13 J-9.385
N8890 G2 X48.752 Y-83.726 I-4.546 J37.709
N8895 X45.899 Y-83.651 I-0.901 J20.075
N8900 X41.145 Y-82.776 I2.774 J28.418
N8905 X36.625 Y-81.062 I6.676 J24.426
N8910 G3 X35.101 Y-80.672 I-1.691 J-3.431
N8915 G2 X32.459 Y-80.433 I1.257 J28.712
N8920 G3 X31.833 Y-80.875 I-0.074 J-0.56
N8925 G2 X29.699 Y-87.041 I-26.094 J5.579
N8930 X26.16 Y-92.522 I-24.979 J12.244
N8935 X24.577 Y-94.238 I-16.533 J13.669
N8940 X22.832 Y-95.788 I-18.222 J18.75
N8945 X22.551 Y-96.002 I-3.523 J4.34
N8950 G3 X22.269 Y-96.216 I3.847 J-5.35
N8955 X20.539 Y-97.932 I7.344 J-9.138
N8960 X20.338 Y-98.192 I4.44 J-3.631
N8965 G2 X20.137 Y-98.453 I-4.245 J3.066
N8970 X15.146 Y-103.081 I-19.547 J16.077
N8975 G1 X15.11 Y-103.101
N8980 X15.071 Y-103.113
N8985 X15.031 Y-103.117
N8990 X-15.371 Y-103.115
N8995 X-15.412 Y-103.111
N9000 X-15.451 Y-103.099
N9005 X-15.486 Y-103.079
N9010 G2 X-16.835 Y-102.071 I16.782 J23.869
N9015 X-20.54 Y-98.428 I15.173 J19.131
N9020 X-20.73 Y-98.18 I3.857 J3.165
N9025 G3 X-20.92 Y-97.933 I-4.222 J-3.051
N9030 X-22.651 Y-96.217 I-9.075 J-7.426
N9035 X-22.939 Y-95.998 I-4.322 J-5.379
N9040 G2 X-23.226 Y-95.78 I3.299 J4.632
N9045 X-28.995 Y-89.096 I15.875 J19.535
N9050 X-32.215 Y-80.875 I23.459 J13.93
N9055 G3 X-32.841 Y-80.434 I-0.552 J-0.118
N9060 G2 X-35.485 Y-80.672 I-4.203 J31.836
N9065 G3 X-37.009 Y-81.062 I0.166 J-3.817
N9070 G2 X-41.531 Y-82.777 I-11.19 J22.692
N9075 X-46.288 Y-83.652 I-7.524 J27.539
N9080 X-49.138 Y-83.726 I-1.946 J19.985
N9085 X-51.979 Y-83.491 I1.715 J38.045
N9090 G3 X-54.241 I-1.131 J-9.387
N9095 G2 X-57.092 Y-83.726 I-4.548 J37.773
N9100 X-59.951 Y-83.65 I-0.896 J20.054
N9105 X-69.902 Y-80.756 I2.755 J28.027
N9110 X-77.99 Y-74.279 I11.366 J22.483
N9115 X-82.993 Y-65.171 I21.684 J17.84
N9120 X-84.123 Y-54.842 I23.985 J7.848
N9125 X-84.052 Y-54.298 I8.861 J-0.875
N9130 G3 X-83.975 Y-53.755 I-13.461 J2.173
N9135 Y-51.493 I-9.388 J1.131
N9140 G2 X-84.21 Y-48.652 I37.729 J4.546
N9145 X-84.136 Y-45.802 I20.073 J0.901
N9150 X-83.261 Y-41.046 I28.42 J-2.77
N9155 X-81.546 Y-36.524 I24.422 J-6.673
N9160 G3 X-81.156 Y-35. I-3.427 J1.69
N9165 G2 X-81.066 Y-33.676 I27.106 J-1.18
N9170 X-80.918 Y-32.357 I34.178 J-3.168
N9175 G3 X-81.359 Y-31.731 I-0.56 J0.074
N9180 G2 X-93.01 Y-26.052 I5.655 J26.392
N9185 X-94.899 Y-24.26 I12.239 J14.795
N9190 X-96.604 Y-22.292 I31.79 J29.259
N9195 G1 X-96.65 Y-22.231
N9200 X-96.697 Y-22.17
N9205 G3 X-98.413 Y-20.439 I-9.144 J-7.352
N9210 X-98.674 Y-20.238 I-3.634 J-4.444
N9215 G2 X-98.934 Y-20.037 I3.067 J4.247
N9220 X-103.083 Y-15.705 I16.076 J19.548
N9225 G1 X-103.105 Y-15.668
N9230 X-103.119 Y-15.627
N9235 X-103.123 Y-15.584
N9240 X-103.102 Y10.856
N9245 X-103.096 Y10.902
N9250 X-103.08 Y10.946
N9255 G2 X-100.025 Y15.638 I22.529 J-11.327
N9260 X-98.26 Y17.489 I13.491 J-11.098
N9265 X-96.305 Y19.137 I24.061 J-26.569
N9270 G3 X-94.793 Y20.662 I-5.305 J6.772
N9275 G2 X-93.119 Y22.674 I27.447 J-21.127
N9280 X-91.231 Y24.487 I13.16 J-11.815
N9285 X-86.203 Y27.722 I16.005 J-19.351
N9290 X-80.54 Y29.636 I10.351 J-21.296
N9295 G3 X-79.366 Y30.212 I-0.509 J2.521
N9300 G2 X-78.125 Y31.232 I20.597 J-23.795
N9305 G3 X-77.903 Y31.837 I-0.377 J0.482
N9310 G2 X-78.386 Y36.35 I23.072 J4.75
N9315 G3 X-78.75 Y37.771 I-3.107 J-0.039
N9320 G2 X-80.491 Y42.088 I19.472 J10.365
N9325 X-81.358 Y46.662 I24.796 J7.069
N9330 X-81.417 Y49.444 I18.273 J1.776
N9335 X-81.143 Y52.214 I31.645 J-1.737
N9340 G3 Y54.204 I-6.922 J0.994
N9345 G2 X-81.407 Y57.288 I26.675 J3.837
N9350 X-81.298 Y60.381 I24.487 J0.685
N9355 X-78.495 Y69.219 I22.276 J-2.201
N9360 X-72.528 Y76.315 I22.115 J-12.536
N9365 X-66.477 Y79.846 I13.947 J-16.956
N9370 X-59.659 Y81.46 I9.337 J-24.229
N9375 X-56.874 Y81.519 I1.779 J-18.24
N9380 X-54.102 Y81.244 I-1.744 J-31.715
N9385 G3 X-52.112 I0.995 J6.928
N9390 G2 X-49.041 Y81.507 I3.837 J-26.704
N9395 X-45.961 Y81.401 I0.697 J-24.518
N9400 X-41.688 Y80.533 I-2.058 J-21.076
N9405 X-37.667 Y78.85 I-7.034 J-22.456
N9410 G3 X-36.25 Y78.487 I1.455 J2.734
N9415 G2 X-31.734 Y78.004 I-0.306 J-24.196
N9420 G3 X-31.129 Y78.226 I0.123 J0.599
N9425 G2 X-30.112 Y79.462 I26.715 J-20.938
N9430 G3 X-29.536 Y80.635 I-1.942 J1.681
N9435 G2 X-27.625 Y86.3 I23.203 J-4.675
N9440 X-24.392 Y91.328 I22.575 J-10.962
N9445 X-22.576 Y93.22 I13.616 J-11.256
N9450 X-20.559 Y94.896 I23.199 J-25.851
N9455 G3 X-19.035 Y96.407 I-5.238 J6.807
N9460 G2 X-17.377 Y98.373 I27.946 J-21.887
N9465 X-15.514 Y100.146 I12.984 J-11.781
N9470 X-11.031 Y103.087 I15.999 J-19.5
N9475 G1 X-10.986 Y103.103
N9480 X-10.94 Y103.109
N9485 X38.207 Y103.158
N9490 X38.251 Y103.153
N9495 X38.292 Y103.139
N9500 X38.33 Y103.116
N9505 X38.362 Y103.085
N9510 G2 X40.837 Y99.791 I-34.987 J-28.868
N9515 G3 X41.425 Y99.538 I0.494 J0.337
N9520 G2 X52.606 Y99.884 I6.951 J-43.695
N9525 G3 X53.026 Y99.893 I0.172 J1.765
N9530 G2 X53.443 Y99.943 I1.365 J-9.669
N9535 X69.888 Y98.19 I3.973 J-40.743
N9540 X84.41 Y90.274 I-13.376 J-41.817
N9545 X94.789 Y77.414 I-26.022 J-31.622
N9550 X99.46 Y61.561 I-39.023 J-20.113
N9555 X99.631 Y57.42 I-36.909 J-3.598
N9560 X99.397 Y53.282 I-49.442 J0.724
N9565 G3 X99.409 Y52.883 I1.546 J-0.153
N9570 G2 X99.46 Y52.487 I-6.348 J-1.019
N9575 X99.595 Y47.184 I-36.869 J-3.59
N9580 X99.055 Y41.907 I-47.573 J2.202
N9585 G3 X99.308 Y41.319 I0.591 J-0.094
N9590 G2 X103.083 Y38.441 I-25.525 J-37.394
N9595 G1 X103.112 Y38.41
N9600 X103.135 Y38.373
N9605 X103.148 Y38.332
N9610 X103.153 Y38.289
N9615 X103.1 Y-9.483
N9620 X103.095 Y-9.525
N9625 X103.082 Y-9.566
N9630 G2 X99.642 Y-15.056 I-22.912 J10.532
N9635 X97.878 Y-16.906 I-13.49 J11.099
N9640 X95.924 Y-18.553 I-24.068 J26.578
N9645 G3 X94.412 Y-20.077 I5.305 J-6.771
N9650 G2 X92.736 Y-22.092 I-27.36 J21.057
N9655 X90.845 Y-23.907 I-13.176 J11.836
N9660 X85.819 Y-27.139 I-15.999 J19.352
N9665 X80.157 Y-29.053 I-10.362 J21.329
N9670 G3 X78.982 Y-29.63 I0.51 J-2.524
N9675 G2 X77.743 Y-30.648 I-20.591 J23.792
N9680 G3 X77.521 Y-31.253 I0.377 J-0.482
N9685 G2 X78.004 Y-35.767 I-23.072 J-4.75
N9690 G3 X78.368 Y-37.188 I3.108 J0.039
N9695 G2 X80.109 Y-41.503 I-19.472 J-10.364
N9700 X80.976 Y-46.075 I-24.8 J-7.071
N9705 X81.035 Y-48.859 I-18.268 J-1.779
N9710 X80.76 Y-51.629 I-31.654 J1.735
N9715 G3 X80.761 Y-53.62 I6.925 J-0.994
N9720 G2 X81.025 Y-56.703 I-26.669 J-3.836
N9725 X80.915 Y-59.796 I-24.494 J-0.684
N9730 X78.113 Y-68.634 I-22.277 J2.201
N9735 X72.146 Y-75.731 I-22.11 J12.533
N9740 X66.102 Y-79.257 I-13.943 J16.954
N9745 X59.294 Y-80.873 I-9.348 J24.238
N9750 X56.501 Y-80.934 I-1.794 J18.258
N9755 X53.722 Y-80.659 I1.726 J31.647
N9760 G3 X51.731 I-0.995 J-6.926
N9765 G2 X48.66 Y-80.923 I-3.839 J26.697
N9770 X45.579 Y-80.817 I-0.698 J24.52
N9775 X41.306 Y-79.949 I2.058 J21.076
N9780 X37.285 Y-78.266 I7.034 J22.456
N9785 G3 X35.868 Y-77.903 I-1.456 J-2.736
N9790 G2 X31.353 Y-77.419 I0.307 J24.195
N9795 G3 X30.748 Y-77.641 I-0.123 J-0.599
N9800 G2 X29.73 Y-78.878 I-26.695 J20.919
N9805 G3 X29.155 Y-80.052 I1.942 J-1.681
N9810 G2 X27.243 Y-85.716 I-23.203 J4.675
N9815 X24.01 Y-90.745 I-22.575 J10.962
N9820 X22.194 Y-92.636 I-13.61 J11.252
N9825 X20.177 Y-94.313 I-23.212 J25.869
N9830 G3 X18.653 Y-95.823 I5.237 J-6.806
N9835 G2 X16.994 Y-97.791 I-27.937 J21.88
N9840 X15.129 Y-99.564 I-12.984 J11.783
N9845 X9.443 Y-103.082 I-15.997 J19.504
N9850 G1 X9.403 Y-103.095
N9855 X9.361 Y-103.1
N9860 X-9.745 Y-103.099
N9865 X-9.786 Y-103.095
N9870 X-9.826 Y-103.082
N9875 G2 X-15.536 Y-99.544 I10.31 J23.016
N9880 X-17.387 Y-97.779 I11.097 J13.494
N9885 X-19.035 Y-95.824 I26.562 J24.06
N9890 G3 X-20.559 Y-94.313 I-6.761 J-5.297
N9895 G2 X-22.578 Y-92.635 I21.075 J27.399
N9900 X-24.396 Y-90.741 I11.815 J13.159
N9905 X-27.627 Y-85.714 I19.341 J15.982
N9910 X-29.537 Y-80.052 I21.317 J10.346
N9915 G3 X-30.113 Y-78.878 I-2.52 J-0.508
N9920 G2 X-31.13 Y-77.641 I24.118 J20.872
N9925 G3 X-31.735 Y-77.419 I-0.482 J-0.377
N9930 G2 X-36.249 Y-77.903 I-4.753 J23.072
N9935 G3 X-37.671 Y-78.267 I0.039 J-3.11
N9940 G2 X-41.986 Y-80.008 I-10.365 J19.474
N9945 X-46.558 Y-80.875 I-7.071 J24.797
N9950 X-49.343 Y-80.934 I-1.779 J18.272
N9955 X-52.115 Y-80.659 I1.735 J31.638
N9960 G3 X-54.105 I-0.996 J-6.928
N9965 G2 X-57.183 Y-80.923 I-3.84 J26.735
N9970 X-60.269 Y-80.815 I-0.691 J24.477
N9975 X-69.112 Y-78.015 I2.19 J22.278
N9980 X-76.213 Y-72.047 I12.527 J22.116
N9985 X-79.744 Y-65.997 I16.953 J13.947
N9990 X-81.359 Y-59.18 I24.232 J9.342
N9995 X-81.418 Y-56.393 I18.242 J1.782
N10000 X-81.144 Y-53.619 I31.704 J-1.741
N10005 G3 Y-51.629 I-6.928 J0.995
N10010 G2 X-81.407 Y-48.56 I26.702 J3.837
N10015 X-81.301 Y-45.481 I24.526 J0.698
N10020 X-80.433 Y-41.207 I21.079 J-2.054
N10025 X-78.749 Y-37.183 I22.452 J-7.031
N10030 G3 X-78.387 Y-35.767 I-2.731 J1.454
N10035 G2 X-77.904 Y-31.252 I24.152 J-0.299
N10040 G3 X-78.126 Y-30.647 I-0.599 J0.123
N10045 G2 X-79.364 Y-29.629 I21.2 J27.055
N10050 G3 X-80.538 Y-29.052 I-1.685 J-1.946
N10055 G2 X-86.203 Y-27.138 I4.697 J23.234
N10060 X-91.232 Y-23.902 I10.975 J22.581
N10065 X-93.12 Y-22.089 I11.282 J13.637
N10070 X-94.794 Y-20.077 I25.762 J23.131
N10075 G3 X-96.305 Y-18.553 I-6.81 J-5.242
N10080 G2 X-98.271 Y-16.895 I21.887 J27.949
N10085 X-100.044 Y-15.032 I11.78 J12.984
N10090 X-103.087 Y-10.348 I19.498 J15.998
N10095 G1 X-103.093 Y-10.336
N10100 X-103.125 Y-10.273 Z-2.167
N10105 X-103.155 Y-10.213 Z-2.144
N10110 X-103.182 Y-10.16 Z-2.106
N10115 X-103.204 Y-10.115 Z-2.055
N10120 X-103.221 Y-10.081 Z-1.995
N10125 X-103.232 Y-10.06 Z-1.928
N10130 X-103.235 Y-10.053 Z-1.857
N10135 Z5.
N10140 X34.731 Y103.096
N10145 Z1. F666.67
N10150 Z-2.175 F2000.
N10155 X34.748 Y103.078
N10160 G2 X35.718 Y101.995 I-26.574 J-24.767
N10165 X39.551 Y96.739 I-30.802 J-26.485
N10170 G3 X40.089 Y96.507 I0.434 J0.266
N10175 G2 X52.34 Y97.158 I8.227 J-39.199
N10180 G3 X53.026 Y97.154 I0.365 J3.734
N10185 X53.709 Y97.217 I-5.178 J60.176
N10190 G2 X69.09 Y95.57 I3.707 J-38.021
N10195 X82.669 Y88.159 I-12.581 J-39.199
N10200 X92.372 Y76.126 I-24.284 J-29.51
N10205 X96.734 Y61.296 I-36.609 J-18.824
N10210 X96.892 Y57.422 I-34.228 J-3.337
N10215 X96.671 Y53.551 I-46.784 J0.73
N10220 G3 Y52.871 I3.469 J-0.343
N10225 G1 X96.734 Y52.222
N10230 G2 X96.822 Y46.369 I-35.588 J-3.465
N10235 X96.024 Y40.57 I-41.748 J2.794
N10240 G3 X96.256 Y40.032 I0.498 J-0.104
N10245 G2 X101.696 Y36.004 I-20.233 J-33.014
N10250 X103.081 Y34.72 I-27.57 J-31.127
N10255 G1 X103.09 Y34.712
N10260 X103.141 Y34.662 Z-2.167
N10265 X103.189 Y34.616 Z-2.144
N10270 X103.232 Y34.574 Z-2.106
N10275 X103.268 Y34.539 Z-2.055
N10280 X103.295 Y34.512 Z-1.995
N10285 X103.312 Y34.496 Z-1.928
N10290 X103.318 Y34.491 Z-1.857
N10295 Z5.
N10300 X30.911 Y103.094
N10305 Z1. F666.67
N10310 Z-2.175 F2000.
N10315 X30.929 Y103.077
N10320 G2 X34.332 Y99.469 I-23.098 J-25.188
N10325 X38.234 Y93.621 I-28.742 J-23.405
N10330 G3 X38.726 Y93.409 I0.379 J0.204
N10335 G2 X45.354 Y94.549 I9.316 J-34.322
N10340 X52.078 Y94.476 I2.942 J-38.815
N10345 G3 X53.026 Y94.46 I0.578 J5.924
N10350 X53.971 Y94.535 I-1.677 J26.966
N10355 G2 X68.305 Y92.992 I3.446 J-35.343
N10360 X80.957 Y86.079 I-11.799 J-36.625
N10365 X89.994 Y74.858 I-22.574 J-27.432
N10370 X94.052 Y61.034 I-34.236 J-17.558
N10375 X94.198 Y57.424 I-31.597 J-3.08
N10380 X93.99 Y53.816 I-44.185 J0.738
N10385 G3 X93.976 Y52.887 I5.566 J-0.55
N10390 X94.052 Y51.96 I31.767 J2.159
N10395 G2 X94.068 Y45.534 I-33.865 J-3.297
N10400 X92.927 Y39.21 I-37.07 J3.423
N10405 G3 X93.138 Y38.716 I0.418 J-0.113
N10410 G2 X98.96 Y34.825 I-18.239 J-33.588
N10415 X103.079 Y30.868 I-21.343 J-26.343
N10420 G1 X103.088 Y30.859
N10425 X103.134 Y30.806 Z-2.167
N10430 X103.178 Y30.756 Z-2.144
N10435 X103.218 Y30.71 Z-2.106
N10440 X103.251 Y30.673 Z-2.055
N10445 X103.276 Y30.644 Z-1.995
N10450 X103.292 Y30.627 Z-1.928
N10455 X103.297 Y30.621 Z-1.857
N10460 Z5.
N10465 X26.848 Y103.096
N10470 Z1. F666.67
N10475 Z-2.175 F2000.
N10480 X26.857 Y103.087
N10485 G3 X27.228 Y102.753 I3.466 J3.482
N10490 G2 X32.084 Y98.029 I-23.628 J-29.143
N10495 X35.915 Y92.441 I-23.943 J-20.525
N10500 X36.421 Y91.439 I-18.793 J-10.107
N10505 G1 X36.897 Y90.43
N10510 G3 X37.348 Y90.235 I0.336 J0.158
N10515 G2 X40.915 Y91.237 I13.838 J-42.421
N10520 X44.57 Y91.844 I6.313 J-26.688
N10525 X51.821 Y91.843 I3.62 J-37.18
N10530 X52.271 Y91.781 I-0.568 J-5.819
N10535 G3 X52.724 Y91.742 I0.453 J2.558
N10540 X53.478 Y91.803 I-0.001 J4.63
N10545 G2 X54.227 Y91.902 I1.855 J-11.235
N10550 X67.534 Y90.461 I3.19 J-32.714
N10555 X79.276 Y84.036 I-11.031 J-34.098
N10560 X87.66 Y73.614 I-20.896 J-25.392
N10565 X91.419 Y60.777 I-31.907 J-16.314
N10570 X91.552 Y57.425 I-29.019 J-2.829
N10575 X91.357 Y54.076 I-41.65 J0.747
N10580 X91.297 Y53.643 I-5.636 J0.557
N10585 G3 X91.259 Y53.208 I2.452 J-0.435
N10590 X91.321 Y52.454 I4.633 J0.
N10595 G2 X91.419 Y51.704 I-11.239 J-1.854
N10600 X91.344 Y45.003 I-30.861 J-3.005
N10605 X89.967 Y38.444 I-38.095 J4.574
N10610 X89.861 Y38.137 I-4.264 J1.293
N10615 G3 X89.753 Y37.832 I5.817 J-2.237
N10620 X89.947 Y37.381 I0.353 J-0.115
N10625 G2 X97.605 Y32.515 I-15.475 J-32.811
N10630 X100.037 Y30.244 I-18.638 J-22.404
N10635 X102.239 Y27.749 I-30.205 J-28.862
N10640 G3 X102.82 Y27.139 I4.162 J3.386
N10645 X103.087 Y26.904 I13.236 J14.771
N10650 G1 X103.096 Y26.896
N10655 X103.15 Y26.85 Z-2.167
N10660 X103.2 Y26.806 Z-2.144
N10665 X103.246 Y26.767 Z-2.106
N10670 X103.284 Y26.734 Z-2.055
N10675 X103.313 Y26.709 Z-1.995
N10680 X103.33 Y26.694 Z-1.928
N10685 X103.336 Y26.688 Z-1.857
N10690 Z5.
N10695 X23.435 Y103.095
N10700 Z1. F666.67
N10705 Z-2.175 F2000.
N10710 X23.444 Y103.086
N10715 G2 X24.135 Y102.275 I-21.702 J-19.185
N10720 X24.536 Y101.751 I-7.82 J-6.416
N10725 G3 X24.965 Y101.248 I3.199 J2.293
N10730 X25.502 Y100.797 I2.981 J3.007
N10735 G2 X26.062 Y100.374 I-6.118 J-8.66
N10740 X31.667 Y94.373 I-18.782 J-23.165
N10745 X35.496 Y87.109 I-26.25 J-18.476
N10750 G3 X35.894 Y86.938 I0.282 J0.105
N10755 G2 X43.586 Y89.083 I12.226 J-28.97
N10760 X51.57 Y89.272 I4.77 J-32.735
N10765 X52.145 Y89.19 I-0.633 J-6.488
N10770 G3 X52.724 Y89.136 I0.579 J3.066
N10775 X53.604 Y89.212 I-0.001 J5.115
N10780 G2 X54.478 Y89.331 I2.007 J-11.491
N10785 X66.782 Y87.99 I2.94 J-30.148
N10790 X77.634 Y82.041 I-10.282 J-31.632
N10795 X85.38 Y72.399 I-19.257 J-23.402
N10800 X88.848 Y60.527 I-29.633 J-15.099
N10805 X88.969 Y57.427 I-26.51 J-2.585
N10810 X88.786 Y54.33 I-39.197 J0.758
N10815 X88.706 Y53.771 I-6.348 J0.627
N10820 G3 X88.653 Y53.208 I2.972 J-0.563
N10825 X88.729 Y52.328 I5.117 J0.
N10830 G2 X88.848 Y51.454 I-11.494 J-2.005
N10835 X88.592 Y43.766 I-29.441 J-2.867
N10840 X86.456 Y36.378 I-32.304 J5.336
N10845 G3 X86.628 Y35.979 I0.277 J-0.117
N10850 G2 X94.09 Y31.958 I-10.788 J-28.953
N10855 X100.235 Y26.118 I-19.618 J-26.8
N10860 X100.49 Y25.778 I-4.19 J-3.409
N10865 G3 X100.762 Y25.45 I1.98 J1.367
N10870 X101.28 Y25.009 I2.893 J2.87
N10875 G2 X101.819 Y24.595 I-6.032 J-8.406
N10880 X103.087 Y23.492 I-19.241 J-23.4
N10885 G1 X103.096 Y23.484
N10890 X103.148 Y23.436 Z-2.167
N10895 X103.197 Y23.39 Z-2.144
N10900 X103.241 Y23.35 Z-2.106
N10905 X103.278 Y23.316 Z-2.055
N10910 X103.306 Y23.29 Z-1.995
N10915 X103.324 Y23.274 Z-1.928
N10920 X103.329 Y23.269 Z-1.857
N10925 Z5.
N10930 X19.982 Y103.096
N10935 Z1. F666.67
N10940 Z-2.175 F2000.
N10945 X19.991 Y103.087
N10950 G2 X22.212 Y100.697 I-18.265 J-19.199
N10955 X22.689 Y100.069 I-8.159 J-6.694
N10960 G3 X23.198 Y99.466 I3.644 J2.559
N10965 X23.834 Y98.937 I3.319 J3.349
N10970 G2 X24.495 Y98.441 I-6.206 J-8.966
N10975 X28.556 Y94.339 I-16.676 J-20.568
N10980 X31.731 Y89.517 I-25.49 J-20.238
N10985 X32.829 Y87.18 I-20.98 J-11.283
N10990 X33.691 Y84.747 I-26.971 J-10.93
N10995 X33.773 Y84.446 I-4.767 J-1.455
N11000 G3 X33.855 Y84.145 I5.035 J1.205
N11005 X34.291 Y83.845 I0.406 J0.123
N11010 G2 X35.025 Y83.886 I1.838 J-26.101
N11015 G3 X35.43 Y83.99 I-0.042 J1.007
N11020 G2 X40.41 Y85.887 I12.375 J-25.007
N11025 X45.651 Y86.855 I8.262 J-30.057
N11030 X48.49 Y86.943 I2.092 J-21.481
N11035 X51.324 Y86.756 I-1.571 J-45.314
N11040 G1 X51.395 Y86.747
N11045 X51.467 Y86.737
N11050 G3 X53.983 Y86.738 I1.257 J12.183
N11055 X54.352 Y86.786 I-0.736 J7.121
N11060 G2 X54.722 Y86.834 I0.937 J-5.776
N11065 X66.056 Y85.6 I2.709 J-27.786
N11070 X76.054 Y80.121 I-9.461 J-29.126
N11075 X83.185 Y71.229 I-17.68 J-21.485
N11080 X86.373 Y60.285 I-27.444 J-13.93
N11085 X86.485 Y57.726 I-23.901 J-2.33
N11090 X86.346 Y55.167 I-28.821 J0.276
N11095 X86.301 Y54.817 I-5.568 J0.55
N11100 G3 X86.255 Y54.466 I6.407 J-1.016
N11105 Y51.949 I12.19 J-1.258
N11110 X86.303 Y51.58 I7.124 J0.736
N11115 G2 X86.351 Y51.21 I-5.776 J-0.937
N11120 X86. Y43.361 I-27.691 J-2.696
N11125 X83.507 Y35.911 I-28.355 J5.344
N11130 G3 X83.404 Y35.506 I0.903 J-0.447
N11135 G2 X83.363 Y34.776 I-26.142 J1.101
N11140 G3 X83.663 Y34.34 I0.423 J-0.03
N11145 X84.01 Y34.245 I1.954 J6.432
N11150 G2 X84.358 Y34.149 I-1.333 J-5.533
N11155 X92.042 Y30.381 I-8.134 J-26.311
N11160 X98.305 Y24.549 I-17.871 J-25.468
N11165 X98.632 Y24.107 I-4.679 J-3.807
N11170 G3 X98.98 Y23.683 I2.409 J1.62
N11175 X99.597 Y23.162 I3.248 J3.222
N11180 G2 X100.239 Y22.674 I-6.166 J-8.768
N11185 X103.079 Y19.982 I-17.665 J-21.483
N11190 G1 X103.087 Y19.973
N11195 X103.135 Y19.921 Z-2.167
N11200 X103.18 Y19.871 Z-2.144
N11205 X103.221 Y19.827 Z-2.106
N11210 X103.255 Y19.79 Z-2.055
N11215 X103.28 Y19.762 Z-1.995
N11220 X103.296 Y19.745 Z-1.928
N11225 X103.302 Y19.739 Z-1.857
N11230 Z5.
N11235 X15.892 Y103.089
N11240 Z1. F666.67
N11245 Z-2.175 F2000.
N11250 X15.902 Y103.081
N11255 G2 X16.452 Y102.656 I-17.578 J-23.287
N11260 X20.157 Y99.011 I-15.171 J-19.132
N11265 X20.348 Y98.763 I-3.867 J-3.173
N11270 G3 X20.539 Y98.515 I4.243 J3.067
N11275 X22.27 Y96.799 I9.083 J7.431
N11280 X22.547 Y96.589 I3.99 J4.964
N11285 G2 X22.823 Y96.379 I-3.187 J-4.482
N11290 X28.606 Y89.691 I-15.852 J-19.551
N11295 X31.833 Y81.458 I-23.445 J-13.939
N11300 G3 X32.459 Y81.017 I0.552 J0.118
N11305 G2 X33.779 Y81.165 I4.48 J-33.937
N11310 X35.103 Y81.255 I2.509 J-27.054
N11315 G3 X36.627 Y81.646 I-0.166 J3.817
N11320 G2 X41.149 Y83.36 I11.19 J-22.692
N11325 X45.906 Y84.235 I7.523 J-27.538
N11330 X48.754 Y84.309 I1.946 J-19.98
N11335 X51.594 Y84.075 I-1.715 J-38.07
N11340 G3 X53.855 I1.129 J9.383
N11345 G2 X56.714 Y84.31 I4.533 J-37.587
N11350 X59.582 Y84.233 I0.89 J-20.093
N11355 X69.526 Y81.336 I-2.769 J-28.022
N11360 X77.609 Y74.86 I-11.375 J-22.481
N11365 X82.611 Y65.753 I-21.687 J-17.837
N11370 X83.739 Y55.425 I-23.986 J-7.847
N11375 X83.669 Y54.881 I-8.857 J0.875
N11380 G3 X83.592 Y54.338 I13.45 J-2.172
N11385 Y52.077 I9.388 J-1.131
N11390 G2 X83.827 Y49.234 I-37.73 J-4.546
N11395 X83.752 Y46.382 I-20.071 J-0.9
N11400 X82.877 Y41.628 I-28.422 J2.774
N11405 X81.163 Y37.107 I-24.423 J6.675
N11410 G3 X80.773 Y35.584 I3.427 J-1.689
N11415 G2 X80.683 Y34.261 I-27.048 J1.177
N11420 X80.535 Y32.944 I-34.297 J3.181
N11425 G3 X80.977 Y32.318 I0.56 J-0.074
N11430 G2 X87.175 Y30.166 I-5.569 J-26.046
N11435 X92.679 Y26.594 I-12.297 J-24.97
N11440 X94.546 Y24.814 I-12.227 J-14.698
N11445 X96.232 Y22.862 I-32.289 J-29.594
N11450 G1 X96.273 Y22.808
N11455 X96.314 Y22.755
N11460 G3 X98.03 Y21.024 I9.144 J7.353
N11465 X98.291 Y20.823 I3.64 J4.452
N11470 G2 X98.551 Y20.622 I-3.069 J-4.25
N11475 X103.08 Y15.772 I-16.074 J-19.549
N11480 G1 X103.087 Y15.762
N11485 X103.128 Y15.705 Z-2.167
N11490 X103.167 Y15.65 Z-2.144
N11495 X103.202 Y15.601 Z-2.106
N11500 X103.231 Y15.56 Z-2.055
N11505 X103.253 Y15.529 Z-1.995
N11510 X103.267 Y15.51 Z-1.928
N11515 X103.271 Y15.504 Z-1.857
N11520 Z5.
N11525 X10.64 Y103.091
N11530 Z1. F666.67
N11535 Z-2.175 F2000.
N11540 X10.662 Y103.08
N11545 G2 X15.153 Y100.128 I-11.528 J-22.431
N11550 X17.005 Y98.363 I-11.099 J-13.496
N11555 X18.654 Y96.406 I-26.552 J-24.05
N11560 G3 X20.178 Y94.895 I6.766 J5.301
N11565 G2 X22.196 Y93.217 I-21.195 J-27.546
N11570 X24.013 Y91.324 I-11.787 J-13.135
N11575 X27.244 Y86.298 I-19.341 J-15.982
N11580 X29.155 Y80.636 I-21.317 J-10.346
N11585 G3 X29.731 Y79.462 I2.52 J0.508
N11590 G2 X30.748 Y78.225 I-24.069 J-20.829
N11595 G3 X31.353 Y78.003 I0.482 J0.377
N11600 G2 X35.867 Y78.486 I4.755 J-23.077
N11605 G3 X37.289 Y78.851 I-0.039 J3.11
N11610 G2 X41.604 Y80.591 I10.365 J-19.475
N11615 X46.176 Y81.459 I7.071 J-24.796
N11620 X48.96 Y81.517 I1.779 J-18.268
N11625 X51.73 Y81.243 I-1.735 J-31.654
N11630 G3 X53.72 I0.994 J6.924
N11635 G2 X56.804 Y81.507 I3.836 J-26.669
N11640 X59.897 Y81.398 I0.684 J-24.493
N11645 X68.735 Y78.595 I-2.201 J-22.276
N11650 X75.832 Y72.629 I-12.536 J-22.114
N11655 X79.362 Y66.577 I-16.956 J-13.947
N11660 X80.976 Y59.759 I-24.23 J-9.337
N11665 X81.035 Y56.975 I-18.24 J-1.778
N11670 X80.76 Y54.203 I-31.716 J1.745
N11675 G3 Y52.212 I6.928 J-0.995
N11680 G2 X81.024 Y49.142 I-26.704 J-3.837
N11685 X80.918 Y46.062 I-24.519 J-0.697
N11690 X80.05 Y41.789 I-21.079 J2.058
N11695 X78.366 Y37.766 I-22.453 J7.033
N11700 G3 X78.004 Y36.351 I2.731 J-1.454
N11705 G2 X77.521 Y31.837 I-24.147 J0.299
N11710 G3 X77.743 Y31.232 I0.599 J-0.123
N11715 G2 X78.979 Y30.216 I-20.88 J-26.65
N11720 G3 X80.153 Y29.64 I1.681 J1.944
N11725 G2 X85.847 Y27.713 I-4.665 J-23.158
N11730 X90.894 Y24.449 I-11.011 J-22.568
N11735 X92.757 Y22.653 I-11.279 J-13.558
N11740 X94.411 Y20.662 I-26.095 J-23.354
N11745 G3 X95.922 Y19.138 I6.81 J5.243
N11750 G2 X97.889 Y17.479 I-21.878 J-27.942
N11755 X99.662 Y15.616 I-11.781 J-12.986
N11760 X103.081 Y10.151 I-19.498 J-15.999
N11765 X102.62 Y7.65 I-2.007 J-0.923
N11770 G3 X101.916 Y5.205 I1.805 J-1.843
N11775 G2 X102.446 Y2.039 I-22.616 J-5.417
N11780 X100.159 Y-9.398 I-20.009 J-1.945
N11785 X97.915 Y-12.854 I-21.672 J11.618
N11790 X95.041 Y-15.807 I-14.571 J11.305
N11795 X94.45 Y-16.26 I-7.203 J8.78
N11800 G3 X93.849 Y-16.698 I27.238 J-38.03
N11805 X92.539 Y-18.019 I3.65 J-4.929
N11810 G2 X88.644 Y-22.18 I-18.703 J13.602
N11815 X84.021 Y-25.012 I-12.272 J14.844
N11820 X78.812 Y-26.518 I-8.495 J19.633
N11825 G3 X77.799 Y-27.015 I0.291 J-1.873
N11830 G2 X76.252 Y-28.354 I-15.628 J16.485
N11835 X74.584 Y-29.537 I-12.167 J15.401
N11840 G3 X74.392 Y-30.053 I0.243 J-0.384
N11845 G2 X75.266 Y-36.515 I-19.522 J-5.931
N11850 G3 X75.562 Y-37.739 I2.404 J-0.065
N11855 G2 X76.555 Y-39.678 I-32.579 J-17.9
N11860 X77.34 Y-41.711 I-13.106 J-6.231
N11865 X78.196 Y-45.733 I-23.532 J-7.111
N11870 X78.255 Y-49.844 I-18.304 J-2.319
N11875 X78.132 Y-50.806 I-15.863 J1.549
N11880 X77.972 Y-51.763 I-69.473 J11.081
N11885 G3 X77.973 Y-53.487 I4.96 J-0.861
N11890 G2 X77.331 Y-63.568 I-21.306 J-3.705
N11895 X73.358 Y-70.753 I-18.821 J5.718
N11900 X66.94 Y-75.873 I-17.122 J14.879
N11905 X60.432 Y-77.989 I-9.17 J17.132
N11910 X53.588 Y-77.871 I-3.042 J22.003
N11915 G3 X51.864 I-0.862 J-4.961
N11920 G2 X41.789 Y-77.232 I-3.706 J21.316
N11925 X39.768 Y-76.449 I4.194 J13.825
N11930 X37.84 Y-75.461 I16.228 J34.057
N11935 G3 X36.615 Y-75.165 I-1.16 J-2.112
N11940 G2 X30.153 Y-74.29 I-0.545 J20.271
N11945 G3 X29.637 Y-74.481 I-0.132 J-0.435
N11950 G2 X28.454 Y-76.15 I-16.539 J10.473
N11955 X27.115 Y-77.696 I-17.88 J14.137
N11960 G3 X26.619 Y-78.708 I1.372 J-1.301
N11965 G2 X24.957 Y-84.174 I-19.994 J3.092
N11970 X21.904 Y-89.003 I-20.432 J9.539
N11975 X20.119 Y-90.841 I-12.355 J10.214
N11980 X18.119 Y-92.44 I-18.497 J21.089
N11985 G3 X16.798 Y-93.749 I3.601 J-4.953
N11990 G2 X14.994 Y-95.907 I-19.15 J14.177
N11995 X12.938 Y-97.827 I-15.951 J15.021
N12000 X7.582 Y-100.932 I-12.205 J14.881
N12005 X1.555 Y-102.346 I-8.277 J21.732
N12010 X-9.884 Y-100.057 I-1.945 J20.009
N12015 X-13.338 Y-97.813 I11.625 J21.679
N12020 X-16.29 Y-94.941 I11.304 J14.569
N12025 X-16.742 Y-94.35 I8.781 J7.204
N12030 G3 X-17.18 Y-93.749 I-38.066 J-27.267
N12035 X-18.501 Y-92.44 I-4.922 J-3.645
N12040 G2 X-22.667 Y-88.542 I13.598 J18.708
N12045 X-25.498 Y-83.918 I14.845 J12.267
N12050 X-27.001 Y-78.707 I19.616 J8.481
N12055 G3 X-27.498 Y-77.695 I-1.87 J-0.29
N12060 G2 X-28.837 Y-76.15 I16.541 J15.681
N12065 X-30.02 Y-74.482 I15.371 J12.152
N12070 G3 X-30.536 Y-74.29 I-0.384 J-0.243
N12075 G2 X-36.998 Y-75.165 I-5.933 J19.519
N12080 G3 X-38.222 Y-75.461 I-0.065 J-2.406
N12085 G2 X-40.16 Y-76.453 I-17.916 J32.61
N12090 X-42.191 Y-77.238 I-6.23 J13.103
N12095 X-46.214 Y-78.095 I-7.114 J23.526
N12100 X-50.327 Y-78.154 I-2.32 J18.305
N12105 X-51.29 Y-78.031 I1.55 J15.879
N12110 X-52.248 Y-77.871 I11.007 J69.008
N12115 G3 X-53.972 I-0.862 J-4.962
N12120 G2 X-64.046 Y-77.232 I-3.704 J21.322
N12125 X-71.235 Y-73.258 I5.71 J18.821
N12130 X-76.359 Y-66.836 I14.883 J17.129
N12135 X-78.475 Y-60.328 I17.123 J9.165
N12140 X-78.356 Y-53.486 I22.009 J3.04
N12145 G3 Y-51.762 I-4.963 J0.862
N12150 G2 X-77.718 Y-41.692 I21.318 J3.704
N12155 X-76.934 Y-39.669 I13.829 J-4.192
N12160 X-75.945 Y-37.738 I34.021 J-16.208
N12165 G3 X-75.649 Y-36.514 I-2.11 J1.159
N12170 G2 X-74.775 Y-30.052 I20.249 J0.551
N12175 G3 X-74.966 Y-29.536 I-0.435 J0.132
N12180 G2 X-76.635 Y-28.353 I10.497 J16.579
N12185 X-78.181 Y-27.015 I14.089 J17.831
N12190 G3 X-79.193 Y-26.517 I-1.304 J-1.375
N12195 G2 X-84.66 Y-24.852 I3.11 J20.02
N12200 X-89.49 Y-21.796 I9.552 J20.441
N12205 X-91.324 Y-20.015 I10.242 J12.38
N12210 X-92.921 Y-18.018 I21.009 J18.44
N12215 G3 X-94.231 Y-16.698 I-4.956 J-3.605
N12220 G2 X-96.388 Y-14.894 I14.178 J19.154
N12225 X-98.307 Y-12.84 I15.02 J15.954
N12230 X-101.414 Y-7.483 I14.876 J12.206
N12235 X-102.828 Y-1.455 I21.733 J8.278
N12240 X-100.539 Y9.985 I20.01 J1.945
N12245 X-98.295 Y13.44 I21.676 J-11.625
N12250 X-95.421 Y16.392 I14.568 J-11.305
N12255 X-94.831 Y16.844 I7.197 J-8.774
N12260 G3 X-94.23 Y17.282 I-27.133 J37.892
N12265 X-92.92 Y18.603 I-3.65 J4.929
N12270 G2 X-89.031 Y22.76 I18.72 J-13.616
N12275 X-84.406 Y25.594 I12.282 J-14.85
N12280 X-79.195 Y27.1 I8.485 J-19.597
N12285 G3 X-78.182 Y27.597 I-0.29 J1.871
N12290 G2 X-76.635 Y28.937 I15.637 J-16.491
N12295 X-74.966 Y30.121 I12.176 J-15.409
N12300 G3 X-74.774 Y30.637 I-0.243 J0.384
N12305 G2 X-75.648 Y37.098 I19.526 J5.931
N12310 G3 X-75.944 Y38.322 I-2.404 J0.065
N12315 G2 X-76.937 Y40.261 I32.593 J17.909
N12320 X-77.722 Y42.294 I13.103 J6.23
N12325 X-78.578 Y46.315 I23.53 J7.111
N12330 X-78.638 Y50.425 I18.307 J2.32
N12335 X-78.514 Y51.388 I15.901 J-1.549
N12340 X-78.355 Y52.347 I68.43 J-10.901
N12345 G3 Y54.071 I-4.959 J0.861
N12350 G2 X-77.713 Y64.155 I21.306 J3.706
N12355 X-73.738 Y71.339 I18.82 J-5.72
N12360 X-67.321 Y76.458 I17.129 J-14.889
N12365 X-60.812 Y78.575 I9.166 J-17.122
N12370 X-53.969 Y78.456 I3.04 J-22.009
N12375 G3 X-52.245 I0.862 J4.962
N12380 G2 X-42.171 Y77.817 I3.704 J-21.317
N12385 X-40.151 Y77.034 I-4.193 J-13.821
N12390 X-38.222 Y76.046 I-16.243 J-34.086
N12395 G3 X-36.997 Y75.749 I1.16 J2.113
N12400 G2 X-30.535 Y74.874 I0.545 J-20.272
N12405 G3 X-30.019 Y75.066 I0.132 J0.435
N12410 G2 X-28.836 Y76.734 I16.54 J-10.474
N12415 X-27.497 Y78.279 I17.88 J-14.137
N12420 G3 X-27. Y79.291 I-1.372 J1.301
N12425 G2 X-25.339 Y84.757 I19.995 J-3.092
N12430 X-22.286 Y89.587 I20.432 J-9.539
N12435 X-20.501 Y91.424 I12.36 J-10.218
N12440 X-18.501 Y93.023 I18.489 J-21.076
N12445 G3 X-17.18 Y94.333 I-3.602 J4.954
N12450 G2 X-15.377 Y96.49 I19.151 J-14.178
N12455 X-13.322 Y98.409 I15.954 J-15.023
N12460 X-7.967 Y101.514 I12.206 J-14.877
N12465 X-1.941 Y102.929 I8.281 J-21.735
N12470 X9.499 Y100.642 I1.948 J-20.007
N12475 X12.954 Y98.398 I-11.62 J-21.676
N12480 X15.907 Y95.524 I-11.303 J-14.57
N12485 X16.36 Y94.934 I-8.79 J-7.212
N12490 G3 X16.799 Y94.332 I38.294 J27.432
N12495 X18.12 Y93.022 I4.926 J3.648
N12500 G2 X22.285 Y89.126 I-13.626 J-18.74
N12505 X25.116 Y84.501 I-14.845 J-12.267
N12510 X26.619 Y79.291 I-19.616 J-8.481
N12515 G3 X27.116 Y78.279 I1.87 J0.29
N12520 G2 X28.455 Y76.733 I-16.533 J-15.674
N12525 X29.637 Y75.065 I-15.377 J-12.156
N12530 G3 X30.154 Y74.873 I0.384 J0.243
N12535 G2 X34.349 Y75.712 I6.382 J-21.011
N12540 X35.482 Y75.766 I1.091 J-11.013
N12545 X36.616 Y75.748 I-0.185 J-48.777
N12550 G3 X37.84 Y76.045 I0.065 J2.406
N12555 G2 X39.777 Y77.037 I17.921 J-32.618
N12560 X41.808 Y77.822 I6.23 J-13.102
N12565 X45.831 Y78.679 I7.115 J-23.524
N12570 X49.945 Y78.738 I2.321 J-18.305
N12575 X50.907 Y78.614 I-1.549 J-15.868
N12580 X51.864 Y78.455 I-11.064 J-69.378
N12585 G3 X53.588 I0.861 J4.96
N12590 G2 X63.668 Y77.814 I3.705 J-21.306
N12595 X70.854 Y73.839 I-5.717 J-18.82
N12600 X75.975 Y67.42 I-14.888 J-17.129
N12605 X78.091 Y60.912 I-17.123 J-9.165
N12610 X77.972 Y54.07 I-22.009 J-3.04
N12615 G3 Y52.345 I4.963 J-0.862
N12620 G2 X77.334 Y42.274 I-21.318 J-3.704
N12625 X76.551 Y40.252 I-13.827 J4.192
N12630 X75.562 Y38.321 I-34.034 J16.215
N12635 G3 X75.266 Y37.097 I2.11 J-1.159
N12640 G2 X74.392 Y30.637 I-20.247 J-0.551
N12645 G3 X74.583 Y30.121 I0.434 J-0.132
N12650 G2 X76.251 Y28.939 I-10.466 J-16.533
N12655 X77.796 Y27.6 I-14.146 J-17.895
N12660 G3 X78.809 Y27.104 I1.302 J1.373
N12665 G2 X84.301 Y25.429 I-3.087 J-19.963
N12670 X89.147 Y22.348 I-9.581 J-20.422
N12675 X90.959 Y20.581 I-10.251 J-12.323
N12680 X92.538 Y18.603 I-21.203 J-18.553
N12685 G3 X93.848 Y17.282 I4.956 J3.605
N12690 G2 X96.006 Y15.479 I-14.174 J-19.152
N12695 X97.926 Y13.424 I-15.019 J-15.954
N12700 X101.032 Y8.067 I-14.876 J-12.207
N12705 X101.916 Y5.205 I-21.733 J-8.278
N12710 X101.025 Y2.928 I-2.082 J-0.499
N12715 G3 X99.889 Y0.762 I1.424 J-2.127
N12720 G2 X99.809 Y-1.203 I-17.426 J-0.267
N12725 X97.835 Y-8.123 I-19.93 J1.942
N12730 X93.36 Y-13.758 I-15.289 J7.546
N12735 X92.605 Y-14.339 I-9.546 J11.636
N12740 X91.825 Y-14.887 I-25.243 J35.082
N12745 G3 X90.711 Y-16.011 I2.395 J-3.489
N12750 G2 X87.685 Y-19.474 I-15.294 J10.308
N12755 X83.918 Y-22.112 I-13.113 J14.72
N12760 X80.807 Y-23.38 I-7.462 J13.86
N12765 X77.507 Y-24.012 I-5.122 J17.808
N12770 G3 X76.611 Y-24.454 I0.14 J-1.413
N12775 G2 X74.548 Y-26.355 I-14.089 J13.217
N12780 X72.203 Y-27.896 I-9.646 J12.126
N12785 X71.748 Y-28.122 I-3.979 J7.448
N12790 G3 X71.289 Y-28.341 I6.523 J-14.206
N12795 X71.131 Y-28.775 I0.15 J-0.3
N12800 G2 X72.373 Y-32.928 I-16.952 J-7.33
N12805 X72.573 Y-37.258 I-16.91 J-2.952
N12810 G3 X72.828 Y-38.31 I1.726 J-0.139
N12815 G2 X74.975 Y-43.044 I-17.064 J-10.593
N12820 X75.672 Y-47.451 I-15.693 J-4.743
N12825 X75.249 Y-51.893 I-19.346 J-0.396
N12830 G3 Y-53.358 I3.424 J-0.732
N12835 G2 X75.622 Y-58.107 I-17.646 J-3.777
N12840 X74.796 Y-62.798 I-19.779 J1.067
N12845 X71.309 Y-69.072 I-16.299 J4.952
N12850 X65.69 Y-73.537 I-15.083 J13.214
N12855 X59.717 Y-75.427 I-8.037 J15.015
N12860 X53.459 Y-75.147 I-2.297 J18.809
N12865 G3 X51.994 Y-75.148 I-0.732 J-3.424
N12870 G2 X47.247 Y-75.521 I-3.778 J17.654
N12875 X42.558 Y-74.697 I1.063 J19.786
N12880 X40.42 Y-73.847 I4.001 J13.189
N12885 X38.41 Y-72.727 I10.954 J22.016
N12890 G3 X37.359 Y-72.472 I-0.912 J-1.47
N12895 G2 X33.029 Y-72.271 I-1.374 J17.123
N12900 X28.875 Y-71.029 I3.184 J18.222
N12905 G3 X28.441 Y-71.188 I-0.133 J-0.308
N12910 G2 X27.482 Y-72.962 I-27.841 J13.905
N12915 X26.331 Y-74.618 I-10.965 J6.395
N12920 X24.558 Y-76.504 I-14.842 J12.177
N12925 G3 X24.112 Y-77.403 I0.982 J-1.046
N12930 G2 X21.581 Y-84.898 I-17.74 J1.818
N12935 X16.11 Y-90.612 I-15.866 J9.715
N12940 G3 X14.987 Y-91.725 I2.361 J-3.505
N12945 G2 X11.969 Y-95.135 I-15.281 J10.487
N12950 X8.228 Y-97.732 I-13.015 J14.75
N12955 X-1.688 Y-99.708 I-8.216 J15.369
N12960 X-8.607 Y-97.734 I1.946 J19.933
N12965 X-14.241 Y-93.26 I7.546 J15.288
N12970 X-14.822 Y-92.504 I11.639 J9.549
N12975 X-15.37 Y-91.725 I35.043 J25.218
N12980 G3 X-16.493 Y-90.611 I-3.484 J-2.392
N12985 G2 X-19.959 Y-87.585 I10.302 J15.296
N12990 X-22.598 Y-83.815 I14.684 J13.086
N12995 X-23.862 Y-80.703 I13.777 J7.41
N13000 X-24.495 Y-77.403 I18.229 J5.208
N13005 G3 X-24.939 Y-76.505 I-1.422 J-0.144
N13010 G2 X-26.846 Y-74.434 I13.218 J14.084
N13015 X-28.389 Y-72.08 I12.134 J9.638
N13020 X-28.609 Y-71.635 I7.313 J3.895
N13025 G3 X-28.824 Y-71.187 I-13.28 J-6.081
N13030 X-29.257 Y-71.029 I-0.3 J-0.15
N13035 G2 X-33.411 Y-72.271 I-7.333 J16.956
N13040 X-37.742 Y-72.472 I-2.955 J16.913
N13045 G3 X-38.792 Y-72.727 I-0.139 J-1.723
N13050 G2 X-43.524 Y-74.873 I-10.594 J17.065
N13055 X-47.933 Y-75.571 I-4.745 J15.692
N13060 X-52.377 Y-75.148 I-0.397 J19.344
N13065 G3 X-53.842 Y-75.147 I-0.733 J-3.425
N13070 G2 X-58.588 Y-75.521 I-3.777 J17.662
N13075 X-63.277 Y-74.696 I1.063 J19.781
N13080 X-69.555 Y-71.209 I4.945 J16.298
N13085 X-74.022 Y-65.586 I13.219 J15.089
N13090 X-75.912 Y-59.614 I15.006 J8.032
N13095 X-75.632 Y-53.357 I18.814 J2.294
N13100 G3 Y-51.891 I-3.425 J0.732
N13105 G2 X-76.005 Y-47.147 I17.655 J3.776
N13110 X-75.182 Y-42.46 I19.789 J-1.062
N13115 X-74.332 Y-40.32 I13.188 J-3.998
N13120 X-73.211 Y-38.309 I22.019 J-10.954
N13125 G3 X-72.956 Y-37.256 I-1.474 J0.914
N13130 G2 X-72.755 Y-32.926 I17.105 J1.376
N13135 X-71.514 Y-28.774 I18.219 J-3.183
N13140 G3 X-71.672 Y-28.34 I-0.308 J0.133
N13145 G2 X-73.441 Y-27.384 I13.936 J27.909
N13150 X-75.092 Y-26.238 I6.388 J10.964
N13155 X-76.992 Y-24.453 I12.165 J14.856
N13160 G3 X-77.889 Y-24.011 I-1.036 J-0.972
N13165 G2 X-85.384 Y-21.485 I1.737 J17.539
N13170 X-91.093 Y-16.01 I9.795 J15.926
N13175 G3 X-92.207 Y-14.887 I-3.506 J-2.364
N13180 G2 X-95.618 Y-11.867 I10.487 J15.282
N13185 X-98.216 Y-8.125 I14.747 J13.012
N13190 X-100.19 Y1.787 I15.371 J8.215
N13195 X-98.216 Y8.707 I19.931 J-1.943
N13200 X-93.741 Y14.343 I15.287 J-7.545
N13205 X-92.986 Y14.923 I9.542 J-11.633
N13210 X-92.206 Y15.471 I25.276 J-35.133
N13215 G3 X-91.092 Y16.595 I-2.396 J3.489
N13220 G2 X-88.073 Y20.052 I15.303 J-10.315
N13225 X-84.315 Y22.688 I13.108 J-14.697
N13230 X-81.196 Y23.958 I7.424 J-13.763
N13235 X-77.89 Y24.594 I5.231 J-18.265
N13240 G3 X-76.991 Y25.039 I-0.145 J1.425
N13245 G2 X-74.921 Y26.945 I14.073 J-13.206
N13250 X-72.568 Y28.488 I9.646 J-12.144
N13255 X-72.121 Y28.709 I3.912 J-7.342
N13260 G3 X-71.671 Y28.925 I-6.158 J13.441
N13265 X-71.513 Y29.358 I-0.15 J0.3
N13270 G2 X-72.755 Y33.511 I16.952 J7.329
N13275 X-72.955 Y37.841 I16.911 J2.953
N13280 G3 X-73.21 Y38.893 I-1.726 J0.139
N13285 G2 X-75.357 Y43.627 I17.066 J10.594
N13290 X-76.055 Y48.035 I15.693 J4.743
N13295 X-75.631 Y52.477 I19.345 J0.396
N13300 G3 Y53.942 I-3.423 J0.732
N13305 G2 X-76.005 Y58.692 I17.646 J3.778
N13310 X-75.177 Y63.384 I19.777 J-1.067
N13315 X-71.69 Y69.658 I16.298 J-4.954
N13320 X-66.07 Y74.122 I15.09 J-13.225
N13325 X-60.098 Y76.012 I8.033 J-15.005
N13330 X-53.84 Y75.732 I2.294 J-18.814
N13335 G3 X-52.374 I0.732 J3.425
N13340 G2 X-47.629 Y76.106 I3.776 J-17.655
N13345 X-42.94 Y75.281 I-1.064 J-19.785
N13350 X-40.802 Y74.432 I-4. J-13.186
N13355 X-38.792 Y73.311 I-10.96 J-22.026
N13360 G3 X-37.742 Y73.057 I0.912 J1.47
N13365 G2 X-33.411 Y72.855 I1.374 J-17.123
N13370 X-29.256 Y71.614 I-3.184 J-18.221
N13375 G3 X-28.823 Y71.772 I0.133 J0.308
N13380 G2 X-27.864 Y73.546 I27.853 J-13.912
N13385 X-26.713 Y75.201 I10.963 J-6.394
N13390 X-24.94 Y77.087 I14.842 J-12.177
N13395 G3 X-24.494 Y77.987 I-0.982 J1.046
N13400 G2 X-21.963 Y85.481 I17.741 J-1.818
N13405 X-16.492 Y91.195 I15.867 J-9.715
N13410 G3 X-15.369 Y92.309 I-2.362 J3.505
N13415 G2 X-12.35 Y95.719 I15.281 J-10.488
N13420 X-8.608 Y98.317 I13.012 J-14.749
N13425 X1.306 Y100.291 I8.215 J-15.371
N13430 X8.224 Y98.317 I-1.946 J-19.933
N13435 X13.859 Y93.844 I-7.546 J-15.288
N13440 X14.44 Y93.088 I-11.643 J-9.553
N13445 X14.988 Y92.308 I-34.98 J-25.173
N13450 G3 X16.112 Y91.194 I3.487 J2.394
N13455 G2 X19.577 Y88.168 I-10.318 J-15.314
N13460 X22.215 Y84.399 I-14.671 J-13.079
N13465 X23.48 Y81.286 I-13.777 J-7.41
N13470 X24.113 Y77.987 I-18.231 J-5.208
N13475 G3 X24.557 Y77.088 I1.422 J0.144
N13480 G2 X26.463 Y75.018 I-13.218 J-14.084
N13485 X28.006 Y72.665 I-12.134 J-9.639
N13490 X28.227 Y72.219 I-7.327 J-3.903
N13495 G3 X28.442 Y71.771 I13.359 J6.119
N13500 X28.875 Y71.613 I0.3 J0.15
N13505 G2 X33.029 Y72.855 I7.333 J-16.956
N13510 X37.36 Y73.056 I2.955 J-16.913
N13515 G3 X38.41 Y73.31 I0.139 J1.723
N13520 G2 X43.141 Y75.456 I10.595 J-17.066
N13525 X47.55 Y76.155 I4.745 J-15.691
N13530 X51.993 Y75.731 I0.398 J-19.346
N13535 G3 X53.458 Y75.732 I0.732 J3.424
N13540 G2 X58.207 Y76.105 I3.777 J-17.646
N13545 X62.898 Y75.279 I-1.067 J-19.781
N13550 X69.173 Y71.791 I-4.951 J-16.298
N13555 X73.639 Y66.169 I-13.224 J-15.09
N13560 X75.528 Y60.197 I-15.006 J-8.032
N13565 X75.249 Y53.94 I-18.814 J-2.294
N13570 G3 Y52.475 I3.425 J-0.732
N13575 G2 X75.622 Y47.73 I-17.656 J-3.776
N13580 X74.798 Y43.043 I-19.788 J1.062
N13585 X73.948 Y40.904 I-13.187 J3.998
N13590 X72.828 Y38.893 I-22.021 J10.955
N13595 G3 X72.573 Y37.84 I1.473 J-0.914
N13600 G2 X72.372 Y33.511 I-17.102 J-1.376
N13605 X71.131 Y29.358 I-18.223 J3.184
N13610 G3 X71.29 Y28.925 I0.308 J-0.133
N13615 G2 X73.065 Y27.965 I-13.864 J-27.765
N13620 X74.721 Y26.813 I-6.404 J-10.976
N13625 X75.691 Y25.959 I-11.735 J-14.303
N13630 X76.604 Y25.044 I-14.858 J-15.727
N13635 G3 X77.505 Y24.598 I1.048 J0.985
N13640 G2 X84.997 Y22.063 I-1.834 J-17.763
N13645 X90.711 Y16.594 I-9.723 J-15.876
N13650 G3 X91.824 Y15.471 I3.506 J2.364
N13655 G2 X95.236 Y12.451 I-10.486 J-15.282
N13660 X97.834 Y8.709 I-14.746 J-13.012
N13665 X99.889 Y0.762 I-15.371 J-8.215
N13670 X98.544 Y-1.214 I-2.077 J-0.032
N13675 G3 X96.979 Y-3.021 I0.882 J-2.345
N13680 G2 X95.616 Y-6.938 I-17.124 J3.763
N13685 X91.765 Y-11.814 I-13.08 J6.374
N13690 X89.884 Y-13.15 I-10.606 J12.928
N13695 G3 X88.958 Y-14.085 I1.48 J-2.394
N13700 G2 X86.23 Y-17.408 I-12.96 J7.857
N13705 X82.725 Y-19.897 I-11.767 J12.856
N13710 X77.312 Y-21.539 I-6.767 J12.569
N13715 X76.753 Y-21.577 I-0.901 J9.114
N13720 G3 X76.194 Y-21.603 I1.026 J-27.474
N13725 X75.416 Y-21.997 I0.063 J-1.087
N13730 G2 X72.151 Y-24.988 I-12.265 J10.117
N13735 X68.16 Y-26.906 I-8.187 J11.924
N13740 X67.916 Y-26.971 I-1.171 J3.863
N13745 G3 X67.672 Y-27.037 I0.927 J-3.929
N13750 X67.545 Y-27.384 I0.067 J-0.222
N13755 G2 X69.537 Y-31.689 I-14.313 J-9.237
N13760 X70.077 Y-34.445 I-13.268 J-4.031
N13765 X70.072 Y-37.253 I-14.922 J-1.378
N13770 X70.024 Y-37.635 I-6.525 J0.626
N13775 G3 X69.974 Y-38.017 I8.443 J-1.314
N13780 X70.21 Y-38.918 I1.294 J-0.142
N13785 G2 X72.186 Y-42.688 I-12.384 J-8.894
