%
(SNOWFLAKEFEMALE_TAPER_A)
(T2  D=6. CR=0. TAPER=15DEG - ZMIN=-3.175 - CHAMFER MILL)
N10 G90 G94 G17 G91.1
N15 G21
(WHEN USING FUSION 360 FOR PERSONAL USE, THE FEEDRATE OF)
(RAPID MOVES IS REDUCED TO MATCH THE FEEDRATE OF CUTTING)
(MOVES, WHICH CAN INCREASE MACHINING TIME. UNRESTRICTED RAPID)
(MOVES ARE AVAILABLE WITH A FUSION 360 SUBSCRIPTION.)
N20 G53 G0 Z0.
(FEMALEPOCKETTAPERBIT 2)
N25 T2 M6
N30 S16000 M3
N35 G54
N40 G0 X-0.03 Y-0.029
N45 G43 Z15. H2
N50 G1 Z5. F2000.
N55 Z2.5
N60 Z-3.175 F666.67
N65 X0.077 Y0.025 F2000.
N70 X0.144 Y0.16
N75 X0.188 Y0.291
N80 X0.144 Y0.423
N85 X0.076 Y0.559
N90 X-0.059 Y0.627
N95 X-0.191 Y0.67
N100 X-0.322 Y0.627
N105 X-0.458 Y0.558
N110 X-0.526 Y0.423
N115 X-0.57 Y0.292
N120 X-0.526 Y0.16
N125 X-0.458 Y0.024
N130 X-0.323 Y-0.043
N135 X-0.191 Y-0.087
N140 X-0.06 Y-0.043
N145 X-0.03 Y-0.029
N150 G2 X0.242 Y-0.051 I0.118 J-0.235
N155 G3 X0.503 Y0.033 I0.099 J0.137
N160 G1 X0.588 Y0.291
N165 X0.496 Y0.569
N170 X0.359 Y0.842
N175 X0.087 Y0.979
N180 X-0.191 Y1.071
N185 X-0.468 Y0.979
N190 X-0.742 Y0.842
N195 X-0.878 Y0.569
N200 X-0.97 Y0.292
N205 X-0.878 Y0.014
N210 X-0.741 Y-0.259
N215 X-0.469 Y-0.395
N220 X-0.191 Y-0.488
N225 X0.086 Y-0.395
N230 X0.36 Y-0.258
N235 X0.496 Y0.014
N240 X0.503 Y0.033
N245 G2 X0.753 Y0.209 I0.244 J-0.081
N250 G3 X0.934 Y0.455 I0.004 J0.187
N255 G1 X0.848 Y0.715
N260 X0.656 Y1.098
N265 X0.639 Y1.122
N270 X0.618 Y1.137
N275 X0.233 Y1.331
N280 X-0.179 Y1.468
N285 X-0.191 Y1.47
N290 X-0.203 Y1.468
N295 X-0.614 Y1.331
N300 X-0.997 Y1.138
N305 X-1.022 Y1.121
N310 X-1.036 Y1.101
N315 X-1.23 Y0.715
N320 X-1.367 Y0.303
N325 X-1.37 Y0.293
N330 X-1.367 Y0.28
N335 X-1.23 Y-0.132
N340 X-1.038 Y-0.514
N345 X-1.02 Y-0.539
N350 X-1.001 Y-0.553
N355 X-0.615 Y-0.747
N360 X-0.202 Y-0.884
N365 X-0.191 Y-0.887
N370 X-0.179 Y-0.884
N375 X0.232 Y-0.747
N380 X0.615 Y-0.555
N385 X0.64 Y-0.537
N390 X0.654 Y-0.517
N395 X0.848 Y-0.132
N400 X0.985 Y0.28
N405 X0.988 Y0.291
N410 X0.985 Y0.303
N415 X0.934 Y0.455
N420 G2 X1.02 Y0.781 I0.293 J0.098
N425 G3 X1.082 Y1.113 I-0.188 J0.206
N430 G1 X0.992 Y1.291
N435 X0.975 Y1.317
N440 X0.916 Y1.4
N445 X0.836 Y1.457
N450 X0.808 Y1.475
N455 X0.381 Y1.689
N460 X-0.077 Y1.842
N465 X-0.118 Y1.851
N470 X-0.191 Y1.863
N475 X-0.264 Y1.851
N480 X-0.305 Y1.842
N485 X-0.763 Y1.689
N490 X-1.19 Y1.475
N495 X-1.216 Y1.458
N500 X-1.3 Y1.398
N505 X-1.357 Y1.318
N510 X-1.374 Y1.291
N515 X-1.589 Y0.864
N520 X-1.741 Y0.405
N525 X-1.75 Y0.364
N530 X-1.762 Y0.293
N535 X-1.75 Y0.219
N540 X-1.741 Y0.178
N545 X-1.588 Y-0.281
N550 X-1.375 Y-0.707
N555 X-1.357 Y-0.733
N560 X-1.298 Y-0.817
N565 X-1.218 Y-0.874
N570 X-1.191 Y-0.891
N575 X-0.764 Y-1.106
N580 X-0.305 Y-1.258
N585 X-0.264 Y-1.267
N590 X-0.191 Y-1.279
N595 X-0.118 Y-1.267
N600 X-0.077 Y-1.258
N605 X0.381 Y-1.106
N610 X0.808 Y-0.892
N615 X0.835 Y-0.874
N620 X0.918 Y-0.815
N625 X0.975 Y-0.735
N630 X0.992 Y-0.708
N635 X1.207 Y-0.281
N640 X1.359 Y0.178
N645 X1.368 Y0.219
N650 X1.38 Y0.291
N655 X1.368 Y0.364
N660 X1.359 Y0.405
N665 X1.206 Y0.864
N670 X1.082 Y1.113
N675 G2 X1.126 Y1.43 I0.252 J0.127
N680 G3 X1.093 Y1.75 I-0.157 J0.145
N685 G1 X1.053 Y1.778
N690 X1.001 Y1.811
N695 X0.53 Y2.048
N700 X0.026 Y2.216
N705 X-0.045 Y2.231
N710 X-0.191 Y2.256
N715 X-0.337 Y2.231
N720 X-0.407 Y2.216
N725 X-0.912 Y2.048
N730 X-1.382 Y1.812
N735 X-1.434 Y1.778
N740 X-1.577 Y1.676
N745 X-1.677 Y1.536
N750 X-1.711 Y1.484
N755 X-1.947 Y1.013
N760 X-2.115 Y0.508
N765 X-2.13 Y0.438
N770 X-2.155 Y0.293
N775 X-2.13 Y0.146
N780 X-2.115 Y0.076
N785 X-1.947 Y-0.429
N790 X-1.711 Y-0.899
N795 X-1.678 Y-0.951
N800 X-1.575 Y-1.095
N805 X-1.436 Y-1.194
N810 X-1.383 Y-1.228
N815 X-0.912 Y-1.464
N820 X-0.407 Y-1.632
N825 X-0.337 Y-1.647
N830 X-0.191 Y-1.672
N835 X-0.045 Y-1.647
N840 X0.026 Y-1.632
N845 X0.53 Y-1.464
N850 X1. Y-1.228
N855 X1.052 Y-1.195
N860 X1.196 Y-1.093
N865 X1.295 Y-0.952
N870 X1.329 Y-0.9
N875 X1.566 Y-0.429
N880 X1.733 Y0.075
N885 X1.748 Y0.146
N890 X1.773 Y0.291
N895 X1.748 Y0.438
N900 X1.733 Y0.508
N905 X1.565 Y1.013
N910 X1.329 Y1.483
N915 X1.296 Y1.535
N920 X1.194 Y1.678
N925 X1.093 Y1.75
N930 G2 X0.962 Y2.051 I0.185 J0.26
N935 G3 X0.808 Y2.342 I-0.281 J0.037
N940 G1 X0.679 Y2.407
N945 X0.128 Y2.59
N950 X0.029 Y2.611
N955 X-0.191 Y2.649
N960 X-0.41 Y2.611
N965 X-0.51 Y2.59
N970 X-1.06 Y2.407
N975 X-1.575 Y2.148
N980 X-1.651 Y2.099
N985 X-1.855 Y1.954
N990 X-1.998 Y1.753
N995 X-2.048 Y1.676
N1000 X-2.306 Y1.161
N1005 X-2.489 Y0.61
N1010 X-2.511 Y0.511
N1015 X-2.548 Y0.293
N1020 X-2.51 Y0.072
N1025 X-2.489 Y-0.027
N1030 X-2.306 Y-0.578
N1035 X-2.048 Y-1.092
N1040 X-1.998 Y-1.168
N1045 X-1.853 Y-1.372
N1050 X-1.653 Y-1.515
N1055 X-1.576 Y-1.565
N1060 X-1.061 Y-1.823
N1065 X-0.51 Y-2.006
N1070 X-0.411 Y-2.028
N1075 X-0.191 Y-2.065
N1080 X0.029 Y-2.028
N1085 X0.128 Y-2.006
N1090 X0.679 Y-1.823
N1095 X1.193 Y-1.565
N1100 X1.27 Y-1.515
N1105 X1.473 Y-1.37
N1110 X1.616 Y-1.17
N1115 X1.666 Y-1.093
N1120 X1.924 Y-0.578
N1125 X2.107 Y-0.027
N1130 X2.129 Y0.072
N1135 X2.166 Y0.291
N1140 X2.128 Y0.511
N1145 X2.107 Y0.61
N1150 X1.924 Y1.162
N1155 X1.666 Y1.676
N1160 X1.616 Y1.752
N1165 X1.471 Y1.955
N1170 X1.271 Y2.098
N1175 X1.193 Y2.148
N1180 X0.808 Y2.342
N1185 G2 X0.634 Y2.625 I0.142 J0.282
N1190 G3 X0.44 Y2.894 I-0.283 J0.001
N1195 G1 X0.23 Y2.964
N1200 X0.102 Y2.991
N1205 X-0.191 Y3.041
N1210 X-0.484 Y2.991
N1215 X-0.612 Y2.964
N1220 X-1.209 Y2.765
N1225 X-1.767 Y2.485
N1230 X-1.869 Y2.419
N1235 X-2.133 Y2.231
N1240 X-2.318 Y1.971
N1245 X-2.384 Y1.869
N1250 X-2.665 Y1.31
N1255 X-2.863 Y0.712
N1260 X-2.891 Y0.585
N1265 X-2.941 Y0.293
N1270 X-2.891 Y-0.001
N1275 X-2.863 Y-0.129
N1280 X-2.664 Y-0.727
N1285 X-2.385 Y-1.284
N1290 X-2.319 Y-1.386
N1295 X-2.131 Y-1.65
N1300 X-1.871 Y-1.835
N1305 X-1.768 Y-1.901
N1310 X-1.21 Y-2.182
N1315 X-0.612 Y-2.38
N1320 X-0.484 Y-2.408
N1325 X-0.191 Y-2.458
N1330 X0.102 Y-2.408
N1335 X0.23 Y-2.38
N1340 X0.827 Y-2.182
N1345 X1.385 Y-1.902
N1350 X1.487 Y-1.836
N1355 X1.751 Y-1.648
N1360 X1.936 Y-1.387
N1365 X2.002 Y-1.285
N1370 X2.283 Y-0.727
N1375 X2.481 Y-0.129
N1380 X2.509 Y-0.001
N1385 X2.559 Y0.291
N1390 X2.509 Y0.585
N1395 X2.481 Y0.713
N1400 X2.282 Y1.31
N1405 X2.002 Y1.868
N1410 X1.937 Y1.97
N1415 X1.749 Y2.233
N1420 X1.488 Y2.419
N1425 X1.386 Y2.485
N1430 X0.827 Y2.765
N1435 X0.44 Y2.894
N1440 G2 X0.23 Y3.156 I0.098 J0.294
N1445 G3 X0. Y3.402 I-0.276 J-0.028
N1450 G1 X-0.191 Y3.434
N1455 X-0.557 Y3.372
N1460 X-0.714 Y3.338
N1465 X-1.358 Y3.124
N1470 X-1.96 Y2.822
N1475 X-2.087 Y2.74
N1480 X-2.41 Y2.509
N1485 X-2.639 Y2.188
N1490 X-2.721 Y2.061
N1495 X-3.023 Y1.459
N1500 X-3.237 Y0.815
N1505 X-3.271 Y0.658
N1510 X-3.334 Y0.293
N1515 X-3.271 Y-0.075
N1520 X-3.237 Y-0.231
N1525 X-3.023 Y-0.875
N1530 X-2.721 Y-1.477
N1535 X-2.639 Y-1.603
N1540 X-2.408 Y-1.928
N1545 X-2.088 Y-2.156
N1550 X-1.961 Y-2.238
N1555 X-1.358 Y-2.54
N1560 X-0.714 Y-2.754
N1565 X-0.558 Y-2.788
N1570 X-0.191 Y-2.851
N1575 X0.175 Y-2.788
N1580 X0.333 Y-2.754
N1585 X0.976 Y-2.54
N1590 X1.578 Y-2.238
N1595 X1.705 Y-2.156
N1600 X2.029 Y-1.926
N1605 X2.257 Y-1.605
N1610 X2.339 Y-1.478
N1615 X2.641 Y-0.875
N1620 X2.855 Y-0.232
N1625 X2.889 Y-0.075
N1630 X2.952 Y0.291
N1635 X2.889 Y0.658
N1640 X2.855 Y0.815
N1645 X2.641 Y1.459
N1650 X2.339 Y2.061
N1655 X2.257 Y2.187
N1660 X2.027 Y2.511
N1665 X1.706 Y2.739
N1670 X1.579 Y2.821
N1675 X0.976 Y3.124
N1680 X0.333 Y3.338
N1685 X0.176 Y3.372
N1690 X0. Y3.402
N1695 G2 X-0.238 Y3.609 I0.051 J0.299
N1700 G3 X-0.508 Y3.773 I-0.229 J-0.073
N1705 G1 X-0.631 Y3.752
N1710 X-0.817 Y3.712
N1715 X-1.507 Y3.482
N1720 X-2.152 Y3.158
N1725 X-2.304 Y3.06
N1730 X-2.688 Y2.787
N1735 X-2.959 Y2.406
N1740 X-3.058 Y2.254
N1745 X-3.382 Y1.608
N1750 X-3.612 Y0.917
N1755 X-3.652 Y0.732
N1760 X-3.726 Y0.293
N1765 X-3.651 Y-0.148
N1770 X-3.611 Y-0.334
N1775 X-3.382 Y-1.024
N1780 X-3.058 Y-1.669
N1785 X-2.96 Y-1.821
N1790 X-2.686 Y-2.205
N1795 X-2.306 Y-2.476
N1800 X-2.153 Y-2.575
N1805 X-1.507 Y-2.899
N1810 X-0.817 Y-3.129
N1815 X-0.631 Y-3.169
N1820 X-0.191 Y-3.243
N1825 X0.249 Y-3.169
N1830 X0.435 Y-3.128
N1835 X1.125 Y-2.899
N1840 X1.77 Y-2.575
N1845 X1.922 Y-2.477
N1850 X2.306 Y-2.203
N1855 X2.577 Y-1.822
N1860 X2.676 Y-1.67
N1865 X3. Y-1.024
N1870 X3.229 Y-0.334
N1875 X3.27 Y-0.148
N1880 X3.344 Y0.291
N1885 X3.269 Y0.732
N1890 X3.229 Y0.917
N1895 X3. Y1.608
N1900 X2.676 Y2.253
N1905 X2.578 Y2.405
N1910 X2.304 Y2.788
N1915 X1.923 Y3.06
N1920 X1.771 Y3.158
N1925 X1.125 Y3.482
N1930 X0.435 Y3.712
N1935 X0.249 Y3.752
N1940 X-0.191 Y3.827
N1945 X-0.508 Y3.773
N1950 G2 X-0.817 Y3.905 I-0.052 J0.305
N1955 G3 X-1.135 Y4.014 I-0.231 J-0.155
N1960 G1 X-1.655 Y3.841
N1965 X-2.345 Y3.495
N1970 X-2.522 Y3.381
N1975 X-2.966 Y3.064
N1980 X-3.28 Y2.623
N1985 X-3.394 Y2.446
N1990 X-3.741 Y1.756
N1995 X-3.986 Y1.02
N2000 X-4.032 Y0.805
N2005 X-4.119 Y0.293
N2010 X-4.032 Y-0.222
N2015 X-3.985 Y-0.436
N2020 X-3.74 Y-1.173
N2025 X-3.394 Y-1.862
N2030 X-3.28 Y-2.039
N2035 X-2.964 Y-2.483
N2040 X-2.523 Y-2.797
N2045 X-2.346 Y-2.911
N2050 X-1.656 Y-3.258
N2055 X-0.919 Y-3.503
N2060 X-0.705 Y-3.549
N2065 X-0.191 Y-3.636
N2070 X0.322 Y-3.549
N2075 X0.537 Y-3.502
N2080 X1.273 Y-3.258
N2085 X1.963 Y-2.912
N2090 X2.14 Y-2.797
N2095 X2.584 Y-2.481
N2100 X2.898 Y-2.04
N2105 X3.012 Y-1.863
N2110 X3.359 Y-1.173
N2115 X3.604 Y-0.437
N2120 X3.65 Y-0.222
N2125 X3.737 Y0.291
N2130 X3.65 Y0.805
N2135 X3.603 Y1.02
N2140 X3.358 Y1.756
N2145 X3.012 Y2.446
N2150 X2.898 Y2.622
N2155 X2.582 Y3.066
N2160 X2.141 Y3.38
N2165 X1.964 Y3.495
N2170 X1.274 Y3.841
N2175 X0.537 Y4.086
N2180 X0.323 Y4.132
N2185 X-0.191 Y4.22
N2190 X-0.704 Y4.132
N2195 X-0.919 Y4.086
N2200 X-1.135 Y4.014
N2205 G2 X-1.513 Y4.098 I-0.119 J0.357
N2210 G3 X-1.895 Y4.154 I-0.231 J-0.244
N2215 G1 X-2.537 Y3.832
N2220 X-2.739 Y3.701
N2225 X-3.243 Y3.342
N2230 X-3.6 Y2.841
N2235 X-3.731 Y2.639
N2240 X-4.099 Y1.905
N2245 X-4.36 Y1.122
N2250 X-4.412 Y0.879
N2255 X-4.512 Y0.293
N2260 X-4.412 Y-0.295
N2265 X-4.359 Y-0.538
N2270 X-4.099 Y-1.322
N2275 X-3.731 Y-2.054
N2280 X-3.601 Y-2.256
N2285 X-3.241 Y-2.761
N2290 X-2.741 Y-3.117
N2295 X-2.538 Y-3.248
N2300 X-1.805 Y-3.616
N2305 X-1.021 Y-3.877
N2310 X-0.778 Y-3.929
N2315 X-0.191 Y-4.029
N2320 X0.396 Y-3.929
N2325 X0.64 Y-3.876
N2330 X1.422 Y-3.616
N2335 X2.155 Y-3.248
N2340 X2.357 Y-3.118
N2345 X2.862 Y-2.758
N2350 X3.218 Y-2.257
N2355 X3.349 Y-2.055
N2360 X3.717 Y-1.322
N2365 X3.978 Y-0.539
N2370 X4.03 Y-0.295
N2375 X4.13 Y0.29
N2380 X4.03 Y0.879
N2385 X3.977 Y1.122
N2390 X3.717 Y1.905
N2395 X3.349 Y2.638
N2400 X3.218 Y2.84
N2405 X2.86 Y3.344
N2410 X2.358 Y3.701
N2415 X2.156 Y3.831
N2420 X1.422 Y4.2
N2425 X0.64 Y4.46
N2430 X0.396 Y4.513
N2435 X-0.191 Y4.613
N2440 X-0.778 Y4.513
N2445 X-1.021 Y4.46
N2450 X-1.804 Y4.2
N2455 X-1.895 Y4.154
N2460 G2 X-2.241 Y4.197 I-0.141 J0.281
N2465 G3 X-2.588 Y4.24 I-0.205 J-0.238
N2470 G1 X-2.73 Y4.168
N2475 X-2.957 Y4.022
N2480 X-3.521 Y3.62
N2485 X-3.921 Y3.059
N2490 X-4.068 Y2.831
N2495 X-4.458 Y2.054
N2500 X-4.734 Y1.224
N2505 X-4.793 Y0.952
N2510 X-4.905 Y0.293
N2515 X-4.792 Y-0.369
N2520 X-4.733 Y-0.641
N2525 X-4.458 Y-1.47
N2530 X-4.068 Y-2.247
N2535 X-3.921 Y-2.474
N2540 X-3.519 Y-3.038
N2545 X-2.958 Y-3.438
N2550 X-2.731 Y-3.585
N2555 X-1.953 Y-3.975
N2560 X-1.124 Y-4.251
N2565 X-0.852 Y-4.31
N2570 X-0.191 Y-4.422
N2575 X0.469 Y-4.309
N2580 X0.742 Y-4.25
N2585 X1.571 Y-3.975
N2590 X2.348 Y-3.585
N2595 X2.575 Y-3.438
N2600 X3.139 Y-3.036
N2605 X3.539 Y-2.475
N2610 X3.686 Y-2.248
N2615 X4.076 Y-1.47
N2620 X4.352 Y-0.641
N2625 X4.411 Y-0.369
N2630 X4.523 Y0.29
N2635 X4.41 Y0.952
N2640 X4.351 Y1.224
N2645 X4.076 Y2.054
N2650 X3.685 Y2.831
N2655 X3.539 Y3.058
N2660 X3.137 Y3.621
N2665 X2.576 Y4.021
N2670 X2.349 Y4.168
N2675 X1.571 Y4.558
N2680 X0.742 Y4.834
N2685 X0.47 Y4.893
N2690 X-0.191 Y5.005
N2695 X-0.851 Y4.893
N2700 X-1.124 Y4.834
N2705 X-1.953 Y4.558
N2710 X-2.588 Y4.24
N2715 G2 X-2.921 Y4.274 I-0.14 J0.278
N2720 G3 X-3.256 Y4.284 I-0.174 J-0.218
N2725 G1 X-3.799 Y3.897
N2730 X-4.241 Y3.276
N2735 X-4.404 Y3.024
N2740 X-4.816 Y2.203
N2745 X-5.108 Y1.327
N2750 X-5.173 Y1.026
N2755 X-5.298 Y0.293
N2760 X-5.173 Y-0.442
N2765 X-5.107 Y-0.743
N2770 X-4.816 Y-1.619
N2775 X-4.404 Y-2.439
N2780 X-4.242 Y-2.691
N2785 X-3.796 Y-3.316
N2790 X-3.176 Y-3.758
N2795 X-2.923 Y-3.921
N2800 X-2.102 Y-4.333
N2805 X-1.226 Y-4.625
N2810 X-0.925 Y-4.69
N2815 X-0.191 Y-4.815
N2820 X0.543 Y-4.69
N2825 X0.844 Y-4.624
N2830 X1.72 Y-4.334
N2835 X2.54 Y-3.921
N2840 X2.792 Y-3.759
N2845 X3.417 Y-3.314
N2850 X3.859 Y-2.693
N2855 X4.022 Y-2.44
N2860 X4.435 Y-1.619
N2865 X4.726 Y-0.744
N2870 X4.791 Y-0.442
N2875 X4.916 Y0.29
N2880 X4.791 Y1.026
N2885 X4.725 Y1.327
N2890 X4.434 Y2.203
N2895 X4.022 Y3.023
N2900 X3.859 Y3.275
N2905 X3.415 Y3.899
N2910 X2.793 Y4.342
N2915 X2.541 Y4.505
N2920 X1.72 Y4.917
N2925 X0.844 Y5.208
N2930 X0.543 Y5.273
N2935 X-0.191 Y5.398
N2940 X-0.925 Y5.273
N2945 X-1.226 Y5.208
N2950 X-2.102 Y4.917
N2955 X-2.922 Y4.505
N2960 X-3.174 Y4.342
N2965 X-3.256 Y4.284
N2970 G2 X-3.605 Y4.273 I-0.183 J0.256
N2975 G3 X-3.954 Y4.262 I-0.166 J-0.267
N2980 G1 X-4.076 Y4.175
N2985 X-4.562 Y3.494
N2990 X-4.741 Y3.216
N2995 X-5.175 Y2.351
N3000 X-5.482 Y1.429
N3005 X-5.553 Y1.099
N3010 X-5.69 Y0.293
N3015 X-5.553 Y-0.516
N3020 X-5.481 Y-0.846
N3025 X-5.175 Y-1.768
N3030 X-4.741 Y-2.632
N3035 X-4.562 Y-2.909
N3040 X-4.074 Y-3.594
N3045 X-3.393 Y-4.079
N3050 X-3.116 Y-4.258
N3055 X-2.251 Y-4.692
N3060 X-1.329 Y-4.999
N3065 X-0.999 Y-5.07
N3070 X-0.191 Y-5.207
N3075 X0.616 Y-5.07
N3080 X0.947 Y-4.999
N3085 X1.868 Y-4.692
N3090 X2.733 Y-4.258
N3095 X3.01 Y-4.079
N3100 X3.695 Y-3.591
N3105 X4.18 Y-2.91
N3110 X4.359 Y-2.633
N3115 X4.793 Y-1.768
N3120 X5.1 Y-0.846
N3125 X5.171 Y-0.516
N3130 X5.308 Y0.29
N3135 X5.171 Y1.099
N3140 X5.099 Y1.429
N3145 X4.793 Y2.351
N3150 X4.359 Y3.216
N3155 X4.18 Y3.493
N3160 X3.693 Y4.177
N3165 X3.011 Y4.662
N3170 X2.734 Y4.841
N3175 X1.869 Y5.276
N3180 X0.947 Y5.582
N3185 X0.617 Y5.654
N3190 X-0.191 Y5.791
N3195 X-0.998 Y5.654
N3200 X-1.329 Y5.582
N3205 X-2.25 Y5.276
N3210 X-3.115 Y4.841
N3215 X-3.392 Y4.663
N3220 X-3.954 Y4.262
N3225 G2 X-4.265 Y4.234 I-0.179 J0.252
N3230 G3 X-4.566 Y4.155 I-0.103 J-0.22
N3235 G1 X-4.882 Y3.711
N3240 X-5.077 Y3.409
N3245 X-5.534 Y2.5
N3250 X-5.856 Y1.531
N3255 X-5.933 Y1.173
N3260 X-6.083 Y0.293
N3265 X-5.933 Y-0.589
N3270 X-5.855 Y-0.948
N3275 X-5.533 Y-1.917
N3280 X-5.078 Y-2.824
N3285 X-4.882 Y-3.126
N3290 X-4.352 Y-3.871
N3295 X-3.611 Y-4.399
N3300 X-3.308 Y-4.594
N3305 X-2.4 Y-5.051
N3310 X-1.431 Y-5.373
N3315 X-1.072 Y-5.45
N3320 X-0.191 Y-5.6
N3325 X0.69 Y-5.45
N3330 X1.049 Y-5.373
N3335 X2.017 Y-5.051
N3340 X2.925 Y-4.595
N3345 X3.227 Y-4.4
N3350 X3.972 Y-3.869
N3355 X4.5 Y-3.128
N3360 X4.696 Y-2.825
N3365 X5.152 Y-1.917
N3370 X5.474 Y-0.948
N3375 X5.551 Y-0.589
N3380 X5.701 Y0.29
N3385 X5.551 Y1.173
N3390 X5.473 Y1.531
N3395 X5.151 Y2.5
N3400 X4.695 Y3.408
N3405 X4.5 Y3.71
N3410 X3.97 Y4.454
N3415 X3.228 Y4.983
N3420 X2.926 Y5.178
N3425 X2.017 Y5.634
N3430 X1.049 Y5.956
N3435 X0.69 Y6.034
N3440 X-0.191 Y6.184
N3445 X-1.072 Y6.034
N3450 X-1.431 Y5.956
N3455 X-2.399 Y5.634
N3460 X-3.308 Y5.178
N3465 X-3.609 Y4.983
N3470 X-4.354 Y4.453
N3475 X-4.566 Y4.155
N3480 G2 X-4.893 Y4.034 I-0.252 J0.18
N3485 G3 X-5.218 Y3.905 I-0.072 J-0.291
N3490 G1 X-5.414 Y3.601
N3495 X-5.892 Y2.649
N3500 X-6.23 Y1.634
N3505 X-6.314 Y1.246
N3510 X-6.476 Y0.293
N3515 X-6.313 Y-0.663
N3520 X-6.229 Y-1.05
N3525 X-5.892 Y-2.065
N3530 X-5.414 Y-3.017
N3535 X-5.203 Y-3.344
N3540 X-4.629 Y-4.149
N3545 X-3.828 Y-4.72
N3550 X-3.501 Y-4.931
N3555 X-2.548 Y-5.409
N3560 X-1.533 Y-5.747
N3565 X-1.146 Y-5.831
N3570 X-0.191 Y-5.993
N3575 X0.763 Y-5.831
N3580 X1.151 Y-5.747
N3585 X2.166 Y-5.409
N3590 X3.118 Y-4.931
N3595 X3.445 Y-4.72
N3600 X4.25 Y-4.147
N3605 X4.821 Y-3.345
N3610 X5.032 Y-3.018
N3615 X5.51 Y-2.065
N3620 X5.848 Y-1.051
N3625 X5.932 Y-0.663
N3630 X6.094 Y0.29
N3635 X5.931 Y1.246
N3640 X5.847 Y1.634
N3645 X5.51 Y2.649
N3650 X5.032 Y3.601
N3655 X4.821 Y3.928
N3660 X4.248 Y4.732
N3665 X3.446 Y5.303
N3670 X3.119 Y5.515
N3675 X2.166 Y5.993
N3680 X1.151 Y6.33
N3685 X0.764 Y6.414
N3690 X-0.191 Y6.577
N3695 X-1.145 Y6.414
N3700 X-1.533 Y6.33
N3705 X-2.548 Y5.993
N3710 X-3.5 Y5.515
N3715 X-3.827 Y5.304
N3720 X-4.632 Y4.73
N3725 X-5.203 Y3.929
N3730 X-5.218 Y3.905
N3735 G2 X-5.532 Y3.77 I-0.259 J0.167
N3740 G3 X-5.84 Y3.617 I-0.052 J-0.281
N3745 G1 X-6.251 Y2.797
N3750 X-6.604 Y1.736
N3755 X-6.694 Y1.32
N3760 X-6.869 Y0.293
N3765 X-6.694 Y-0.736
N3770 X-6.604 Y-1.153
N3775 X-6.251 Y-2.214
N3780 X-5.751 Y-3.21
N3785 X-5.523 Y-3.561
N3790 X-4.909 Y-4.423
N3795 X-4.046 Y-5.04
N3800 X-3.693 Y-5.268
N3805 X-2.697 Y-5.768
N3810 X-1.636 Y-6.121
N3815 X-1.219 Y-6.211
N3820 X-0.191 Y-6.386
N3825 X0.837 Y-6.211
N3830 X1.254 Y-6.121
N3835 X2.315 Y-5.768
N3840 X3.31 Y-5.268
N3845 X3.663 Y-5.041
N3850 X4.524 Y-4.427
N3855 X5.141 Y-3.563
N3860 X5.369 Y-3.21
N3865 X5.869 Y-2.214
N3870 X6.222 Y-1.153
N3875 X6.312 Y-0.736
N3880 X6.487 Y0.29
N3885 X6.312 Y1.319
N3890 X6.222 Y1.736
N3895 X5.869 Y2.797
N3900 X5.369 Y3.793
N3905 X5.141 Y4.145
N3910 X4.527 Y5.007
N3915 X3.663 Y5.624
N3920 X3.311 Y5.851
N3925 X2.315 Y6.351
N3930 X1.254 Y6.704
N3935 X0.837 Y6.794
N3940 X-0.191 Y6.969
N3945 X-1.219 Y6.794
N3950 X-1.636 Y6.704
N3955 X-2.696 Y6.352
N3960 X-3.693 Y5.851
N3965 X-4.044 Y5.624
N3970 X-4.906 Y5.01
N3975 X-5.523 Y4.146
N3980 X-5.751 Y3.794
N3985 X-5.84 Y3.617
N3990 G2 X-6.143 Y3.444 I-0.281 J0.141
N3995 G3 X-6.446 Y3.272 I-0.022 J-0.314
N4000 G1 X-6.61 Y2.946
N4005 X-6.978 Y1.838
N4010 X-7.074 Y1.393
N4015 X-7.254 Y0.339
N4020 X-7.262 Y0.293
N4025 X-7.253 Y0.245
N4030 X-7.074 Y-0.809
N4035 X-6.978 Y-1.255
N4040 X-6.609 Y-2.363
N4045 X-6.088 Y-3.402
N4050 X-5.844 Y-3.779
N4055 X-5.225 Y-4.648
N4060 X-5.185 Y-4.704
N4065 X-5.132 Y-4.742
N4070 X-4.263 Y-5.361
N4075 X-3.886 Y-5.604
N4080 X-2.846 Y-6.127
N4085 X-1.738 Y-6.495
N4090 X-1.293 Y-6.591
N4095 X-0.239 Y-6.771
N4100 X-0.191 Y-6.779
N4105 X-0.145 Y-6.771
N4110 X0.91 Y-6.591
N4115 X1.356 Y-6.495
N4120 X2.463 Y-6.127
N4125 X3.503 Y-5.605
N4130 X3.88 Y-5.361
N4135 X4.749 Y-4.742
N4140 X4.805 Y-4.702
N4145 X4.843 Y-4.649
N4150 X5.462 Y-3.78
N4155 X5.706 Y-3.403
N4160 X6.228 Y-2.363
N4165 X6.596 Y-1.255
N4170 X6.692 Y-0.81
N4175 X6.872 Y0.245
N4180 X6.88 Y0.29
N4185 X6.871 Y0.339
N4190 X6.692 Y1.393
N4195 X6.596 Y1.839
N4200 X6.227 Y2.946
N4205 X5.705 Y3.986
N4210 X5.462 Y4.363
N4215 X4.843 Y5.232
N4220 X4.803 Y5.287
N4225 X4.75 Y5.325
N4230 X3.881 Y5.944
N4235 X3.504 Y6.188
N4240 X2.463 Y6.71
N4245 X1.356 Y7.078
N4250 X0.911 Y7.175
N4255 X-0.144 Y7.354
N4260 X-0.191 Y7.362
N4265 X-0.237 Y7.354
N4270 X-1.292 Y7.175
N4275 X-1.738 Y7.078
N4280 X-2.845 Y6.71
N4285 X-3.885 Y6.188
N4290 X-4.262 Y5.945
N4295 X-5.131 Y5.326
N4300 X-5.187 Y5.286
N4305 X-5.225 Y5.233
N4310 X-5.844 Y4.364
N4315 X-6.087 Y3.986
N4320 X-6.446 Y3.272
N4325 G2 X-6.743 Y3.104 I-0.273 J0.137
N4330 G3 X-7.027 Y2.916 I-0.022 J-0.275
N4335 G1 X-7.352 Y1.941
N4340 X-7.454 Y1.467
N4345 X-7.635 Y0.404
N4350 X-7.655 Y0.293
N4355 X-7.635 Y0.18
N4360 X-7.454 Y-0.883
N4365 X-7.351 Y-1.357
N4370 X-6.968 Y-2.511
N4375 X-6.424 Y-3.595
N4380 X-6.164 Y-3.996
N4385 X-5.54 Y-4.873
N4390 X-5.463 Y-4.982
N4395 X-5.357 Y-5.057
N4400 X-4.481 Y-5.681
N4405 X-4.078 Y-5.941
N4410 X-2.994 Y-6.485
N4415 X-1.84 Y-6.869
N4420 X-1.366 Y-6.971
N4425 X-0.304 Y-7.152
N4430 X-0.191 Y-7.172
N4435 X-0.08 Y-7.152
N4440 X0.984 Y-6.971
N4445 X1.458 Y-6.869
N4450 X2.612 Y-6.485
N4455 X3.695 Y-5.941
N4460 X4.098 Y-5.681
N4465 X4.973 Y-5.057
N4470 X5.083 Y-4.98
N4475 X5.158 Y-4.874
N4480 X5.782 Y-3.998
N4485 X6.042 Y-3.595
N4490 X6.586 Y-2.511
N4495 X6.97 Y-1.358
N4500 X7.072 Y-0.883
N4505 X7.253 Y0.18
N4510 X7.273 Y0.29
N4515 X7.253 Y0.404
N4520 X7.072 Y1.466
N4525 X6.969 Y1.941
N4530 X6.586 Y3.095
N4535 X6.042 Y4.178
N4540 X5.782 Y4.58
N4545 X5.158 Y5.456
N4550 X5.081 Y5.565
N4555 X4.975 Y5.64
N4560 X4.098 Y6.264
N4565 X3.696 Y6.524
N4570 X2.612 Y7.069
N4575 X1.458 Y7.452
N4580 X0.984 Y7.555
N4585 X-0.079 Y7.736
N4590 X-0.191 Y7.755
N4595 X-0.302 Y7.736
N4600 X-1.366 Y7.555
N4605 X-1.84 Y7.452
N4610 X-2.994 Y7.069
N4615 X-4.078 Y6.525
N4620 X-4.479 Y6.265
N4625 X-5.355 Y5.641
N4630 X-5.465 Y5.564
N4635 X-5.54 Y5.457
N4640 X-6.164 Y4.581
N4645 X-6.424 Y4.179
N4650 X-6.968 Y3.095
N4655 X-7.027 Y2.916
N4660 G2 X-7.302 Y2.702 I-0.298 J0.099
N4665 G3 X-7.578 Y2.488 I0.023 J-0.313
N4670 G1 X-7.725 Y2.043
N4675 X-7.834 Y1.54
N4680 X-8.016 Y0.469
N4685 X-8.048 Y0.293
N4690 X-8.016 Y0.115
N4695 X-7.834 Y-0.956
N4700 X-7.725 Y-1.46
N4705 X-7.326 Y-2.66
N4710 X-6.76 Y-3.787
N4715 X-6.484 Y-4.214
N4720 X-5.855 Y-5.097
N4725 X-5.741 Y-5.261
N4730 X-5.581 Y-5.372
N4735 X-4.698 Y-6.001
N4740 X-4.271 Y-6.277
N4745 X-3.143 Y-6.843
N4750 X-1.943 Y-7.242
N4755 X-1.44 Y-7.351
N4760 X-0.368 Y-7.533
N4765 X-0.191 Y-7.565
N4770 X-0.015 Y-7.534
N4775 X1.057 Y-7.351
N4780 X1.561 Y-7.242
N4785 X2.76 Y-6.843
N4790 X3.888 Y-6.277
N4795 X4.315 Y-6.001
N4800 X5.198 Y-5.372
N4805 X5.361 Y-5.258
N4810 X5.473 Y-5.098
N4815 X6.102 Y-4.215
N4820 X6.378 Y-3.788
N4825 X6.944 Y-2.66
N4830 X7.343 Y-1.46
N4835 X7.452 Y-0.957
N4840 X7.635 Y0.115
N4845 X7.666 Y0.291
N4850 X7.634 Y0.469
N4855 X7.452 Y1.54
N4860 X7.343 Y2.043
N4865 X6.944 Y3.243
N4870 X6.378 Y4.371
N4875 X6.102 Y4.797
N4880 X5.473 Y5.681
N4885 X5.36 Y5.844
N4890 X5.199 Y5.955
N4895 X4.316 Y6.585
N4900 X3.888 Y6.861
N4905 X2.761 Y7.427
N4910 X1.561 Y7.826
N4915 X1.057 Y7.935
N4920 X-0.015 Y8.117
N4925 X-0.191 Y8.149
N4930 X-0.367 Y8.117
N4935 X-1.439 Y7.935
N4940 X-1.942 Y7.826
N4945 X-3.142 Y7.427
N4950 X-4.27 Y6.861
N4955 X-4.697 Y6.585
N4960 X-5.58 Y5.956
N4965 X-5.743 Y5.842
N4970 X-5.855 Y5.682
N4975 X-6.484 Y4.798
N4980 X-6.76 Y4.371
N4985 X-7.326 Y3.243
N4990 X-7.578 Y2.488
N4995 G2 X-7.853 Y2.28 I-0.289 J0.096
N5000 G3 X-8.118 Y2.057 I0.012 J-0.283
N5005 G1 X-8.214 Y1.613
N5010 X-8.397 Y0.534
N5015 X-8.442 Y0.293
N5020 X-8.397 Y0.05
N5025 X-8.214 Y-1.03
N5030 X-8.098 Y-1.562
N5035 X-7.684 Y-2.808
N5040 X-7.096 Y-3.979
N5045 X-6.804 Y-4.431
N5050 X-6.17 Y-5.321
N5055 G2 X-6.02 Y-5.539 I-7.056 J-5.027
N5060 X-5.806 Y-5.687 I-4.812 J-7.205
N5065 G1 X-4.915 Y-6.321
N5070 X-4.463 Y-6.613
N5075 X-3.291 Y-7.201
N5080 X-2.045 Y-7.616
N5085 X-1.513 Y-7.731
N5090 X-0.433 Y-7.914
N5095 X-0.191 Y-7.959
N5100 X0.05 Y-7.915
N5105 X1.13 Y-7.731
N5110 X1.663 Y-7.615
N5115 X2.909 Y-7.201
N5120 X4.08 Y-6.613
N5125 X4.532 Y-6.321
N5130 X5.422 Y-5.687
N5135 G2 X5.64 Y-5.537 I5.027 J-7.056
N5140 X5.788 Y-5.322 I7.205 J-4.812
N5145 G1 X6.422 Y-4.432
N5150 X6.714 Y-3.98
N5155 X7.302 Y-2.808
N5160 X7.717 Y-1.562
N5165 X7.832 Y-1.03
N5170 X8.016 Y0.051
N5175 X8.06 Y0.291
N5180 X8.015 Y0.533
N5185 X7.832 Y1.613
N5190 X7.716 Y2.145
N5195 X7.302 Y3.392
N5200 X6.714 Y4.563
N5205 X6.422 Y5.015
N5210 X5.788 Y5.905
N5215 G2 X5.638 Y6.122 I7.056 J5.027
N5220 X5.423 Y6.27 I4.811 J7.205
N5225 G1 X4.533 Y6.904
N5230 X4.081 Y7.197
N5235 X2.909 Y7.785
N5240 X1.663 Y8.199
N5245 X1.131 Y8.314
N5250 X0.05 Y8.498
N5255 X-0.191 Y8.543
N5260 X-0.432 Y8.498
N5265 X-1.512 Y8.314
N5270 X-2.045 Y8.199
N5275 X-3.291 Y7.785
N5280 X-4.462 Y7.197
N5285 X-4.914 Y6.905
N5290 X-5.804 Y6.271
N5295 G2 X-6.022 Y6.12 I-5.027 J7.056
N5300 X-6.17 Y5.906 I-7.205 J4.812
N5305 G1 X-6.804 Y5.015
N5310 X-7.096 Y4.563
N5315 X-7.684 Y3.392
N5320 X-8.099 Y2.145
N5325 X-8.118 Y2.057
N5330 G2 X-8.368 Y1.817 I-0.303 J0.066
N5335 G3 X-8.613 Y1.572 I0.051 J-0.296
N5340 G1 X-8.778 Y0.598
N5345 G2 X-8.836 Y0.293 I-8.16 J1.388
N5350 X-8.778 Y-0.015 I-8.102 J-1.695
N5355 G1 X-8.593 Y-1.103
N5360 X-8.471 Y-1.664
N5365 X-8.042 Y-2.957
N5370 X-7.432 Y-4.171
N5375 X-7.124 Y-4.648
N5380 X-6.484 Y-5.545
N5385 G2 X-6.298 Y-5.818 I-6.742 J-4.803
N5390 X-6.03 Y-6.001 I-4.533 J-6.926
N5395 G1 X-5.132 Y-6.64
N5400 X-4.655 Y-6.949
N5405 X-3.44 Y-7.559
N5410 X-2.147 Y-7.989
N5415 X-1.586 Y-8.11
N5420 X-0.498 Y-8.295
N5425 G2 X-0.191 Y-8.353 I-1.388 J-8.16
N5430 X0.115 Y-8.295 I1.694 J-8.102
N5435 G1 X1.204 Y-8.11
N5440 X1.765 Y-7.988
N5445 X3.057 Y-7.559
N5450 X4.272 Y-6.949
N5455 X4.749 Y-6.641
N5460 X5.646 Y-6.002
N5465 G2 X5.918 Y-5.816 I4.803 J-6.742
N5470 X6.102 Y-5.546 I6.926 J-4.533
N5475 G1 X6.742 Y-4.649
N5480 X7.05 Y-4.172
N5485 X7.66 Y-2.957
N5490 X8.09 Y-1.664
N5495 X8.211 Y-1.103
N5500 X8.396 Y-0.014
N5505 G2 X8.454 Y0.291 I8.16 J-1.388
N5510 X8.396 Y0.598 I8.102 J1.695
N5515 G1 X8.211 Y1.686
N5520 X8.089 Y2.247
N5525 X7.66 Y3.54
N5530 X7.05 Y4.755
N5535 X6.742 Y5.232
N5540 X6.102 Y6.129
N5545 G2 X5.917 Y6.401 I6.742 J4.803
N5550 X5.647 Y6.585 I4.533 J6.926
N5555 G1 X4.75 Y7.224
N5560 X4.272 Y7.532
N5565 X3.057 Y8.142
N5570 X1.765 Y8.572
N5575 X1.204 Y8.693
N5580 X0.115 Y8.879
N5585 G2 X-0.191 Y8.937 I1.388 J8.16
N5590 X-0.497 Y8.879 I-1.694 J8.102
N5595 G1 X-1.586 Y8.693
N5600 X-2.147 Y8.572
N5605 X-3.439 Y8.142
N5610 X-4.654 Y7.532
N5615 X-5.131 Y7.224
N5620 X-6.028 Y6.585
N5625 G2 X-6.3 Y6.399 I-4.803 J6.742
N5630 X-6.484 Y6.13 I-6.926 J4.533
N5635 G1 X-7.123 Y5.232
N5640 X-7.432 Y4.755
N5645 X-8.042 Y3.54
N5650 X-8.472 Y2.247
N5655 X-8.593 Y1.687
N5660 X-8.613 Y1.572
N5665 G2 X-8.851 Y1.319 I-0.309 J0.053
N5670 G3 X-9.09 Y1.066 I0.07 J-0.305
N5675 G1 X-9.158 Y0.663
N5680 G2 X-9.231 Y0.293 I-7.78 J1.323
N5685 X-9.158 Y-0.079 I-7.708 J-1.695
N5690 G1 X-8.972 Y-1.176
N5695 X-8.844 Y-1.766
N5700 X-8.399 Y-3.105
N5705 X-7.767 Y-4.363
N5710 X-7.443 Y-4.865
N5715 X-6.798 Y-5.769
N5720 G2 X-6.577 Y-6.096 I-6.428 J-4.579
N5725 X-6.253 Y-6.315 I-4.254 J-6.647
N5730 G1 X-5.349 Y-6.96
N5735 X-4.847 Y-7.284
N5740 X-3.588 Y-7.916
N5745 X-2.249 Y-8.361
N5750 X-1.659 Y-8.489
N5755 X-0.563 Y-8.675
N5760 G2 X-0.191 Y-8.748 I-1.323 J-7.78
N5765 X0.179 Y-8.676 I1.694 J-7.708
N5770 G1 X1.277 Y-8.489
N5775 X1.867 Y-8.361
N5780 X3.205 Y-7.916
N5785 X4.464 Y-7.284
N5790 X4.966 Y-6.96
N5795 X5.87 Y-6.316
N5800 G2 X6.197 Y-6.095 I4.579 J-6.428
N5805 X6.417 Y-5.77 I6.647 J-4.254
N5810 G1 X7.061 Y-4.866
N5815 X7.385 Y-4.364
N5820 X8.017 Y-3.105
N5825 X8.462 Y-1.766
N5830 X8.59 Y-1.176
N5835 X8.777 Y-0.079
N5840 G2 X8.849 Y0.291 I7.78 J-1.324
N5845 X8.776 Y0.663 I7.708 J1.695
N5850 G1 X8.59 Y1.76
N5855 X8.462 Y2.349
N5860 X8.017 Y3.688
N5865 X7.385 Y4.947
N5870 X7.061 Y5.448
N5875 X6.417 Y6.353
N5880 G2 X6.196 Y6.679 I6.428 J4.579
N5885 X5.871 Y6.899 I4.254 J6.647
N5890 G1 X4.966 Y7.543
N5895 X4.464 Y7.868
N5900 X3.206 Y8.5
N5905 X1.867 Y8.945
N5910 X1.277 Y9.072
N5915 X0.18 Y9.259
N5920 G2 X-0.191 Y9.331 I1.324 J7.78
N5925 X-0.561 Y9.259 I-1.694 J7.708
N5930 G1 X-1.659 Y9.072
N5935 X-2.249 Y8.945
N5940 X-3.587 Y8.5
N5945 X-4.846 Y7.868
N5950 X-5.347 Y7.544
N5955 X-6.252 Y6.899
N5960 G2 X-6.579 Y6.678 I-4.579 J6.428
N5965 X-6.798 Y6.354 I-6.647 J4.254
N5970 G1 X-7.443 Y5.449
N5975 X-7.767 Y4.947
N5980 X-8.399 Y3.688
N5985 X-8.844 Y2.349
N5990 X-8.972 Y1.76
N5995 X-9.09 Y1.066
N6000 G2 X-9.328 Y0.812 I-0.311 J0.053
N6005 G3 X-9.569 Y0.561 I0.074 J-0.312
N6010 G2 X-9.626 Y0.293 I-7.37 J1.425
N6015 X-9.538 Y-0.144 I-7.313 J-1.695
N6020 G1 X-9.35 Y-1.249
N6025 X-9.216 Y-1.868
N6030 X-8.756 Y-3.253
N6035 X-8.102 Y-4.554
N6040 X-7.762 Y-5.081
N6045 X-7.112 Y-5.993
N6050 G2 X-6.857 Y-6.376 I-6.114 J-4.355
N6055 X-6.477 Y-6.629 I-3.975 J-6.368
N6060 G1 X-5.565 Y-7.279
N6065 X-5.038 Y-7.619
N6070 X-3.736 Y-8.273
N6075 X-2.351 Y-8.733
N6080 X-1.733 Y-8.867
N6085 X-0.627 Y-9.055
N6090 G2 X-0.191 Y-9.143 I-1.258 J-7.4
N6095 X0.244 Y-9.055 I1.694 J-7.313
N6100 G1 X1.35 Y-8.867
N6105 X1.969 Y-8.733
N6110 X3.353 Y-8.273
N6115 X4.655 Y-7.619
N6120 X5.182 Y-7.279
N6125 X6.094 Y-6.63
N6130 G2 X6.477 Y-6.374 I4.355 J-6.114
N6135 X6.73 Y-5.994 I6.368 J-3.975
N6140 G1 X7.38 Y-5.082
N6145 X7.72 Y-4.555
N6150 X8.374 Y-3.253
N6155 X8.834 Y-1.868
N6160 X8.968 Y-1.25
N6165 X9.157 Y-0.144
N6170 G2 X9.244 Y0.291 I7.4 J-1.259
N6175 X9.156 Y0.727 I7.313 J1.695
N6180 G1 X8.968 Y1.833
N6185 X8.834 Y2.451
N6190 X8.374 Y3.836
N6195 X7.72 Y5.138
N6200 X7.38 Y5.665
N6205 X6.73 Y6.576
N6210 G2 X6.475 Y6.959 I6.114 J4.355
N6215 X6.094 Y7.213 I3.974 J6.368
N6220 G1 X5.183 Y7.862
N6225 X4.656 Y8.203
N6230 X3.354 Y8.856
N6235 X1.969 Y9.317
N6240 X1.35 Y9.451
N6245 X0.244 Y9.639
N6250 G2 X-0.191 Y9.726 I1.259 J7.4
N6255 X-0.626 Y9.639 I-1.694 J7.313
N6260 G1 X-1.732 Y9.451
N6265 X-2.35 Y9.317
N6270 X-3.735 Y8.856
N6275 X-5.037 Y8.203
N6280 X-5.564 Y7.862
N6285 X-6.475 Y7.213
N6290 G2 X-6.858 Y6.958 I-4.356 J6.114
N6295 X-7.112 Y6.577 I-6.368 J3.975
N6300 G1 X-7.762 Y5.665
N6305 X-8.102 Y5.139
N6310 X-8.756 Y3.836
N6315 X-9.216 Y2.451
N6320 X-9.35 Y1.833
N6325 X-9.538 Y0.728
N6330 X-9.569 Y0.561
N6335 G2 X-9.794 Y0.336 I-0.279 J0.054
N6340 G3 X-9.971 Y0.071 I0.042 J-0.219
N6345 G2 X-9.917 Y-0.208 I-6.968 J-1.473
N6350 G1 X-9.728 Y-1.322
N6355 X-9.588 Y-1.969
N6360 X-9.112 Y-3.401
N6365 X-8.437 Y-4.746
N6370 X-8.08 Y-5.297
N6375 X-7.426 Y-6.216
N6380 G2 X-7.137 Y-6.655 I-5.8 J-4.132
N6385 X-6.7 Y-6.943 I-3.695 J-6.088
N6390 G1 X-5.781 Y-7.597
N6395 X-5.229 Y-7.954
N6400 X-3.884 Y-8.629
N6405 X-2.452 Y-9.105
N6410 X-1.806 Y-9.245
N6415 X-0.692 Y-9.435
N6420 G2 X-0.191 Y-9.538 I-1.194 J-7.021
N6425 X0.309 Y-9.435 I1.694 J-6.917
N6430 G1 X1.423 Y-9.245
N6435 X2.07 Y-9.105
N6440 X3.501 Y-8.629
N6445 X4.847 Y-7.954
N6450 X5.398 Y-7.597
N6455 X6.317 Y-6.943
N6460 G2 X6.756 Y-6.654 I4.132 J-5.8
N6465 X7.044 Y-6.217 I6.088 J-3.695
N6470 G1 X7.698 Y-5.298
N6475 X8.055 Y-4.746
N6480 X8.73 Y-3.401
N6485 X9.206 Y-1.97
N6490 X9.346 Y-1.323
N6495 X9.536 Y-0.208
N6500 G2 X9.639 Y0.291 I7.021 J-1.194
N6505 X9.535 Y0.792 I6.917 J1.695
N6510 G1 X9.346 Y1.906
N6515 X9.206 Y2.553
N6520 X8.73 Y3.984
N6525 X8.055 Y5.329
N6530 X7.698 Y5.881
N6535 X7.044 Y6.8
N6540 G2 X6.755 Y7.238 I5.8 J4.132
N6545 X6.318 Y7.526 I3.694 J6.088
N6550 G1 X5.399 Y8.181
N6555 X4.847 Y8.537
N6560 X3.501 Y9.213
N6565 X2.07 Y9.689
N6570 X1.423 Y9.829
N6575 X0.309 Y10.018
N6580 G2 X-0.191 Y10.122 I1.194 J7.021
N6585 X-0.69 Y10.018 I-1.694 J6.917
N6590 G1 X-1.805 Y9.829
N6595 X-2.452 Y9.689
N6600 X-3.883 Y9.213
N6605 X-5.229 Y8.537
N6610 X-5.78 Y8.181
N6615 X-6.699 Y7.527
N6620 G2 X-7.138 Y7.237 I-4.132 J5.8
N6625 X-7.426 Y6.8 I-6.088 J3.695
N6630 G1 X-8.08 Y5.882
N6635 X-8.437 Y5.33
N6640 X-9.112 Y3.984
N6645 X-9.588 Y2.553
N6650 X-9.728 Y1.906
N6655 X-9.918 Y0.792
N6660 G2 X-10.021 Y0.293 I-7.021 J1.194
N6665 G1 X-9.971 Y0.071
N6670 G2 X-10.104 Y-0.254 I-0.305 J-0.064
N6675 G3 X-10.245 Y-0.576 I0.176 J-0.268
N6680 G1 X-10.105 Y-1.395
N6685 X-9.959 Y-2.071
N6690 X-9.468 Y-3.548
N6695 X-8.771 Y-4.937
N6700 X-8.398 Y-5.513
N6705 X-7.739 Y-6.439
N6710 G2 X-7.417 Y-6.936 I-5.487 J-3.909
N6715 X-6.923 Y-7.256 I-3.415 J-5.808
N6720 G1 X-5.997 Y-7.915
N6725 X-5.42 Y-8.288
N6730 X-4.031 Y-8.985
N6735 X-2.554 Y-9.476
N6740 X-1.878 Y-9.623
N6745 X-0.756 Y-9.814
N6750 G2 X-0.191 Y-9.935 I-1.129 J-6.642
N6755 X0.373 Y-9.814 I1.694 J-6.521
N6760 G1 X1.496 Y-9.623
N6765 X2.172 Y-9.476
N6770 X3.649 Y-8.985
N6775 X5.038 Y-8.288
N6780 X5.614 Y-7.915
N6785 X6.54 Y-7.256
N6790 G2 X7.036 Y-6.934 I3.909 J-5.487
N6795 X7.357 Y-6.44 I5.808 J-3.415
N6800 G1 X8.016 Y-5.514
N6805 X8.389 Y-4.937
N6810 X9.086 Y-3.548
N6815 X9.577 Y-2.071
N6820 X9.724 Y-1.395
N6825 X9.915 Y-0.273
N6830 G2 X10.036 Y0.291 I6.642 J-1.13
N6835 X9.914 Y0.856 I6.521 J1.695
N6840 G1 X9.723 Y1.979
N6845 X9.577 Y2.654
N6850 X9.086 Y4.132
N6855 X8.389 Y5.52
N6860 X8.016 Y6.097
N6865 X7.357 Y7.022
N6870 G2 X7.035 Y7.519 I5.487 J3.909
N6875 X6.541 Y7.839 I3.414 J5.808
N6880 G1 X5.615 Y8.499
N6885 X5.038 Y8.871
N6890 X3.649 Y9.569
N6895 X2.172 Y10.06
N6900 X1.496 Y10.206
N6905 X0.373 Y10.397
N6910 G2 X-0.191 Y10.518 I1.13 J6.642
N6915 X-0.755 Y10.397 I-1.694 J6.521
N6920 G1 X-1.878 Y10.206
N6925 X-2.554 Y10.06
N6930 X-4.031 Y9.569
N6935 X-5.42 Y8.871
N6940 X-5.996 Y8.499
N6945 X-6.922 Y7.84
N6950 G2 X-7.418 Y7.518 I-3.909 J5.487
N6955 X-7.739 Y7.023 I-5.808 J3.415
N6960 G1 X-8.398 Y6.097
N6965 X-8.771 Y5.521
N6970 X-9.468 Y4.132
N6975 X-9.959 Y2.654
N6980 X-10.106 Y1.979
N6985 X-10.297 Y0.857
N6990 G2 X-10.417 Y0.292 I-6.642 J1.129
N6995 X-10.296 Y-0.273 I-6.521 J-1.695
N7000 G1 X-10.245 Y-0.576
N7005 G2 X-10.385 Y-0.892 I-0.307 J-0.052
N7010 G3 X-10.526 Y-1.208 I0.166 J-0.264
N7015 G1 X-10.482 Y-1.468
N7020 X-10.329 Y-2.172
N7025 X-9.823 Y-3.695
N7030 X-9.104 Y-5.127
N7035 X-8.716 Y-5.729
N7040 X-8.051 Y-6.662
N7045 G2 X-7.698 Y-7.216 I-5.175 J-3.687
N7050 X-7.146 Y-7.568 I-3.134 J-5.527
N7055 G1 X-6.213 Y-8.233
N7060 X-5.611 Y-8.621
N7065 X-4.179 Y-9.34
N7070 X-2.655 Y-9.847
N7075 X-1.951 Y-9.999
N7080 X-0.82 Y-10.192
N7085 G2 X-0.191 Y-10.332 I-1.065 J-6.264
N7090 X0.437 Y-10.192 I1.694 J-6.124
N7095 G1 X1.569 Y-9.999
N7100 X2.273 Y-9.847
N7105 X3.796 Y-9.341
N7110 X5.228 Y-8.621
N7115 X5.83 Y-8.233
N7120 X6.762 Y-7.568
N7125 G2 X7.317 Y-7.215 I3.687 J-5.175
N7130 X7.669 Y-6.662 I5.527 J-3.134
N7135 G1 X8.334 Y-5.729
N7140 X8.722 Y-5.128
N7145 X9.442 Y-3.696
N7150 X9.948 Y-2.173
N7155 X10.1 Y-1.468
N7160 X10.293 Y-0.337
N7165 G2 X10.433 Y0.291 I6.264 J-1.066
N7170 X10.292 Y0.921 I6.124 J1.695
N7175 G1 X10.1 Y2.051
N7180 X9.947 Y2.756
N7185 X9.441 Y4.279
N7190 X8.722 Y5.711
N7195 X8.334 Y6.312
N7200 X7.669 Y7.245
N7205 G2 X7.316 Y7.799 I5.175 J3.687
N7210 X6.763 Y8.152 I3.133 J5.527
N7215 G1 X5.83 Y8.816
N7220 X5.229 Y9.205
N7225 X3.796 Y9.924
N7230 X2.273 Y10.43
N7235 X1.569 Y10.583
N7240 X0.438 Y10.775
N7245 G2 X-0.191 Y10.915 I1.066 J6.264
N7250 X-0.819 Y10.775 I-1.694 J6.124
N7255 G1 X-1.951 Y10.583
N7260 X-2.655 Y10.43
N7265 X-4.178 Y9.924
N7270 X-5.61 Y9.205
N7275 X-6.211 Y8.816
N7280 X-7.144 Y8.152
N7285 G2 X-7.699 Y7.798 I-3.687 J5.175
N7290 X-8.051 Y7.246 I-5.527 J3.134
N7295 G1 X-8.716 Y6.313
N7300 X-9.104 Y5.712
N7305 X-9.823 Y4.279
N7310 X-10.33 Y2.756
N7315 X-10.482 Y2.052
N7320 X-10.675 Y0.921
N7325 G2 X-10.815 Y0.292 I-6.264 J1.065
N7330 X-10.674 Y-0.337 I-6.124 J-1.695
N7335 G1 X-10.526 Y-1.208
N7340 G2 X-10.664 Y-1.52 I-0.305 J-0.052
N7345 G3 X-10.794 Y-1.835 I0.163 J-0.252
N7350 G1 X-10.699 Y-2.273
N7355 X-10.178 Y-3.842
N7360 X-9.437 Y-5.318
N7365 X-9.032 Y-5.944
N7370 X-8.363 Y-6.884
N7375 G2 X-7.979 Y-7.498 I-4.863 J-3.465
N7380 X-7.368 Y-7.88 I-2.853 J-5.246
N7385 G1 X-6.428 Y-8.549
N7390 X-5.801 Y-8.954
N7395 X-4.326 Y-9.695
N7400 X-2.757 Y-10.217
N7405 X-2.024 Y-10.375
N7410 X-0.885 Y-10.569
N7415 G2 X-0.191 Y-10.73 I-1.001 J-5.887
N7420 X0.502 Y-10.569 I1.694 J-5.726
N7425 G1 X1.641 Y-10.375
N7430 X2.374 Y-10.216
N7435 X3.943 Y-9.695
N7440 X5.419 Y-8.954
N7445 X6.045 Y-8.55
N7450 X6.984 Y-7.88
N7455 G2 X7.599 Y-7.496 I3.465 J-4.863
N7460 X7.981 Y-6.884 I5.246 J-2.852
N7465 G1 X8.651 Y-5.944
N7470 X9.055 Y-5.318
N7475 X9.796 Y-3.843
N7480 X10.318 Y-2.274
N7485 X10.476 Y-1.541
N7490 X10.67 Y-0.401
N7495 G2 X10.831 Y0.291 I5.887 J-1.001
N7500 X10.67 Y0.985 I5.726 J1.695
N7505 G1 X10.476 Y2.124
N7510 X10.317 Y2.857
N7515 X9.796 Y4.426
N7520 X9.055 Y5.901
N7525 X8.65 Y6.527
N7530 X7.981 Y7.467
N7535 G2 X7.597 Y8.081 I4.863 J3.465
N7540 X6.985 Y8.463 I2.852 J5.246
N7545 G1 X6.045 Y9.133
N7550 X5.419 Y9.537
N7555 X3.943 Y10.278
N7560 X2.375 Y10.8
N7565 X1.642 Y10.959
N7570 X0.502 Y11.153
N7575 G2 X-0.191 Y11.313 I1.001 J5.887
N7580 X-0.883 Y11.153 I-1.694 J5.726
N7585 G1 X-2.023 Y10.959
N7590 X-2.756 Y10.8
N7595 X-4.325 Y10.278
N7600 X-5.801 Y9.538
N7605 X-6.426 Y9.133
N7610 X-7.366 Y8.464
N7615 G2 X-7.98 Y8.08 I-3.465 J4.863
N7620 X-8.363 Y7.468 I-5.246 J2.852
N7625 G1 X-9.032 Y6.528
N7630 X-9.437 Y5.902
N7635 X-10.178 Y4.426
N7640 X-10.7 Y2.857
N7645 X-10.858 Y2.124
N7650 X-11.052 Y0.985
N7655 G2 X-11.213 Y0.292 I-5.887 J1.001
N7660 X-11.052 Y-0.401 I-5.726 J-1.695
N7665 G1 X-10.858 Y-1.541
N7670 X-10.794 Y-1.835
N7675 G2 X-10.923 Y-2.151 I-0.294 J-0.064
N7680 G3 X-11.035 Y-2.473 I0.153 J-0.234
N7685 G1 X-10.531 Y-3.989
N7690 X-9.769 Y-5.508
N7695 X-9.348 Y-6.158
N7700 X-8.674 Y-7.105
N7705 G2 X-8.262 Y-7.78 I-4.552 J-3.243
N7710 X-7.589 Y-8.191 I-2.57 J-4.963
N7715 G1 X-6.642 Y-8.865
N7720 X-5.991 Y-9.286
N7725 X-4.472 Y-10.048
N7730 X-2.858 Y-10.585
N7735 X-2.096 Y-10.75
N7740 X-0.949 Y-10.945
N7745 G2 X-0.191 Y-11.129 I-0.937 J-5.51
N7750 X0.566 Y-10.945 I1.694 J-5.326
N7755 G1 X1.714 Y-10.75
N7760 X2.475 Y-10.585
N7765 X4.09 Y-10.048
N7770 X5.608 Y-9.286
N7775 X6.259 Y-8.866
N7780 X7.206 Y-8.191
N7785 G2 X7.881 Y-7.779 I3.243 J-4.552
N7790 X8.292 Y-7.106 I4.964 J-2.57
N7795 G1 X8.966 Y-6.159
N7800 X9.387 Y-5.508
N7805 X10.149 Y-3.989
N7810 X10.686 Y-2.375
N7815 X10.851 Y-1.613
N7820 X11.046 Y-0.465
N7825 G2 X11.23 Y0.291 I5.51 J-0.937
N7830 X11.046 Y1.049 I5.326 J1.695
N7835 G1 X10.851 Y2.197
N7840 X10.686 Y2.958
N7845 X10.149 Y4.573
N7850 X9.387 Y6.091
N7855 X8.966 Y6.742
N7860 X8.292 Y7.689
N7865 G2 X7.88 Y8.363 I4.552 J3.243
N7870 X7.207 Y8.774 I2.57 J4.964
N7875 G1 X6.26 Y9.449
N7880 X5.609 Y9.869
N7885 X4.09 Y10.632
N7890 X2.475 Y11.169
N7895 X1.714 Y11.334
N7900 X0.566 Y11.529
N7905 G2 X-0.191 Y11.713 I0.937 J5.51
N7910 X-0.947 Y11.529 I-1.694 J5.327
N7915 G1 X-2.096 Y11.334
N7920 X-2.857 Y11.169
N7925 X-4.472 Y10.632
N7930 X-5.99 Y9.869
N7935 X-6.641 Y9.449
N7940 X-7.588 Y8.774
N7945 G2 X-8.263 Y8.362 I-3.243 J4.552
N7950 X-8.674 Y7.689 I-4.964 J2.57
N7955 G1 X-9.348 Y6.742
N7960 X-9.769 Y6.092
N7965 X-10.531 Y4.573
N7970 X-11.068 Y2.958
N7975 X-11.233 Y2.197
N7980 X-11.428 Y1.049
N7985 G2 X-11.612 Y0.292 I-5.51 J0.937
N7990 X-11.428 Y-0.465 I-5.326 J-1.694
N7995 G1 X-11.233 Y-1.613
N8000 X-11.068 Y-2.374
N8005 X-11.035 Y-2.473
N8010 G2 X-11.126 Y-2.804 I-0.293 J-0.098
N8015 G3 X-11.216 Y-3.134 I0.203 J-0.233
N8020 G1 X-10.884 Y-4.135
N8025 X-10.1 Y-5.697
N8030 X-9.663 Y-6.372
N8035 X-8.984 Y-7.326
N8040 G2 X-8.545 Y-8.063 I-4.242 J-3.022
N8045 X-7.81 Y-8.501 I-2.287 J-4.68
N8050 G1 X-6.856 Y-9.18
N8055 X-6.18 Y-9.617
N8060 X-4.618 Y-10.401
N8065 X-2.958 Y-10.953
N8070 X-2.169 Y-11.124
N8075 X-1.012 Y-11.32
N8080 G2 X-0.191 Y-11.53 I-0.873 J-5.135
N8085 X0.629 Y-11.32 I1.694 J-4.926
N8090 G1 X1.786 Y-11.124
N8095 X2.576 Y-10.953
N8100 X4.236 Y-10.401
N8105 X5.798 Y-9.617
N8110 X6.473 Y-9.18
N8115 X7.427 Y-8.501
N8120 G2 X8.164 Y-8.062 I3.022 J-4.242
N8125 X8.602 Y-7.327 I4.68 J-2.286
N8130 G1 X9.281 Y-6.373
N8135 X9.718 Y-5.697
N8140 X10.502 Y-4.135
N8145 X11.054 Y-2.475
N8150 X11.225 Y-1.686
N8155 X11.422 Y-0.529
N8160 G2 X11.631 Y0.291 I5.135 J-0.874
N8165 X11.421 Y1.112 I4.926 J1.695
N8170 G1 X11.224 Y2.269
N8175 X11.053 Y3.058
N8180 X10.502 Y4.719
N8185 X9.717 Y6.28
N8190 X9.281 Y6.955
N8195 X8.602 Y7.909
N8200 G2 X8.163 Y8.647 I4.242 J3.022
N8205 X7.427 Y9.084 I2.286 J4.68
N8210 G1 X6.473 Y9.764
N8215 X5.798 Y10.2
N8220 X4.236 Y10.984
N8225 X2.576 Y11.536
N8230 X1.786 Y11.707
N8235 X0.63 Y11.904
N8240 G2 X-0.191 Y12.113 I0.874 J5.135
N8245 X-1.011 Y11.904 I-1.694 J4.926
N8250 G1 X-2.168 Y11.707
N8255 X-2.958 Y11.536
N8260 X-4.618 Y10.984
N8265 X-6.18 Y10.2
N8270 X-6.855 Y9.764
N8275 X-7.809 Y9.084
N8280 G2 X-8.546 Y8.646 I-3.022 J4.242
N8285 X-8.984 Y7.91 I-4.68 J2.286
N8290 G1 X-9.663 Y6.956
N8295 X-10.1 Y6.281
N8300 X-10.884 Y4.719
N8305 X-11.436 Y3.059
N8310 X-11.607 Y2.269
N8315 X-11.803 Y1.113
N8320 G2 X-12.013 Y0.292 I-5.135 J0.873
N8325 X-11.803 Y-0.529 I-4.926 J-1.694
N8330 G1 X-11.606 Y-1.685
N8335 X-11.435 Y-2.475
N8340 X-11.216 Y-3.134
N8345 G2 X-11.306 Y-3.464 I-0.292 J-0.097
N8350 G3 X-11.397 Y-3.793 I0.202 J-0.232
N8355 G1 X-11.235 Y-4.281
N8360 X-10.429 Y-5.885
N8365 X-9.977 Y-6.585
N8370 X-9.292 Y-7.546
N8375 G2 X-8.83 Y-8.348 I-3.934 J-2.802
N8380 X-8.03 Y-8.809 I-2.002 J-4.395
N8385 G1 X-7.069 Y-9.494
N8390 X-6.369 Y-9.946
N8395 X-4.764 Y-10.752
N8400 X-3.058 Y-11.319
N8405 X-2.24 Y-11.496
N8410 X-1.076 Y-11.694
N8415 G2 X-0.191 Y-11.933 I-0.81 J-4.762
N8420 X0.693 Y-11.694 I1.694 J-4.523
N8425 G1 X1.858 Y-11.496
N8430 X2.676 Y-11.319
N8435 X4.381 Y-10.752
N8440 X5.986 Y-9.946
N8445 X6.686 Y-9.494
N8450 X7.647 Y-8.81
N8455 G2 X8.449 Y-8.347 I2.802 J-3.934
N8460 X8.911 Y-7.546 I4.396 J-2.002
N8465 G1 X9.595 Y-6.585
N8470 X10.047 Y-5.886
N8475 X10.853 Y-4.281
N8480 X11.42 Y-2.575
N8485 X11.597 Y-1.757
N8490 X11.795 Y-0.592
N8495 G2 X12.033 Y0.291 I4.762 J-0.81
N8500 X11.795 Y1.176 I4.523 J1.695
N8505 G1 X11.597 Y2.341
N8510 X11.42 Y3.159
N8515 X10.853 Y4.864
N8520 X10.047 Y6.469
N8525 X9.595 Y7.168
N8530 X8.91 Y8.129
N8535 G2 X8.448 Y8.931 I3.934 J2.802
N8540 X7.647 Y9.393 I2.001 J4.396
N8545 G1 X6.686 Y10.077
N8550 X5.987 Y10.53
N8555 X4.382 Y11.335
N8560 X2.676 Y11.902
N8565 X1.858 Y12.079
N8570 X0.693 Y12.278
N8575 G2 X-0.191 Y12.516 I0.81 J4.762
N8580 X-1.075 Y12.278 I-1.694 J4.523
N8585 G1 X-2.24 Y12.079
N8590 X-3.058 Y11.902
N8595 X-4.763 Y11.335
N8600 X-6.368 Y10.53
N8605 X-7.068 Y10.078
N8610 X-8.028 Y9.393
N8615 G2 X-8.831 Y8.93 I-2.802 J3.934
N8620 X-9.292 Y8.13 I-4.396 J2.002
N8625 G1 X-9.977 Y7.169
N8630 X-10.429 Y6.469
N8635 X-11.235 Y4.864
N8640 X-11.802 Y3.159
N8645 X-11.979 Y2.341
N8650 X-12.177 Y1.176
N8655 G2 X-12.415 Y0.292 I-4.762 J0.81
N8660 X-12.177 Y-0.592 I-4.523 J-1.694
N8665 G1 X-11.979 Y-1.757
N8670 X-11.802 Y-2.575
N8675 X-11.397 Y-3.793
N8680 G2 X-11.496 Y-4.117 I-0.277 J-0.092
N8685 G3 X-11.573 Y-4.448 I0.161 J-0.211
N8690 G1 X-10.757 Y-6.073
N8695 X-10.289 Y-6.797
N8700 X-9.599 Y-7.765
N8705 G2 X-9.116 Y-8.634 I-3.627 J-2.584
N8710 X-8.248 Y-9.117 I-1.715 J-4.109
N8715 G1 X-7.28 Y-9.806
N8720 X-6.556 Y-10.274
N8725 X-4.909 Y-11.101
N8730 X-3.158 Y-11.683
N8735 X-2.312 Y-11.866
N8740 X-1.139 Y-12.066
N8745 G2 X-0.191 Y-12.338 I-0.746 J-4.39
N8750 X0.756 Y-12.066 I1.694 J-4.118
N8755 G1 X1.929 Y-11.866
N8760 X2.776 Y-11.683
N8765 X4.526 Y-11.101
N8770 X6.174 Y-10.274
N8775 X6.898 Y-9.806
N8780 X7.865 Y-9.117
N8785 G2 X8.735 Y-8.633 I2.584 J-3.627
N8790 X9.218 Y-7.765 I4.109 J-1.715
N8795 G1 X9.907 Y-6.797
N8800 X10.375 Y-6.073
N8805 X11.202 Y-4.426
N8810 X11.784 Y-2.675
N8815 X11.967 Y-1.829
N8820 X12.167 Y-0.656
N8825 G2 X12.439 Y0.291 I4.39 J-0.747
N8830 X12.167 Y1.239 I4.118 J1.695
N8835 G1 X11.967 Y2.412
N8840 X11.784 Y3.258
N8845 X11.202 Y5.009
N8850 X10.375 Y6.656
N8855 X9.907 Y7.38
N8860 X9.217 Y8.348
N8865 G2 X8.734 Y9.218 I3.627 J2.584
N8870 X7.866 Y9.7 I1.715 J4.109
N8875 G1 X6.898 Y10.39
N8880 X6.174 Y10.857
N8885 X4.526 Y11.685
N8890 X2.776 Y12.267
N8895 X1.93 Y12.45
N8900 X0.756 Y12.649
N8905 G2 X-0.191 Y12.921 I0.747 J4.39
N8910 X-1.138 Y12.649 I-1.694 J4.118
N8915 G1 X-2.311 Y12.45
N8920 X-3.158 Y12.267
N8925 X-4.908 Y11.685
N8930 X-6.556 Y10.857
N8935 X-7.279 Y10.39
N8940 X-8.247 Y9.7
N8945 G2 X-9.117 Y9.217 I-2.584 J3.627
N8950 X-9.6 Y8.349 I-4.109 J1.715
N8955 G1 X-10.289 Y7.381
N8960 X-10.757 Y6.657
N8965 X-11.584 Y5.009
N8970 X-12.166 Y3.258
N8975 X-12.349 Y2.412
N8980 X-12.549 Y1.239
N8985 G2 X-12.82 Y0.292 I-4.39 J0.746
N8990 X-12.549 Y-0.656 I-4.118 J-1.694
N8995 G1 X-12.349 Y-1.829
N9000 X-12.166 Y-2.675
N9005 X-11.584 Y-4.426
N9010 X-11.573 Y-4.448
N9015 G2 X-11.614 Y-4.783 I-0.272 J-0.137
N9020 G3 X-11.655 Y-5.118 I0.231 J-0.199
N9025 G1 X-11.083 Y-6.259
N9030 X-10.599 Y-7.007
N9035 X-9.905 Y-7.982
N9040 G2 X-9.405 Y-8.923 I-3.321 J-2.366
N9045 X-8.466 Y-9.422 I-1.427 J-3.82
N9050 G1 X-7.491 Y-10.116
N9055 X-6.743 Y-10.6
N9060 X-5.053 Y-11.448
N9065 X-3.257 Y-12.045
N9070 X-2.383 Y-12.234
N9075 X-1.202 Y-12.435
N9080 G2 X-0.191 Y-12.746 I-0.684 J-4.02
N9085 X0.819 Y-12.435 I1.694 J-3.71
N9090 G1 X2.001 Y-12.234
N9095 X2.875 Y-12.045
N9100 X4.67 Y-11.448
N9105 X6.36 Y-10.6
N9110 X7.108 Y-10.116
N9115 X8.083 Y-9.422
N9120 G2 X9.024 Y-8.922 I2.366 J-3.321
N9125 X9.523 Y-7.983 I3.821 J-1.426
N9130 G1 X10.217 Y-7.008
N9135 X10.701 Y-6.26
N9140 X11.549 Y-4.57
N9145 X12.146 Y-2.774
N9150 X12.335 Y-1.9
N9155 X12.536 Y-0.719
N9160 G2 X12.847 Y0.291 I4.02 J-0.684
N9165 X12.536 Y1.302 I3.709 J1.694
N9170 G1 X12.335 Y2.483
N9175 X12.146 Y3.357
N9180 X11.549 Y5.153
N9185 X10.701 Y6.843
N9190 X10.217 Y7.591
N9195 X9.523 Y8.565
N9200 G2 X9.023 Y9.506 I3.321 J2.366
N9205 X8.083 Y10.005 I1.426 J3.821
N9210 G1 X7.109 Y10.7
N9215 X6.36 Y11.183
N9220 X4.67 Y12.032
N9225 X2.875 Y12.628
N9230 X2.001 Y12.818
N9235 X0.819 Y13.019
N9240 G2 X-0.191 Y13.329 I0.684 J4.02
N9245 X-1.201 Y13.019 I-1.694 J3.71
N9250 G1 X-2.383 Y12.818
N9255 X-3.257 Y12.628
N9260 X-5.052 Y12.032
N9265 X-6.742 Y11.183
N9270 X-7.49 Y10.7
N9275 X-8.465 Y10.005
N9280 G2 X-9.406 Y9.506 I-2.366 J3.321
N9285 X-9.905 Y8.566 I-3.821 J1.426
N9290 G1 X-10.599 Y7.591
N9295 X-11.083 Y6.843
N9300 X-11.931 Y5.153
N9305 X-12.528 Y3.357
N9310 X-12.717 Y2.484
N9315 X-12.918 Y1.302
N9320 G2 X-13.229 Y0.292 I-4.02 J0.684
N9325 X-12.918 Y-0.718 I-3.709 J-1.694
N9330 G1 X-12.717 Y-1.9
N9335 X-12.528 Y-2.774
N9340 X-11.931 Y-4.569
N9345 X-11.655 Y-5.118
N9350 G2 X-11.696 Y-5.451 I-0.27 J-0.135
N9355 G3 X-11.737 Y-5.783 I0.229 J-0.197
N9360 G1 X-11.406 Y-6.444
N9365 X-10.907 Y-7.216
N9370 X-10.207 Y-8.198
N9375 G2 X-9.697 Y-9.215 I-3.019 J-2.151
N9380 X-8.681 Y-9.724 I-1.135 J-3.529
N9385 G1 X-7.7 Y-10.424
N9390 X-6.927 Y-10.923
N9395 X-5.195 Y-11.792
N9400 X-3.355 Y-12.404
N9405 X-2.454 Y-12.599
N9410 X-1.264 Y-12.801
N9415 G2 X-0.191 Y-13.159 I-0.621 J-3.654
N9420 X0.881 Y-12.802 I1.694 J-3.297
N9425 G1 X2.071 Y-12.599
N9430 X2.973 Y-12.404
N9435 X4.813 Y-11.792
N9440 X6.545 Y-10.923
N9445 X7.317 Y-10.424
N9450 X8.298 Y-9.724
N9455 G2 X9.316 Y-9.214 I2.151 J-3.019
N9460 X9.825 Y-8.198 I3.529 J-1.134
N9465 G1 X10.525 Y-7.217
N9470 X11.024 Y-6.444
N9475 X11.893 Y-4.712
N9480 X12.505 Y-2.872
N9485 X12.7 Y-1.971
N9490 X12.903 Y-0.781
N9495 G2 X13.26 Y0.291 I3.654 J-0.622
N9500 X12.902 Y1.364 I3.297 J1.694
N9505 G1 X12.7 Y2.554
N9510 X12.505 Y3.456
N9515 X11.893 Y5.296
N9520 X11.024 Y7.027
N9525 X10.525 Y7.799
N9530 X9.825 Y8.781
N9535 G2 X9.315 Y9.798 I3.019 J2.151
N9540 X8.299 Y10.308 I1.134 J3.529
N9545 G1 X7.317 Y11.007
N9550 X6.545 Y11.506
N9555 X4.813 Y12.376
N9560 X2.973 Y12.987
N9565 X2.071 Y13.183
N9570 X0.882 Y13.385
N9575 G2 X-0.191 Y13.742 I0.622 J3.654
N9580 X-1.263 Y13.385 I-1.694 J3.297
N9585 G1 X-2.453 Y13.183
N9590 X-3.355 Y12.987
N9595 X-5.195 Y12.376
N9600 X-6.927 Y11.506
N9605 X-7.699 Y11.007
N9610 X-8.68 Y10.308
N9615 G2 X-9.698 Y9.798 I-2.151 J3.019
N9620 X-10.207 Y8.782 I-3.529 J1.134
N9625 G1 X-10.907 Y7.8
N9630 X-11.406 Y7.028
N9635 X-12.275 Y5.296
N9640 X-12.887 Y3.456
N9645 X-13.082 Y2.554
N9650 X-13.284 Y1.365
N9655 G2 X-13.642 Y0.292 I-3.654 J0.621
N9660 X-13.284 Y-0.781 I-3.297 J-1.694
N9665 G1 X-13.082 Y-1.97
N9670 X-12.887 Y-2.872
N9675 X-12.275 Y-4.712
N9680 X-11.737 Y-5.783
N9685 G2 X-11.778 Y-6.111 I-0.267 J-0.134
N9690 G3 X-11.818 Y-6.44 I0.226 J-0.195
N9695 G1 X-11.725 Y-6.626
N9700 X-11.211 Y-7.422
N9705 X-10.506 Y-8.411
N9710 G2 X-9.993 Y-9.511 I-2.72 J-1.938
N9715 X-8.894 Y-10.024 I-0.838 J-3.232
N9720 G1 X-7.906 Y-10.728
N9725 X-7.11 Y-11.242
N9730 X-5.336 Y-12.132
N9735 X-3.452 Y-12.759
N9740 X-2.523 Y-12.96
N9745 X-1.326 Y-13.164
N9750 G2 X-0.191 Y-13.578 I-0.56 J-3.292
N9755 X0.943 Y-13.164 I1.694 J-2.878
N9760 G1 X2.141 Y-12.96
N9765 X3.07 Y-12.759
N9770 X4.954 Y-12.132
N9775 X6.727 Y-11.242
N9780 X7.523 Y-10.728
N9785 X8.511 Y-10.024
N9790 G2 X9.612 Y-9.511 I1.938 J-2.72
N9795 X10.125 Y-8.411 I3.232 J-0.838
N9800 G1 X10.829 Y-7.423
N9805 X11.343 Y-6.627
N9810 X12.233 Y-4.853
N9815 X12.86 Y-2.969
N9820 X13.061 Y-2.04
N9825 X13.265 Y-0.842
N9830 G2 X13.679 Y0.291 I3.292 J-0.56
N9835 X13.264 Y1.426 I2.877 J1.694
N9840 G1 X13.061 Y2.623
N9845 X12.859 Y3.553
N9850 X12.233 Y5.437
N9855 X11.343 Y7.21
N9860 X10.829 Y8.006
N9865 X10.124 Y8.994
N9870 G2 X9.611 Y10.094 I2.72 J1.938
N9875 X8.512 Y10.607 I0.838 J3.232
N9880 G1 X7.524 Y11.311
N9885 X6.728 Y11.825
N9890 X4.954 Y12.716
N9895 X3.07 Y13.342
N9900 X2.141 Y13.543
N9905 X0.943 Y13.747
N9910 G2 X-0.191 Y14.161 I0.56 J3.292
N9915 X-1.325 Y13.747 I-1.694 J2.878
N9920 G1 X-2.523 Y13.543
N9925 X-3.452 Y13.342
N9930 X-5.336 Y12.716
N9935 X-7.109 Y11.826
N9940 X-7.905 Y11.311
N9945 X-8.893 Y10.607
N9950 G2 X-9.994 Y10.094 I-1.938 J2.72
N9955 X-10.507 Y8.995 I-3.232 J0.838
N9960 G1 X-11.211 Y8.006
N9965 X-11.725 Y7.21
N9970 X-12.615 Y5.437
N9975 X-13.242 Y3.553
N9980 X-13.443 Y2.624
N9985 X-13.647 Y1.426
N9990 G2 X-14.061 Y0.292 I-3.292 J0.56
N9995 X-13.646 Y-0.842 I-2.878 J-1.694
N10000 G1 X-13.443 Y-2.04
N10005 X-13.241 Y-2.969
N10010 X-12.615 Y-4.853
N10015 X-11.818 Y-6.44
N10020 G2 X-11.852 Y-6.754 I-0.261 J-0.131
N10025 G3 X-11.869 Y-7.07 I0.21 J-0.169
N10030 G1 X-11.51 Y-7.625
N10035 X-10.801 Y-8.62
N10040 G2 X-10.297 Y-9.814 I-2.425 J-1.728
N10045 X-9.104 Y-10.318 I-0.535 J-2.929
N10050 G1 X-8.109 Y-11.027
N10055 X-7.29 Y-11.556
N10060 X-5.475 Y-12.467
N10065 X-3.548 Y-13.108
N10070 X-2.592 Y-13.315
N10075 X-1.386 Y-13.52
N10080 G2 X-0.191 Y-14.007 I-0.499 J-2.936
N10085 X1.004 Y-13.52 I1.694 J-2.449
N10090 G1 X2.209 Y-13.315
N10095 X3.166 Y-13.108
N10100 X5.093 Y-12.467
N10105 X6.907 Y-11.556
N10110 X7.726 Y-11.027
N10115 X8.721 Y-10.318
N10120 G2 X9.915 Y-9.814 I1.728 J-2.425
N10125 X10.419 Y-8.621 I2.929 J-0.535
N10130 G1 X11.128 Y-7.626
N10135 X11.657 Y-6.807
N10140 X12.568 Y-4.992
N10145 X13.209 Y-3.065
N10150 X13.416 Y-2.109
N10155 X13.621 Y-0.903
N10160 G2 X14.108 Y0.291 I2.936 J-0.499
N10165 X13.621 Y1.486 I2.449 J1.694
N10170 G1 X13.416 Y2.692
N10175 X13.209 Y3.648
N10180 X12.568 Y5.576
N10185 X11.657 Y7.39
N10190 X11.128 Y8.209
N10195 X10.419 Y9.204
N10200 G2 X9.915 Y10.398 I2.425 J1.728
N10205 X8.722 Y10.901 I0.535 J2.929
N10210 G1 X7.727 Y11.61
N10215 X6.907 Y12.14
N10220 X5.093 Y13.051
N10225 X3.166 Y13.691
N10230 X2.21 Y13.898
N10235 X1.004 Y14.104
N10240 G2 X-0.191 Y14.59 I0.499 J2.936
N10245 X-1.385 Y14.104 I-1.694 J2.449
N10250 G1 X-2.591 Y13.898
N10255 X-3.547 Y13.691
N10260 X-5.475 Y13.051
N10265 X-7.289 Y12.14
N10270 X-8.108 Y11.61
N10275 X-9.103 Y10.902
N10280 G2 X-10.297 Y10.397 I-1.728 J2.425
N10285 X-10.801 Y9.205 I-2.929 J0.535
N10290 G1 X-11.51 Y8.209
N10295 X-12.039 Y7.39
N10300 X-12.95 Y5.576
N10305 X-13.591 Y3.648
N10310 X-13.798 Y2.692
N10315 X-14.003 Y1.487
N10320 G2 X-14.489 Y0.292 I-2.936 J0.499
N10325 X-14.003 Y-0.903 I-2.449 J-1.694
N10330 G1 X-13.798 Y-2.109
N10335 X-13.591 Y-3.065
N10340 X-12.95 Y-4.992
N10345 X-12.039 Y-6.806
N10350 X-11.869 Y-7.07
N10355 G2 X-11.873 Y-7.388 I-0.241 J-0.156
N10360 G3 X-11.878 Y-7.707 I0.236 J-0.163
N10365 G1 X-11.802 Y-7.824
N10370 X-11.088 Y-8.825
N10375 G2 X-10.611 Y-10.128 I-2.138 J-1.523
N10380 X-9.309 Y-10.606 I-0.221 J-2.615
N10385 G1 X-8.307 Y-11.319
N10390 X-7.465 Y-11.863
N10395 X-5.611 Y-12.794
N10400 X-3.641 Y-13.449
N10405 X-2.659 Y-13.662
N10410 X-1.446 Y-13.868
N10415 G2 X-0.191 Y-14.451 I-0.44 J-2.587
N10420 X1.063 Y-13.868 I1.694 J-2.005
N10425 G1 X2.276 Y-13.662
N10430 X3.259 Y-13.449
N10435 X5.228 Y-12.794
N10440 X7.083 Y-11.863
N10445 X7.925 Y-11.319
N10450 X8.926 Y-10.606
N10455 G2 X10.229 Y-10.128 I1.523 J-2.138
N10460 X10.707 Y-8.826 I2.615 J-0.221
N10465 G1 X11.42 Y-7.824
N10470 X11.964 Y-6.982
N10475 X12.895 Y-5.128
N10480 X13.55 Y-3.158
N10485 X13.763 Y-2.176
N10490 X13.969 Y-0.962
N10495 G2 X14.552 Y0.291 I2.587 J-0.44
N10500 X13.969 Y1.546 I2.004 J1.694
N10505 G1 X13.763 Y2.759
N10510 X13.55 Y3.742
N10515 X12.895 Y5.711
N10520 X11.964 Y7.565
N10525 X11.42 Y8.407
N10530 X10.706 Y9.409
N10535 G2 X10.229 Y10.712 I2.138 J1.523
N10540 X8.927 Y11.189 I0.221 J2.615
N10545 G1 X7.925 Y11.903
N10550 X7.083 Y12.447
N10555 X5.229 Y13.378
N10560 X3.259 Y14.033
N10565 X2.277 Y14.245
N10570 X1.063 Y14.452
N10575 G2 X-0.191 Y15.034 I0.44 J2.587
N10580 X-1.445 Y14.452 I-1.694 J2.005
N10585 G1 X-2.658 Y14.245
N10590 X-3.641 Y14.032
N10595 X-5.61 Y13.378
N10600 X-7.465 Y12.447
N10605 X-8.307 Y11.903
N10610 X-9.308 Y11.189
N10615 G2 X-10.611 Y10.711 I-1.523 J2.138
N10620 X-11.089 Y9.409 I-2.615 J0.221
N10625 G1 X-11.802 Y8.408
N10630 X-12.346 Y7.566
N10635 X-13.277 Y5.711
N10640 X-13.932 Y3.742
N10645 X-14.145 Y2.759
N10650 X-14.351 Y1.546
N10655 G2 X-14.934 Y0.292 I-2.587 J0.44
N10660 X-14.351 Y-0.962 I-2.005 J-1.694
N10665 G1 X-14.145 Y-2.176
N10670 X-13.932 Y-3.158
N10675 X-13.277 Y-5.128
N10680 X-12.346 Y-6.982
N10685 X-11.878 Y-7.707
N10690 G2 X-11.879 Y-8.009 I-0.233 J-0.151
N10695 G3 X-11.873 Y-8.312 I0.224 J-0.147
N10700 G1 X-11.366 Y-9.023
N10705 G2 X-10.945 Y-10.462 I-1.86 J-1.325
N10710 X-9.507 Y-10.883 I0.113 J-2.281
N10715 G1 X-8.499 Y-11.601
N10720 X-7.635 Y-12.16
N10725 X-5.742 Y-13.11
N10730 X-3.731 Y-13.778
N10735 X-2.724 Y-13.996
N10740 X-1.503 Y-14.204
N10745 G2 X-0.191 Y-14.924 I-0.383 J-2.252
N10750 X1.12 Y-14.204 I1.694 J-1.532
N10755 G1 X2.341 Y-13.996
N10760 X3.349 Y-13.778
N10765 X5.359 Y-13.11
N10770 X7.252 Y-12.16
N10775 X8.116 Y-11.601
N10780 X9.124 Y-10.883
N10785 G2 X10.563 Y-10.462 I1.325 J-1.86
N10790 X10.984 Y-9.024 I2.281 J0.114
N10795 G1 X11.702 Y-8.016
N10800 X12.261 Y-7.152
N10805 X13.211 Y-5.259
N10810 X13.879 Y-3.248
N10815 X14.097 Y-2.241
N10820 X14.305 Y-1.019
N10825 G2 X15.025 Y0.291 I2.252 J-0.383
N10830 X14.305 Y1.603 I1.532 J1.694
N10835 G1 X14.097 Y2.824
N10840 X13.879 Y3.832
N10845 X13.211 Y5.842
N10850 X12.26 Y7.735
N10855 X11.702 Y8.599
N10860 X10.984 Y9.607
N10865 G2 X10.563 Y11.046 I1.86 J1.325
N10870 X9.124 Y11.467 I-0.114 J2.281
N10875 G1 X8.116 Y12.185
N10880 X7.252 Y12.743
N10885 X5.359 Y13.693
N10890 X3.349 Y14.362
N10895 X2.341 Y14.58
N10900 X1.12 Y14.788
N10905 G2 X-0.191 Y15.507 I0.383 J2.252
N10910 X-1.502 Y14.788 I-1.694 J1.532
N10915 G1 X-2.723 Y14.58
N10920 X-3.731 Y14.362
N10925 X-5.741 Y13.693
N10930 X-7.634 Y12.743
N10935 X-8.498 Y12.185
N10940 X-9.506 Y11.467
N10945 G2 X-10.945 Y11.046 I-1.325 J1.86
N10950 X-11.366 Y9.607 I-2.281 J-0.114
N10955 G1 X-12.084 Y8.599
N10960 X-12.643 Y7.735
N10965 X-13.593 Y5.842
N10970 X-14.261 Y3.832
N10975 X-14.479 Y2.824
N10980 X-14.687 Y1.603
N10985 G2 X-15.407 Y0.292 I-2.252 J0.383
N10990 X-14.687 Y-1.019 I-1.532 J-1.694
N10995 G1 X-14.479 Y-2.24
N11000 X-14.261 Y-3.248
N11005 X-13.593 Y-5.259
N11010 X-12.642 Y-7.151
N11015 X-12.084 Y-8.015
N11020 X-11.873 Y-8.312
N11025 G2 X-11.864 Y-8.601 I-0.212 J-0.151
N11030 G3 X-11.855 Y-8.89 I0.221 J-0.138
N11035 G1 X-11.627 Y-9.209
N11040 G2 X-11.327 Y-10.844 I-1.599 J-1.139
N11045 X-9.693 Y-11.145 I0.495 J-1.9
N11050 G1 X-8.679 Y-11.867
N11055 X-7.794 Y-12.439
N11060 X-5.865 Y-13.407
N11065 X-3.816 Y-14.088
N11070 X-2.784 Y-14.312
N11075 X-1.556 Y-14.52
N11080 G2 X-0.191 Y-15.464 I-0.329 J-1.935
N11085 X1.174 Y-14.52 I1.694 J-0.991
N11090 G1 X2.402 Y-14.312
N11095 X3.434 Y-14.088
N11100 X5.483 Y-13.407
N11105 X7.412 Y-12.439
N11110 X8.296 Y-11.867
N11115 X9.31 Y-11.145
N11120 G2 X10.945 Y-10.844 I1.139 J-1.599
N11125 X11.246 Y-9.21 I1.899 J0.495
N11130 G1 X11.968 Y-8.196
N11135 X12.54 Y-7.311
N11140 X13.508 Y-5.382
N11145 X14.189 Y-3.333
N11150 X14.413 Y-2.301
N11155 X14.622 Y-1.073
N11160 G2 X15.565 Y0.291 I1.935 J-0.329
N11165 X14.621 Y1.657 I0.991 J1.694
N11170 G1 X14.412 Y2.885
N11175 X14.189 Y3.916
N11180 X13.508 Y5.965
N11185 X12.539 Y7.894
N11190 X11.968 Y8.779
N11195 X11.245 Y9.793
N11200 G2 X10.945 Y11.428 I1.599 J1.139
N11205 X9.311 Y11.728 I-0.495 J1.899
N11210 G1 X8.297 Y12.45
N11215 X7.412 Y13.022
N11220 X5.483 Y13.99
N11225 X3.434 Y14.672
N11230 X2.402 Y14.895
N11235 X1.174 Y15.104
N11240 G2 X-0.191 Y16.047 I0.329 J1.935
N11245 X-1.556 Y15.104 I-1.694 J0.992
N11250 G1 X-2.784 Y14.895
N11255 X-3.816 Y14.672
N11260 X-5.864 Y13.99
N11265 X-7.793 Y13.022
N11270 X-8.678 Y12.45
N11275 X-9.692 Y11.728
N11280 G2 X-11.327 Y11.428 I-1.139 J1.599
N11285 X-11.628 Y9.793 I-1.899 J-0.495
N11290 G1 X-12.35 Y8.779
N11295 X-12.922 Y7.895
N11300 X-13.89 Y5.965
N11305 X-14.571 Y3.917
N11310 X-14.795 Y2.885
N11315 X-15.003 Y1.657
N11320 G2 X-15.947 Y0.292 I-1.935 J0.329
N11325 X-15.003 Y-1.073 I-0.992 J-1.694
N11330 G1 X-14.794 Y-2.301
N11335 X-14.571 Y-3.333
N11340 X-13.89 Y-5.382
N11345 X-12.921 Y-7.311
N11350 X-12.35 Y-8.195
N11355 X-11.855 Y-8.89
N11360 Z1.
N11365 X-10.619 Y-10.136
N11370 Z-3.175
N11375 X-19.482 Y-18.999
N11380 X-19.633
N11385 X-19.61 Y-19.129
N11390 X-19.482 Y-19.151
N11395 Y-18.999
N11400 X-19.475 Y-18.941
N11405 X-19.452 Y-18.887
N11410 X-19.417 Y-18.841
N11415 X-19.397 Y-18.81
N11420 X-19.39 Y-18.775
N11425 X-19.397 Y-18.739
N11430 X-19.417 Y-18.709
N11435 X-19.447 Y-18.689
N11440 X-19.482 Y-18.682
N11445 X-20.049
N11450 G2 X-19.9 Y-19.418 I-2.373 J-0.863
N11455 X-19.165 Y-19.567 I-0.128 J-2.522
N11460 G1 Y-18.682
N11465 X-19.482
N11470 G2 X-19.711 Y-18.53 I0. J0.247
N11475 G3 X-19.939 Y-18.378 I-0.228 J-0.095
N11480 G1 X-20.532
N11485 G2 X-20.208 Y-19.726 I-1.889 J-1.167
N11490 X-18.861 Y-20.05 I0.18 J-2.213
N11495 G1 Y-18.552
N11500 X-18.854 Y-18.37
N11505 X-19.035 Y-18.378
N11510 X-19.939
N11515 G2 X-20.153 Y-18.235 I0. J0.233
N11520 G3 X-20.368 Y-18.092 I-0.215 J-0.089
N11525 G1 X-21.145
N11530 G2 X-20.563 Y-20.081 I-1.276 J-1.453
N11535 X-18.575 Y-20.663 I0.535 J-1.859
N11540 G1 Y-18.552
N11545 G2 X-18.499 Y-18.016 I1.934 J0.
N11550 X-19.035 Y-18.092 I-0.536 J1.859
N11555 G1 X-20.368
N11560 Z5.
N11565 X-10.619 Y-10.136
N11570 Z1. F666.67
N11575 Z-3.175 F2000.
N11580 X-30.316 Y-29.832
N11585 X-30.43 Y-29.835
N11590 X-30.544 Y-29.832
N11595 X-30.541 Y-29.946
N11600 X-30.544 Y-30.06
N11605 X-30.43 Y-30.057
N11610 X-30.316 Y-30.06
N11615 X-30.319 Y-29.946
N11620 X-30.316 Y-29.832
N11625 X-30.307 Y-29.773
N11630 X-30.284 Y-29.718
N11635 X-30.251 Y-29.669
N11640 X-30.232 Y-29.637
N11645 X-30.228 Y-29.6
N11650 X-30.237 Y-29.565
N11655 X-30.259 Y-29.535
N11660 X-30.291 Y-29.516
N11665 X-30.328 Y-29.511
N11670 G2 X-30.926 Y-29.45 I-0.103 J1.96
N11675 Y-30.442 I-1.899 J-0.495
N11680 X-29.935 I0.496 J-1.899
N11685 X-29.934 Y-29.45 I1.899 J0.495
N11690 X-30.328 Y-29.511 I-0.496 J1.899
N11695 G1 Z5.
N11700 X-37.753 Y-37.202
N11705 Z2.5 F666.67
N11710 Z-3.175
N11715 X-37.76 F2000.
N11720 X-37.837
N11725 X-37.816 Y-37.327
N11730 X-37.686 Y-37.349
N11735 Y-37.202
N11740 X-37.753
N11745 G2 X-37.99 Y-37.043 I0. J0.257
N11750 G3 X-38.228 Y-36.885 I-0.238 J-0.099
N11755 G1 X-38.252
N11760 G2 X-38.105 Y-37.617 I-2.374 J-0.859
N11765 X-37.369 Y-37.764 I-0.123 J-2.522
N11770 G1 X-37.37 Y-36.886
N11775 X-38.228 Y-36.885
N11780 G2 X-38.456 Y-36.732 I0. J0.247
N11785 G3 X-38.684 Y-36.58 I-0.228 J-0.095
N11790 G1 X-38.735
N11795 G2 X-38.413 Y-37.926 I-1.891 J-1.164
N11800 X-37.064 Y-38.247 I0.186 J-2.213
N11805 G1 X-37.066 Y-36.76
N11810 X-37.058 Y-36.574
N11815 X-37.244 Y-36.582
N11820 X-38.684 Y-36.58
N11825 G2 X-38.898 Y-36.436 I0. J0.233
N11830 G3 X-39.113 Y-36.293 I-0.215 J-0.089
N11835 G1 X-39.348 Y-36.292
N11840 G2 X-38.769 Y-38.281 I-1.279 J-1.451
N11845 X-36.776 Y-38.86 I0.541 J-1.857
N11850 G1 X-36.779 Y-36.759
N11855 G2 X-36.703 Y-36.219 I1.934 J0.003
N11860 X-37.243 Y-36.295 I-0.537 J1.858
N11865 G1 X-39.113 Y-36.293
N11870 Z5.
N11875 X-49.721 Y-49.306
N11880 Z2.5 F666.67
N11885 Z-3.175
N11890 Y-49.237 F2000.
N11895 X-49.797
N11900 X-49.873
N11905 X-49.851 Y-49.367
N11910 X-49.721 Y-49.389
N11915 Y-49.306
N11920 X-49.713 Y-49.251
N11925 X-49.69 Y-49.2
N11930 X-49.653 Y-49.158
N11935 X-49.606 Y-49.127
N11940 X-49.576 Y-49.107
N11945 X-49.555 Y-49.077
N11950 X-49.544 Y-49.042
N11955 X-49.546 Y-49.005
N11960 X-49.559 Y-48.971
N11965 X-49.584 Y-48.944
N11970 X-49.616 Y-48.926
N11975 X-49.652 Y-48.92
N11980 X-50.289
N11985 G2 X-50.14 Y-49.656 I-2.373 J-0.863
N11990 X-49.404 Y-49.805 I-0.127 J-2.522
N11995 G1 Y-48.92
N12000 X-49.652
N12005 G2 X-49.88 Y-48.768 I0. J0.247
N12010 G3 X-50.108 Y-48.616 I-0.228 J-0.095
N12015 G1 X-50.772
N12020 G2 X-50.448 Y-49.964 I-1.889 J-1.167
N12025 X-49.1 Y-50.288 I0.181 J-2.213
N12030 G1 Y-48.79
N12035 X-49.092 Y-48.608
N12040 X-49.274 Y-48.616
N12045 X-50.108
N12050 G2 X-50.323 Y-48.473 I0. J0.233
N12055 G3 X-50.538 Y-48.329 I-0.215 J-0.089
N12060 G1 X-51.385
N12065 G2 X-50.803 Y-50.319 I-1.276 J-1.453
N12070 X-48.814 Y-50.901 I0.536 J-1.859
N12075 G1 Y-48.79
N12080 G2 X-48.738 Y-48.254 I1.934 J0.
N12085 X-49.274 Y-48.329 I-0.536 J1.858
N12090 G1 X-50.538
N12095 Z5.
N12100 X-53.264 Y0.245
N12105 Z2.5 F666.67
N12110 Z-3.175
N12115 X-53.217 Y0.292 F2000.
N12120 X-53.259 Y0.334
N12125 X-53.321 Y0.396
N12130 X-53.394 Y0.292
N12135 X-53.32 Y0.188
N12140 X-53.264 Y0.245
N12145 X-53.22 Y0.278
N12150 X-53.168 Y0.298
N12155 X-53.113 Y0.302
N12160 X-53.059 Y0.292
N12165 X-53.018 Y0.286
N12170 X-52.978 Y0.296
N12175 X-52.945 Y0.32
N12180 X-52.923 Y0.355
N12185 X-52.915 Y0.395
N12190 X-52.924 Y0.435
N12195 X-52.947 Y0.47
N12200 X-53.39 Y0.914
N12205 G2 X-53.803 Y0.292 I-2.286 J1.072
N12210 X-53.39 Y-0.33 I-1.872 J-1.694
N12215 G1 X-52.769 Y0.292
N12220 X-52.947 Y0.47
N12225 G2 X-53. Y0.739 I0.175 J0.175
N12230 G3 X-53.054 Y1.008 I-0.228 J0.094
N12235 G1 X-53.516 Y1.471
N12240 G2 X-54.24 Y0.292 I-2.16 J0.514
N12245 X-53.516 Y-0.887 I-1.436 J-1.694
N12250 G1 X-52.465 Y0.166
N12255 X-52.329 Y0.292
N12260 X-52.466 Y0.418
N12265 X-53.054 Y1.008
N12270 G2 X-53.104 Y1.261 I0.165 J0.164
N12275 G3 X-53.154 Y1.514 I-0.215 J0.089
N12280 G1 X-53.746 Y2.107
N12285 G2 X-54.742 Y0.292 I-1.931 J-0.122
N12290 X-53.745 Y-1.523 I-0.934 J-1.694
N12295 G1 X-52.263 Y-0.036
N12300 G2 X-51.827 Y0.292 I1.37 J-1.366
N12305 X-52.263 Y0.62 I0.934 J1.694
N12310 G1 X-53.154 Y1.514
N12315 Z5.
N12320 X-14.946 Y0.292
N12325 Z1. F666.67
N12330 Z-3.175 F2000.
N12335 X-42.362
N12340 X-42.446 Y0.371
N12345 X-42.525 Y0.454
N12350 X-42.604 Y0.371
N12355 X-42.687 Y0.292
N12360 X-42.603 Y0.213
N12365 X-42.524 Y0.13
N12370 X-42.445 Y0.213
N12375 X-42.362 Y0.292
N12380 X-42.314 Y0.327
N12385 X-42.259 Y0.35
N12390 X-42.201 Y0.361
N12395 X-42.165 Y0.37
N12400 X-42.136 Y0.393
N12405 X-42.117 Y0.425
N12410 X-42.112 Y0.461
N12415 X-42.122 Y0.497
N12420 X-42.144 Y0.527
N12425 G2 X-42.525 Y0.994 I1.313 J1.459
N12430 X-43.227 Y0.292 I-1.694 J0.992
N12435 X-42.524 Y-0.41 I-0.992 J-1.694
N12440 X-41.822 Y0.292 I1.694 J-0.992
N12445 X-42.144 Y0.527 I0.992 J1.694
N12450 G1 Z5.
N12455 X-14.946 Y0.292
N12460 Z1. F666.67
N12465 Z-3.175 F2000.
N12470 X-26.011
N12475 X-26.062 Y0.343
N12480 X-26.131 Y0.412
N12485 X-26.215 Y0.292
N12490 X-26.131 Y0.172
N12495 X-26.071 Y0.232
N12500 X-26.011 Y0.292
N12505 X-25.964 Y0.327
N12510 X-25.909 Y0.349
N12515 X-25.851 Y0.355
N12520 X-25.815 Y0.362
N12525 X-25.785 Y0.381
N12530 X-25.764 Y0.411
N12535 X-25.757 Y0.447
N12540 X-25.764 Y0.483
N12545 X-25.784 Y0.513
N12550 X-26.204 Y0.93
N12555 G2 X-26.625 Y0.292 I-2.293 J1.056
N12560 X-26.203 Y-0.346 I-1.871 J-1.694
N12565 G1 X-25.561 Y0.292
N12570 X-25.784 Y0.513
N12575 G2 X-25.839 Y0.782 I0.174 J0.175
N12580 G3 X-25.894 Y1.05 I-0.229 J0.093
N12585 G1 X-26.333 Y1.487
N12590 G2 X-27.061 Y0.292 I-2.163 J0.499
N12595 X-26.333 Y-0.903 I-1.435 J-1.694
N12600 G1 X-25.248 Y0.174
N12605 X-25.119 Y0.292
N12610 X-25.248 Y0.41
N12615 X-25.894 Y1.05
N12620 G2 X-25.945 Y1.303 I0.164 J0.165
N12625 G3 X-25.997 Y1.556 I-0.215 J0.088
N12630 G1 X-26.567 Y2.122
N12635 G2 X-27.563 Y0.292 I-1.929 J-0.136
N12640 X-26.567 Y-1.538 I-0.933 J-1.694
N12645 G1 X-25.046 Y-0.029
N12650 G2 X-24.617 Y0.292 I1.362 J-1.373
N12655 X-25.047 Y0.613 I0.933 J1.694
N12660 G1 X-25.997 Y1.556
N12665 Z5.
N12670 X-10.619 Y10.72
N12675 Z1. F666.67
N12680 Z-3.175 F2000.
N12685 X-19.482 Y19.583
N12690 Y19.648
N12695 Y19.651
N12700 Y19.734
N12705 X-19.612 Y19.711
N12710 X-19.634 Y19.583
N12715 X-19.546
N12720 X-19.482
N12725 X-19.424 Y19.575
N12730 X-19.37 Y19.553
N12735 X-19.323 Y19.517
N12740 X-19.293 Y19.497
N12745 X-19.258 Y19.49
N12750 X-19.222 Y19.497
N12755 X-19.192 Y19.517
N12760 X-19.172 Y19.547
N12765 X-19.165 Y19.583
N12770 Y20.15
N12775 G2 X-19.901 Y20.001 I-0.863 J2.373
N12780 X-20.05 Y19.266 I-2.522 J0.128
N12785 G1 X-19.165
N12790 Y19.583
N12795 G2 X-19.013 Y19.811 I0.247 J0.
N12800 G3 X-18.861 Y20.039 I-0.095 J0.228
N12805 G1 Y20.633
N12810 G2 X-20.209 Y20.309 I-1.167 J1.889
N12815 X-20.533 Y18.962 I-2.213 J-0.181
N12820 G1 X-19.035
N12825 X-18.853 Y18.954
N12830 X-18.861 Y19.136
N12835 Y20.039
N12840 G2 X-18.717 Y20.254 I0.233 J0.
N12845 G3 X-18.574 Y20.469 I-0.089 J0.215
N12850 G1 Y21.246
N12855 G2 X-20.564 Y20.664 I-1.453 J1.276
N12860 X-21.146 Y18.675 I-1.859 J-0.535
N12865 G1 X-19.035
N12870 G2 X-18.498 Y18.599 I0. J-1.934
N12875 X-18.574 Y19.136 I1.858 J0.537
N12880 G1 Y20.469
N12885 Z5.
N12890 X-10.619 Y10.72
N12895 Z1. F666.67
N12900 Z-3.175 F2000.
N12905 X-30.315 Y30.417
N12910 X-30.318 Y30.531
N12915 X-30.315 Y30.645
N12920 X-30.429 Y30.642
N12925 X-30.543 Y30.645
N12930 X-30.54 Y30.531
N12935 X-30.543 Y30.417
N12940 X-30.429 Y30.42
N12945 X-30.315 Y30.417
N12950 X-30.256 Y30.407
N12955 X-30.201 Y30.385
N12960 X-30.152 Y30.351
N12965 X-30.12 Y30.333
N12970 X-30.083 Y30.328
N12975 X-30.048 Y30.338
N12980 X-30.018 Y30.36
N12985 X-30. Y30.392
N12990 X-29.994 Y30.428
N12995 G2 X-29.934 Y31.026 I1.96 J0.103
N13000 X-30.925 I-0.495 J1.899
N13005 Y30.035 I-1.899 J-0.496
N13010 X-29.933 I0.495 J-1.899
N13015 X-29.994 Y30.428 I1.899 J0.496
N13020 G1 Z5.
N13025 X-37.685 Y37.853
N13030 Z2.5 F666.67
N13035 Z-3.175
N13040 Y37.861 F2000.
N13045 Y37.933
N13050 X-37.815 Y37.911
N13055 X-37.836 Y37.786
N13060 X-37.685 Y37.787
N13065 Y37.849
N13070 Y37.852
N13075 Y37.853
N13080 G2 X-37.526 Y38.091 I0.257 J0.
N13085 G3 X-37.368 Y38.328 I-0.099 J0.238
N13090 G1 Y38.349
N13095 G2 X-38.104 Y38.201 I-0.859 J2.374
N13100 X-38.251 Y37.469 I-2.522 J0.127
N13105 G1 X-37.369 Y37.47
N13110 X-37.368 Y38.328
N13115 G2 X-37.215 Y38.556 I0.247 J0.
N13120 G3 X-37.063 Y38.784 I-0.095 J0.228
N13125 G1 Y38.832
N13130 G2 X-38.412 Y38.51 I-1.164 J1.891
N13135 X-38.734 Y37.164 I-2.213 J-0.182
N13140 G1 X-37.243 Y37.166
N13145 X-37.057 Y37.159
N13150 X-37.065 Y37.344
N13155 X-37.063 Y38.784
N13160 G2 X-36.919 Y38.999 I0.233 J0.
N13165 G3 X-36.776 Y39.213 I-0.089 J0.215
N13170 G1 X-36.775 Y39.444
N13175 G2 X-38.768 Y38.866 I-1.451 J1.279
N13180 X-39.347 Y36.877 I-1.858 J-0.538
N13185 G1 X-37.242 Y36.88
N13190 G2 X-36.702 Y36.804 I0.003 J-1.934
N13195 X-36.778 Y37.344 I1.858 J0.537
N13200 G1 X-36.776 Y39.213
N13205 Z5.
N13210 X-49.857 Y49.902
N13215 Z2.5 F666.67
N13220 Z-3.175
N13225 X-49.872 Y49.821 F2000.
N13230 X-49.72
N13235 Y49.89
N13240 Y49.898
N13245 Y49.973
N13250 X-49.85 Y49.951
N13255 X-49.857 Y49.902
N13260 X-49.874 Y49.845
N13265 X-49.906 Y49.795
N13270 X-49.949 Y49.755
N13275 X-50.001 Y49.727
N13280 X-50.035 Y49.707
N13285 X-50.061 Y49.676
N13290 X-50.074 Y49.639
N13295 Y49.599
N13300 X-50.06 Y49.562
N13305 X-50.034 Y49.531
N13310 X-50. Y49.511
N13315 X-49.961 Y49.504
N13320 X-49.403
N13325 Y50.389
N13330 G2 X-50.139 Y50.24 I-0.863 J2.373
N13335 X-50.288 Y49.504 I-2.522 J0.127
N13340 G1 X-49.961
N13345 G2 X-49.732 Y49.352 I0. J-0.247
N13350 G3 X-49.504 Y49.2 I0.228 J0.095
N13355 G1 X-49.273
N13360 X-49.091 Y49.193
N13365 X-49.099 Y49.375
N13370 Y50.873
N13375 G2 X-50.447 Y50.549 I-1.167 J1.889
N13380 X-50.771 Y49.2 I-2.213 J-0.182
N13385 G1 X-49.504
N13390 G2 X-49.286 Y49.058 I0. J-0.238
N13395 G3 X-49.075 Y48.904 I0.237 J0.104
N13400 G2 X-48.737 Y48.838 I-0.198 J-1.924
N13405 X-48.813 Y49.375 I1.858 J0.537
N13410 G1 Y51.486
N13415 G2 X-50.802 Y50.904 I-1.453 J1.276
N13420 X-51.384 Y48.914 I-1.859 J-0.536
N13425 G1 X-49.273
N13430 X-49.174 Y48.911
N13435 X-49.075 Y48.904
N13440 Z5.
N13445 X-0.143 Y53.365
N13450 Z2.5 F666.67
N13455 Z-3.175
N13460 X-0.086 Y53.422 F2000.
N13465 X-0.191 Y53.496
N13470 X-0.296 Y53.422
N13475 X-0.191 Y53.318
N13480 X-0.148 Y53.361
N13485 X-0.144 Y53.364
N13490 X-0.143 Y53.365
N13495 G2 X0.137 Y53.421 I0.182 J-0.182
N13500 G3 X0.417 Y53.476 I0.098 J0.238
N13505 G1 X0.432 Y53.491
N13510 G2 X-0.191 Y53.906 I1.07 J2.287
N13515 X-0.814 Y53.491 I-1.694 J1.872
N13520 G1 X-0.191 Y52.87
N13525 X0.417 Y53.476
N13530 G2 X0.686 Y53.529 I0.174 J-0.175
N13535 G3 X0.955 Y53.583 I0.094 J0.228
N13540 G1 X0.99 Y53.618
N13545 G2 X-0.191 Y54.342 I0.513 J2.16
N13550 X-1.371 Y53.617 I-1.694 J1.436
N13555 G1 X-0.317 Y52.567
N13560 X-0.191 Y52.43
N13565 X-0.064 Y52.567
N13570 X0.955 Y53.583
N13575 G2 X1.208 Y53.633 I0.164 J-0.165
N13580 G3 X1.461 Y53.683 I0.089 J0.215
N13585 G1 X1.626 Y53.848
N13590 G2 X-0.191 Y54.844 I-0.123 J1.93
N13595 X-2.008 Y53.848 I-1.694 J0.934
N13600 G1 X-0.519 Y52.364
N13605 G2 X-0.191 Y51.928 I-1.366 J-1.37
N13610 X0.138 Y52.364 I1.694 J-0.934
N13615 G1 X1.461 Y53.683
N13620 Z5.
N13625 X-0.191 Y15.047
N13630 Z1. F666.67
N13635 Z-3.175 F2000.
N13640 Y42.463
N13645 X-0.112 Y42.546
N13650 X-0.029 Y42.625
N13655 X-0.112 Y42.704
N13660 X-0.191 Y42.787
N13665 X-0.27 Y42.704
N13670 X-0.353 Y42.625
N13675 X-0.27 Y42.546
N13680 X-0.191 Y42.463
N13685 X-0.156 Y42.415
N13690 X-0.133 Y42.36
N13695 X-0.122 Y42.302
N13700 X-0.112 Y42.266
N13705 X-0.09 Y42.237
N13710 X-0.058 Y42.218
N13715 X-0.021 Y42.213
N13720 X0.015 Y42.223
N13725 X0.044 Y42.245
N13730 G2 X0.511 Y42.625 I1.459 J-1.313
N13735 X-0.191 Y43.328 I0.992 J1.694
N13740 X-0.893 Y42.625 I-1.694 J0.992
N13745 X-0.191 Y41.923 I-0.992 J-1.694
N13750 X0.044 Y42.245 I1.694 J-0.992
N13755 G1 Z5.
N13760 X-0.191 Y15.047
N13765 Z1. F666.67
N13770 Z-3.175 F2000.
N13775 Y26.114
N13780 X-0.144 Y26.161
N13785 X-0.142 Y26.163
N13790 X-0.138 Y26.167
N13795 X-0.081 Y26.225
N13800 X-0.191 Y26.303
N13805 X-0.301 Y26.225
N13810 X-0.247 Y26.17
N13815 X-0.191 Y26.114
N13820 X-0.155 Y26.067
N13825 X-0.134 Y26.013
N13830 X-0.127 Y25.954
N13835 X-0.121 Y25.918
N13840 X-0.101 Y25.888
N13845 X-0.071 Y25.867
N13850 X-0.035 Y25.86
N13855 X0. Y25.867
N13860 X0.031 Y25.887
N13865 X0.437 Y26.296
N13870 G2 X-0.191 Y26.712 I1.066 J2.29
N13875 X-0.818 Y26.296 I-1.694 J1.874
N13880 G1 X-0.191 Y25.664
N13885 X0.031 Y25.887
N13890 G2 X0.3 Y25.942 I0.176 J-0.174
N13895 G3 X0.568 Y25.997 I0.093 J0.229
N13900 G1 X0.992 Y26.424
N13905 G2 X-0.191 Y27.149 I0.511 J2.162
N13910 X-1.374 Y26.424 I-1.694 J1.437
N13915 G1 X-0.308 Y25.349
N13920 X-0.191 Y25.222
N13925 X-0.074 Y25.349
N13930 X0.568 Y25.997
N13935 G2 X0.822 Y26.048 I0.165 J-0.164
N13940 G3 X1.075 Y26.1 I0.088 J0.216
N13945 G1 X1.625 Y26.655
N13950 G2 X-0.191 Y27.651 I-0.122 J1.931
N13955 X-2.007 Y26.655 I-1.694 J0.935
N13960 G1 X-0.511 Y25.147
N13965 G2 X-0.191 Y24.719 I-1.374 J-1.363
N13970 X0.129 Y25.147 I1.694 J-0.935
N13975 G1 X1.075 Y26.1
N13980 Z5.
N13985 X10.238 Y10.72
N13990 Z1. F666.67
N13995 Z-3.175 F2000.
N14000 X19.1 Y19.582
N14005 X19.166
N14010 X19.173
N14015 X19.251
N14020 X19.229 Y19.712
N14025 X19.1 Y19.734
N14030 Y19.647
N14035 Y19.582
N14040 X19.092 Y19.524
N14045 X19.07 Y19.47
N14050 X19.034 Y19.424
N14055 X19.014 Y19.394
N14060 X19.007 Y19.358
N14065 X19.014 Y19.323
N14070 X19.034 Y19.293
N14075 X19.065 Y19.273
N14080 X19.1 Y19.266
N14085 X19.667
N14090 G2 X19.518 Y20.002 I2.373 J0.863
N14095 X18.783 Y20.15 I0.128 J2.522
N14100 G1 Y19.266
N14105 X19.1
N14110 G2 X19.328 Y19.113 I0. J-0.247
N14115 G3 X19.556 Y18.961 I0.228 J0.095
N14120 G1 X20.151
N14125 G2 X19.827 Y20.31 I1.889 J1.167
N14130 X18.479 Y20.634 I-0.181 J2.213
N14135 G1 Y19.136
N14140 X18.472 Y18.954
N14145 X18.653 Y18.961
N14150 X19.556
N14155 G2 X19.771 Y18.818 I0. J-0.233
N14160 G3 X19.986 Y18.675 I0.215 J0.089
N14165 G1 X20.764
N14170 G2 X20.182 Y20.664 I1.276 J1.453
N14175 X18.193 Y21.247 I-0.536 J1.859
N14180 G1 Y19.136
N14185 G2 X18.117 Y18.599 I-1.934 J0.
N14190 X18.653 Y18.675 I0.536 J-1.858
N14195 G1 X19.986
N14200 Z5.
N14205 X10.238 Y10.72
N14210 Z1. F666.67
N14215 Z-3.175 F2000.
N14220 X29.934 Y30.416
N14225 X30.047 Y30.419
N14230 X30.161 Y30.416
N14235 X30.158 Y30.53
N14240 X30.161 Y30.644
N14245 X30.047 Y30.641
N14250 X29.934 Y30.644
N14255 X29.937 Y30.53
N14260 X29.934 Y30.416
N14265 X29.925 Y30.357
N14270 X29.902 Y30.302
N14275 X29.869 Y30.253
N14280 X29.851 Y30.221
N14285 X29.846 Y30.184
N14290 X29.856 Y30.148
N14295 X29.878 Y30.119
N14300 X29.91 Y30.1
N14305 X29.946 Y30.095
N14310 G2 X30.542 Y30.034 I0.101 J-1.96
N14315 X30.543 Y31.025 I1.9 J0.495
N14320 X29.552 I-0.495 J1.9
N14325 Y30.034 I-1.9 J-0.495
N14330 X29.946 Y30.095 I0.495 J-1.9
N14335 G1 Z5.
N14340 X37.304 Y37.852
N14345 Z2.5 F666.67
N14350 Z-3.175
N14355 Y37.786 F2000.
N14360 X37.367
N14365 X37.378
N14370 X37.454 Y37.785
N14375 X37.432 Y37.91
N14380 X37.304 Y37.932
N14385 Y37.852
N14390 X37.296 Y37.798
N14395 X37.274 Y37.747
N14400 X37.238 Y37.705
N14405 X37.192 Y37.674
N14410 X37.159 Y37.649
N14415 X37.138 Y37.614
N14420 X37.131 Y37.573
N14425 X37.14 Y37.533
N14430 X37.164 Y37.499
N14435 X37.198 Y37.477
N14440 X37.239 Y37.469
N14445 X37.869 Y37.468
N14450 G2 X37.722 Y38.2 I2.374 J0.859
N14455 X36.986 Y38.348 I0.124 J2.522
N14460 G1 X36.988 Y37.469
N14465 X37.239
N14470 G2 X37.467 Y37.316 I0. J-0.247
N14475 G3 X37.695 Y37.164 I0.228 J0.095
N14480 G1 X38.352 Y37.163
N14485 G2 X38.03 Y38.509 I1.891 J1.164
N14490 X36.681 Y38.831 I-0.185 J2.213
N14495 G1 X36.684 Y37.343
N14500 X36.676 Y37.158
N14505 X36.86 Y37.165
N14510 X37.695 Y37.164
N14515 G2 X37.909 Y37.021 I0. J-0.233
N14520 G3 X38.124 Y36.877 I0.215 J0.089
N14525 G1 X38.964 Y36.876
N14530 G2 X38.385 Y38.865 I1.279 J1.451
N14535 X36.394 Y39.443 I-0.54 J1.857
N14540 G1 X36.397 Y37.343
N14545 G2 X36.321 Y36.803 I-1.934 J-0.003
N14550 X36.86 Y36.879 I0.536 J-1.859
N14555 G1 X38.124 Y36.877
N14560 Z5.
N14565 X49.475 Y49.9
N14570 Z2.5 F666.67
N14575 Z-3.175
N14580 X49.467 Y49.95 F2000.
N14585 X49.339 Y49.972
N14590 Y49.82
N14595 X49.407
N14600 X49.414
N14605 X49.49
N14610 X49.475 Y49.9
N14615 X49.474 Y49.943
N14620 X49.486 Y49.983
N14625 X49.51 Y50.019
N14630 X49.542 Y50.046
N14635 X49.582 Y50.062
N14640 X49.617 Y50.078
N14645 X49.643 Y50.107
N14650 X49.656 Y50.144
N14655 X49.654 Y50.182
N14660 X49.637 Y50.217
N14665 X49.607 Y50.243
N14670 X49.571 Y50.255
N14675 G2 X49.022 Y50.388 I0.314 J2.505
N14680 G1 Y49.503
N14685 X49.906
N14690 G2 X49.757 Y50.239 I2.373 J0.863
N14695 G1 X49.571 Y50.255
N14700 G2 X49.357 Y50.447 I0.031 J0.249
N14705 G3 X49.165 Y50.66 I-0.289 J-0.068
N14710 G2 X48.718 Y50.871 I0.72 J2.101
N14715 G1 Y49.374
N14720 X48.71 Y49.192
N14725 X48.891 Y49.199
N14730 X50.389
N14735 G2 X50.065 Y50.547 I1.889 J1.167
N14740 X49.165 Y50.66 I-0.181 J2.213
N14745 X49.005 Y50.879 I0.077 J0.224
N14750 G3 X48.87 Y51.114 I-0.284 J-0.006
N14755 G2 X48.431 Y51.484 I1.015 J1.647
N14760 G1 Y49.374
N14765 G2 X48.355 Y48.837 I-1.934 J0.
N14770 X48.891 Y48.913 I0.535 J-1.859
N14775 G1 X51.002
N14780 G2 X50.42 Y50.902 I1.276 J1.453
N14785 X48.87 Y51.114 I-0.535 J1.859
N14790 G1 Z5.
N14795 X52.882 Y0.339
N14800 Z2.5 F666.67
N14805 Z-3.175
N14810 X52.835 Y0.292 F2000.
N14815 X52.879 Y0.247
N14820 X52.939 Y0.188
N14825 X53.012 Y0.291
N14830 X52.938 Y0.395
N14835 X52.882 Y0.339
N14840 X52.838 Y0.306
N14845 X52.786 Y0.286
N14850 X52.731 Y0.281
N14855 X52.677 Y0.292
N14860 X52.636 Y0.298
N14865 X52.596 Y0.288
N14870 X52.563 Y0.264
N14875 X52.541 Y0.229
N14880 X52.534 Y0.188
N14885 X52.542 Y0.148
N14890 X52.565 Y0.114
N14895 X53.008 Y-0.331
N14900 G2 X53.421 Y0.291 I2.286 J-1.072
N14905 X53.008 Y0.914 I1.872 J1.694
N14910 G1 X52.388 Y0.292
N14915 X52.565 Y0.114
N14920 G2 X52.618 Y-0.155 I-0.175 J-0.175
N14925 G3 X52.672 Y-0.424 I0.228 J-0.094
N14930 G1 X53.134 Y-0.888
N14935 G2 X53.858 Y0.291 I2.16 J-0.514
N14940 X53.134 Y1.471 I1.436 J1.694
N14945 G1 X52.084 Y0.418
N14950 X51.947 Y0.292
N14955 X52.084 Y0.166
N14960 X52.672 Y-0.424
N14965 G2 X52.722 Y-0.677 I-0.165 J-0.164
N14970 G3 X52.772 Y-0.931 I0.215 J-0.089
N14975 G1 X53.364 Y-1.524
N14980 G2 X54.36 Y0.291 I1.931 J0.122
N14985 X53.363 Y2.107 I0.934 J1.694
N14990 G1 X51.881 Y0.62
N14995 G2 X51.445 Y0.292 I-1.37 J1.366
N15000 X51.881 Y-0.037 I-0.934 J-1.694
N15005 G1 X52.772 Y-0.931
N15010 Z5.
N15015 X14.564 Y0.292
N15020 Z1. F666.67
N15025 Z-3.175 F2000.
N15030 X41.98
N15035 X42.064 Y0.213
N15040 X42.143 Y0.13
N15045 X42.222 Y0.213
N15050 X42.305 Y0.291
N15055 X42.221 Y0.37
N15060 X42.142 Y0.454
N15065 X42.063 Y0.371
N15070 X41.98 Y0.292
N15075 X41.932 Y0.257
N15080 X41.877 Y0.234
N15085 X41.819 Y0.223
N15090 X41.783 Y0.213
N15095 X41.754 Y0.191
N15100 X41.735 Y0.159
N15105 X41.73 Y0.122
N15110 X41.74 Y0.086
N15115 X41.762 Y0.057
N15120 G2 X42.143 Y-0.41 I-1.313 J-1.459
N15125 X42.845 Y0.291 I1.694 J-0.992
N15130 X42.142 Y0.994 I0.992 J1.694
N15135 X41.44 Y0.292 I-1.694 J0.992
N15140 X41.762 Y0.057 I-0.992 J-1.694
N15145 G1 Z5.
N15150 X14.564 Y0.292
N15155 Z1. F666.67
N15160 Z-3.175 F2000.
N15165 X25.629
N15170 X25.68 Y0.24
N15175 X25.682 Y0.239
N15180 X25.749 Y0.172
N15185 X25.833 Y0.291
N15190 X25.749 Y0.411
N15195 X25.689 Y0.352
N15200 X25.629 Y0.292
N15205 X25.582 Y0.256
N15210 X25.527 Y0.235
N15215 X25.469 Y0.228
N15220 X25.433 Y0.222
N15225 X25.403 Y0.202
N15230 X25.382 Y0.172
N15235 X25.375 Y0.136
N15240 X25.382 Y0.101
N15245 X25.402 Y0.07
N15250 X25.822 Y-0.346
N15255 G2 X26.243 Y0.291 I2.293 J-1.056
N15260 X25.821 Y0.929 I1.871 J1.694
N15265 G1 X25.179 Y0.292
N15270 X25.402 Y0.07
N15275 G2 X25.457 Y-0.198 I-0.174 J-0.175
N15280 G3 X25.512 Y-0.467 I0.229 J-0.093
N15285 G1 X25.951 Y-0.903
N15290 G2 X26.679 Y0.291 I2.163 J-0.499
N15295 X25.951 Y1.486 I1.435 J1.694
N15300 G1 X24.866 Y0.41
N15305 X24.737 Y0.292
N15310 X24.866 Y0.173
N15315 X25.512 Y-0.467
N15320 G2 X25.563 Y-0.72 I-0.164 J-0.165
N15325 G3 X25.615 Y-0.973 I0.215 J-0.088
N15330 G1 X26.185 Y-1.539
N15335 G2 X27.181 Y0.291 I1.929 J0.136
N15340 X26.185 Y2.122 I0.933 J1.694
N15345 G1 X24.664 Y0.613
N15350 G2 X24.235 Y0.292 I-1.362 J1.373
N15355 X24.665 Y-0.03 I-0.933 J-1.694
N15360 G1 X25.615 Y-0.973
N15365 Z5.
N15370 X10.237 Y-10.137
N15375 Z1. F666.67
N15380 Z-3.175 F2000.
N15385 X19.1 Y-18.999
N15390 Y-19.065
N15395 Y-19.151
N15400 X19.23 Y-19.128
N15405 X19.252 Y-18.999
N15410 X19.164
N15415 X19.1
N15420 X19.042 Y-18.992
N15425 X18.988 Y-18.969
N15430 X18.941 Y-18.934
N15435 X18.911 Y-18.914
N15440 X18.876 Y-18.907
N15445 X18.84 Y-18.914
N15450 X18.81 Y-18.934
N15455 X18.79 Y-18.964
N15460 X18.783 Y-18.999
N15465 Y-19.567
N15470 G2 X19.519 Y-19.418 I0.863 J-2.373
N15475 X19.668 Y-18.682 I2.522 J-0.128
N15480 G1 X18.783
N15485 Y-18.999
N15490 G2 X18.631 Y-19.227 I-0.247 J0.
N15495 G3 X18.479 Y-19.456 I0.095 J-0.228
N15500 G1 Y-20.05
N15505 G2 X19.828 Y-19.726 I1.167 J-1.889
N15510 X20.151 Y-18.378 I2.213 J0.181
N15515 G1 X18.653
N15520 X18.471 Y-18.371
N15525 X18.479 Y-18.552
N15530 Y-19.456
N15535 G2 X18.336 Y-19.67 I-0.233 J0.
N15540 G3 X18.192 Y-19.885 I0.089 J-0.215
N15545 G1 Y-20.663
N15550 G2 X20.182 Y-20.081 I1.453 J-1.276
N15555 X20.764 Y-18.092 I1.859 J0.536
N15560 G1 X18.653
N15565 G2 X18.116 Y-18.016 I0. J1.934
N15570 X18.192 Y-18.552 I-1.858 J-0.536
N15575 G1 Y-19.885
N15580 Z5.
N15585 X10.237 Y-10.137
N15590 Z1. F666.67
N15595 Z-3.175 F2000.
N15600 X29.933 Y-29.833
N15605 X29.936 Y-29.947
N15610 X29.933 Y-30.06
N15615 X30.047 Y-30.057
N15620 X30.161 Y-30.06
N15625 X30.158 Y-29.947
N15630 X30.161 Y-29.833
N15635 X30.047 Y-29.836
N15640 X29.933 Y-29.833
N15645 X29.874 Y-29.824
N15650 X29.819 Y-29.802
N15655 X29.77 Y-29.768
N15660 X29.738 Y-29.75
N15665 X29.701 Y-29.745
N15670 X29.666 Y-29.755
N15675 X29.636 Y-29.777
N15680 X29.617 Y-29.809
N15685 X29.612 Y-29.845
N15690 G2 X29.551 Y-30.442 I-1.96 J-0.101
N15695 X30.543 I0.495 J-1.9
N15700 Y-29.452 I1.9 J0.495
N15705 X29.551 Y-29.451 I-0.495 J1.9
N15710 X29.612 Y-29.845 I-1.9 J-0.495
N15715 G1 Z5.
N15720 X37.369 Y-37.203
N15725 Z2.5 F666.67
N15730 Z-3.175
N15735 X37.303 F2000.
N15740 Y-37.265
N15745 Y-37.277
N15750 Y-37.349
N15755 X37.433 Y-37.327
N15760 X37.454 Y-37.203
N15765 X37.369
N15770 X37.314 Y-37.195
N15775 X37.264 Y-37.173
N15780 X37.222 Y-37.137
N15785 X37.191 Y-37.092
N15790 X37.166 Y-37.059
N15795 X37.131 Y-37.037
N15800 X37.091 Y-37.031
N15805 X37.05 Y-37.04
N15810 X37.017 Y-37.064
N15815 X36.994 Y-37.098
N15820 X36.986 Y-37.138
N15825 X36.985 Y-37.764
N15830 G2 X37.722 Y-37.617 I0.859 J-2.374
N15835 X37.869 Y-36.886 I2.522 J-0.128
N15840 G1 X36.987 Y-36.887
N15845 X36.986 Y-37.138
N15850 G2 X36.834 Y-37.366 I-0.247 J0.
N15855 G3 X36.681 Y-37.594 I0.095 J-0.228
N15860 G1 X36.68 Y-38.247
N15865 G2 X38.03 Y-37.926 I1.164 J-1.891
N15870 X38.353 Y-36.581 I2.213 J0.181
N15875 G1 X36.861 Y-36.583
N15880 X36.675 Y-36.575
N15885 X36.683 Y-36.76
N15890 X36.681 Y-37.594
N15895 G2 X36.538 Y-37.809 I-0.233 J0.
N15900 G3 X36.394 Y-38.023 I0.089 J-0.215
N15905 G1 X36.393 Y-38.86
N15910 G2 X38.385 Y-38.281 I1.451 J-1.279
N15915 X38.965 Y-36.293 I1.858 J0.537
N15920 G1 X36.86 Y-36.296
N15925 G2 X36.32 Y-36.22 I-0.003 J1.934
N15930 X36.396 Y-36.759 I-1.859 J-0.536
N15935 G1 X36.394 Y-38.023
N15940 Z5.
N15945 X49.418 Y-49.374
N15950 Z2.5 F666.67
N15955 Z-3.175
N15960 X49.467 Y-49.367 F2000.
N15965 X49.489 Y-49.238
N15970 X49.338
N15975 Y-49.306
N15980 Y-49.314
N15985 Y-49.389
N15990 X49.418 Y-49.374
N15995 X49.46
N16000 X49.501 Y-49.386
N16005 X49.536 Y-49.409
N16010 X49.563 Y-49.442
N16015 X49.579 Y-49.481
N16020 X49.596 Y-49.516
N16025 X49.624 Y-49.542
N16030 X49.661 Y-49.555
N16035 X49.7 Y-49.553
N16040 X49.735 Y-49.536
N16045 X49.76 Y-49.507
N16050 X49.773 Y-49.47
N16055 G2 X49.905 Y-48.921 I2.505 J-0.314
N16060 G1 X49.021
N16065 Y-49.805
N16070 G2 X49.756 Y-49.656 I0.863 J-2.373
N16075 G1 X49.773 Y-49.47
N16080 G2 X49.964 Y-49.256 I0.249 J-0.031
N16085 G3 X50.177 Y-49.064 I-0.068 J0.289
N16090 G2 X50.388 Y-48.617 I2.101 J-0.72
N16095 G1 X48.891
N16100 X48.709 Y-48.609
N16105 X48.717 Y-48.79
N16110 Y-50.288
N16115 G2 X50.064 Y-49.964 I1.167 J-1.889
N16120 X50.177 Y-49.064 I2.213 J0.181
N16125 X50.396 Y-48.904 I0.224 J-0.077
N16130 G3 X50.631 Y-48.769 I-0.006 J0.284
N16135 G2 X51.001 Y-48.33 I1.647 J-1.015
N16140 G1 X48.891
N16145 G2 X48.355 Y-48.255 I0. J1.934
N16150 X48.43 Y-48.79 I-1.859 J-0.536
N16155 G1 Y-50.901
N16160 G2 X50.419 Y-50.319 I1.453 J-1.276
N16165 X50.631 Y-48.769 I1.859 J0.535
N16170 G1 Z5.
N16175 X-0.152 Y-52.884
N16180 Z2.5 F666.67
N16185 Z-3.175
N16190 X-0.086 Y-52.839 F2000.
N16195 X-0.191 Y-52.734
N16200 X-0.236 Y-52.779
N16205 X-0.296 Y-52.839
N16210 X-0.191 Y-52.913
N16215 X-0.152 Y-52.884
N16220 X-0.1 Y-52.857
N16225 X-0.043 Y-52.843
N16230 X0.016 Y-52.845
N16235 X0.072 Y-52.862
N16240 X0.11 Y-52.871
N16245 X0.15 Y-52.867
N16250 X0.185 Y-52.85
N16255 X0.213 Y-52.822
N16260 X0.229 Y-52.786
N16265 X0.233 Y-52.746
N16270 X0.222 Y-52.708
N16275 X0.199 Y-52.676
N16280 X-0.191 Y-52.287
N16285 X-0.815 Y-52.908
N16290 G2 X-0.191 Y-53.322 I-1.071 J-2.287
N16295 X0.432 Y-52.908 I1.694 J-1.872
N16300 G1 X0.199 Y-52.676
N16305 G2 X0.145 Y-52.407 I0.174 J0.175
N16310 G3 X0.091 Y-52.139 I-0.229 J0.094
N16315 G1 X-0.065 Y-51.983
N16320 X-0.191 Y-51.846
N16325 X-0.318 Y-51.983
N16330 X-1.372 Y-53.034
N16335 G2 X-0.191 Y-53.759 I-0.513 J-2.16
N16340 X0.989 Y-53.034 I1.694 J-1.436
N16345 G1 X0.091 Y-52.139
N16350 G2 X0.037 Y-51.883 I0.168 J0.169
N16355 G3 X-0.003 Y-51.625 I-0.243 J0.095
N16360 G2 X-0.191 Y-51.344 I1.506 J1.214
N16365 X-0.52 Y-51.781 I-1.694 J0.933
N16370 G1 X-2.008 Y-53.264
N16375 G2 X-0.191 Y-54.261 I0.123 J-1.93
N16380 X1.626 Y-53.264 I1.694 J-0.934
N16385 G1 X0.137 Y-51.78
N16390 X0.065 Y-51.705
N16395 X-0.003 Y-51.625
N16400 Z5.
N16405 X-0.191 Y-14.464
N16410 Z1. F666.67
N16415 Z-3.175 F2000.
N16420 Y-41.88
N16425 X-0.27 Y-41.963
N16430 X-0.354 Y-42.042
N16435 X-0.27 Y-42.121
N16440 X-0.191 Y-42.204
N16445 X-0.112 Y-42.121
N16450 X-0.029 Y-42.042
N16455 X-0.112 Y-41.963
N16460 X-0.191 Y-41.88
N16465 X-0.226 Y-41.831
N16470 X-0.249 Y-41.777
N16475 X-0.26 Y-41.718
N16480 X-0.27 Y-41.682
N16485 X-0.292 Y-41.653
N16490 X-0.324 Y-41.635
N16495 X-0.361 Y-41.629
N16500 X-0.397 Y-41.639
N16505 X-0.426 Y-41.661
N16510 G2 X-0.894 Y-42.042 I-1.459 J1.313
N16515 X-0.191 Y-42.744 I-0.992 J-1.694
N16520 X0.511 Y-42.042 I1.694 J-0.991
N16525 X-0.191 Y-41.34 I0.992 J1.694
N16530 X-0.426 Y-41.661 I-1.694 J0.991
N16535 G1 Z5.
N16540 X-0.191 Y-14.464
N16545 Z1. F666.67
N16550 Z-3.175 F2000.
N16555 Y-25.53
N16560 X-0.239 Y-25.578
N16565 X-0.24 Y-25.58
N16570 X-0.302 Y-25.642
N16575 X-0.191 Y-25.72
N16580 X-0.081 Y-25.642
N16585 X-0.136 Y-25.586
N16590 X-0.191 Y-25.53
N16595 X-0.227 Y-25.483
N16600 X-0.248 Y-25.429
N16605 X-0.255 Y-25.371
N16610 X-0.261 Y-25.335
N16615 X-0.281 Y-25.304
N16620 X-0.311 Y-25.283
N16625 X-0.347 Y-25.276
N16630 X-0.382 Y-25.283
N16635 X-0.413 Y-25.303
N16640 X-0.819 Y-25.713
N16645 G2 X-0.191 Y-26.129 I-1.066 J-2.29
N16650 X0.437 Y-25.713 I1.694 J-1.874
N16655 G1 X-0.191 Y-25.08
N16660 X-0.413 Y-25.303
N16665 G2 X-0.682 Y-25.358 I-0.176 J0.174
N16670 G3 X-0.951 Y-25.413 I-0.093 J-0.229
N16675 G1 X-1.375 Y-25.841
N16680 G2 X-0.191 Y-26.566 I-0.511 J-2.162
N16685 X0.992 Y-25.841 I1.694 J-1.437
N16690 G1 X-0.074 Y-24.765
N16695 X-0.191 Y-24.638
N16700 X-0.308 Y-24.765
N16705 X-0.951 Y-25.413
N16710 G2 X-1.204 Y-25.465 I-0.165 J0.164
N16715 G3 X-1.457 Y-25.516 I-0.088 J-0.216
N16720 G1 X-2.008 Y-26.072
N16725 G2 X-0.191 Y-27.068 I0.122 J-1.931
N16730 X1.625 Y-26.072 I1.694 J-0.935
N16735 G1 X0.129 Y-24.564
N16740 G2 X-0.191 Y-24.136 I1.374 J1.363
N16745 X-0.512 Y-24.564 I-1.694 J0.935
N16750 G1 X-1.457 Y-25.516
N16755 Z5.
N16760 X-0.141 Y-70.938
N16765 Z2.5 F666.67
N16770 Z-3.175
N16775 X-0.191 Y-70.887 F2000.
N16780 X-0.241 Y-70.938
N16785 X-0.247 Y-70.943
N16790 X-0.301 Y-70.998
N16795 X-0.191 Y-71.076
N16800 X-0.081 Y-70.998
N16805 X-0.141 Y-70.938
N16810 X-0.169 Y-70.903
N16815 X-0.188 Y-70.861
N16820 X-0.197 Y-70.817
N16825 X-0.195 Y-70.772
N16830 X-0.183 Y-70.728
N16835 X-0.175 Y-70.691
N16840 X-0.18 Y-70.654
N16845 X-0.197 Y-70.621
N16850 X-0.224 Y-70.595
N16855 X-0.259 Y-70.58
N16860 X-0.296 Y-70.578
N16865 X-0.332 Y-70.588
N16870 X-0.362 Y-70.61
N16875 X-0.819 Y-71.07
N16880 G2 X-0.191 Y-71.486 I-1.066 J-2.29
N16885 X0.436 Y-71.07 I1.694 J-1.874
N16890 G1 X-0.191 Y-70.437
N16895 X-0.362 Y-70.61
N16900 G2 X-0.631 Y-70.665 I-0.176 J0.174
N16905 G3 X-0.9 Y-70.719 I-0.093 J-0.229
N16910 G1 X-1.374 Y-71.198
N16915 G2 X-0.191 Y-71.922 I-0.511 J-2.162
N16920 X0.992 Y-71.198 I1.694 J-1.437
N16925 G1 X-0.075 Y-70.122
N16930 X-0.191 Y-69.995
N16935 X-0.308 Y-70.122
N16940 X-0.9 Y-70.719
N16945 G2 X-1.153 Y-70.771 I-0.165 J0.164
N16950 G3 X-1.407 Y-70.823 I-0.088 J-0.216
N16955 G1 X-2.007 Y-71.429
N16960 G2 X-0.191 Y-72.424 I0.122 J-1.931
N16965 X1.625 Y-71.429 I1.694 J-0.935
N16970 G1 X0.129 Y-69.92
N16975 G2 X-0.191 Y-69.493 I1.374 J1.363
N16980 X-0.511 Y-69.92 I-1.694 J0.935
N16985 G1 X-1.407 Y-70.823
N16990 Z5.
N16995 X-71.422 Y0.237
N17000 Z2.5 F666.67
N17005 Z-3.175
N17010 X-71.367 Y0.292 F2000.
N17015 X-71.422 Y0.346
N17020 X-71.427 Y0.351
N17025 X-71.488 Y0.411
N17030 X-71.572 Y0.292
N17035 X-71.488 Y0.173
N17040 X-71.422 Y0.237
N17045 X-71.386 Y0.266
N17050 X-71.344 Y0.285
N17055 X-71.298 Y0.293
N17060 X-71.252 Y0.291
N17065 X-71.208 Y0.278
N17070 X-71.171 Y0.269
N17075 X-71.133 Y0.273
N17080 X-71.099 Y0.29
N17085 X-71.072 Y0.318
N17090 X-71.057 Y0.353
N17095 X-71.054 Y0.391
N17100 X-71.064 Y0.428
N17105 X-71.086 Y0.459
N17110 X-71.56 Y0.929
N17115 G2 X-71.981 Y0.292 I-2.293 J1.056
N17120 X-71.56 Y-0.346 I-1.872 J-1.694
N17125 G1 X-70.918 Y0.292
N17130 X-71.086 Y0.459
N17135 G2 X-71.141 Y0.727 I0.174 J0.175
N17140 G3 X-71.196 Y0.996 I-0.229 J0.093
N17145 G1 X-71.69 Y1.486
N17150 G2 X-72.417 Y0.292 I-2.163 J0.499
N17155 X-71.689 Y-0.902 I-1.436 J-1.694
N17160 G1 X-70.604 Y0.174
N17165 X-70.476 Y0.292
N17170 X-70.605 Y0.41
N17175 X-71.196 Y0.996
N17180 G2 X-71.247 Y1.249 I0.164 J0.165
N17185 G3 X-71.299 Y1.501 I-0.215 J0.088
N17190 G1 X-71.924 Y2.122
N17195 G2 X-72.919 Y0.292 I-1.929 J-0.136
N17200 X-71.923 Y-1.538 I-0.934 J-1.694
N17205 G1 X-70.403 Y-0.029
N17210 G2 X-69.974 Y0.292 I1.362 J-1.373
N17215 X-70.403 Y0.613 I0.934 J1.694
N17220 G1 X-71.299 Y1.501
N17225 Z5.
N17230 X-0.14 Y71.522
N17235 Z2.5 F666.67
N17240 Z-3.175
N17245 X-0.135 Y71.527 F2000.
N17250 X-0.081 Y71.582
N17255 X-0.191 Y71.66
N17260 X-0.301 Y71.582
N17265 X-0.191 Y71.471
N17270 X-0.141 Y71.521
N17275 X-0.14 Y71.522
N17280 G2 X0.14 Y71.579 I0.183 J-0.181
N17285 G3 X0.42 Y71.636 I0.097 J0.239
N17290 G1 X0.436 Y71.653
N17295 G2 X-0.191 Y72.069 I1.066 J2.29
N17300 X-0.818 Y71.653 I-1.694 J1.874
N17305 G1 X-0.191 Y71.021
N17310 X0.42 Y71.636
N17315 G2 X0.689 Y71.691 I0.176 J-0.174
N17320 G3 X0.957 Y71.746 I0.093 J0.229
N17325 G1 X0.992 Y71.781
N17330 G2 X-0.191 Y72.505 I0.511 J2.162
N17335 X-1.374 Y71.781 I-1.694 J1.438
N17340 G1 X-0.307 Y70.706
N17345 X-0.191 Y70.579
N17350 X-0.074 Y70.706
N17355 X0.957 Y71.746
N17360 G2 X1.211 Y71.798 I0.165 J-0.164
N17365 G3 X1.464 Y71.849 I0.088 J0.216
N17370 G1 X1.625 Y72.012
N17375 G2 X-0.191 Y73.008 I-0.122 J1.931
N17380 X-2.007 Y72.012 I-1.694 J0.936
N17385 G1 X-0.511 Y70.504
N17390 G2 X-0.191 Y70.077 I-1.374 J-1.363
N17395 X0.129 Y70.504 I1.694 J-0.936
N17400 G1 X1.464 Y71.849
N17405 Z5.
N17410 X71.157 Y0.336
N17415 Z2.5 F666.67
N17420 Z-3.175
N17425 X71.106 Y0.411 F2000.
N17430 X70.986 Y0.292
N17435 X71.04 Y0.237
N17440 X71.046 Y0.232
N17445 X71.106 Y0.172
N17450 X71.19 Y0.292
N17455 X71.157 Y0.336
N17460 X71.134 Y0.379
N17465 X71.12 Y0.425
N17470 X71.116 Y0.474
N17475 X71.123 Y0.522
N17480 X71.14 Y0.568
N17485 X71.152 Y0.607
N17490 X71.149 Y0.649
N17495 X71.133 Y0.686
N17500 X71.104 Y0.716
N17505 X71.067 Y0.734
N17510 X71.026 Y0.738
N17515 X70.986 Y0.728
N17520 X70.952 Y0.705
N17525 X70.536 Y0.292
N17530 X71.178 Y-0.346
N17535 G2 X71.599 Y0.292 I2.293 J-1.056
N17540 X71.178 Y0.929 I1.872 J1.694
N17545 G1 X70.952 Y0.705
N17550 G2 X70.683 Y0.652 I-0.174 J0.175
N17555 G3 X70.414 Y0.599 I-0.095 J-0.228
N17560 G1 X70.223 Y0.409
N17565 X70.094 Y0.292
N17570 X70.223 Y0.174
N17575 X71.308 Y-0.903
N17580 G2 X72.035 Y0.292 I2.163 J-0.499
N17585 X71.308 Y1.486 I1.436 J1.694
N17590 G1 X70.414 Y0.599
N17595 G2 X70.16 Y0.547 I-0.167 J0.169
N17600 G3 X69.903 Y0.505 I-0.093 J-0.236
N17605 G2 X69.593 Y0.292 I-1.244 J1.481
N17610 X70.021 Y-0.029 I-0.934 J-1.694
N17615 G1 X71.542 Y-1.538
N17620 G2 X72.537 Y0.292 I1.929 J0.136
N17625 X71.542 Y2.122 I0.934 J1.694
N17630 G1 X70.021 Y0.612
N17635 X69.903 Y0.505
N17640 X69.86 Y0.476
N17645 X69.811 Y0.46
N17650 X69.759 Y0.455
N17655 X69.708 Y0.463
N17660 X69.661 Y0.483
N17665 X69.602 Y0.508
N17670 X69.539 Y0.517
N17675 X69.476 Y0.511
N17680 X69.417 Y0.489
N17685 G2 X68.659 Y0.308 I-0.758 J1.496
N17690 G1 X55.294
N17695 G2 X54.106 Y3.169 I0. J1.677
N17700 G1 X63.167 Y12.258
N17705 X63.215 Y12.329
N17710 X63.144 Y12.281
N17715 X51.698 Y0.802
N17720 G2 X50.511 Y0.309 I-1.188 J1.184
N17725 G1 X43.836
N17730 G2 X42.159 Y1.986 I0. J1.677
N17735 G1 Y6.176
N17740 X42.142 Y6.261
N17745 X42.126 Y6.175
N17750 Y1.986
N17755 G2 X40.449 Y0.309 I-1.677 J0.
N17760 G1 X28.114
N17765 G2 X26.933 Y3.176 I0. J1.677
N17770 G1 X29.989 Y6.211
N17775 X30.041 Y6.286
N17780 X29.966 Y6.237
N17785 X24.483 Y0.795
N17790 G2 X23.302 Y0.309 I-1.181 J1.19
N17795 G1 X16.556
N17800 G2 X14.903 Y1.704 I0. J1.677
N17805 G1 X14.693 Y2.939
N17810 X14.465 Y3.992
N17815 X13.773 Y6.075
N17820 X12.788 Y8.036
N17825 X12.204 Y8.94
N17830 X11.478 Y9.959
N17835 G2 X11.658 Y12.118 I1.366 J0.973
N17840 G1 X17.467 Y17.927
N17845 G2 X18.653 Y18.418 I1.186 J-1.186
N17850 G1 X26.86
N17855 X26.945 Y18.434
N17860 X26.859 Y18.451
N17865 X22.04
N17870 G2 X20.854 Y21.314 I0. J1.677
N17875 G1 X28.862 Y29.32
N17880 G2 X31.233 I1.186 J-1.186
N17885 G1 X32.944 Y27.61
N17890 X33.014 Y27.563
N17895 X32.967 Y27.633
N17900 X31.256 Y29.343
N17905 G2 Y31.715 I1.186 J1.186
N17910 G1 X35.671 Y36.13
N17915 G2 X36.86 Y36.622 I1.186 J-1.186
N17920 G1 X54.074 Y36.597
N17925 X54.158 Y36.613
N17930 X54.072 Y36.631
N17935 X40.241 Y36.65
N17940 G2 X39.057 Y39.513 I0.002 J1.677
N17945 G1 X47.705 Y48.164
N17950 G2 X48.891 Y48.656 I1.186 J-1.186
N17955 G1 X57.098
N17960 X57.183 Y48.672
N17965 X57.097 Y48.689
N17970 X52.278
N17975 G2 X51.093 Y51.552 I0. J1.677
N17980 G1 X57.157 Y57.617
N17985 X57.204 Y57.687
N17990 X57.134 Y57.64
N17995 X51.071 Y51.575
N18000 G2 X48.208 Y52.761 I-1.186 J1.186
N18005 G1 Y57.58
N18010 X48.191 Y57.665
N18015 X48.174 Y57.58
N18020 Y49.374
N18025 G2 X47.683 Y48.188 I-1.677 J0.
N18030 G1 X39.031 Y39.536
N18035 G2 X36.168 Y40.72 I-1.186 J1.186
N18040 G1 X36.149 Y54.558
N18045 X36.132 Y54.642
N18050 X36.115 Y54.554
N18055 X36.14 Y37.342
N18060 G2 X35.649 Y36.154 I-1.677 J-0.002
N18065 G1 X31.233 Y31.739
N18070 G2 X28.862 I-1.186 J1.186
N18075 G1 X27.151 Y33.45
N18080 X27.081 Y33.497
N18085 X27.128 Y33.427
N18090 X28.839 Y31.716
N18095 G2 Y29.344 I-1.186 J-1.186
N18100 G1 X20.832 Y21.337
N18105 G2 X17.969 Y22.523 I-1.186 J1.186
N18110 G1 Y27.343
N18115 X17.952 Y27.428
N18120 X17.935 Y27.342
N18125 Y19.136
N18130 G2 X17.444 Y17.95 I-1.677 J0.
N18135 G1 X11.635 Y12.141
N18140 G2 X9.476 Y11.961 I-1.186 J1.186
N18145 G1 X8.457 Y12.687
N18150 X7.554 Y13.271
N18155 X5.593 Y14.255
N18160 X3.51 Y14.948
N18165 X2.456 Y15.176
N18170 X1.222 Y15.386
N18175 G2 X-0.174 Y17.039 I0.281 J1.653
N18180 G1 Y23.785
N18185 G2 X0.313 Y24.966 I1.677 J0.
N18190 G1 X5.757 Y30.454
N18195 X5.801 Y30.521
N18200 X5.728 Y30.472
N18205 X2.695 Y27.407
N18210 G2 X-0.174 Y28.586 I-1.192 J1.18
N18215 G1 Y40.932
N18220 G2 X1.503 Y42.609 I1.677 J0.
N18225 G1 X5.693
N18230 X5.778 Y42.625
N18235 X5.693 Y42.642
N18240 X1.503
N18245 G2 X-0.174 Y44.319 I0. J1.677
N18250 G1 Y50.994
N18255 G2 X0.319 Y52.182 I1.677 J0.
N18260 G1 X11.8 Y63.625
N18265 X11.846 Y63.695
N18270 X11.775 Y63.647
N18275 X2.687 Y54.59
N18280 G2 X-0.174 Y55.778 I-1.184 J1.188
N18285 G1 Y69.141
N18290 G2 X0.312 Y70.322 I1.677 J0.
N18295 G1 X5.757 Y75.811
N18300 X5.801 Y75.879
N18305 X5.73 Y75.83
N18310 X2.695 Y72.763
N18315 G2 X-0.174 Y73.943 I-1.192 J1.18
N18320 G1 Y81.771
N18325 X-0.191 Y81.855
N18330 X-0.207 Y81.77
N18335 Y73.943
N18340 G2 X-3.077 Y72.764 I-1.677 J0.
N18345 G1 X-6.113 Y75.832
N18350 X-6.182 Y75.879
N18355 X-6.133 Y75.806
N18360 X-0.694 Y70.322
N18365 G2 X-0.207 Y69.141 I-1.191 J-1.181
N18370 G1 Y55.778
N18375 G2 X-3.068 Y54.59 I-1.677 J0.
N18380 G1 X-12.157 Y63.648
N18385 X-12.228 Y63.695
N18390 X-12.181 Y63.625
N18395 X-0.701 Y52.182
N18400 G2 X-0.208 Y50.994 I-1.184 J-1.188
N18405 G1 Y44.319
N18410 G2 X-1.885 Y42.642 I-1.677 J0.
N18415 G1 X-6.075
N18420 X-6.16 Y42.625
N18425 X-6.074 Y42.609
N18430 X-1.885
N18435 G2 X-0.208 Y40.931 I0. J-1.677
N18440 G1 Y28.586
N18445 G2 X-3.077 Y27.407 I-1.677 J0.
N18450 G1 X-6.114 Y30.475
N18455 X-6.182 Y30.522
N18460 X-6.133 Y30.449
N18465 X-0.694 Y24.965
N18470 G2 X-0.208 Y23.785 I-1.191 J-1.181
N18475 G1 Y17.039
N18480 G2 X-1.604 Y15.386 I-1.677 J0.
N18485 G1 X-2.838 Y15.176
N18490 X-3.891 Y14.948
N18495 X-5.974 Y14.255
N18500 X-7.936 Y13.271
N18505 X-8.839 Y12.687
N18510 X-9.858 Y11.961
N18515 G2 X-12.017 Y12.141 I-0.973 J1.366
N18520 G1 X-17.826 Y17.95
N18525 G2 X-18.317 Y19.136 I1.186 J1.186
N18530 G1 Y27.342
N18535 X-18.334 Y27.427
N18540 X-18.351 Y27.342
N18545 Y22.522
N18550 G2 X-21.214 Y21.337 I-1.677 J0.
N18555 G1 X-29.22 Y29.345
N18560 G2 Y31.717 I1.186 J1.186
N18565 G1 X-27.509 Y33.428
N18570 X-27.462 Y33.498
N18575 X-27.532 Y33.451
N18580 X-29.243 Y31.74
N18585 G2 X-31.615 I-1.186 J1.186
N18590 G1 X-36.03 Y36.155
N18595 G2 X-36.521 Y37.343 I1.186 J1.186
N18600 G1 X-36.496 Y54.556
N18605 X-36.513 Y54.643
N18610 X-36.53 Y54.559
N18615 X-36.549 Y40.721
N18620 G2 X-39.412 Y39.537 I-1.677 J0.002
N18625 G1 X-48.064 Y48.189
N18630 G2 X-48.555 Y49.375 I1.186 J1.186
N18635 G1 Y57.581
N18640 X-48.572 Y57.666
N18645 X-48.589 Y57.581
N18650 Y52.762
N18655 G2 X-51.452 Y51.576 I-1.677 J0.
N18660 G1 X-57.517 Y57.641
N18665 X-57.587 Y57.688
N18670 X-57.539 Y57.618
N18675 X-51.475 Y51.553
N18680 G2 X-52.661 Y48.69 I-1.186 J-1.186
N18685 G1 X-57.48
N18690 X-57.565 Y48.674
N18695 X-57.479 Y48.657
N18700 X-49.273
N18705 G2 X-48.087 Y48.165 I0. J-1.677
N18710 G1 X-39.44 Y39.514
N18715 G2 X-40.623 Y36.651 I-1.186 J-1.186
N18720 G1 X-54.455 Y36.632
N18725 X-54.541 Y36.614
N18730 X-54.458 Y36.598
N18735 X-37.242 Y36.623
N18740 G2 X-36.054 Y36.131 I0.002 J-1.677
N18745 G1 X-31.638 Y31.716
N18750 G2 Y29.344 I-1.186 J-1.186
N18755 G1 X-33.35 Y27.633
N18760 X-33.396 Y27.564
N18765 X-33.326 Y27.611
N18770 X-31.615 Y29.321
N18775 G2 X-29.244 I1.186 J-1.186
N18780 G1 X-21.237 Y21.315
N18785 G2 X-22.423 Y18.452 I-1.186 J-1.186
N18790 G1 X-27.242
N18795 X-27.327 Y18.435
N18800 X-27.241 Y18.418
N18805 X-19.035
N18810 G2 X-17.85 Y17.927 I0. J-1.677
N18815 G1 X-12.041 Y12.118
N18820 G2 X-11.86 Y9.959 I-1.186 J-1.186
N18825 G1 X-12.586 Y8.94
N18830 X-13.17 Y8.037
N18835 X-14.155 Y6.075
N18840 X-14.847 Y3.992
N18845 X-15.075 Y2.939
N18850 X-15.285 Y1.705
N18855 G2 X-16.939 Y0.309 I-1.653 J0.281
N18860 G1 X-23.684
N18865 G2 X-24.866 Y0.796 I0. J1.677
N18870 G1 X-30.347 Y6.235
N18875 X-30.422 Y6.285
N18880 X-30.372 Y6.211
N18885 X-27.315 Y3.176
N18890 G2 X-28.497 Y0.309 I-1.182 J-1.19
N18895 G1 X-40.831
N18900 G2 X-42.508 Y1.986 I0. J1.677
N18905 G1 Y6.176
N18910 X-42.525 Y6.261
N18915 X-42.541 Y6.176
N18920 Y1.986
N18925 G2 X-44.218 Y0.309 I-1.677 J0.
N18930 G1 X-50.893
N18935 G2 X-52.081 Y0.802 I0. J1.677
N18940 G1 X-63.534 Y12.289
N18945 X-63.599 Y12.332
N18950 X-63.549 Y12.258
N18955 X-54.489 Y3.17
N18960 G2 X-55.676 Y0.309 I-1.188 J-1.184
N18965 G1 X-69.041
N18970 G2 X-70.222 Y0.795 I0. J1.677
N18975 G1 X-75.703 Y6.235
N18980 X-75.778 Y6.285
N18985 X-75.728 Y6.21
N18990 X-72.671 Y3.176
N18995 G2 X-73.853 Y0.309 I-1.182 J-1.19
N19000 G1 X-81.67
N19005 X-81.754 Y0.292
N19010 X-81.669 Y0.275
N19015 X-73.853
N19020 G2 X-72.671 Y-2.592 I0. J-1.677
N19025 G1 X-75.728 Y-5.627
N19030 X-75.778 Y-5.701
N19035 X-75.703 Y-5.651
N19040 X-70.222 Y-0.211
N19045 G2 X-69.04 Y0.275 I1.181 J-1.19
N19050 G1 X-55.676
N19055 G2 X-54.488 Y-2.586 I0. J-1.677
N19060 G1 X-63.549 Y-11.675
N19065 X-63.596 Y-11.745
N19070 X-63.526 Y-11.698
