%
(SNOWFLAKE_MALE_TAPER_SECOND_A)
(T2  D=6. CR=0. TAPER=15DEG - ZMIN=-3.175 - CHAMFER MILL)
N10 G90 G94 G17 G91.1
N15 G21
(WHEN USING FUSION 360 FOR PERSONAL USE, THE FEEDRATE OF)
(RAPID MOVES IS REDUCED TO MATCH THE FEEDRATE OF CUTTING)
(MOVES, WHICH CAN INCREASE MACHINING TIME. UNRESTRICTED RAPID)
(MOVES ARE AVAILABLE WITH A FUSION 360 SUBSCRIPTION.)
N20 G53 G0 Z0.
(2D SNOWFLAKEMALETAPER)
N25 T2 M6
N30 S16000 M3
N35 G54
N40 G0 X11.166 Y-15.653
N45 G43 Z15. H2
N50 G1 Z5. F2000.
N55 Z1.
N60 Z-3.175
N65 X11.118 Y-15.583
N70 X11.061 Y-15.519
N75 X10.516 Y-14.974
N80 X10.276 Y-14.734
N85 X9.338 Y-15.327
N90 X9.262 Y-15.383
N95 X9.217 Y-15.423
N100 X9.146 Y-15.485 Z-3.168
N105 X9.077 Y-15.545 Z-3.146
N110 X9.012 Y-15.603 Z-3.11
N115 X8.951 Y-15.656 Z-3.06
N120 X8.898 Y-15.703 Z-2.999
N125 X8.852 Y-15.743 Z-2.928
N130 X8.815 Y-15.776 Z-2.847
N135 X8.788 Y-15.799 Z-2.76
N140 X8.771 Y-15.814 Z-2.669
N145 X8.766 Y-15.819 Z-2.575
N150 Z5.
N155 X4.283 Y-17.475
N160 Z1. F666.67
N165 Z-3.175 F2000.
N170 X4.198 Y-17.479
N175 X4.113 Y-17.493
N180 X3.361 Y-17.664
N185 X3.033 Y-17.739
N190 Y-18.847
N195 X3.04 Y-18.941
N200 X3.05 Y-19.001
N205 X3.064 Y-19.094 Z-3.168
N210 X3.079 Y-19.184 Z-3.146
N215 X3.092 Y-19.27 Z-3.11
N220 X3.105 Y-19.349 Z-3.06
N225 X3.116 Y-19.42 Z-2.999
N230 X3.126 Y-19.481 Z-2.928
N235 X3.133 Y-19.529 Z-2.847
N240 X3.139 Y-19.565 Z-2.76
N245 X3.143 Y-19.586 Z-2.669
N250 X3.144 Y-19.594 Z-2.575
N255 Z5.
N260 X-3.435 Y-19.016
N265 Z1. F666.67
N270 Z-3.175 F2000.
N275 X-3.421 Y-18.932
N280 X-3.415 Y-18.847
N285 Y-18.076
N290 Y-17.739
N295 X-4.496 Y-17.493
N300 X-4.589 Y-17.479
N305 X-4.65 Y-17.475
N310 X-4.744 Y-17.469 Z-3.168
N315 X-4.835 Y-17.463 Z-3.146
N320 X-4.922 Y-17.457 Z-3.11
N325 X-5.002 Y-17.452 Z-3.06
N330 X-5.073 Y-17.447 Z-2.999
N335 X-5.134 Y-17.443 Z-2.928
N340 X-5.183 Y-17.44 Z-2.847
N345 X-5.219 Y-17.437 Z-2.76
N350 X-5.241 Y-17.436 Z-2.669
N355 X-5.249 Y-17.435 Z-2.575
N360 Z5.
N365 X-9.588 Y-15.434
N370 Z1. F666.67
N375 Z-3.175 F2000.
N380 X-9.651 Y-15.376
N385 X-9.72 Y-15.327
N390 X-10.373 Y-14.915
N395 X-10.659 Y-14.734
N400 X-11.444 Y-15.519
N405 X-11.505 Y-15.591
N410 X-11.541 Y-15.64
N415 X-11.596 Y-15.716 Z-3.168
N420 X-11.649 Y-15.79 Z-3.146
N425 X-11.701 Y-15.86 Z-3.11
N430 X-11.748 Y-15.925 Z-3.06
N435 X-11.79 Y-15.983 Z-2.999
N440 X-11.826 Y-16.033 Z-2.928
N445 X-11.855 Y-16.072 Z-2.847
N450 X-11.876 Y-16.102 Z-2.76
N455 X-11.889 Y-16.119 Z-2.669
N460 X-11.893 Y-16.125 Z-2.575
N465 Z5.
N470 X-16.136 Y-11.066
N475 Z1. F666.67
N480 Z-3.175 F2000.
N485 X-16.066 Y-11.017
N490 X-16.002 Y-10.96
N495 X-15.456 Y-10.415
N500 X-15.217 Y-10.175
N505 X-15.809 Y-9.237
N510 X-15.866 Y-9.162
N515 X-15.906 Y-9.116
N520 X-15.968 Y-9.045 Z-3.168
N525 X-16.028 Y-8.976 Z-3.146
N530 X-16.086 Y-8.911 Z-3.11
N535 X-16.138 Y-8.851 Z-3.06
N540 X-16.186 Y-8.797 Z-2.999
N545 X-16.226 Y-8.751 Z-2.928
N550 X-16.258 Y-8.714 Z-2.847
N555 X-16.282 Y-8.687 Z-2.76
N560 X-16.297 Y-8.67 Z-2.669
N565 X-16.302 Y-8.665 Z-2.575
N570 Z5.
N575 X-17.958 Y-4.182
N580 Z1. F666.67
N585 Z-3.175 F2000.
N590 X-17.962 Y-4.097
N595 X-17.976 Y-4.013
N600 X-18.147 Y-3.261
N605 X-18.222 Y-2.932
N610 X-19.33
N615 X-19.424 Y-2.939
N620 X-19.484 Y-2.949
N625 X-19.577 Y-2.964 Z-3.168
N630 X-19.667 Y-2.978 Z-3.146
N635 X-19.753 Y-2.992 Z-3.11
N640 X-19.832 Y-3.004 Z-3.06
N645 X-19.903 Y-3.015 Z-2.999
N650 X-19.963 Y-3.025 Z-2.928
N655 X-20.012 Y-3.033 Z-2.847
N660 X-20.047 Y-3.038 Z-2.76
N665 X-20.069 Y-3.042 Z-2.669
N670 X-20.076 Y-3.043 Z-2.575
N675 Z5.
N680 X-19.499 Y3.536
N685 Z1. F666.67
N690 Z-3.175 F2000.
N695 X-19.415 Y3.521
N700 X-19.33 Y3.516
N705 X-18.559
N710 X-18.222
N715 X-17.976 Y4.597
N720 X-17.962 Y4.69
N725 X-17.958 Y4.75
N730 X-17.952 Y4.844 Z-3.168
N735 X-17.946 Y4.935 Z-3.146
N740 X-17.94 Y5.022 Z-3.11
N745 X-17.935 Y5.102 Z-3.06
N750 X-17.93 Y5.174 Z-2.999
N755 X-17.926 Y5.235 Z-2.928
N760 X-17.923 Y5.284 Z-2.847
N765 X-17.92 Y5.32 Z-2.76
N770 X-17.919 Y5.342 Z-2.669
N775 X-17.918 Y5.349 Z-2.575
N780 Z5.
N785 X-15.917 Y9.689
N790 Z1. F666.67
N795 Z-3.175 F2000.
N800 X-15.859 Y9.752
N805 X-15.81 Y9.821
N810 X-15.398 Y10.473
N815 X-15.217 Y10.759
N820 X-16.002 Y11.544
N825 X-16.074 Y11.605
N830 X-16.123 Y11.641
N835 X-16.199 Y11.696 Z-3.168
N840 X-16.273 Y11.75 Z-3.146
N845 X-16.343 Y11.801 Z-3.11
N850 X-16.408 Y11.848 Z-3.06
N855 X-16.466 Y11.89 Z-2.999
N860 X-16.516 Y11.926 Z-2.928
N865 X-16.555 Y11.955 Z-2.847
N870 X-16.585 Y11.976 Z-2.76
N875 X-16.602 Y11.989 Z-2.669
N880 X-16.608 Y11.994 Z-2.575
N885 Z5.
N890 X-11.548 Y16.236
N895 Z1. F666.67
N900 Z-3.175 F2000.
N905 X-11.5 Y16.166
N910 X-11.443 Y16.103
N915 X-10.898 Y15.557
N920 X-10.658 Y15.318
N925 X-9.72 Y15.91
N930 X-9.644 Y15.966
N935 X-9.599 Y16.007
N940 X-9.528 Y16.069 Z-3.168
N945 X-9.459 Y16.129 Z-3.146
N950 X-9.394 Y16.186 Z-3.11
N955 X-9.333 Y16.239 Z-3.06
N960 X-9.28 Y16.286 Z-2.999
N965 X-9.234 Y16.327 Z-2.928
N970 X-9.197 Y16.359 Z-2.847
N975 X-9.17 Y16.383 Z-2.76
N980 X-9.153 Y16.397 Z-2.669
N985 X-9.147 Y16.402 Z-2.575
N990 Z5.
N995 X-4.665 Y18.058
N1000 Z1. F666.67
N1005 Z-3.175 F2000.
N1010 X-4.58 Y18.062
N1015 X-4.495 Y18.076
N1020 X-3.743 Y18.248
N1025 X-3.415 Y18.322
N1030 Y19.431
N1035 X-3.422 Y19.524
N1040 X-3.432 Y19.585
N1045 X-3.446 Y19.677 Z-3.168
N1050 X-3.461 Y19.768 Z-3.146
N1055 X-3.474 Y19.854 Z-3.11
N1060 X-3.487 Y19.933 Z-3.06
N1065 X-3.498 Y20.004 Z-2.999
N1070 X-3.508 Y20.064 Z-2.928
N1075 X-3.515 Y20.113 Z-2.847
N1080 X-3.521 Y20.148 Z-2.76
N1085 X-3.524 Y20.17 Z-2.669
N1090 X-3.526 Y20.177 Z-2.575
N1095 Z5.
N1100 X3.053 Y19.6
N1105 Z1. F666.67
N1110 Z-3.175 F2000.
N1115 X3.038 Y19.516
N1120 X3.033 Y19.431
N1125 Y18.659
N1130 Y18.322
N1135 X4.114 Y18.076
N1140 X4.207 Y18.063
N1145 X4.268 Y18.059
N1150 X4.361 Y18.052 Z-3.168
N1155 X4.453 Y18.046 Z-3.146
N1160 X4.54 Y18.041 Z-3.11
N1165 X4.62 Y18.035 Z-3.06
N1170 X4.691 Y18.03 Z-2.999
N1175 X4.752 Y18.026 Z-2.928
N1180 X4.801 Y18.023 Z-2.847
N1185 X4.837 Y18.021 Z-2.76
N1190 X4.859 Y18.019 Z-2.669
N1195 X4.866 Z-2.575
N1200 Z5.
N1205 X9.206 Y16.017
N1210 Z1. F666.67
N1215 Z-3.175 F2000.
N1220 X9.269 Y15.96
N1225 X9.338 Y15.91
N1230 X9.99 Y15.498
N1235 X10.277 Y15.318
N1240 X11.061 Y16.103
N1245 X11.122 Y16.174
N1250 X11.158 Y16.223
N1255 X11.213 Y16.299 Z-3.168
N1260 X11.267 Y16.373 Z-3.146
N1265 X11.318 Y16.444 Z-3.11
N1270 X11.366 Y16.509 Z-3.06
N1275 X11.408 Y16.567 Z-2.999
N1280 X11.444 Y16.616 Z-2.928
N1285 X11.472 Y16.656 Z-2.847
N1290 X11.494 Y16.685 Z-2.76
N1295 X11.507 Y16.703 Z-2.669
N1300 X11.511 Y16.709 Z-2.575
N1305 Z5.
N1310 X15.754 Y11.649
N1315 Z1. F666.67
N1320 Z-3.175 F2000.
N1325 X15.684 Y11.6
N1330 X15.62 Y11.544
N1335 X15.074 Y10.998
N1340 X14.835 Y10.759
N1345 X15.427 Y9.821
N1350 X15.484 Y9.745
N1355 X15.524 Y9.699
N1360 X15.586 Y9.629 Z-3.168
N1365 X15.646 Y9.56 Z-3.146
N1370 X15.704 Y9.494 Z-3.11
N1375 X15.757 Y9.434 Z-3.06
N1380 X15.804 Y9.38 Z-2.999
N1385 X15.844 Y9.334 Z-2.928
N1390 X15.877 Y9.297 Z-2.847
N1395 X15.9 Y9.27 Z-2.76
N1400 X15.915 Y9.254 Z-2.669
N1405 X15.92 Y9.248 Z-2.575
N1410 Z5.
N1415 X17.576 Y4.766
N1420 Z1. F666.67
N1425 Z-3.175 F2000.
N1430 X17.58 Y4.68
N1435 X17.594 Y4.596
N1440 X17.765 Y3.844
N1445 X17.84 Y3.516
N1450 X18.948
N1455 X19.042 Y3.523
N1460 X19.102 Y3.533
N1465 X19.195 Y3.547 Z-3.168
N1470 X19.285 Y3.562 Z-3.146
N1475 X19.371 Y3.575 Z-3.11
N1480 X19.45 Y3.588 Z-3.06
N1485 X19.521 Y3.599 Z-2.999
N1490 X19.581 Y3.608 Z-2.928
N1495 X19.63 Y3.616 Z-2.847
N1500 X19.665 Y3.622 Z-2.76
N1505 X19.687 Y3.625 Z-2.669
N1510 X19.694 Y3.626 Z-2.575
N1515 Z5.
N1520 X19.117 Y-2.952
N1525 Z1. F666.67
N1530 Z-3.175 F2000.
N1535 X19.033 Y-2.937
N1540 X18.948 Y-2.932
N1545 X18.177
N1550 X17.84
N1555 X17.594 Y-4.013
N1560 X17.58 Y-4.106
N1565 X17.576 Y-4.167
N1570 X17.57 Y-4.261 Z-3.168
N1575 X17.564 Y-4.352 Z-3.146
N1580 X17.558 Y-4.439 Z-3.11
N1585 X17.553 Y-4.519 Z-3.06
N1590 X17.548 Y-4.59 Z-2.999
N1595 X17.544 Y-4.651 Z-2.928
N1600 X17.541 Y-4.7 Z-2.847
N1605 X17.538 Y-4.736 Z-2.76
N1610 X17.537 Y-4.758 Z-2.669
N1615 X17.536 Y-4.766 Z-2.575
N1620 Z5.
N1625 X15.535 Y-9.105
N1630 Z1. F666.67
N1635 Z-3.175 F2000.
N1640 X15.477 Y-9.168
N1645 X15.428 Y-9.237
N1650 X15.016 Y-9.89
N1655 X14.835 Y-10.176
N1660 X15.62 Y-10.961
N1665 X15.692 Y-11.022
N1670 X15.741 Y-11.058
N1675 X15.817 Y-11.113 Z-3.168
N1680 X15.891 Y-11.167 Z-3.146
N1685 X15.961 Y-11.218 Z-3.11
N1690 X16.026 Y-11.265 Z-3.06
N1695 X16.084 Y-11.307 Z-2.999
N1700 X16.134 Y-11.343 Z-2.928
N1705 X16.174 Y-11.372 Z-2.847
N1710 X16.203 Y-11.393 Z-2.76
N1715 X16.22 Y-11.406 Z-2.669
N1720 X16.226 Y-11.41 Z-2.575
N1725 Z5.
N1730 X28.015 Y-21.468
N1735 Z1. F666.67
N1740 Z-3.175 F2000.
N1745 X28.013 Y-21.469
N1750 X27.827 Y-21.525
N1755 X27.757 Y-21.543
N1760 X27.685 Y-21.553
N1765 X27.255 Y-21.595
N1770 X27.095 Y-21.611
N1775 X27.035 Y-21.614
N1780 X27.747 Y-22.326
N1785 X27.777 Y-22.356
N1790 X27.843 Y-22.422 Z-3.168
N1795 X27.908 Y-22.487 Z-3.146
N1800 X27.969 Y-22.548 Z-3.11
N1805 X28.026 Y-22.605 Z-3.06
N1810 X28.077 Y-22.656 Z-2.999
N1815 X28.12 Y-22.699 Z-2.928
N1820 X28.155 Y-22.734 Z-2.847
N1825 X28.18 Y-22.759 Z-2.76
N1830 X28.196 Y-22.775 Z-2.669
N1835 X28.201 Y-22.78 Z-2.575
N1840 Z1.
N1845 X28.142 Y-21.148
N1850 Z-3.175
N1855 X28.14 Y-21.149
N1860 X27.749 Y-21.267
N1865 X27.704 Y-21.278
N1870 X27.659 Y-21.285
N1875 X27.069 Y-21.342
N1880 X27.024 Y-21.344
N1885 X26.384
N1890 X27.163 Y-22.123
N1895 X27.709 Y-22.669
N1900 X27.712 Y-22.672
N1905 X27.778 Y-22.738 Z-3.168
N1910 X27.843 Y-22.803 Z-3.146
N1915 X27.905 Y-22.865 Z-3.11
N1920 X27.961 Y-22.921 Z-3.06
N1925 X28.012 Y-22.972 Z-2.999
N1930 X28.055 Y-23.015 Z-2.928
N1935 X28.09 Y-23.05 Z-2.847
N1940 X28.115 Y-23.076 Z-2.76
N1945 X28.131 Y-23.091 Z-2.669
N1950 X28.136 Y-23.096 Z-2.575
N1955 Z1.
N1960 X28.506 Y-20.722
N1965 Z-3.175
N1970 X28.425 Y-20.748
N1975 X28.348 Y-20.784
N1980 X28.274 Y-20.823
N1985 X28.238 Y-20.838
N1990 X27.671 Y-21.009
N1995 X27.633 Y-21.017
N2000 X27.043 Y-21.074
N2005 X27.024 Y-21.075
N2010 X25.735
N2015 X27.224 Y-22.565
N2020 X27.77 Y-23.111
N2025 X27.841 Y-23.172
N2030 X27.891 Y-23.208
N2035 X27.967 Y-23.263 Z-3.168
N2040 X28.041 Y-23.317 Z-3.146
N2045 X28.111 Y-23.368 Z-3.11
N2050 X28.176 Y-23.415 Z-3.06
N2055 X28.234 Y-23.457 Z-2.999
N2060 X28.283 Y-23.493 Z-2.928
N2065 X28.323 Y-23.522 Z-2.847
N2070 X28.352 Y-23.543 Z-2.76
N2075 X28.37 Y-23.556 Z-2.669
N2080 X28.376 Y-23.56 Z-2.575
N2085 Z5.
N2090 X28.978 Y-24.29
N2095 Z1. F666.67
N2100 Z-3.175 F2000.
N2105 X29.027 Y-24.36
N2110 X29.083 Y-24.424
N2115 X29.629 Y-24.969
N2120 X30.048 Y-25.388
N2125 X30.454 Y-24.982
N2130 X30.792 Y-24.644
N2135 X30.807 Y-24.631
N2140 X31.018 Y-24.457
N2145 X31.085 Y-24.392
N2150 X31.126 Y-24.346
N2155 X31.188 Y-24.276 Z-3.168
N2160 X31.249 Y-24.207 Z-3.146
N2165 X31.306 Y-24.142 Z-3.11
N2170 X31.36 Y-24.082 Z-3.06
N2175 X31.407 Y-24.029 Z-2.999
N2180 X31.448 Y-23.983 Z-2.928
N2185 X31.48 Y-23.946 Z-2.847
N2190 X31.504 Y-23.919 Z-2.76
N2195 X31.519 Y-23.903 Z-2.669
N2200 X31.524 Y-23.897 Z-2.575
N2205 Z5.
N2210 X35.66 Y-28.859
N2215 Z1. F666.67
N2220 Z-3.175 F2000.
N2225 X35.595 Y-28.914
N2230 X35.537 Y-28.977
N2235 X35.364 Y-29.188
N2240 X35.351 Y-29.202
N2245 X34.606 Y-29.947
N2250 X35.571 Y-30.911
N2255 X35.642 Y-30.972
N2260 X35.691 Y-31.008
N2265 X35.767 Y-31.063 Z-3.168
N2270 X35.841 Y-31.117 Z-3.146
N2275 X35.912 Y-31.168 Z-3.11
N2280 X35.977 Y-31.215 Z-3.06
N2285 X36.035 Y-31.258 Z-2.999
N2290 X36.084 Y-31.293 Z-2.928
N2295 X36.124 Y-31.322 Z-2.847
N2300 X36.153 Y-31.344 Z-2.76
N2305 X36.171 Y-31.357 Z-2.669
N2310 X36.177 Y-31.361 Z-2.575
N2315 Z5.
N2320 X31.116 Y-35.603
N2325 Z1. F666.67
N2330 Z-3.175 F2000.
N2335 X31.068 Y-35.533
N2340 X31.011 Y-35.469
N2345 X30.466 Y-34.924
N2350 X30.047 Y-34.505
N2355 X29.641 Y-34.911
N2360 X29.302 Y-35.25
N2365 X29.288 Y-35.263
N2370 X29.077 Y-35.436
N2375 X29.009 Y-35.501
N2380 X28.968 Y-35.547
N2385 X28.906 Y-35.617 Z-3.168
N2390 X28.845 Y-35.686 Z-3.146
N2395 X28.788 Y-35.751 Z-3.11
N2400 X28.734 Y-35.811 Z-3.06
N2405 X28.687 Y-35.865 Z-2.999
N2410 X28.646 Y-35.91 Z-2.928
N2415 X28.614 Y-35.947 Z-2.847
N2420 X28.59 Y-35.974 Z-2.76
N2425 X28.575 Y-35.99 Z-2.669
N2430 X28.57 Y-35.996 Z-2.575
N2435 Z5.
N2440 X24.434 Y-31.034
N2445 Z1. F666.67
N2450 Z-3.175 F2000.
N2455 X24.499 Y-30.979
N2460 X24.557 Y-30.916
N2465 X24.73 Y-30.705
N2470 X24.743 Y-30.691
N2475 X25.488 Y-29.946
N2480 X24.524 Y-28.982
N2485 X24.452 Y-28.921
N2490 X24.403 Y-28.885
N2495 X24.327 Y-28.83 Z-3.168
N2500 X24.253 Y-28.776 Z-3.146
N2505 X24.183 Y-28.725 Z-3.11
N2510 X24.118 Y-28.678 Z-3.06
N2515 X24.06 Y-28.636 Z-2.999
N2520 X24.01 Y-28.6 Z-2.928
N2525 X23.97 Y-28.571 Z-2.847
N2530 X23.941 Y-28.55 Z-2.76
N2535 X23.924 Y-28.537 Z-2.669
N2540 X23.918 Y-28.532 Z-2.575
N2545 Z5.
N2550 X22.427 Y-27.647
N2555 Z1. F666.67
N2560 Z-3.175 F2000.
N2565 X22.426 Y-27.646
N2570 X21.881 Y-27.101
N2575 X21.714 Y-26.934
N2580 X21.711 Y-26.994
N2585 X21.653 Y-27.585
N2590 X21.643 Y-27.657
N2595 X21.625 Y-27.728
N2600 X21.569 Y-27.913
N2605 X21.568 Y-27.917
N2610 X21.541 Y-28.007 Z-3.168
N2615 X21.514 Y-28.094 Z-3.146
N2620 X21.489 Y-28.178 Z-3.11
N2625 X21.465 Y-28.255 Z-3.06
N2630 X21.445 Y-28.323 Z-2.999
N2635 X21.427 Y-28.382 Z-2.928
N2640 X21.413 Y-28.429 Z-2.847
N2645 X21.402 Y-28.463 Z-2.76
N2650 X21.396 Y-28.484 Z-2.669
N2655 X21.394 Y-28.491 Z-2.575
N2660 Z1.
N2665 X22.77 Y-27.609
N2670 Z-3.175
N2675 X22.769 Y-27.608
N2680 X21.445 Y-26.283
N2685 Y-26.923
N2690 X21.443 Y-26.968
N2695 X21.411 Y-27.289
N2700 X21.385 Y-27.559
N2705 X21.378 Y-27.605
N2710 X21.367 Y-27.65
N2715 X21.249 Y-28.039
N2720 X21.248 Y-28.044
N2725 X21.22 Y-28.134 Z-3.168
N2730 X21.194 Y-28.221 Z-3.146
N2735 X21.168 Y-28.305 Z-3.11
N2740 X21.145 Y-28.381 Z-3.06
N2745 X21.124 Y-28.45 Z-2.999
N2750 X21.107 Y-28.508 Z-2.928
N2755 X21.092 Y-28.555 Z-2.847
N2760 X21.082 Y-28.59 Z-2.76
N2765 X21.075 Y-28.611 Z-2.669
N2770 X21.073 Y-28.618 Z-2.575
N2775 Z1.
N2780 X23.316 Y-27.803
N2785 Z-3.175
N2790 X23.268 Y-27.733
N2795 X23.211 Y-27.669
N2800 X21.176 Y-25.633
N2805 Y-26.923
N2810 X21.175 Y-26.942
N2815 X21.119 Y-27.515
N2820 X21.117 Y-27.533
N2825 X21.109 Y-27.572
N2830 X20.937 Y-28.14
N2835 X20.922 Y-28.176
N2840 X20.884 Y-28.247
N2845 X20.846 Y-28.333
N2850 X20.826 Y-28.391
N2855 X20.795 Y-28.479 Z-3.168
N2860 X20.765 Y-28.566 Z-3.146
N2865 X20.737 Y-28.648 Z-3.11
N2870 X20.71 Y-28.724 Z-3.06
N2875 X20.687 Y-28.791 Z-2.999
N2880 X20.667 Y-28.849 Z-2.928
N2885 X20.651 Y-28.896 Z-2.847
N2890 X20.639 Y-28.93 Z-2.76
N2895 X20.632 Y-28.95 Z-2.669
N2900 X20.629 Y-28.957 Z-2.575
N2905 Z5.
N2910 X4.268 Y-33.396
N2915 Z1. F666.67
N2920 Z-3.175 F2000.
N2925 X4.266 Y-33.395
N2930 X3.815 Y-33.151
N2935 X3.753 Y-33.114
N2940 X3.695 Y-33.071
N2945 X3.607 Y-32.998
N2950 X3.572 Y-32.968
N2955 Y-33.792
N2960 Y-33.834
N2965 G19 G2 Y-34.434 Z-2.575 J0. K0.6
N2970 G1 Z1.
N2975 X4.558 Y-33.234
N2980 Z-3.175
N2985 X4.557 Y-33.233
N2990 X4.509 Y-33.217
N2995 X4.464 Y-33.195
N3000 X3.943 Y-32.914
N3005 X3.904 Y-32.89
N3010 X3.867 Y-32.863
N3015 X3.411 Y-32.485
N3020 X3.376 Y-32.454
N3025 X3.302 Y-32.379
N3030 Y-33.236
N3035 Y-34.007
N3040 Y-34.012
N3045 G2 Y-34.612 Z-2.575 J0. K0.6
N3050 G1 Z1.
N3055 X5.129 Y-33.148
N3060 Z-3.175
N3065 X5.053 Y-33.109
N3070 X4.973 Y-33.08
N3075 X4.628 Y-32.974
N3080 X4.592 Y-32.958
N3085 X4.265 Y-32.782
N3090 X4.071 Y-32.677
N3095 X4.039 Y-32.655
N3100 X3.582 Y-32.278
N3105 X3.567 Y-32.264
N3110 X3.033 Y-31.724
N3115 Y-33.592
N3120 Y-34.363
N3125 X3.04 Y-34.457
N3130 X3.05 Y-34.517
N3135 X3.064 Y-34.61 Z-3.168
N3140 X3.079 Y-34.7 Z-3.146
N3145 X3.092 Y-34.786 Z-3.11
N3150 X3.105 Y-34.865 Z-3.06
N3155 X3.116 Y-34.936 Z-2.999
N3160 X3.126 Y-34.996 Z-2.928
N3165 X3.133 Y-35.045 Z-2.847
N3170 X3.139 Y-35.081 Z-2.76
N3175 X3.143 Y-35.102 Z-2.669
N3180 X3.144 Y-35.11 Z-2.575
N3185 Z5.
N3190 X3.053 Y-37.26
N3195 Z1. F666.67
N3200 Z-3.175 F2000.
N3205 X3.038 Y-37.344
N3210 X3.033 Y-37.429
N3215 Y-38.2
N3220 Y-38.818
N3225 X4.422
N3230 X4.516 Y-38.811
N3235 X4.576 Y-38.801
N3240 X4.669 Y-38.786 Z-3.168
N3245 X4.759 Y-38.772 Z-3.146
N3250 X4.845 Y-38.759 Z-3.11
N3255 X4.925 Y-38.746 Z-3.06
N3260 X4.995 Y-38.735 Z-2.999
N3265 X5.056 Y-38.725 Z-2.928
N3270 X5.104 Y-38.718 Z-2.847
N3275 X5.14 Y-38.712 Z-2.76
N3280 X5.162 Y-38.708 Z-2.669
N3285 X5.169 Y-38.707 Z-2.575
N3290 Z5.
N3295 X4.591 Y-45.286
N3300 Z1. F666.67
N3305 Z-3.175 F2000.
N3310 X4.507 Y-45.271
N3315 X4.422 Y-45.266
N3320 X3.651
N3325 X3.033
N3330 Y-46.655
N3335 X3.04 Y-46.749
N3340 X3.05 Y-46.809
N3345 X3.064 Y-46.902 Z-3.168
N3350 X3.079 Y-46.992 Z-3.146
N3355 X3.092 Y-47.078 Z-3.11
N3360 X3.105 Y-47.158 Z-3.06
N3365 X3.116 Y-47.228 Z-2.999
N3370 X3.126 Y-47.289 Z-2.928
N3375 X3.133 Y-47.337 Z-2.847
N3380 X3.139 Y-47.373 Z-2.76
N3385 X3.143 Y-47.395 Z-2.669
N3390 X3.144 Y-47.402 Z-2.575
N3395 Z5.
N3400 X-3.435 Y-46.824
N3405 Z1. F666.67
N3410 Z-3.175 F2000.
N3415 X-3.421 Y-46.74
N3420 X-3.415 Y-46.655
N3425 Y-45.884
N3430 Y-45.266
N3435 X-4.805
N3440 X-4.899 Y-45.273
N3445 X-4.959 Y-45.283
N3450 X-5.052 Y-45.297 Z-3.168
N3455 X-5.142 Y-45.312 Z-3.146
N3460 X-5.228 Y-45.325 Z-3.11
N3465 X-5.307 Y-45.338 Z-3.06
N3470 X-5.378 Y-45.349 Z-2.999
N3475 X-5.438 Y-45.359 Z-2.928
N3480 X-5.487 Y-45.366 Z-2.847
N3485 X-5.522 Y-45.372 Z-2.76
N3490 X-5.544 Y-45.375 Z-2.669
N3495 X-5.551 Y-45.377 Z-2.575
N3500 Z5.
N3505 X-4.974 Y-38.798
N3510 Z1. F666.67
N3515 Z-3.175 F2000.
N3520 X-4.89 Y-38.813
N3525 X-4.805 Y-38.818
N3530 X-4.033
N3535 X-3.415
N3540 Y-37.429
N3545 X-3.423 Y-37.335
N3550 X-3.432 Y-37.275
N3555 X-3.447 Y-37.182 Z-3.168
N3560 X-3.461 Y-37.092 Z-3.146
N3565 X-3.475 Y-37.006 Z-3.11
N3570 X-3.488 Y-36.926 Z-3.06
N3575 X-3.499 Y-36.856 Z-2.999
N3580 X-3.508 Y-36.795 Z-2.928
N3585 X-3.516 Y-36.747 Z-2.847
N3590 X-3.522 Y-36.711 Z-2.76
N3595 X-3.525 Y-36.689 Z-2.669
N3600 X-3.526 Y-36.682 Z-2.575
N3605 Z5.
N3610 X-3.954 Y-33.795
N3615 Z1. F666.67
N3620 Z-3.175 F2000.
N3625 Y-33.793
N3630 Y-33.022
N3635 Y-32.968
N3640 X-4.081 Y-33.073
N3645 X-4.139 Y-33.117
N3650 X-4.202 Y-33.154
N3655 X-4.65 Y-33.395
N3660 X-4.654 Y-33.398
N3665 X-4.737 Y-33.442 Z-3.168
N3670 X-4.817 Y-33.486 Z-3.146
N3675 X-4.894 Y-33.527 Z-3.11
N3680 X-4.964 Y-33.565 Z-3.06
N3685 X-5.027 Y-33.599 Z-2.999
N3690 X-5.081 Y-33.628 Z-2.928
N3695 X-5.125 Y-33.651 Z-2.847
N3700 X-5.156 Y-33.668 Z-2.76
N3705 X-5.176 Y-33.679 Z-2.669
N3710 X-5.182 Y-33.682 Z-2.575
N3715 Z1.
N3720 X-3.685 Y-34.01
N3725 Z-3.175
N3730 Y-34.009
N3735 Y-32.379
N3740 X-3.759 Y-32.454
N3745 X-3.793 Y-32.485
N3750 X-4.253 Y-32.865
N3755 X-4.29 Y-32.893
N3760 X-4.329 Y-32.917
N3765 X-4.855 Y-33.2
N3770 X-4.896 Y-33.219
N3775 X-4.94 Y-33.235
N3780 X-4.944 Y-33.237
N3785 X-5.034 Y-33.264 Z-3.168
N3790 X-5.122 Y-33.291 Z-3.146
N3795 X-5.205 Y-33.316 Z-3.11
N3800 X-5.282 Y-33.34 Z-3.06
N3805 X-5.35 Y-33.361 Z-2.999
N3810 X-5.409 Y-33.378 Z-2.928
N3815 X-5.456 Y-33.393 Z-2.847
N3820 X-5.49 Y-33.403 Z-2.76
N3825 X-5.511 Y-33.41 Z-2.669
N3830 X-5.518 Y-33.412 Z-2.575
N3835 Z1.
N3840 X-3.435 Y-34.533
N3845 Z-3.175
N3850 X-3.421 Y-34.449
N3855 X-3.415 Y-34.364
N3860 Y-31.724
N3865 X-3.95 Y-32.264
N3870 X-3.965 Y-32.278
N3875 X-4.424 Y-32.658
N3880 X-4.457 Y-32.68
N3885 X-4.982 Y-32.963
N3890 X-5.019 Y-32.978
N3895 X-5.357 Y-33.081
N3900 X-5.445 Y-33.115
N3905 X-5.499 Y-33.142
N3910 X-5.584 Y-33.183 Z-3.168
N3915 X-5.666 Y-33.223 Z-3.146
N3920 X-5.744 Y-33.261 Z-3.11
N3925 X-5.817 Y-33.296 Z-3.06
N3930 X-5.881 Y-33.328 Z-2.999
N3935 X-5.936 Y-33.354 Z-2.928
N3940 X-5.98 Y-33.376 Z-2.847
N3945 X-6.013 Y-33.392 Z-2.76
N3950 X-6.032 Y-33.401 Z-2.669
N3955 X-6.039 Y-33.405 Z-2.575
N3960 Z5.
N3965 X-21.951 Y-27.914
N3970 Z1. F666.67
N3975 Z-3.175 F2000.
N3980 X-21.952 Y-27.912
N3985 X-22.008 Y-27.726
N3990 X-22.026 Y-27.655
N3995 X-22.036 Y-27.584
N4000 X-22.078 Y-27.154
N4005 X-22.094 Y-26.994
N4010 X-22.097 Y-26.934
N4015 X-22.809 Y-27.646
N4020 X-22.839 Y-27.676
N4025 X-22.905 Y-27.742 Z-3.168
N4030 X-22.97 Y-27.807 Z-3.146
N4035 X-23.031 Y-27.868 Z-3.11
N4040 X-23.088 Y-27.925 Z-3.06
N4045 X-23.139 Y-27.976 Z-2.999
N4050 X-23.182 Y-28.019 Z-2.928
N4055 X-23.217 Y-28.054 Z-2.847
N4060 X-23.242 Y-28.079 Z-2.76
N4065 X-23.258 Y-28.095 Z-2.669
N4070 X-23.263 Y-28.1 Z-2.575
N4075 Z1.
N4080 X-21.631 Y-28.041
N4085 Z-3.175
N4090 X-21.632 Y-28.039
N4095 X-21.75 Y-27.648
N4100 X-21.761 Y-27.603
N4105 X-21.768 Y-27.557
N4110 X-21.825 Y-26.968
N4115 X-21.827 Y-26.923
N4120 Y-26.283
N4125 X-22.606 Y-27.062
N4130 X-23.152 Y-27.608
N4135 X-23.155 Y-27.611
N4140 X-23.221 Y-27.677 Z-3.168
N4145 X-23.286 Y-27.742 Z-3.146
N4150 X-23.348 Y-27.803 Z-3.11
N4155 X-23.404 Y-27.86 Z-3.06
N4160 X-23.455 Y-27.911 Z-2.999
N4165 X-23.498 Y-27.954 Z-2.928
N4170 X-23.533 Y-27.989 Z-2.847
N4175 X-23.559 Y-28.014 Z-2.76
N4180 X-23.574 Y-28.03 Z-2.669
N4185 X-23.579 Y-28.035 Z-2.575
N4190 Z1.
N4195 X-21.205 Y-28.405
N4200 Z-3.175
N4205 X-21.231 Y-28.324
N4210 X-21.267 Y-28.247
N4215 X-21.306 Y-28.173
N4220 X-21.321 Y-28.136
N4225 X-21.492 Y-27.57
N4230 X-21.5 Y-27.531
N4235 X-21.557 Y-26.942
N4240 X-21.558 Y-26.923
N4245 Y-25.633
N4250 X-23.048 Y-27.123
N4255 X-23.594 Y-27.669
N4260 X-23.655 Y-27.74
N4265 X-23.691 Y-27.79
N4270 X-23.746 Y-27.866 Z-3.168
N4275 X-23.8 Y-27.94 Z-3.146
N4280 X-23.851 Y-28.01 Z-3.11
N4285 X-23.898 Y-28.075 Z-3.06
N4290 X-23.94 Y-28.133 Z-2.999
N4295 X-23.976 Y-28.182 Z-2.928
N4300 X-24.005 Y-28.222 Z-2.847
N4305 X-24.026 Y-28.251 Z-2.76
N4310 X-24.039 Y-28.269 Z-2.669
N4315 X-24.043 Y-28.275 Z-2.575
N4320 Z5.
N4325 X-24.773 Y-28.877
N4330 Z1. F666.67
N4335 Z-3.175 F2000.
N4340 X-24.843 Y-28.925
N4345 X-24.907 Y-28.982
N4350 X-25.452 Y-29.528
N4355 X-25.871 Y-29.947
N4360 X-25.465 Y-30.353
N4365 X-25.127 Y-30.691
N4370 X-25.114 Y-30.705
N4375 X-24.94 Y-30.916
N4380 X-24.875 Y-30.984
N4385 X-24.829 Y-31.025
N4390 X-24.759 Y-31.087 Z-3.168
N4395 X-24.69 Y-31.148 Z-3.146
N4400 X-24.625 Y-31.205 Z-3.11
N4405 X-24.565 Y-31.259 Z-3.06
N4410 X-24.512 Y-31.306 Z-2.999
N4415 X-24.466 Y-31.347 Z-2.928
N4420 X-24.429 Y-31.379 Z-2.847
N4425 X-24.402 Y-31.403 Z-2.76
N4430 X-24.386 Y-31.418 Z-2.669
N4435 X-24.38 Y-31.423 Z-2.575
N4440 Z5.
N4445 X-29.342 Y-35.559
N4450 Z1. F666.67
N4455 Z-3.175 F2000.
N4460 X-29.397 Y-35.494
N4465 X-29.46 Y-35.436
N4470 X-29.671 Y-35.263
N4475 X-29.685 Y-35.25
N4480 X-30.43 Y-34.505
N4485 X-31.394 Y-35.469
N4490 X-31.455 Y-35.541
N4495 X-31.491 Y-35.59
N4500 X-31.546 Y-35.666 Z-3.168
N4505 X-31.6 Y-35.74 Z-3.146
N4510 X-31.651 Y-35.811 Z-3.11
N4515 X-31.698 Y-35.876 Z-3.06
N4520 X-31.741 Y-35.934 Z-2.999
N4525 X-31.776 Y-35.983 Z-2.928
N4530 X-31.805 Y-36.023 Z-2.847
N4535 X-31.827 Y-36.052 Z-2.76
N4540 X-31.84 Y-36.07 Z-2.669
N4545 X-31.844 Y-36.076 Z-2.575
N4550 Z5.
N4555 X-36.087 Y-31.016
N4560 Z1. F666.67
N4565 Z-3.175 F2000.
N4570 X-36.017 Y-30.967
N4575 X-35.953 Y-30.91
N4580 X-35.408 Y-30.365
N4585 X-34.989 Y-29.946
N4590 X-35.395 Y-29.54
N4595 X-35.734 Y-29.201
N4600 X-35.747 Y-29.187
N4605 X-35.92 Y-28.976
N4610 X-35.986 Y-28.908
N4615 X-36.031 Y-28.868
N4620 X-36.101 Y-28.805 Z-3.168
N4625 X-36.17 Y-28.745 Z-3.146
N4630 X-36.235 Y-28.687 Z-3.11
N4635 X-36.295 Y-28.634 Z-3.06
N4640 X-36.349 Y-28.586 Z-2.999
N4645 X-36.394 Y-28.546 Z-2.928
N4650 X-36.431 Y-28.513 Z-2.847
N4655 X-36.458 Y-28.489 Z-2.76
N4660 X-36.475 Y-28.475 Z-2.669
N4665 X-36.48 Y-28.47 Z-2.575
N4670 Z5.
N4675 X-31.518 Y-24.333
N4680 Z1. F666.67
N4685 Z-3.175 F2000.
N4690 X-31.463 Y-24.398
N4695 X-31.4 Y-24.456
N4700 X-31.189 Y-24.63
N4705 X-31.175 Y-24.643
N4710 X-30.43 Y-25.387
N4715 X-29.466 Y-24.423
N4720 X-29.405 Y-24.352
N4725 X-29.369 Y-24.302
N4730 X-29.314 Y-24.227 Z-3.168
N4735 X-29.26 Y-24.152 Z-3.146
N4740 X-29.209 Y-24.082 Z-3.11
N4745 X-29.162 Y-24.017 Z-3.06
N4750 X-29.12 Y-23.959 Z-2.999
N4755 X-29.084 Y-23.91 Z-2.928
N4760 X-29.055 Y-23.87 Z-2.847
N4765 X-29.034 Y-23.841 Z-2.76
N4770 X-29.021 Y-23.823 Z-2.669
N4775 X-29.016 Y-23.817 Z-2.575
N4780 Z5.
N4785 X-28.13 Y-22.326
N4790 Z1. F666.67
N4795 Z-3.175 F2000.
N4800 X-28.129 Y-22.325
N4805 X-27.584 Y-21.78
N4810 X-27.417 Y-21.614
N4815 X-27.477 Y-21.61
N4820 X-28.068 Y-21.552
N4825 X-28.14 Y-21.542
N4830 X-28.211 Y-21.524
N4835 X-28.396 Y-21.468
N4840 X-28.4 Y-21.467
N4845 X-28.49 Y-21.44 Z-3.168
N4850 X-28.577 Y-21.413 Z-3.146
N4855 X-28.661 Y-21.388 Z-3.11
N4860 X-28.737 Y-21.364 Z-3.06
N4865 X-28.806 Y-21.344 Z-2.999
N4870 X-28.865 Y-21.326 Z-2.928
N4875 X-28.912 Y-21.312 Z-2.847
N4880 X-28.946 Y-21.301 Z-2.76
N4885 X-28.967 Y-21.295 Z-2.669
N4890 X-28.974 Y-21.293 Z-2.575
N4895 Z1.
N4900 X-28.092 Y-22.669
N4905 Z-3.175
N4910 X-28.091 Y-22.668
N4915 X-26.766 Y-21.344
N4920 X-27.405
N4925 X-27.451 Y-21.342
N4930 X-27.772 Y-21.311
N4935 X-28.042 Y-21.284
N4940 X-28.088 Y-21.277
N4945 X-28.133 Y-21.266
N4950 X-28.522 Y-21.148
N4955 X-28.527 Y-21.147
N4960 X-28.617 Y-21.119 Z-3.168
N4965 X-28.704 Y-21.093 Z-3.146
N4970 X-28.788 Y-21.067 Z-3.11
N4975 X-28.864 Y-21.044 Z-3.06
N4980 X-28.933 Y-21.023 Z-2.999
N4985 X-28.991 Y-21.006 Z-2.928
N4990 X-29.038 Y-20.991 Z-2.847
N4995 X-29.073 Y-20.981 Z-2.76
N5000 X-29.094 Y-20.975 Z-2.669
N5005 X-29.101 Y-20.972 Z-2.575
N5010 Z1.
N5015 X-28.286 Y-23.216
N5020 Z-3.175
N5025 X-28.216 Y-23.167
N5030 X-28.152 Y-23.11
N5035 X-26.116 Y-21.075
N5040 X-27.405
N5045 X-27.425 Y-21.074
N5050 X-27.998 Y-21.018
N5055 X-28.016 Y-21.016
N5060 X-28.054 Y-21.009
N5065 X-28.623 Y-20.836
N5070 X-28.659 Y-20.821
N5075 X-28.73 Y-20.783
N5080 X-28.816 Y-20.745
N5085 X-28.874 Y-20.725
N5090 X-28.962 Y-20.694 Z-3.168
N5095 X-29.049 Y-20.664 Z-3.146
N5100 X-29.131 Y-20.636 Z-3.11
N5105 X-29.207 Y-20.609 Z-3.06
N5110 X-29.274 Y-20.586 Z-2.999
N5115 X-29.332 Y-20.566 Z-2.928
N5120 X-29.378 Y-20.55 Z-2.847
N5125 X-29.412 Y-20.538 Z-2.76
N5130 X-29.433 Y-20.531 Z-2.669
N5135 X-29.44 Y-20.528 Z-2.575
N5140 Z5.
N5145 X-33.879 Y-4.167
N5150 Z1. F666.67
N5155 Z-3.175 F2000.
N5160 X-33.878 Y-4.165
N5165 X-33.634 Y-3.714
N5170 X-33.597 Y-3.651
N5175 X-33.553 Y-3.593
N5180 X-33.481 Y-3.507
N5185 X-33.452 Y-3.471
N5190 X-34.275
N5195 X-34.317
N5200 G18 G3 X-34.917 Z-2.575 I0. K0.6
N5205 G1 Z1.
N5210 X-33.717 Y-4.457
N5215 Z-3.175
N5220 X-33.716 Y-4.456
N5225 X-33.7 Y-4.408
N5230 X-33.678 Y-4.362
N5235 X-33.397 Y-3.842
N5240 X-33.373 Y-3.802
N5245 X-33.345 Y-3.765
N5250 X-32.968 Y-3.31
N5255 X-32.937 Y-3.276
N5260 X-32.862 Y-3.201
N5265 X-33.719
N5270 X-34.49
N5275 X-34.495
N5280 G3 X-35.095 Z-2.575 I0. K0.6
N5285 G1 Z1.
N5290 X-33.631 Y-5.028
N5295 Z-3.175
N5300 X-33.592 Y-4.952
N5305 X-33.563 Y-4.872
N5310 X-33.456 Y-4.526
N5315 X-33.441 Y-4.49
N5320 X-33.265 Y-4.164
N5325 X-33.16 Y-3.97
N5330 X-33.138 Y-3.937
N5335 X-32.76 Y-3.481
N5340 X-32.747 Y-3.467
N5345 X-32.209 Y-2.932
N5350 X-34.075
N5355 X-34.846
N5360 X-34.94 Y-2.939
N5365 X-35. Y-2.949
N5370 X-35.093 Y-2.964 Z-3.168
N5375 X-35.183 Y-2.978 Z-3.146
N5380 X-35.269 Y-2.992 Z-3.11
N5385 X-35.348 Y-3.004 Z-3.06
N5390 X-35.419 Y-3.015 Z-2.999
N5395 X-35.48 Y-3.025 Z-2.928
N5400 X-35.528 Y-3.033 Z-2.847
N5405 X-35.564 Y-3.038 Z-2.76
N5410 X-35.585 Y-3.042 Z-2.669
N5415 X-35.593 Y-3.043 Z-2.575
N5420 Z5.
N5425 X-37.742 Y-2.952
N5430 Z1. F666.67
N5435 Z-3.175 F2000.
N5440 X-37.826 Y-2.937
N5445 X-37.911 Y-2.932
N5450 X-38.682
N5455 X-39.3
N5460 Y-4.321
N5465 X-39.293 Y-4.415
N5470 X-39.283 Y-4.475
N5475 X-39.269 Y-4.568 Z-3.168
N5480 X-39.254 Y-4.659 Z-3.146
N5485 X-39.241 Y-4.745 Z-3.11
N5490 X-39.228 Y-4.824 Z-3.06
N5495 X-39.217 Y-4.895 Z-2.999
N5500 X-39.208 Y-4.955 Z-2.928
N5505 X-39.2 Y-5.004 Z-2.847
N5510 X-39.194 Y-5.039 Z-2.76
N5515 X-39.191 Y-5.061 Z-2.669
N5520 X-39.19 Y-5.068 Z-2.575
N5525 Z5.
N5530 X-45.768 Y-4.491
N5535 Z1. F666.67
N5540 Z-3.175 F2000.
N5545 X-45.753 Y-4.407
N5550 X-45.748 Y-4.321
N5555 Y-3.55
N5560 Y-2.932
N5565 X-47.138
N5570 X-47.231 Y-2.939
N5575 X-47.292 Y-2.949
N5580 X-47.384 Y-2.964 Z-3.168
N5585 X-47.475 Y-2.978 Z-3.146
N5590 X-47.561 Y-2.992 Z-3.11
N5595 X-47.64 Y-3.004 Z-3.06
N5600 X-47.711 Y-3.015 Z-2.999
N5605 X-47.771 Y-3.025 Z-2.928
N5610 X-47.82 Y-3.033 Z-2.847
N5615 X-47.855 Y-3.038 Z-2.76
N5620 X-47.877 Y-3.042 Z-2.669
N5625 X-47.884 Y-3.043 Z-2.575
N5630 Z5.
N5635 X-47.307 Y3.536
N5640 Z1. F666.67
N5645 Z-3.175 F2000.
N5650 X-47.223 Y3.521
N5655 X-47.138 Y3.516
N5660 X-46.366
N5665 X-45.749
N5670 Y4.905
N5675 X-45.756 Y4.999
N5680 X-45.765 Y5.059
N5685 X-45.78 Y5.152 Z-3.168
N5690 X-45.794 Y5.242 Z-3.146
N5695 X-45.808 Y5.328 Z-3.11
N5700 X-45.821 Y5.408 Z-3.06
N5705 X-45.832 Y5.478 Z-2.999
N5710 X-45.841 Y5.539 Z-2.928
N5715 X-45.849 Y5.587 Z-2.847
N5720 X-45.855 Y5.623 Z-2.76
N5725 X-45.858 Y5.645 Z-2.669
N5730 X-45.859 Y5.652 Z-2.575
N5735 Z5.
N5740 X-39.281 Y5.074
N5745 Z1. F666.67
N5750 Z-3.175 F2000.
N5755 X-39.296 Y4.99
N5760 X-39.301 Y4.905
N5765 Y4.134
N5770 Y3.516
N5775 X-37.911
N5780 X-37.818 Y3.523
N5785 X-37.757 Y3.533
N5790 X-37.665 Y3.548 Z-3.168
N5795 X-37.574 Y3.562 Z-3.146
N5800 X-37.488 Y3.575 Z-3.11
N5805 X-37.409 Y3.588 Z-3.06
N5810 X-37.338 Y3.599 Z-2.999
N5815 X-37.278 Y3.609 Z-2.928
N5820 X-37.229 Y3.616 Z-2.847
N5825 X-37.194 Y3.622 Z-2.76
N5830 X-37.172 Y3.626 Z-2.669
N5835 X-37.165 Y3.627 Z-2.575
N5840 Z5.
N5845 X-34.277 Y4.055
N5850 Z1. F666.67
N5855 Z-3.175 F2000.
N5860 X-34.276
N5865 X-33.504
N5870 X-33.452
N5875 X-33.554 Y4.178
N5880 X-33.598 Y4.237
N5885 X-33.636 Y4.299
N5890 X-33.878 Y4.749
N5895 X-33.881 Y4.754
N5900 X-33.925 Y4.836 Z-3.168
N5905 X-33.969 Y4.917 Z-3.146
N5910 X-34.01 Y4.993 Z-3.11
N5915 X-34.048 Y5.064 Z-3.06
N5920 X-34.082 Y5.127 Z-2.999
N5925 X-34.111 Y5.181 Z-2.928
N5930 X-34.134 Y5.224 Z-2.847
N5935 X-34.151 Y5.256 Z-2.76
N5940 X-34.162 Y5.275 Z-2.669
N5945 X-34.165 Y5.282 Z-2.575
N5950 Z1.
N5955 X-34.492 Y3.785
N5960 Z-3.175
N5965 X-34.491
N5970 X-32.862
N5975 X-32.937 Y3.86
N5980 X-32.968 Y3.893
N5985 X-33.347 Y4.35
N5990 X-33.374 Y4.388
N5995 X-33.398 Y4.427
N6000 X-33.68 Y4.95
N6005 X-33.7 Y4.992
N6010 X-33.716 Y5.035
N6015 X-33.717 Y5.04
N6020 X-33.745 Y5.129 Z-3.168
N6025 X-33.771 Y5.217 Z-3.146
N6030 X-33.797 Y5.3 Z-3.11
N6035 X-33.82 Y5.377 Z-3.06
N6040 X-33.841 Y5.445 Z-2.999
N6045 X-33.859 Y5.504 Z-2.928
N6050 X-33.873 Y5.551 Z-2.847
N6055 X-33.884 Y5.585 Z-2.76
N6060 X-33.89 Y5.606 Z-2.669
N6065 X-33.893 Y5.613 Z-2.575
N6070 Z1.
N6075 X-35.016 Y3.536
N6080 Z-3.175
N6085 X-34.932 Y3.521
N6090 X-34.847 Y3.516
N6095 X-32.209
N6100 X-32.748 Y4.051
N6105 X-32.761 Y4.065
N6110 X-33.139 Y4.522
N6115 X-33.161 Y4.555
N6120 X-33.443 Y5.077
N6125 X-33.458 Y5.114
N6130 X-33.563 Y5.456
N6135 X-33.598 Y5.544
N6140 X-33.624 Y5.599
N6145 X-33.666 Y5.683 Z-3.168
N6150 X-33.706 Y5.765 Z-3.146
N6155 X-33.744 Y5.843 Z-3.11
N6160 X-33.779 Y5.916 Z-3.06
N6165 X-33.81 Y5.98 Z-2.999
N6170 X-33.837 Y6.035 Z-2.928
N6175 X-33.859 Y6.079 Z-2.847
N6180 X-33.875 Y6.112 Z-2.76
N6185 X-33.884 Y6.131 Z-2.669
N6190 X-33.887 Y6.138 Z-2.575
N6195 Z5.
N6200 X-28.397 Y22.052
N6205 Z1. F666.67
N6210 Z-3.175 F2000.
N6215 X-28.395
N6220 X-28.209 Y22.109
N6225 X-28.139 Y22.126
N6230 X-28.067 Y22.137
N6235 X-27.637 Y22.178
N6240 X-27.477 Y22.194
N6245 X-27.417 Y22.197
N6250 X-28.129 Y22.909
N6255 X-28.159 Y22.939
N6260 X-28.225 Y23.006 Z-3.168
N6265 X-28.29 Y23.07 Z-3.146
N6270 X-28.351 Y23.132 Z-3.11
N6275 X-28.408 Y23.189 Z-3.06
N6280 X-28.459 Y23.239 Z-2.999
N6285 X-28.502 Y23.282 Z-2.928
N6290 X-28.537 Y23.317 Z-2.847
N6295 X-28.562 Y23.343 Z-2.76
N6300 X-28.578 Y23.358 Z-2.669
N6305 X-28.583 Y23.363 Z-2.575
N6310 Z1.
N6315 X-28.524 Y21.732
N6320 Z-3.175
N6325 X-28.522
N6330 X-28.131 Y21.85
N6335 X-28.086 Y21.862
N6340 X-28.041 Y21.868
N6345 X-27.451 Y21.926
N6350 X-27.406 Y21.928
N6355 X-26.766
N6360 X-27.545 Y22.707
N6365 X-28.091 Y23.252
N6370 X-28.094 Y23.256
N6375 X-28.16 Y23.322 Z-3.168
N6380 X-28.225 Y23.387 Z-3.146
N6385 X-28.287 Y23.448 Z-3.11
N6390 X-28.343 Y23.505 Z-3.06
N6395 X-28.394 Y23.556 Z-2.999
N6400 X-28.437 Y23.599 Z-2.928
N6405 X-28.472 Y23.634 Z-2.847
N6410 X-28.497 Y23.659 Z-2.76
N6415 X-28.513 Y23.675 Z-2.669
N6420 X-28.518 Y23.68 Z-2.575
N6425 Z1.
N6430 X-28.888 Y21.305
N6435 Z-3.175
N6440 X-28.807 Y21.331
N6445 X-28.73 Y21.367
N6450 X-28.656 Y21.406
N6455 X-28.62 Y21.422
N6460 X-28.053 Y21.593
N6465 X-28.015 Y21.6
N6470 X-27.425 Y21.658
N6475 X-27.406 Y21.659
N6480 X-26.116
N6485 X-27.606 Y23.149
N6490 X-28.152 Y23.694
N6495 X-28.223 Y23.755
N6500 X-28.273 Y23.791
N6505 X-28.349 Y23.846 Z-3.168
N6510 X-28.423 Y23.9 Z-3.146
N6515 X-28.493 Y23.951 Z-3.11
N6520 X-28.558 Y23.998 Z-3.06
N6525 X-28.616 Y24.04 Z-2.999
N6530 X-28.665 Y24.076 Z-2.928
N6535 X-28.705 Y24.105 Z-2.847
N6540 X-28.734 Y24.127 Z-2.76
N6545 X-28.752 Y24.139 Z-2.669
N6550 X-28.758 Y24.144 Z-2.575
N6555 Z5.
N6560 X-29.36 Y24.874
N6565 Z1. F666.67
N6570 Z-3.175 F2000.
N6575 X-29.409 Y24.944
N6580 X-29.465 Y25.007
N6585 X-30.011 Y25.553
N6590 X-30.43 Y25.972
N6595 X-30.836 Y25.566
N6600 X-31.174 Y25.227
N6605 X-31.189 Y25.214
N6610 X-31.399 Y25.041
N6615 X-31.467 Y24.975
N6620 X-31.508 Y24.93
N6625 X-31.57 Y24.859 Z-3.168
N6630 X-31.631 Y24.791 Z-3.146
N6635 X-31.688 Y24.726 Z-3.11
N6640 X-31.742 Y24.666 Z-3.06
N6645 X-31.789 Y24.612 Z-2.999
N6650 X-31.83 Y24.566 Z-2.928
N6655 X-31.862 Y24.53 Z-2.847
N6660 X-31.886 Y24.503 Z-2.76
N6665 X-31.901 Y24.486 Z-2.669
N6670 X-31.906 Y24.481 Z-2.575
N6675 Z5.
N6680 X-36.042 Y29.442
N6685 Z1. F666.67
N6690 Z-3.175 F2000.
N6695 X-35.977 Y29.498
N6700 X-35.919 Y29.56
N6705 X-35.746 Y29.771
N6710 X-35.733 Y29.786
N6715 X-34.988 Y30.53
N6720 X-35.952 Y31.495
N6725 X-36.024 Y31.556
N6730 X-36.073 Y31.592
N6735 X-36.149 Y31.647 Z-3.168
N6740 X-36.223 Y31.701 Z-3.146
N6745 X-36.294 Y31.752 Z-3.11
N6750 X-36.359 Y31.799 Z-3.06
N6755 X-36.417 Y31.841 Z-2.999
N6760 X-36.466 Y31.877 Z-2.928
N6765 X-36.506 Y31.906 Z-2.847
N6770 X-36.535 Y31.927 Z-2.76
N6775 X-36.553 Y31.94 Z-2.669
N6780 X-36.559 Y31.944 Z-2.575
N6785 Z5.
N6790 X-31.499 Y36.188
N6795 Z1. F666.67
N6800 Z-3.175 F2000.
N6805 X-31.45 Y36.118
N6810 X-31.393 Y36.054
N6815 X-30.848 Y35.508
N6820 X-30.429 Y35.089
N6825 X-30.023 Y35.496
N6830 X-29.684 Y35.834
N6835 X-29.67 Y35.847
N6840 X-29.459 Y36.021
N6845 X-29.391 Y36.086
N6850 X-29.351 Y36.132
N6855 X-29.288 Y36.202 Z-3.168
N6860 X-29.228 Y36.27 Z-3.146
N6865 X-29.17 Y36.335 Z-3.11
N6870 X-29.117 Y36.395 Z-3.06
N6875 X-29.069 Y36.449 Z-2.999
N6880 X-29.029 Y36.495 Z-2.928
N6885 X-28.996 Y36.532 Z-2.847
N6890 X-28.972 Y36.558 Z-2.76
N6895 X-28.958 Y36.575 Z-2.669
N6900 X-28.953 Y36.58 Z-2.575
N6905 Z5.
N6910 X-24.816 Y31.619
N6915 Z1. F666.67
N6920 Z-3.175 F2000.
N6925 X-24.881 Y31.563
N6930 X-24.939 Y31.501
N6935 X-25.113 Y31.29
N6940 X-25.126 Y31.276
N6945 X-25.87 Y30.531
N6950 X-24.906 Y29.567
N6955 X-24.835 Y29.505
N6960 X-24.785 Y29.47
N6965 X-24.709 Y29.414 Z-3.168
N6970 X-24.635 Y29.361 Z-3.146
N6975 X-24.565 Y29.309 Z-3.11
N6980 X-24.5 Y29.262 Z-3.06
N6985 X-24.442 Y29.22 Z-2.999
N6990 X-24.393 Y29.184 Z-2.928
N6995 X-24.353 Y29.155 Z-2.847
N7000 X-24.324 Y29.134 Z-2.76
N7005 X-24.306 Y29.121 Z-2.669
N7010 X-24.3 Y29.117 Z-2.575
N7015 Z5.
N7020 X-22.809 Y28.231
N7025 Z1. F666.67
N7030 Z-3.175 F2000.
N7035 X-22.808 Y28.23
N7040 X-22.263 Y27.685
N7045 X-22.096 Y27.518
N7050 X-22.093 Y27.578
N7055 X-22.035 Y28.169
N7060 X-22.025 Y28.241
N7065 X-22.007 Y28.311
N7070 X-21.951 Y28.496
N7075 X-21.95 Y28.501
N7080 X-21.922 Y28.591 Z-3.168
N7085 X-21.896 Y28.678 Z-3.146
N7090 X-21.871 Y28.762 Z-3.11
N7095 X-21.847 Y28.838 Z-3.06
N7100 X-21.827 Y28.907 Z-2.999
N7105 X-21.809 Y28.965 Z-2.928
N7110 X-21.795 Y29.012 Z-2.847
N7115 X-21.784 Y29.047 Z-2.76
N7120 X-21.778 Y29.068 Z-2.669
N7125 X-21.776 Y29.075 Z-2.575
N7130 Z1.
N7135 X-23.152 Y28.193
N7140 Z-3.175
N7145 X-23.151 Y28.192
N7150 X-21.827 Y26.867
N7155 Y27.506
N7160 X-21.825 Y27.552
N7165 X-21.793 Y27.873
N7170 X-21.767 Y28.143
N7175 X-21.76 Y28.188
N7180 X-21.749 Y28.233
N7185 X-21.631 Y28.623
N7190 X-21.629 Y28.628
N7195 X-21.602 Y28.718 Z-3.168
N7200 X-21.576 Y28.805 Z-3.146
N7205 X-21.55 Y28.888 Z-3.11
N7210 X-21.527 Y28.965 Z-3.06
N7215 X-21.506 Y29.034 Z-2.999
N7220 X-21.489 Y29.092 Z-2.928
N7225 X-21.474 Y29.139 Z-2.847
N7230 X-21.464 Y29.174 Z-2.76
N7235 X-21.457 Y29.195 Z-2.669
N7240 X-21.455 Y29.202 Z-2.575
N7245 Z1.
N7250 X-23.698 Y28.387
N7255 Z-3.175
N7260 X-23.65 Y28.317
N7265 X-23.593 Y28.253
N7270 X-21.558 Y26.217
N7275 Y27.506
N7280 X-21.557 Y27.526
N7285 X-21.501 Y28.098
N7290 X-21.499 Y28.117
N7295 X-21.491 Y28.155
N7300 X-21.319 Y28.724
N7305 X-21.304 Y28.76
N7310 X-21.266 Y28.831
N7315 X-21.228 Y28.917
N7320 X-21.208 Y28.974
N7325 X-21.177 Y29.063 Z-3.168
N7330 X-21.147 Y29.15 Z-3.146
N7335 X-21.119 Y29.232 Z-3.11
N7340 X-21.092 Y29.308 Z-3.06
N7345 X-21.069 Y29.375 Z-2.999
N7350 X-21.049 Y29.433 Z-2.928
N7355 X-21.032 Y29.479 Z-2.847
N7360 X-21.02 Y29.513 Z-2.76
N7365 X-21.013 Y29.534 Z-2.669
N7370 X-21.011 Y29.541 Z-2.575
N7375 Z5.
N7380 X-4.65 Y33.982
N7385 Z1. F666.67
N7390 Z-3.175 F2000.
N7395 X-4.649 Y33.981
N7400 X-4.195 Y33.735
N7405 X-4.133 Y33.698
N7410 X-4.075 Y33.654
N7415 X-3.99 Y33.584
N7420 X-3.954 Y33.553
N7425 Y34.378
N7430 Y34.42
N7435 G19 G3 Y35.02 Z-2.575 J0. K0.6
N7440 G1 Z1.
N7445 X-4.941 Y33.82
N7450 Z-3.175
N7455 X-4.939 Y33.819
N7460 X-4.891 Y33.802
N7465 X-4.844 Y33.78
N7470 X-4.324 Y33.498
N7475 X-4.284 Y33.474
N7480 X-4.247 Y33.447
N7485 X-3.792 Y33.068
N7490 X-3.758 Y33.037
N7495 X-3.684 Y32.962
N7500 Y33.822
N7505 Y34.593
N7510 Y34.598
N7515 G3 Y35.198 Z-2.575 J0. K0.6
N7520 G1 Z1.
N7525 X-5.512 Y33.735
N7530 Z-3.175
N7535 X-5.436 Y33.696
N7540 X-5.356 Y33.666
N7545 X-5.009 Y33.559
N7550 X-4.973 Y33.544
N7555 X-4.648 Y33.368
N7560 X-4.452 Y33.262
N7565 X-4.419 Y33.24
N7570 X-3.964 Y32.861
N7575 X-3.949 Y32.848
N7580 X-3.415 Y32.308
N7585 Y34.178
N7590 Y34.949
N7595 X-3.422 Y35.043
N7600 X-3.432 Y35.103
N7605 X-3.446 Y35.196 Z-3.168
N7610 X-3.461 Y35.286 Z-3.146
N7615 X-3.474 Y35.372 Z-3.11
N7620 X-3.487 Y35.451 Z-3.06
N7625 X-3.498 Y35.522 Z-2.999
N7630 X-3.508 Y35.582 Z-2.928
N7635 X-3.515 Y35.631 Z-2.847
N7640 X-3.521 Y35.667 Z-2.76
N7645 X-3.524 Y35.688 Z-2.669
N7650 X-3.526 Y35.696 Z-2.575
N7655 Z5.
N7660 X-3.435 Y37.843
N7665 Z1. F666.67
N7670 Z-3.175 F2000.
N7675 X-3.42 Y37.927
N7680 X-3.415 Y38.012
N7685 Y38.784
N7690 Y39.402
N7695 X-4.804
N7700 X-4.898 Y39.394
N7705 X-4.958 Y39.385
N7710 X-5.051 Y39.37 Z-3.168
N7715 X-5.141 Y39.356 Z-3.146
N7720 X-5.227 Y39.342 Z-3.11
N7725 X-5.307 Y39.329 Z-3.06
N7730 X-5.377 Y39.318 Z-2.999
N7735 X-5.438 Y39.309 Z-2.928
N7740 X-5.486 Y39.301 Z-2.847
N7745 X-5.522 Y39.295 Z-2.76
N7750 X-5.544 Y39.292 Z-2.669
N7755 X-5.551 Y39.291 Z-2.575
N7760 Z5.
N7765 X-4.973 Y45.869
N7770 Z1. F666.67
N7775 Z-3.175 F2000.
N7780 X-4.889 Y45.854
N7785 X-4.804 Y45.849
N7790 X-4.033
N7795 X-3.415
N7800 Y47.239
N7805 X-3.422 Y47.333
N7810 X-3.432 Y47.393
N7815 X-3.446 Y47.485 Z-3.168
N7820 X-3.461 Y47.576 Z-3.146
N7825 X-3.474 Y47.662 Z-3.11
N7830 X-3.487 Y47.741 Z-3.06
N7835 X-3.498 Y47.812 Z-2.999
N7840 X-3.508 Y47.872 Z-2.928
N7845 X-3.515 Y47.921 Z-2.847
N7850 X-3.521 Y47.956 Z-2.76
N7855 X-3.524 Y47.978 Z-2.669
N7860 X-3.526 Y47.985 Z-2.575
N7865 Z5.
N7870 X3.053 Y47.408
N7875 Z1. F666.67
N7880 Z-3.175 F2000.
N7885 X3.038 Y47.324
N7890 X3.033 Y47.239
N7895 Y46.467
N7900 Y45.849
N7905 X4.423
N7910 X4.516 Y45.857
N7915 X4.577 Y45.866
N7920 X4.669 Y45.881 Z-3.168
N7925 X4.76 Y45.895 Z-3.146
N7930 X4.846 Y45.909 Z-3.11
N7935 X4.925 Y45.921 Z-3.06
N7940 X4.996 Y45.933 Z-2.999
N7945 X5.056 Y45.942 Z-2.928
N7950 X5.105 Y45.95 Z-2.847
N7955 X5.14 Y45.955 Z-2.76
N7960 X5.162 Y45.959 Z-2.669
N7965 X5.169 Y45.96 Z-2.575
N7970 Z5.
N7975 X4.592 Y39.382
N7980 Z1. F666.67
N7985 Z-3.175 F2000.
N7990 X4.508 Y39.397
N7995 X4.423 Y39.402
N8000 X3.651
N8005 X3.033
N8010 Y38.012
N8015 X3.041 Y37.918
N8020 X3.05 Y37.858
N8025 X3.065 Y37.765 Z-3.168
N8030 X3.079 Y37.675 Z-3.146
N8035 X3.093 Y37.589 Z-3.11
N8040 X3.105 Y37.51 Z-3.06
N8045 X3.117 Y37.439 Z-2.999
N8050 X3.126 Y37.379 Z-2.928
N8055 X3.134 Y37.33 Z-2.847
N8060 X3.139 Y37.295 Z-2.76
N8065 X3.143 Y37.273 Z-2.669
N8070 X3.144 Y37.266 Z-2.575
N8075 Z5.
N8080 X3.572 Y34.377
N8085 Z1. F666.67
N8090 Z-3.175 F2000.
N8095 Y34.376
N8100 Y33.605
N8105 Y33.552
N8110 X3.697 Y33.655
N8115 X3.755 Y33.699
N8120 X3.817 Y33.736
N8125 X4.267 Y33.978
N8130 X4.271 Y33.981
N8135 X4.354 Y34.025 Z-3.168
N8140 X4.434 Y34.068 Z-3.146
N8145 X4.511 Y34.11 Z-3.11
N8150 X4.581 Y34.148 Z-3.06
N8155 X4.644 Y34.182 Z-2.999
N8160 X4.698 Y34.211 Z-2.928
N8165 X4.742 Y34.234 Z-2.847
N8170 X4.773 Y34.251 Z-2.76
N8175 X4.793 Y34.262 Z-2.669
N8180 X4.799 Y34.265 Z-2.575
N8185 Z1.
N8190 X3.302 Y34.592
N8195 Z-3.175
N8200 Y34.591
N8205 Y32.962
N8210 X3.377 Y33.037
N8215 X3.411 Y33.069
N8220 X3.869 Y33.447
N8225 X3.906 Y33.475
N8230 X3.945 Y33.499
N8235 X4.468 Y33.78
N8240 X4.51 Y33.8
N8245 X4.553 Y33.816
N8250 X4.558 Y33.817
N8255 X4.648 Y33.845 Z-3.168
N8260 X4.735 Y33.872 Z-3.146
N8265 X4.818 Y33.897 Z-3.11
N8270 X4.895 Y33.921 Z-3.06
N8275 X4.963 Y33.942 Z-2.999
N8280 X5.022 Y33.959 Z-2.928
N8285 X5.069 Y33.974 Z-2.847
N8290 X5.103 Y33.984 Z-2.76
N8295 X5.124 Y33.991 Z-2.669
N8300 X5.132 Y33.993 Z-2.575
N8305 Z1.
N8310 X3.053 Y35.116
N8315 Z-3.175
N8320 X3.038 Y35.032
N8325 X3.033 Y34.947
N8330 Y32.308
N8335 X3.568 Y32.848
N8340 X3.583 Y32.861
N8345 X4.04 Y33.24
N8350 X4.073 Y33.262
N8355 X4.596 Y33.543
N8360 X4.632 Y33.559
N8365 X4.974 Y33.663
N8370 X5.061 Y33.698
N8375 X5.116 Y33.724
N8380 X5.2 Y33.766 Z-3.168
N8385 X5.283 Y33.806 Z-3.146
N8390 X5.361 Y33.844 Z-3.11
N8395 X5.433 Y33.879 Z-3.06
N8400 X5.497 Y33.911 Z-2.999
N8405 X5.552 Y33.937 Z-2.928
N8410 X5.597 Y33.959 Z-2.847
N8415 X5.629 Y33.975 Z-2.76
N8420 X5.649 Y33.984 Z-2.669
N8425 X5.655 Y33.988 Z-2.575
N8430 Z5.
N8435 X21.569 Y28.498
N8440 Z1. F666.67
N8445 Z-3.175 F2000.
N8450 Y28.496
N8455 X21.626 Y28.309
N8460 X21.643 Y28.239
N8465 X21.654 Y28.167
N8470 X21.696 Y27.738
N8475 X21.711 Y27.578
N8480 X21.715 Y27.518
N8485 X22.427 Y28.23
N8490 X22.457 Y28.259
N8495 X22.523 Y28.326 Z-3.168
N8500 X22.588 Y28.391 Z-3.146
N8505 X22.649 Y28.452 Z-3.11
N8510 X22.706 Y28.509 Z-3.06
N8515 X22.757 Y28.559 Z-2.999
N8520 X22.8 Y28.603 Z-2.928
N8525 X22.835 Y28.637 Z-2.847
N8530 X22.86 Y28.663 Z-2.76
N8535 X22.876 Y28.678 Z-2.669
N8540 X22.881 Y28.684 Z-2.575
N8545 Z1.
N8550 X21.249 Y28.624
N8555 Z-3.175
N8560 Y28.623
N8565 X21.368 Y28.231
N8570 X21.379 Y28.187
N8575 X21.386 Y28.141
N8580 X21.443 Y27.551
N8585 X21.445 Y27.506
N8590 Y26.867
N8595 X22.224 Y27.646
N8600 X22.77 Y28.191
N8605 X22.773 Y28.194
N8610 X22.839 Y28.261 Z-3.168
N8615 X22.904 Y28.326 Z-3.146
N8620 X22.965 Y28.387 Z-3.11
N8625 X23.022 Y28.444 Z-3.06
N8630 X23.073 Y28.494 Z-2.999
N8635 X23.116 Y28.538 Z-2.928
N8640 X23.151 Y28.572 Z-2.847
N8645 X23.176 Y28.598 Z-2.76
N8650 X23.192 Y28.613 Z-2.669
N8655 X23.197 Y28.619 Z-2.575
N8660 Z1.
N8665 X20.822 Y28.989
N8670 Z-3.175
N8675 X20.849 Y28.908
N8680 X20.884 Y28.83
N8685 X20.924 Y28.756
N8690 X20.939 Y28.72
N8695 X21.11 Y28.153
N8700 X21.118 Y28.115
N8705 X21.175 Y27.525
N8710 X21.176 Y27.506
N8715 Y26.217
N8720 X22.666 Y27.707
N8725 X23.211 Y28.252
N8730 X23.273 Y28.324
N8735 X23.308 Y28.373
N8740 X23.364 Y28.449 Z-3.168
N8745 X23.417 Y28.523 Z-3.146
N8750 X23.469 Y28.594 Z-3.11
N8755 X23.516 Y28.659 Z-3.06
N8760 X23.558 Y28.717 Z-2.999
N8765 X23.594 Y28.766 Z-2.928
N8770 X23.623 Y28.806 Z-2.847
N8775 X23.644 Y28.835 Z-2.76
N8780 X23.657 Y28.853 Z-2.669
N8785 X23.661 Y28.859 Z-2.575
N8790 Z5.
N8795 X24.391 Y29.46
N8800 Z1. F666.67
N8805 Z-3.175 F2000.
N8810 X24.461 Y29.509
N8815 X24.525 Y29.566
N8820 X25.07 Y30.111
N8825 X25.489 Y30.53
N8830 X25.083 Y30.936
N8835 X24.744 Y31.275
N8840 X24.731 Y31.289
N8845 X24.558 Y31.5
N8850 X24.493 Y31.568
N8855 X24.447 Y31.608
N8860 X24.377 Y31.67 Z-3.168
N8865 X24.308 Y31.731 Z-3.146
N8870 X24.243 Y31.789 Z-3.11
N8875 X24.183 Y31.842 Z-3.06
N8880 X24.13 Y31.89 Z-2.999
N8885 X24.084 Y31.93 Z-2.928
N8890 X24.047 Y31.963 Z-2.847
N8895 X24.02 Y31.987 Z-2.76
N8900 X24.004 Y32.001 Z-2.669
N8905 X23.998 Y32.006 Z-2.575
N8910 Z5.
N8915 X28.96 Y36.143
N8920 Z1. F666.67
N8925 Z-3.175 F2000.
N8930 X29.015 Y36.078
N8935 X29.078 Y36.02
N8940 X29.289 Y35.846
N8945 X29.303 Y35.833
N8950 X30.048 Y35.089
N8955 X31.012 Y36.053
N8960 X31.073 Y36.125
N8965 X31.109 Y36.174
N8970 X31.164 Y36.25 Z-3.168
N8975 X31.218 Y36.324 Z-3.146
N8980 X31.269 Y36.394 Z-3.11
N8985 X31.316 Y36.459 Z-3.06
N8990 X31.358 Y36.517 Z-2.999
N8995 X31.394 Y36.567 Z-2.928
N9000 X31.423 Y36.606 Z-2.847
N9005 X31.444 Y36.635 Z-2.76
N9010 X31.457 Y36.653 Z-2.669
N9015 X31.462 Y36.659 Z-2.575
N9020 Z5.
N9025 X35.704 Y31.599
N9030 Z1. F666.67
N9035 Z-3.175 F2000.
N9040 X35.634 Y31.55
N9045 X35.57 Y31.494
N9050 X35.025 Y30.948
N9055 X34.606 Y30.529
N9060 X35.012 Y30.123
N9065 X35.35 Y29.785
N9070 X35.363 Y29.77
N9075 X35.537 Y29.559
N9080 X35.602 Y29.492
N9085 X35.648 Y29.451
N9090 X35.718 Y29.389 Z-3.168
N9095 X35.787 Y29.328 Z-3.146
N9100 X35.852 Y29.27 Z-3.11
N9105 X35.912 Y29.217 Z-3.06
N9110 X35.965 Y29.17 Z-2.999
N9115 X36.011 Y29.129 Z-2.928
N9120 X36.048 Y29.096 Z-2.847
N9125 X36.075 Y29.073 Z-2.76
N9130 X36.091 Y29.058 Z-2.669
N9135 X36.097 Y29.053 Z-2.575
N9140 Z5.
N9145 X31.135 Y24.917
N9150 Z1. F666.67
N9155 Z-3.175 F2000.
N9160 X31.08 Y24.982
N9165 X31.017 Y25.04
N9170 X30.806 Y25.213
N9175 X30.792 Y25.226
N9180 X30.047 Y25.971
N9185 X29.083 Y25.007
N9190 X29.022 Y24.935
N9195 X28.986 Y24.886
N9200 X28.931 Y24.81 Z-3.168
N9205 X28.877 Y24.736 Z-3.146
N9210 X28.826 Y24.665 Z-3.11
N9215 X28.779 Y24.6 Z-3.06
N9220 X28.736 Y24.542 Z-2.999
N9225 X28.701 Y24.493 Z-2.928
N9230 X28.672 Y24.453 Z-2.847
N9235 X28.65 Y24.424 Z-2.76
N9240 X28.638 Y24.406 Z-2.669
N9245 X28.633 Y24.4 Z-2.575
N9250 Z5.
N9255 X27.748 Y22.91
N9260 Z1. F666.67
N9265 Z-3.175 F2000.
N9270 X27.747 Y22.909
N9275 X27.201 Y22.363
N9280 X27.035 Y22.197
N9285 X27.095 Y22.194
N9290 X27.686 Y22.136
N9295 X27.758 Y22.125
N9300 X27.829 Y22.108
N9305 X28.013 Y22.052
N9310 X28.018 Y22.05
N9315 X28.108 Y22.023 Z-3.168
N9320 X28.195 Y21.997 Z-3.146
N9325 X28.278 Y21.971 Z-3.11
N9330 X28.355 Y21.948 Z-3.06
N9335 X28.424 Y21.927 Z-2.999
N9340 X28.482 Y21.91 Z-2.928
N9345 X28.529 Y21.895 Z-2.847
N9350 X28.564 Y21.885 Z-2.76
N9355 X28.585 Y21.878 Z-2.669
N9360 X28.592 Y21.876 Z-2.575
N9365 Z1.
N9370 X27.71 Y23.253
N9375 Z-3.175
N9380 X27.708 Y23.252
N9385 X26.384 Y21.928
N9390 X27.023
N9395 X27.069 Y21.925
N9400 X27.389 Y21.894
N9405 X27.66 Y21.868
N9410 X27.706 Y21.861
N9415 X27.751 Y21.85
N9420 X28.14 Y21.732
N9425 X28.145 Y21.73
N9430 X28.234 Y21.703 Z-3.168
N9435 X28.322 Y21.676 Z-3.146
N9440 X28.405 Y21.651 Z-3.11
N9445 X28.482 Y21.628 Z-3.06
N9450 X28.551 Y21.607 Z-2.999
N9455 X28.609 Y21.589 Z-2.928
N9460 X28.656 Y21.575 Z-2.847
N9465 X28.691 Y21.565 Z-2.76
N9470 X28.712 Y21.558 Z-2.669
N9475 X28.719 Y21.556 Z-2.575
N9480 Z1.
N9485 X27.904 Y23.799
N9490 Z-3.175
N9495 X27.834 Y23.75
N9500 X27.77 Y23.694
N9505 X25.734 Y21.658
N9510 X27.023
N9515 X27.043 Y21.657
N9520 X27.615 Y21.602
N9525 X27.634 Y21.6
N9530 X27.672 Y21.592
N9535 X28.241 Y21.42
N9540 X28.277 Y21.405
N9545 X28.348 Y21.367
N9550 X28.434 Y21.329
N9555 X28.491 Y21.309
N9560 X28.58 Y21.278 Z-3.168
N9565 X28.667 Y21.248 Z-3.146
N9570 X28.749 Y21.219 Z-3.11
N9575 X28.824 Y21.193 Z-3.06
N9580 X28.892 Y21.169 Z-2.999
N9585 X28.95 Y21.149 Z-2.928
N9590 X28.996 Y21.133 Z-2.847
N9595 X29.03 Y21.121 Z-2.76
N9600 X29.051 Y21.114 Z-2.669
N9605 X29.058 Y21.112 Z-2.575
N9610 Z5.
N9615 X33.497 Y4.75
N9620 Z1. F666.67
N9625 Z-3.175 F2000.
N9630 X33.496 Y4.749
N9635 X33.252 Y4.297
N9640 X33.215 Y4.235
N9645 X33.171 Y4.177
N9650 X33.099 Y4.09
N9655 X33.07 Y4.054
N9660 X33.894
N9665 X33.936
N9670 G18 G2 X34.536 Z-2.575 I0. K0.6
N9675 G1 Z1.
N9680 X33.335 Y5.041
N9685 Z-3.175
N9690 Y5.039
N9695 X33.318 Y4.991
N9700 X33.296 Y4.946
N9705 X33.015 Y4.425
N9710 X32.991 Y4.386
N9715 X32.963 Y4.349
N9720 X32.586 Y3.893
N9725 X32.555 Y3.859
N9730 X32.48 Y3.785
N9735 X33.337
N9740 X34.109
N9745 X34.113
N9750 G2 X34.713 Z-2.575 I0. K0.6
N9755 G1 Z1.
N9760 X33.25 Y5.612
N9765 Z-3.175
N9770 X33.211 Y5.536
N9775 X33.181 Y5.456
N9780 X33.075 Y5.11
N9785 X33.059 Y5.073
N9790 X32.883 Y4.748
N9795 X32.778 Y4.553
N9800 X32.756 Y4.521
N9805 X32.378 Y4.065
N9810 X32.365 Y4.05
N9815 X31.827 Y3.516
N9820 X33.693
N9825 X34.464
N9830 X34.558 Y3.523
N9835 X34.618 Y3.533
N9840 X34.711 Y3.547 Z-3.168
N9845 X34.801 Y3.562 Z-3.146
N9850 X34.887 Y3.575 Z-3.11
N9855 X34.967 Y3.588 Z-3.06
N9860 X35.037 Y3.599 Z-2.999
N9865 X35.098 Y3.608 Z-2.928
N9870 X35.146 Y3.616 Z-2.847
N9875 X35.182 Y3.622 Z-2.76
N9880 X35.204 Y3.625 Z-2.669
N9885 X35.211 Y3.626 Z-2.575
N9890 Z5.
N9895 X37.36 Y3.536
N9900 Z1. F666.67
N9905 Z-3.175 F2000.
N9910 X37.444 Y3.521
N9915 X37.529 Y3.516
N9920 X38.301
N9925 X38.918
N9930 Y4.905
N9935 X38.911 Y4.999
N9940 X38.902 Y5.059
N9945 X38.887 Y5.152 Z-3.168
N9950 X38.873 Y5.242 Z-3.146
N9955 X38.859 Y5.328 Z-3.11
N9960 X38.846 Y5.407 Z-3.06
N9965 X38.835 Y5.478 Z-2.999
N9970 X38.826 Y5.538 Z-2.928
N9975 X38.818 Y5.587 Z-2.847
N9980 X38.812 Y5.623 Z-2.76
N9985 X38.809 Y5.644 Z-2.669
N9990 X38.808 Y5.652 Z-2.575
N9995 Z5.
N10000 X45.386 Y5.074
N10005 Z1. F666.67
N10010 Z-3.175 F2000.
N10015 X45.371 Y4.99
N10020 X45.366 Y4.905
N10025 Y4.134
N10030 Y3.516
N10035 X46.756
N10040 X46.849 Y3.523
N10045 X46.91 Y3.533
N10050 X47.002 Y3.547 Z-3.168
N10055 X47.093 Y3.562 Z-3.146
N10060 X47.179 Y3.575 Z-3.11
N10065 X47.258 Y3.588 Z-3.06
N10070 X47.329 Y3.599 Z-2.999
N10075 X47.389 Y3.608 Z-2.928
N10080 X47.438 Y3.616 Z-2.847
N10085 X47.473 Y3.622 Z-2.76
N10090 X47.495 Y3.625 Z-2.669
N10095 X47.502 Y3.626 Z-2.575
N10100 Z5.
N10105 X46.925 Y-2.952
N10110 Z1. F666.67
N10115 Z-3.175 F2000.
N10120 X46.841 Y-2.937
N10125 X46.756 Y-2.932
N10130 X45.984
N10135 X45.367
N10140 Y-4.322
N10145 X45.374 Y-4.416
N10150 X45.383 Y-4.476
N10155 X45.398 Y-4.569 Z-3.168
N10160 X45.412 Y-4.659 Z-3.146
N10165 X45.426 Y-4.745 Z-3.11
N10170 X45.439 Y-4.824 Z-3.06
N10175 X45.45 Y-4.895 Z-2.999
N10180 X45.459 Y-4.955 Z-2.928
N10185 X45.467 Y-5.004 Z-2.847
N10190 X45.473 Y-5.039 Z-2.76
N10195 X45.476 Y-5.061 Z-2.669
N10200 X45.477 Y-5.068 Z-2.575
N10205 Z5.
N10210 X38.899 Y-4.491
N10215 Z1. F666.67
N10220 Z-3.175 F2000.
N10225 X38.914 Y-4.407
N10230 X38.919 Y-4.322
N10235 Y-3.55
N10240 Y-2.932
N10245 X37.529
N10250 X37.436 Y-2.94
N10255 X37.375 Y-2.949
N10260 X37.283 Y-2.964 Z-3.168
N10265 X37.192 Y-2.978 Z-3.146
N10270 X37.106 Y-2.992 Z-3.11
N10275 X37.027 Y-3.005 Z-3.06
N10280 X36.956 Y-3.016 Z-2.999
N10285 X36.896 Y-3.025 Z-2.928
N10290 X36.847 Y-3.033 Z-2.847
N10295 X36.812 Y-3.039 Z-2.76
N10300 X36.79 Y-3.042 Z-2.669
N10305 X36.783 Y-3.043 Z-2.575
N10310 Z5.
N10315 X33.895 Y-3.471
N10320 Z1. F666.67
N10325 Z-3.175 F2000.
N10330 X33.894
N10335 X33.122
N10340 X33.07
N10345 X33.172 Y-3.595
N10350 X33.216 Y-3.653
N10355 X33.254 Y-3.716
N10360 X33.496 Y-4.166
N10365 X33.499 Y-4.17
N10370 X33.543 Y-4.253 Z-3.168
N10375 X33.587 Y-4.333 Z-3.146
N10380 X33.628 Y-4.41 Z-3.11
N10385 X33.666 Y-4.481 Z-3.06
N10390 X33.7 Y-4.544 Z-2.999
N10395 X33.729 Y-4.597 Z-2.928
N10400 X33.752 Y-4.641 Z-2.847
N10405 X33.769 Y-4.672 Z-2.76
N10410 X33.78 Y-4.692 Z-2.669
N10415 X33.783 Y-4.698 Z-2.575
N10420 Z1.
N10425 X34.11 Y-3.202
N10430 Z-3.175
N10435 X34.109
N10440 X32.48
N10445 X32.555 Y-3.276
N10450 X32.586 Y-3.31
N10455 X32.965 Y-3.767
N10460 X32.992 Y-3.804
N10465 X33.016 Y-3.844
N10470 X33.298 Y-4.366
N10475 X33.318 Y-4.408
N10480 X33.334 Y-4.452
N10485 X33.335 Y-4.456
N10490 X33.363 Y-4.546 Z-3.168
N10495 X33.389 Y-4.634 Z-3.146
N10500 X33.415 Y-4.717 Z-3.11
N10505 X33.438 Y-4.793 Z-3.06
N10510 X33.459 Y-4.862 Z-2.999
N10515 X33.477 Y-4.92 Z-2.928
N10520 X33.491 Y-4.967 Z-2.847
N10525 X33.502 Y-5.002 Z-2.76
N10530 X33.508 Y-5.023 Z-2.669
N10535 X33.511 Y-5.03 Z-2.575
N10540 Z1.
N10545 X34.634 Y-2.952
N10550 Z-3.175
N10555 X34.55 Y-2.937
N10560 X34.465 Y-2.932
N10565 X31.827
N10570 X32.366 Y-3.467
N10575 X32.379 Y-3.482
N10580 X32.757 Y-3.939
N10585 X32.779 Y-3.971
N10590 X33.061 Y-4.494
N10595 X33.076 Y-4.53
N10600 X33.181 Y-4.873
N10605 X33.216 Y-4.96
N10610 X33.242 Y-5.015
N10615 X33.283 Y-5.1 Z-3.168
N10620 X33.324 Y-5.182 Z-3.146
N10625 X33.362 Y-5.26 Z-3.11
N10630 X33.397 Y-5.332 Z-3.06
N10635 X33.428 Y-5.397 Z-2.999
N10640 X33.455 Y-5.451 Z-2.928
N10645 X33.477 Y-5.496 Z-2.847
N10650 X33.493 Y-5.528 Z-2.76
N10655 X33.502 Y-5.548 Z-2.669
N10660 X33.505 Y-5.554 Z-2.575
N10665 Z5.
N10670 X61.755 Y-3.471
N10675 Z1. F666.67
N10680 Z-3.175 F2000.
N10685 X61.753
N10690 X60.982
N10695 X60.278
N10700 X61.32 Y-4.516
N10705 X61.349 Y-4.546
N10710 X61.416 Y-4.612 Z-3.168
N10715 X61.48 Y-4.677 Z-3.146
N10720 X61.542 Y-4.739 Z-3.11
N10725 X61.598 Y-4.795 Z-3.06
N10730 X61.649 Y-4.846 Z-2.999
N10735 X61.692 Y-4.889 Z-2.928
N10740 X61.727 Y-4.924 Z-2.847
N10745 X61.752 Y-4.95 Z-2.76
N10750 X61.768 Y-4.965 Z-2.669
N10755 X61.773 Y-4.971 Z-2.575
N10760 Z1.
N10765 X61.97 Y-3.201
N10770 Z-3.175
N10775 X61.968
N10780 X59.628
N10785 X60.736 Y-4.312
N10790 X61.281 Y-4.858
N10795 X61.284 Y-4.862
N10800 X61.35 Y-4.928 Z-3.168
N10805 X61.415 Y-4.993 Z-3.146
N10810 X61.476 Y-5.055 Z-3.11
N10815 X61.533 Y-5.112 Z-3.06
N10820 X61.583 Y-5.162 Z-2.999
N10825 X61.627 Y-5.206 Z-2.928
N10830 X61.661 Y-5.24 Z-2.847
N10835 X61.687 Y-5.266 Z-2.76
N10840 X61.702 Y-5.281 Z-2.669
N10845 X61.707 Y-5.287 Z-2.575
N10850 Z1.
N10855 X62.493 Y-2.952
N10860 Z-3.175
N10865 X62.409 Y-2.937
N10870 X62.324 Y-2.932
N10875 X58.98
N10880 X60.797 Y-4.754
N10885 X61.341 Y-5.3
N10890 X61.413 Y-5.362
N10895 X61.462 Y-5.398
N10900 X61.538 Y-5.453 Z-3.168
N10905 X61.612 Y-5.507 Z-3.146
N10910 X61.682 Y-5.558 Z-3.11
N10915 X61.747 Y-5.605 Z-3.06
N10920 X61.805 Y-5.647 Z-2.999
N10925 X61.854 Y-5.683 Z-2.928
N10930 X61.894 Y-5.712 Z-2.847
N10935 X61.923 Y-5.734 Z-2.76
N10940 X61.941 Y-5.747 Z-2.669
N10945 X61.947 Y-5.751 Z-2.575
N10950 Z5.
N10955 X61.32 Y5.1
N10960 Z1. F666.67
N10965 Z-3.175 F2000.
N10970 X61.319 Y5.099
N10975 X60.775 Y4.553
N10980 X60.278 Y4.054
N10985 X61.753
N10990 X61.795
N10995 G2 X62.395 Z-2.575 I0. K0.6
N11000 G1 Z1.
N11005 X61.281 Y5.443
N11010 Z-3.175
N11015 X61.28 Y5.442
N11020 X59.628 Y3.784
N11025 X61.197
N11030 X61.968
N11035 X61.973
N11040 G2 X62.573 Z-2.575 I0. K0.6
N11045 G1 Z1.
N11050 X61.474 Y5.989
N11055 Z-3.175
N11060 X61.404 Y5.94
N11065 X61.341 Y5.884
N11070 X58.98 Y3.515
N11075 X61.553
N11080 X62.324
N11085 X62.418 Y3.523
N11090 X62.478 Y3.532
N11095 X62.571 Y3.547 Z-3.168
N11100 X62.661 Y3.561 Z-3.146
N11105 X62.747 Y3.575 Z-3.11
N11110 X62.826 Y3.587 Z-3.06
N11115 X62.897 Y3.599 Z-2.999
N11120 X62.957 Y3.608 Z-2.928
N11125 X63.006 Y3.616 Z-2.847
N11130 X63.042 Y3.621 Z-2.76
N11135 X63.063 Y3.625 Z-2.669
N11140 X63.071 Y3.626 Z-2.575
N11145 Z5.
N11150 X78.854 Y4.75
N11155 Z1. F666.67
N11160 Z-3.175 F2000.
N11165 X78.853 Y4.749
N11170 X78.609 Y4.297
N11175 X78.571 Y4.234
N11180 X78.528 Y4.176
N11185 X78.456 Y4.09
N11190 X78.427 Y4.054
N11195 X79.25
N11200 X79.293
N11205 G2 X79.893 Z-2.575 I0. K0.6
N11210 G1 Z1.
N11215 X78.692 Y5.041
N11220 Z-3.175
N11225 X78.691 Y5.039
N11230 X78.675 Y4.991
N11235 X78.653 Y4.945
N11240 X78.372 Y4.425
N11245 X78.348 Y4.385
N11250 X78.32 Y4.348
N11255 X77.942 Y3.893
N11260 X77.912 Y3.859
N11265 X77.837 Y3.784
N11270 X78.694
N11275 X79.465
N11280 X79.47
N11285 G2 X80.07 Z-2.575 I0. K0.6
N11290 G1 Z1.
N11295 X78.607 Y5.611
N11300 Z-3.175
N11305 X78.568 Y5.535
N11310 X78.538 Y5.455
N11315 X78.431 Y5.109
N11320 X78.416 Y5.073
N11325 X78.24 Y4.748
N11330 X78.135 Y4.553
N11335 X78.113 Y4.52
N11340 X77.735 Y4.064
N11345 X77.722 Y4.05
N11350 X77.184 Y3.515
N11355 X79.05
N11360 X79.821
N11365 X79.915 Y3.523
N11370 X79.975 Y3.532
N11375 X80.068 Y3.547 Z-3.168
N11380 X80.158 Y3.561 Z-3.146
N11385 X80.244 Y3.575 Z-3.11
N11390 X80.324 Y3.587 Z-3.06
N11395 X80.394 Y3.599 Z-2.999
N11400 X80.455 Y3.608 Z-2.928
N11405 X80.503 Y3.616 Z-2.847
N11410 X80.539 Y3.621 Z-2.76
N11415 X80.561 Y3.625 Z-2.669
N11420 X80.568 Y3.626 Z-2.575
N11425 Z5.
N11430 X79.252 Y-3.471
N11435 Z1. F666.67
N11440 Z-3.175 F2000.
N11445 X79.25
N11450 X78.479
N11455 X78.426
N11460 X78.529 Y-3.595
N11465 X78.573 Y-3.653
N11470 X78.61 Y-3.715
N11475 X78.853 Y-4.166
N11480 X78.855 Y-4.17
N11485 X78.9 Y-4.252 Z-3.168
N11490 X78.943 Y-4.333 Z-3.146
N11495 X78.984 Y-4.409 Z-3.11
N11500 X79.022 Y-4.48 Z-3.06
N11505 X79.056 Y-4.543 Z-2.999
N11510 X79.085 Y-4.597 Z-2.928
N11515 X79.109 Y-4.64 Z-2.847
N11520 X79.126 Y-4.672 Z-2.76
N11525 X79.136 Y-4.691 Z-2.669
N11530 X79.14 Y-4.698 Z-2.575
N11535 Z1.
N11540 X79.467 Y-3.201
N11545 Z-3.175
N11550 X79.465
N11555 X77.837
N11560 X77.912 Y-3.276
N11565 X77.943 Y-3.31
N11570 X78.321 Y-3.767
N11575 X78.349 Y-3.804
N11580 X78.373 Y-3.843
N11585 X78.655 Y-4.366
N11590 X78.675 Y-4.408
N11595 X78.69 Y-4.451
N11600 X78.692 Y-4.456
N11605 X78.719 Y-4.546 Z-3.168
N11610 X78.746 Y-4.633 Z-3.146
N11615 X78.771 Y-4.716 Z-3.11
N11620 X78.795 Y-4.793 Z-3.06
N11625 X78.816 Y-4.862 Z-2.999
N11630 X78.834 Y-4.92 Z-2.928
N11635 X78.848 Y-4.967 Z-2.847
N11640 X78.859 Y-5.002 Z-2.76
N11645 X78.865 Y-5.023 Z-2.669
N11650 X78.867 Y-5.03 Z-2.575
N11655 Z1.
N11660 X79.99 Y-2.952
N11665 Z-3.175
N11670 X79.906 Y-2.937
N11675 X79.821 Y-2.932
N11680 X77.184
N11685 X77.722 Y-3.467
N11690 X77.735 Y-3.481
N11695 X78.114 Y-3.938
N11700 X78.136 Y-3.971
N11705 X78.418 Y-4.494
N11710 X78.433 Y-4.53
N11715 X78.538 Y-4.873
N11720 X78.572 Y-4.96
N11725 X78.599 Y-5.015
N11730 X78.64 Y-5.099 Z-3.168
N11735 X78.68 Y-5.182 Z-3.146
N11740 X78.718 Y-5.26 Z-3.11
N11745 X78.753 Y-5.332 Z-3.06
N11750 X78.785 Y-5.396 Z-2.999
N11755 X78.812 Y-5.451 Z-2.928
N11760 X78.833 Y-5.495 Z-2.847
N11765 X78.849 Y-5.528 Z-2.76
N11770 X78.859 Y-5.547 Z-2.669
N11775 X78.862 Y-5.554 Z-2.575
N11780 Z5.
N11785 X46.706 Y-39.804
N11790 Z1. F666.67
N11795 Z-3.175 F2000.
N11800 X46.705
N11805 X45.933 Y-39.805
N11810 X45.23 Y-39.806
N11815 X46.272 Y-40.85
N11820 X46.302 Y-40.879
N11825 X46.369 Y-40.946 Z-3.168
N11830 X46.433 Y-41.011 Z-3.146
N11835 X46.495 Y-41.072 Z-3.11
N11840 X46.551 Y-41.129 Z-3.06
N11845 X46.602 Y-41.179 Z-2.999
N11850 X46.645 Y-41.223 Z-2.928
N11855 X46.68 Y-41.258 Z-2.847
N11860 X46.706 Y-41.283 Z-2.76
N11865 X46.721 Y-41.299 Z-2.669
N11870 X46.726 Y-41.304 Z-2.575
N11875 Z1.
N11880 X46.921 Y-39.534
N11885 Z-3.175
N11890 X46.919
N11895 X44.58 Y-39.538
N11900 X45.688 Y-40.647
N11905 X46.234 Y-41.192
N11910 X46.237 Y-41.196
N11915 X46.303 Y-41.262 Z-3.168
N11920 X46.368 Y-41.327 Z-3.146
N11925 X46.43 Y-41.388 Z-3.11
N11930 X46.486 Y-41.445 Z-3.06
N11935 X46.537 Y-41.496 Z-2.999
N11940 X46.58 Y-41.539 Z-2.928
N11945 X46.615 Y-41.574 Z-2.847
N11950 X46.64 Y-41.599 Z-2.76
N11955 X46.656 Y-41.615 Z-2.669
N11960 X46.661 Y-41.62 Z-2.575
N11965 Z1.
N11970 X47.444 Y-39.284
N11975 Z-3.175
N11980 X47.36 Y-39.27
N11985 X47.275 Y-39.265
N11990 X43.931 Y-39.269
N11995 X45.749 Y-41.089
N12000 X46.295 Y-41.634
N12005 X46.366 Y-41.695
N12010 X46.416 Y-41.731
N12015 X46.492 Y-41.786 Z-3.168
N12020 X46.566 Y-41.84 Z-3.146
N12025 X46.636 Y-41.891 Z-3.11
N12030 X46.701 Y-41.939 Z-3.06
N12035 X46.759 Y-41.981 Z-2.999
N12040 X46.808 Y-42.017 Z-2.928
N12045 X46.848 Y-42.046 Z-2.847
N12050 X46.877 Y-42.067 Z-2.76
N12055 X46.895 Y-42.08 Z-2.669
N12060 X46.901 Y-42.084 Z-2.575
N12065 Z5.
N12070 X40.951 Y-46.171
N12075 Z1. F666.67
N12080 Z-3.175 F2000.
N12085 X40.95 Y-46.17
N12090 X40.404 Y-45.624
N12095 X39.906 Y-45.126
N12100 X39.904 Y-46.602
N12105 Y-46.644
N12110 Y-46.738 Z-3.168
N12115 Y-46.829 Z-3.146
N12120 Y-46.916 Z-3.11
N12125 X39.903 Y-46.997 Z-3.06
N12130 Y-47.068 Z-2.999
N12135 Y-47.129 Z-2.928
N12140 Y-47.179 Z-2.847
N12145 Y-47.215 Z-2.76
N12150 Y-47.237 Z-2.669
N12155 Y-47.244 Z-2.575
N12160 Z1.
N12165 X41.293 Y-46.132
N12170 Z-3.175
N12175 X41.292 Y-46.131
N12180 X39.637 Y-44.476
N12185 X39.635 Y-46.045
N12190 X39.634 Y-46.817
N12195 Y-46.821
N12200 Y-46.915 Z-3.168
N12205 Y-47.007 Z-3.146
N12210 Y-47.094 Z-3.11
N12215 Y-47.174 Z-3.06
N12220 X39.633 Y-47.245 Z-2.999
N12225 Y-47.307 Z-2.928
N12230 Y-47.356 Z-2.847
N12235 Y-47.392 Z-2.76
N12240 Y-47.414 Z-2.669
N12245 Y-47.421 Z-2.575
N12250 Z1.
N12255 X41.84 Y-46.326
N12260 Z-3.175
N12265 X41.791 Y-46.256
N12270 X41.734 Y-46.192
N12275 X39.369 Y-43.827
N12280 X39.365 Y-46.401
N12285 X39.364 Y-47.172
N12290 X39.372 Y-47.266
N12295 X39.381 Y-47.326
N12300 X39.396 Y-47.419 Z-3.168
N12305 X39.41 Y-47.509 Z-3.146
N12310 X39.423 Y-47.595 Z-3.11
N12315 X39.436 Y-47.674 Z-3.06
N12320 X39.447 Y-47.745 Z-2.999
N12325 X39.456 Y-47.806 Z-2.928
N12330 X39.464 Y-47.854 Z-2.847
N12335 X39.47 Y-47.89 Z-2.76
N12340 X39.473 Y-47.911 Z-2.669
N12345 X39.474 Y-47.919 Z-2.575
N12350 Z5.
N12355 X52.665 Y-57.885
N12360 Z1. F666.67
N12365 Z-3.175 F2000.
N12370 X52.664 Y-57.884
N12375 X52.119 Y-57.338
N12380 X51.952 Y-57.172
N12385 X51.949 Y-57.232
N12390 X51.891 Y-57.823
N12395 X51.881 Y-57.895
N12400 X51.863 Y-57.966
N12405 X51.807 Y-58.15
N12410 X51.806 Y-58.155
N12415 X51.779 Y-58.245 Z-3.168
N12420 X51.752 Y-58.332 Z-3.146
N12425 X51.727 Y-58.415 Z-3.11
N12430 X51.703 Y-58.492 Z-3.06
N12435 X51.683 Y-58.561 Z-2.999
N12440 X51.665 Y-58.619 Z-2.928
N12445 X51.651 Y-58.666 Z-2.847
N12450 X51.64 Y-58.701 Z-2.76
N12455 X51.634 Y-58.722 Z-2.669
N12460 X51.632 Y-58.729 Z-2.575
N12465 Z1.
N12470 X53.008 Y-57.846
N12475 Z-3.175
N12480 X53.007 Y-57.845
N12485 X51.683 Y-56.521
N12490 Y-57.16
N12495 X51.681 Y-57.206
N12500 X51.649 Y-57.526
N12505 X51.623 Y-57.797
N12510 X51.616 Y-57.843
N12515 X51.605 Y-57.888
N12520 X51.487 Y-58.277
N12525 X51.485 Y-58.282
N12530 X51.458 Y-58.371 Z-3.168
N12535 X51.432 Y-58.459 Z-3.146
N12540 X51.406 Y-58.542 Z-3.11
N12545 X51.383 Y-58.619 Z-3.06
N12550 X51.362 Y-58.688 Z-2.999
N12555 X51.345 Y-58.746 Z-2.928
N12560 X51.33 Y-58.793 Z-2.847
N12565 X51.32 Y-58.828 Z-2.76
N12570 X51.313 Y-58.849 Z-2.669
N12575 X51.311 Y-58.856 Z-2.575
N12580 Z1.
N12585 X53.554 Y-58.04
N12590 Z-3.175
N12595 X53.506 Y-57.97
N12600 X53.449 Y-57.907
N12605 X51.414 Y-55.871
N12610 Y-57.16
N12615 X51.413 Y-57.18
N12620 X51.357 Y-57.752
N12625 X51.355 Y-57.771
N12630 X51.347 Y-57.81
N12635 X51.175 Y-58.378
N12640 X51.16 Y-58.414
N12645 X51.122 Y-58.485
N12650 X51.084 Y-58.571
N12655 X51.064 Y-58.628
N12660 X51.033 Y-58.717 Z-3.168
N12665 X51.003 Y-58.804 Z-3.146
N12670 X50.975 Y-58.886 Z-3.11
N12675 X50.948 Y-58.961 Z-3.06
N12680 X50.925 Y-59.029 Z-2.999
N12685 X50.905 Y-59.087 Z-2.928
N12690 X50.889 Y-59.133 Z-2.847
N12695 X50.877 Y-59.167 Z-2.76
N12700 X50.87 Y-59.188 Z-2.669
N12705 X50.867 Y-59.195 Z-2.575
N12710 Z5.
N12715 X58.253 Y-51.707
N12720 Z1. F666.67
N12725 Z-3.175 F2000.
N12730 X58.251
N12735 X58.065 Y-51.764
N12740 X57.994 Y-51.781
N12745 X57.922 Y-51.792
N12750 X57.493 Y-51.834
N12755 X57.333 Y-51.849
N12760 X57.273 Y-51.853
N12765 X57.985 Y-52.564
N12770 X58.015 Y-52.594
N12775 X58.081 Y-52.661 Z-3.168
N12780 X58.146 Y-52.725 Z-3.146
N12785 X58.208 Y-52.787 Z-3.11
N12790 X58.264 Y-52.844 Z-3.06
N12795 X58.315 Y-52.894 Z-2.999
N12800 X58.358 Y-52.937 Z-2.928
N12805 X58.393 Y-52.972 Z-2.847
N12810 X58.419 Y-52.998 Z-2.76
N12815 X58.434 Y-53.013 Z-2.669
N12820 X58.439 Y-53.018 Z-2.575
N12825 Z1.
N12830 X58.38 Y-51.387
N12835 Z-3.175
N12840 X58.378
N12845 X57.987 Y-51.506
N12850 X57.942 Y-51.517
N12855 X57.896 Y-51.523
N12860 X57.307 Y-51.581
N12865 X57.261 Y-51.583
N12870 X56.622
N12875 X57.401 Y-52.362
N12880 X57.947 Y-52.907
N12885 X57.95 Y-52.911
N12890 X58.016 Y-52.977 Z-3.168
N12895 X58.081 Y-53.042 Z-3.146
N12900 X58.143 Y-53.103 Z-3.11
N12905 X58.199 Y-53.16 Z-3.06
N12910 X58.25 Y-53.211 Z-2.999
N12915 X58.293 Y-53.254 Z-2.928
N12920 X58.328 Y-53.289 Z-2.847
N12925 X58.354 Y-53.314 Z-2.76
N12930 X58.369 Y-53.33 Z-2.669
N12935 X58.374 Y-53.335 Z-2.575
N12940 Z1.
N12945 X58.744 Y-50.96
N12950 Z-3.175
N12955 X58.663 Y-50.986
N12960 X58.586 Y-51.022
N12965 X58.512 Y-51.062
N12970 X58.475 Y-51.077
N12975 X57.909 Y-51.248
N12980 X57.87 Y-51.256
N12985 X57.281 Y-51.313
N12990 X57.261 Y-51.314
N12995 X55.972
N13000 X57.463 Y-52.804
N13005 X58.008 Y-53.349
N13010 X58.08 Y-53.41
N13015 X58.129 Y-53.446
N13020 X58.205 Y-53.501 Z-3.168
N13025 X58.279 Y-53.555 Z-3.146
N13030 X58.349 Y-53.606 Z-3.11
N13035 X58.414 Y-53.653 Z-3.06
N13040 X58.472 Y-53.695 Z-2.999
N13045 X58.522 Y-53.731 Z-2.928
N13050 X58.562 Y-53.76 Z-2.847
N13055 X58.591 Y-53.781 Z-2.76
N13060 X58.608 Y-53.794 Z-2.669
N13065 X58.614 Y-53.799 Z-2.575
N13070 Z5.
N13075 X4.617 Y-61.219
N13080 Z1. F666.67
N13085 Z-3.175 F2000.
N13090 X4.616 Y-61.218
N13095 X4.07 Y-60.673
N13100 X3.571 Y-60.177
N13105 Y-61.652
N13110 Y-61.694
N13115 G19 G2 Y-62.294 Z-2.575 J0. K0.6
N13120 G1 Z1.
N13125 X4.96 Y-61.18
N13130 Z-3.175
N13135 X4.959 Y-61.179
N13140 X3.302 Y-59.527
N13145 Y-61.095
N13150 Y-61.867
N13155 Y-61.871
N13160 G2 Y-62.471 Z-2.575 J0. K0.6
N13165 G1 Z1.
N13170 X5.506 Y-61.373
N13175 Z-3.175
N13180 X5.457 Y-61.303
N13185 X5.401 Y-61.239
N13190 X3.033 Y-58.879
N13195 Y-61.451
N13200 Y-62.222
N13205 X3.04 Y-62.316
N13210 X3.049 Y-62.376
N13215 X3.064 Y-62.469 Z-3.168
N13220 X3.078 Y-62.559 Z-3.146
N13225 X3.092 Y-62.645 Z-3.11
N13230 X3.105 Y-62.725 Z-3.06
N13235 X3.116 Y-62.795 Z-2.999
N13240 X3.125 Y-62.856 Z-2.928
N13245 X3.133 Y-62.904 Z-2.847
N13250 X3.139 Y-62.94 Z-2.76
N13255 X3.142 Y-62.962 Z-2.669
N13260 X3.143 Y-62.969 Z-2.575
N13265 Z5.
N13270 X-3.954 Y-61.653
N13275 Z1. F666.67
N13280 Z-3.175 F2000.
N13285 Y-61.651
N13290 Y-60.88
N13295 Y-60.177
N13300 X-4.999 Y-61.218
N13305 X-5.028 Y-61.247
N13310 X-5.095 Y-61.314 Z-3.168
N13315 X-5.16 Y-61.378 Z-3.146
N13320 X-5.221 Y-61.44 Z-3.11
N13325 X-5.278 Y-61.496 Z-3.06
N13330 X-5.329 Y-61.547 Z-2.999
N13335 X-5.372 Y-61.59 Z-2.928
N13340 X-5.407 Y-61.625 Z-2.847
N13345 X-5.433 Y-61.65 Z-2.76
N13350 X-5.448 Y-61.666 Z-2.669
N13355 X-5.454 Y-61.671 Z-2.575
N13360 Z1.
N13365 X-3.684 Y-61.868
N13370 Z-3.175
N13375 Y-61.867
N13380 Y-59.527
N13385 X-4.795 Y-60.634
N13390 X-5.341 Y-61.179
N13395 X-5.345 Y-61.182
N13400 X-5.411 Y-61.248 Z-3.168
N13405 X-5.476 Y-61.313 Z-3.146
N13410 X-5.538 Y-61.374 Z-3.11
N13415 X-5.594 Y-61.431 Z-3.06
N13420 X-5.645 Y-61.481 Z-2.999
N13425 X-5.688 Y-61.524 Z-2.928
N13430 X-5.723 Y-61.559 Z-2.847
N13435 X-5.749 Y-61.585 Z-2.76
N13440 X-5.764 Y-61.6 Z-2.669
N13445 X-5.77 Y-61.605 Z-2.575
N13450 Z1.
N13455 X-3.435 Y-62.391
N13460 Z-3.175
N13465 X-3.42 Y-62.307
N13470 X-3.415 Y-62.222
N13475 Y-58.879
N13480 X-5.237 Y-60.694
N13485 X-5.783 Y-61.239
N13490 X-5.845 Y-61.31
N13495 X-5.88 Y-61.36
N13500 X-5.936 Y-61.436 Z-3.168
N13505 X-5.99 Y-61.509 Z-3.146
N13510 X-6.041 Y-61.58 Z-3.11
N13515 X-6.088 Y-61.645 Z-3.06
N13520 X-6.13 Y-61.702 Z-2.999
N13525 X-6.166 Y-61.752 Z-2.928
N13530 X-6.195 Y-61.792 Z-2.847
N13535 X-6.217 Y-61.821 Z-2.76
N13540 X-6.23 Y-61.839 Z-2.669
N13545 X-6.234 Y-61.844 Z-2.575
N13550 Z5.
N13555 X-3.954 Y-79.152
N13560 Z1. F666.67
N13565 Z-3.175 F2000.
N13570 Y-79.15
N13575 Y-78.379
N13580 Y-78.325
N13585 X-4.081 Y-78.43
N13590 X-4.139 Y-78.474
N13595 X-4.201 Y-78.511
N13600 X-4.649 Y-78.752
N13605 X-4.654 Y-78.755
N13610 X-4.736 Y-78.799 Z-3.168
N13615 X-4.817 Y-78.843 Z-3.146
N13620 X-4.893 Y-78.884 Z-3.11
N13625 X-4.964 Y-78.922 Z-3.06
N13630 X-5.027 Y-78.956 Z-2.999
N13635 X-5.081 Y-78.985 Z-2.928
N13640 X-5.124 Y-79.008 Z-2.847
N13645 X-5.156 Y-79.025 Z-2.76
N13650 X-5.175 Y-79.036 Z-2.669
N13655 X-5.182 Y-79.039 Z-2.575
N13660 Z1.
N13665 X-3.684 Y-79.367
N13670 Z-3.175
N13675 Y-79.365
N13680 Y-77.736
N13685 X-3.758 Y-77.811
N13690 X-3.793 Y-77.842
N13695 X-4.253 Y-78.222
N13700 X-4.29 Y-78.25
N13705 X-4.329 Y-78.274
N13710 X-4.854 Y-78.556
N13715 X-4.896 Y-78.576
N13720 X-4.94 Y-78.592
N13725 X-4.944 Y-78.593
N13730 X-5.034 Y-78.621 Z-3.168
N13735 X-5.121 Y-78.648 Z-3.146
N13740 X-5.205 Y-78.673 Z-3.11
N13745 X-5.281 Y-78.697 Z-3.06
N13750 X-5.35 Y-78.717 Z-2.999
N13755 X-5.408 Y-78.735 Z-2.928
N13760 X-5.455 Y-78.75 Z-2.847
N13765 X-5.49 Y-78.76 Z-2.76
N13770 X-5.511 Y-78.767 Z-2.669
N13775 X-5.518 Y-78.769 Z-2.575
N13780 Z1.
N13785 X-3.435 Y-79.89
N13790 Z-3.175
N13795 X-3.42 Y-79.806
N13800 X-3.415 Y-79.721
N13805 Y-77.081
N13810 X-3.95 Y-77.621
N13815 X-3.964 Y-77.635
N13820 X-4.424 Y-78.015
N13825 X-4.457 Y-78.037
N13830 X-4.982 Y-78.319
N13835 X-5.018 Y-78.335
N13840 X-5.357 Y-78.438
N13845 X-5.444 Y-78.472
N13850 X-5.499 Y-78.499
N13855 X-5.584 Y-78.54 Z-3.168
N13860 X-5.666 Y-78.58 Z-3.146
N13865 X-5.744 Y-78.618 Z-3.11
N13870 X-5.816 Y-78.653 Z-3.06
N13875 X-5.881 Y-78.685 Z-2.999
N13880 X-5.936 Y-78.711 Z-2.928
N13885 X-5.98 Y-78.733 Z-2.847
N13890 X-6.012 Y-78.749 Z-2.76
N13895 X-6.032 Y-78.758 Z-2.669
N13900 X-6.039 Y-78.761 Z-2.575
N13905 Z5.
N13910 X4.267 Y-78.752
N13915 Z1. F666.67
N13920 Z-3.175 F2000.
N13925 X4.266 Y-78.751
N13930 X3.815 Y-78.508
N13935 X3.753 Y-78.471
N13940 X3.695 Y-78.427
N13945 X3.607 Y-78.354
N13950 X3.571 Y-78.325
N13955 Y-79.148
N13960 Y-79.191
N13965 G2 Y-79.791 Z-2.575 J0. K0.6
N13970 G1 Z1.
N13975 X4.558 Y-78.59
N13980 Z-3.175
N13985 X4.556
N13990 X4.509 Y-78.573
N13995 X4.464 Y-78.552
N14000 X3.943 Y-78.271
N14005 X3.904 Y-78.247
N14010 X3.867 Y-78.219
N14015 X3.41 Y-77.842
N14020 X3.376 Y-77.811
N14025 X3.302 Y-77.736
N14030 Y-78.592
N14035 Y-79.364
N14040 Y-79.368
N14045 G2 Y-79.968 Z-2.575 J0. K0.6
N14050 G1 Z1.
N14055 X5.128 Y-78.504
N14060 Z-3.175
N14065 X5.052 Y-78.465
N14070 X4.972 Y-78.436
N14075 X4.628 Y-78.33
N14080 X4.591 Y-78.315
N14085 X4.265 Y-78.138
N14090 X4.071 Y-78.034
N14095 X4.038 Y-78.012
N14100 X3.582 Y-77.635
N14105 X3.567 Y-77.621
N14110 X3.033 Y-77.081
N14115 Y-78.948
N14120 Y-79.719
N14125 X3.04 Y-79.813
N14130 X3.049 Y-79.873
N14135 X3.064 Y-79.966 Z-3.168
N14140 X3.078 Y-80.056 Z-3.146
N14145 X3.092 Y-80.142 Z-3.11
N14150 X3.105 Y-80.222 Z-3.06
N14155 X3.116 Y-80.292 Z-2.999
N14160 X3.125 Y-80.353 Z-2.928
N14165 X3.133 Y-80.401 Z-2.847
N14170 X3.139 Y-80.437 Z-2.76
N14175 X3.142 Y-80.459 Z-2.669
N14180 X3.143 Y-80.466 Z-2.575
N14185 Z5.
N14190 X-40.287 Y-46.603
N14195 Z1. F666.67
N14200 Z-3.175 F2000.
N14205 Y-46.602
N14210 X-40.288 Y-45.83
N14215 X-40.289 Y-45.126
N14220 X-41.333 Y-46.17
N14225 X-41.363 Y-46.199
N14230 X-41.429 Y-46.266 Z-3.168
N14235 X-41.494 Y-46.331 Z-3.146
N14240 X-41.555 Y-46.392 Z-3.11
N14245 X-41.612 Y-46.449 Z-3.06
N14250 X-41.663 Y-46.499 Z-2.999
N14255 X-41.706 Y-46.543 Z-2.928
N14260 X-41.741 Y-46.577 Z-2.847
N14265 X-41.766 Y-46.603 Z-2.76
N14270 X-41.782 Y-46.618 Z-2.669
N14275 X-41.787 Y-46.624 Z-2.575
N14280 Z1.
N14285 X-40.017 Y-46.818
N14290 Z-3.175
N14295 Y-46.816
N14300 X-40.021 Y-44.476
N14305 X-41.13 Y-45.586
N14310 X-41.676 Y-46.131
N14315 X-41.679 Y-46.134
N14320 X-41.745 Y-46.201 Z-3.168
N14325 X-41.81 Y-46.265 Z-3.146
N14330 X-41.871 Y-46.327 Z-3.11
N14335 X-41.928 Y-46.384 Z-3.06
N14340 X-41.979 Y-46.434 Z-2.999
N14345 X-42.022 Y-46.478 Z-2.928
N14350 X-42.057 Y-46.512 Z-2.847
N14355 X-42.082 Y-46.538 Z-2.76
N14360 X-42.098 Y-46.553 Z-2.669
N14365 X-42.103 Y-46.559 Z-2.575
N14370 Z1.
N14375 X-39.767 Y-47.341
N14380 Z-3.175
N14385 X-39.753 Y-47.257
N14390 X-39.748 Y-47.172
N14395 X-39.752 Y-43.827
N14400 X-41.572 Y-45.647
N14405 X-42.117 Y-46.192
N14410 X-42.179 Y-46.264
N14415 X-42.214 Y-46.313
N14420 X-42.27 Y-46.389 Z-3.168
N14425 X-42.323 Y-46.463 Z-3.146
N14430 X-42.374 Y-46.533 Z-3.11
N14435 X-42.422 Y-46.598 Z-3.06
N14440 X-42.464 Y-46.656 Z-2.999
N14445 X-42.5 Y-46.706 Z-2.928
N14450 X-42.529 Y-46.746 Z-2.847
N14455 X-42.55 Y-46.775 Z-2.76
N14460 X-42.563 Y-46.793 Z-2.669
N14465 X-42.567 Y-46.799 Z-2.575
N14470 Z5.
N14475 X-46.656 Y-40.85
N14480 Z1. F666.67
N14485 Z-3.175 F2000.
N14490 X-46.655 Y-40.849
N14495 X-46.11 Y-40.303
N14500 X-45.612 Y-39.805
N14505 X-47.088 Y-39.803
N14510 X-47.13
N14515 X-47.224 Z-3.168
N14520 X-47.315 Z-3.146
N14525 X-47.402 Z-3.11
N14530 X-47.482 Z-3.06
N14535 X-47.554 Z-2.999
N14540 X-47.615 Y-39.802 Z-2.928
N14545 X-47.664 Z-2.847
N14550 X-47.7 Z-2.76
N14555 X-47.722 Z-2.669
N14560 X-47.73 Z-2.575
N14565 Z1.
N14570 X-46.618 Y-41.192
N14575 Z-3.175
N14580 X-46.617 Y-41.191
N14585 X-44.963 Y-39.537
N14590 X-46.531 Y-39.534
N14595 X-47.302 Y-39.533
N14600 X-47.307
N14605 X-47.401 Z-3.168
N14610 X-47.492 Z-3.146
N14615 X-47.579 Z-3.11
N14620 X-47.66 Z-3.06
N14625 X-47.731 Z-2.999
N14630 X-47.792 Z-2.928
N14635 X-47.841 Y-39.532 Z-2.847
N14640 X-47.878 Z-2.76
N14645 X-47.899 Z-2.669
N14650 X-47.907 Z-2.575
N14655 Z1.
N14660 X-46.811 Y-41.739
N14665 Z-3.175
N14670 X-46.741 Y-41.69
N14675 X-46.678 Y-41.633
N14680 X-44.314 Y-39.268
N14685 X-46.886 Y-39.265
N14690 X-47.658 Y-39.264
N14695 X-47.751 Y-39.271
N14700 X-47.812 Y-39.28
N14705 X-47.904 Y-39.295 Z-3.168
N14710 X-47.995 Y-39.309 Z-3.146
N14715 X-48.081 Y-39.323 Z-3.11
N14720 X-48.16 Y-39.335 Z-3.06
N14725 X-48.231 Y-39.346 Z-2.999
N14730 X-48.291 Y-39.356 Z-2.928
N14735 X-48.34 Y-39.363 Z-2.847
N14740 X-48.375 Y-39.369 Z-2.76
N14745 X-48.397 Y-39.372 Z-2.669
N14750 X-48.404 Y-39.373 Z-2.575
N14755 Z5.
N14760 X-58.369 Y-52.564
N14765 Z1. F666.67
N14770 Z-3.175 F2000.
N14775 X-58.368 Y-52.563
N14780 X-57.822 Y-52.018
N14785 X-57.656 Y-51.852
N14790 X-57.716 Y-51.848
N14795 X-58.307 Y-51.791
N14800 X-58.379 Y-51.78
N14805 X-58.45 Y-51.762
N14810 X-58.634 Y-51.706
N14815 X-58.639 Y-51.705
N14820 X-58.729 Y-51.678 Z-3.168
N14825 X-58.816 Y-51.651 Z-3.146
N14830 X-58.899 Y-51.626 Z-3.11
N14835 X-58.976 Y-51.603 Z-3.06
N14840 X-59.045 Y-51.582 Z-2.999
N14845 X-59.103 Y-51.564 Z-2.928
N14850 X-59.15 Y-51.55 Z-2.847
N14855 X-59.185 Y-51.539 Z-2.76
N14860 X-59.206 Y-51.533 Z-2.669
N14865 X-59.213 Y-51.531 Z-2.575
N14870 Z1.
N14875 X-58.33 Y-52.907
N14880 Z-3.175
N14885 X-58.329 Y-52.906
N14890 X-57.005 Y-51.582
N14895 X-57.645
N14900 X-57.69 Y-51.58
N14905 X-58.01 Y-51.549
N14910 X-58.281 Y-51.522
N14915 X-58.327 Y-51.515
N14920 X-58.372 Y-51.504
N14925 X-58.761 Y-51.386
N14930 X-58.766 Y-51.385
N14935 X-58.855 Y-51.357 Z-3.168
N14940 X-58.943 Y-51.331 Z-3.146
N14945 X-59.026 Y-51.306 Z-3.11
N14950 X-59.103 Y-51.282 Z-3.06
N14955 X-59.172 Y-51.262 Z-2.999
N14960 X-59.23 Y-51.244 Z-2.928
N14965 X-59.277 Y-51.229 Z-2.847
N14970 X-59.312 Y-51.219 Z-2.76
N14975 X-59.333 Y-51.213 Z-2.669
N14980 X-59.34 Y-51.211 Z-2.575
N14985 Z1.
N14990 X-58.524 Y-53.454
N14995 Z-3.175
N15000 X-58.454 Y-53.405
N15005 X-58.391 Y-53.348
N15010 X-56.355 Y-51.313
N15015 X-57.645
N15020 X-57.664 Y-51.312
N15025 X-58.236 Y-51.256
N15030 X-58.255 Y-51.254
N15035 X-58.294 Y-51.247
N15040 X-58.862 Y-51.074
N15045 X-58.898 Y-51.059
N15050 X-58.969 Y-51.021
N15055 X-59.055 Y-50.984
N15060 X-59.112 Y-50.964
N15065 X-59.201 Y-50.933 Z-3.168
N15070 X-59.288 Y-50.903 Z-3.146
N15075 X-59.37 Y-50.874 Z-3.11
N15080 X-59.445 Y-50.848 Z-3.06
N15085 X-59.513 Y-50.824 Z-2.999
N15090 X-59.571 Y-50.804 Z-2.928
N15095 X-59.617 Y-50.788 Z-2.847
N15100 X-59.651 Y-50.776 Z-2.76
N15105 X-59.672 Y-50.769 Z-2.669
N15110 X-59.679 Y-50.766 Z-2.575
N15115 Z5.
N15120 X-52.19 Y-58.152
N15125 Z1. F666.67
N15130 Z-3.175 F2000.
N15135 Y-58.15
N15140 X-52.247 Y-57.964
N15145 X-52.264 Y-57.893
N15150 X-52.275 Y-57.822
N15155 X-52.317 Y-57.392
N15160 X-52.332 Y-57.232
N15165 X-52.336 Y-57.172
N15170 X-53.048 Y-57.884
N15175 X-53.077 Y-57.914
N15180 X-53.144 Y-57.98 Z-3.168
N15185 X-53.208 Y-58.045 Z-3.146
N15190 X-53.27 Y-58.106 Z-3.11
N15195 X-53.327 Y-58.163 Z-3.06
N15200 X-53.377 Y-58.214 Z-2.999
N15205 X-53.421 Y-58.257 Z-2.928
N15210 X-53.455 Y-58.292 Z-2.847
N15215 X-53.481 Y-58.317 Z-2.76
N15220 X-53.496 Y-58.333 Z-2.669
N15225 X-53.502 Y-58.338 Z-2.575
N15230 Z1.
N15235 X-51.87 Y-58.279
N15240 Z-3.175
N15245 Y-58.277
N15250 X-51.989 Y-57.886
N15255 X-52. Y-57.841
N15260 X-52.006 Y-57.796
N15265 X-52.064 Y-57.206
N15270 X-52.066 Y-57.161
N15275 Y-56.521
N15280 X-52.845 Y-57.3
N15285 X-53.39 Y-57.846
N15290 X-53.394 Y-57.849
N15295 X-53.46 Y-57.915 Z-3.168
N15300 X-53.525 Y-57.98 Z-3.146
N15305 X-53.586 Y-58.041 Z-3.11
N15310 X-53.643 Y-58.098 Z-3.06
N15315 X-53.694 Y-58.149 Z-2.999
N15320 X-53.737 Y-58.192 Z-2.928
N15325 X-53.772 Y-58.227 Z-2.847
N15330 X-53.797 Y-58.252 Z-2.76
N15335 X-53.813 Y-58.268 Z-2.669
N15340 X-53.818 Y-58.273 Z-2.575
N15345 Z1.
N15350 X-51.443 Y-58.643
N15355 Z-3.175
N15360 X-51.47 Y-58.562
N15365 X-51.505 Y-58.485
N15370 X-51.545 Y-58.411
N15375 X-51.56 Y-58.374
N15380 X-51.731 Y-57.808
N15385 X-51.739 Y-57.769
N15390 X-51.796 Y-57.18
N15395 X-51.797 Y-57.161
N15400 Y-55.871
N15405 X-53.287 Y-57.361
N15410 X-53.832 Y-57.907
N15415 X-53.893 Y-57.978
N15420 X-53.929 Y-58.028
N15425 X-53.984 Y-58.104 Z-3.168
N15430 X-54.038 Y-58.178 Z-3.146
N15435 X-54.089 Y-58.248 Z-3.11
N15440 X-54.137 Y-58.313 Z-3.06
N15445 X-54.179 Y-58.371 Z-2.999
N15450 X-54.215 Y-58.42 Z-2.928
N15455 X-54.243 Y-58.46 Z-2.847
N15460 X-54.265 Y-58.489 Z-2.76
N15465 X-54.278 Y-58.507 Z-2.669
N15470 X-54.282 Y-58.513 Z-2.575
N15475 Z5.
N15480 X-61.702 Y-4.517
N15485 Z1. F666.67
N15490 Z-3.175 F2000.
N15495 X-61.701 Y-4.515
N15500 X-61.157 Y-3.969
N15505 X-60.66 Y-3.471
N15510 X-62.135
N15515 X-62.177
N15520 G18 G3 X-62.777 Z-2.575 I0. K0.6
N15525 G1 Z1.
N15530 X-61.663 Y-4.859
N15535 Z-3.175
N15540 X-61.662 Y-4.858
N15545 X-60.01 Y-3.201
N15550 X-61.579
N15555 X-62.35
N15560 X-62.355
N15565 G3 X-62.955 Z-2.575 I0. K0.6
N15570 G1 Z1.
N15575 X-61.856 Y-5.406
N15580 Z-3.175
N15585 X-61.786 Y-5.357
N15590 X-61.723 Y-5.3
N15595 X-59.362 Y-2.932
N15600 X-61.934
N15605 X-62.706
N15610 X-62.8 Y-2.939
N15615 X-62.86 Y-2.949
N15620 X-62.953 Y-2.963 Z-3.168
N15625 X-63.043 Y-2.978 Z-3.146
N15630 X-63.129 Y-2.991 Z-3.11
N15635 X-63.208 Y-3.004 Z-3.06
N15640 X-63.279 Y-3.015 Z-2.999
N15645 X-63.339 Y-3.025 Z-2.928
N15650 X-63.388 Y-3.032 Z-2.847
N15655 X-63.423 Y-3.038 Z-2.76
N15660 X-63.445 Y-3.041 Z-2.669
N15665 X-63.452 Y-3.043 Z-2.575
N15670 Z5.
N15675 X-62.137 Y4.054
N15680 Z1. F666.67
N15685 Z-3.175 F2000.
N15690 X-62.135
N15695 X-61.364
N15700 X-60.66
N15705 X-61.702 Y5.099
N15710 X-61.731 Y5.129
N15715 X-61.798 Y5.196 Z-3.168
N15720 X-61.862 Y5.26 Z-3.146
N15725 X-61.924 Y5.322 Z-3.11
N15730 X-61.98 Y5.379 Z-3.06
N15735 X-62.031 Y5.43 Z-2.999
N15740 X-62.074 Y5.473 Z-2.928
N15745 X-62.109 Y5.508 Z-2.847
N15750 X-62.134 Y5.533 Z-2.76
N15755 X-62.15 Y5.549 Z-2.669
N15760 X-62.155 Y5.554 Z-2.575
N15765 Z1.
N15770 X-62.352 Y3.785
N15775 Z-3.175
N15780 X-62.35
N15785 X-60.01
N15790 X-61.118 Y4.896
N15795 X-61.663 Y5.442
N15800 X-61.666 Y5.445
N15805 X-61.732 Y5.512 Z-3.168
N15810 X-61.797 Y5.577 Z-3.146
N15815 X-61.858 Y5.638 Z-3.11
N15820 X-61.915 Y5.695 Z-3.06
N15825 X-61.965 Y5.746 Z-2.999
N15830 X-62.009 Y5.789 Z-2.928
N15835 X-62.043 Y5.824 Z-2.847
N15840 X-62.069 Y5.849 Z-2.76
N15845 X-62.084 Y5.865 Z-2.669
N15850 X-62.089 Y5.87 Z-2.575
N15855 Z1.
N15860 X-62.875 Y3.536
N15865 Z-3.175
N15870 X-62.791 Y3.521
N15875 X-62.706 Y3.516
N15880 X-59.362
N15885 X-61.178 Y5.338
N15890 X-61.723 Y5.884
N15895 X-61.795 Y5.945
N15900 X-61.844 Y5.981
N15905 X-61.92 Y6.036 Z-3.168
N15910 X-61.994 Y6.09 Z-3.146
N15915 X-62.064 Y6.141 Z-3.11
N15920 X-62.129 Y6.189 Z-3.06
N15925 X-62.187 Y6.231 Z-2.999
N15930 X-62.236 Y6.267 Z-2.928
N15935 X-62.276 Y6.296 Z-2.847
N15940 X-62.305 Y6.317 Z-2.76
N15945 X-62.323 Y6.33 Z-2.669
N15950 X-62.329 Y6.334 Z-2.575
N15955 Z5.
N15960 X-79.634 Y4.054
N15965 Z1. F666.67
N15970 Z-3.175 F2000.
N15975 X-79.632
N15980 X-78.861
N15985 X-78.808
N15990 X-78.911 Y4.178
N15995 X-78.954 Y4.236
N16000 X-78.992 Y4.299
N16005 X-79.235 Y4.749
N16010 X-79.237 Y4.753
N16015 X-79.282 Y4.836 Z-3.168
N16020 X-79.325 Y4.916 Z-3.146
N16025 X-79.367 Y4.993 Z-3.11
N16030 X-79.405 Y5.064 Z-3.06
N16035 X-79.439 Y5.127 Z-2.999
N16040 X-79.468 Y5.181 Z-2.928
N16045 X-79.491 Y5.224 Z-2.847
N16050 X-79.508 Y5.256 Z-2.76
N16055 X-79.519 Y5.275 Z-2.669
N16060 X-79.522 Y5.281 Z-2.575
N16065 Z1.
N16070 X-79.849 Y3.785
N16075 Z-3.175
N16080 X-79.848
N16085 X-78.219
N16090 X-78.294 Y3.859
N16095 X-78.325 Y3.893
N16100 X-78.703 Y4.35
N16105 X-78.731 Y4.387
N16110 X-78.755 Y4.427
N16115 X-79.037 Y4.949
N16120 X-79.057 Y4.991
N16125 X-79.072 Y5.035
N16130 X-79.074 Y5.039
N16135 X-79.101 Y5.129 Z-3.168
N16140 X-79.128 Y5.217 Z-3.146
N16145 X-79.153 Y5.3 Z-3.11
N16150 X-79.177 Y5.376 Z-3.06
N16155 X-79.198 Y5.445 Z-2.999
N16160 X-79.216 Y5.503 Z-2.928
N16165 X-79.23 Y5.55 Z-2.847
N16170 X-79.241 Y5.585 Z-2.76
N16175 X-79.247 Y5.606 Z-2.669
N16180 X-79.249 Y5.613 Z-2.575
N16185 Z1.
N16190 X-80.372 Y3.536
N16195 Z-3.175
N16200 X-80.288 Y3.521
N16205 X-80.203 Y3.516
N16210 X-77.566
N16215 X-78.104 Y4.05
N16220 X-78.117 Y4.065
N16225 X-78.496 Y4.522
N16230 X-78.518 Y4.555
N16235 X-78.8 Y5.077
N16240 X-78.815 Y5.113
N16245 X-78.92 Y5.456
N16250 X-78.954 Y5.544
N16255 X-78.981 Y5.598
N16260 X-79.022 Y5.683 Z-3.168
N16265 X-79.062 Y5.765 Z-3.146
N16270 X-79.1 Y5.843 Z-3.11
N16275 X-79.136 Y5.915 Z-3.06
N16280 X-79.167 Y5.98 Z-2.999
N16285 X-79.194 Y6.035 Z-2.928
N16290 X-79.215 Y6.079 Z-2.847
N16295 X-79.231 Y6.111 Z-2.76
N16300 X-79.241 Y6.131 Z-2.669
N16305 X-79.244 Y6.138 Z-2.575
N16310 Z5.
N16315 X-79.235 Y-4.166
N16320 Z1. F666.67
N16325 Z-3.175 F2000.
N16330 Y-4.165
N16335 X-78.991 Y-3.713
N16340 X-78.953 Y-3.651
N16345 X-78.91 Y-3.593
N16350 X-78.838 Y-3.506
N16355 X-78.808 Y-3.471
N16360 X-79.632
N16365 X-79.674
N16370 G3 X-80.274 Z-2.575 I0. K0.6
N16375 G1 Z1.
N16380 X-79.073 Y-4.457
N16385 Z-3.175
N16390 Y-4.455
N16395 X-79.056 Y-4.408
N16400 X-79.035 Y-4.362
N16405 X-78.753 Y-3.841
N16410 X-78.73 Y-3.802
N16415 X-78.702 Y-3.765
N16420 X-78.324 Y-3.309
N16425 X-78.293 Y-3.276
N16430 X-78.218 Y-3.201
N16435 X-79.076
N16440 X-79.847
N16445 X-79.852
N16450 G3 X-80.452 Z-2.575 I0. K0.6
N16455 G1 Z1.
N16460 X-78.988 Y-5.028
N16465 Z-3.175
N16470 X-78.949 Y-4.952
N16475 X-78.919 Y-4.872
N16480 X-78.813 Y-4.526
N16485 X-78.798 Y-4.49
N16490 X-78.622 Y-4.164
N16495 X-78.517 Y-3.969
N16500 X-78.495 Y-3.937
N16505 X-78.117 Y-3.481
N16510 X-78.104 Y-3.467
N16515 X-77.565 Y-2.932
N16520 X-79.431
N16525 X-80.203
N16530 X-80.296 Y-2.939
N16535 X-80.357 Y-2.949
N16540 X-80.449 Y-2.963 Z-3.168
N16545 X-80.54 Y-2.978 Z-3.146
N16550 X-80.626 Y-2.991 Z-3.11
N16555 X-80.705 Y-3.004 Z-3.06
N16560 X-80.776 Y-3.015 Z-2.999
N16565 X-80.836 Y-3.025 Z-2.928
N16570 X-80.885 Y-3.032 Z-2.847
N16575 X-80.92 Y-3.038 Z-2.76
N16580 X-80.942 Y-3.041 Z-2.669
N16585 X-80.949 Y-3.043 Z-2.575
N16590 Z5.
N16595 X-47.088 Y40.388
N16600 Z1. F666.67
N16605 Z-3.175 F2000.
N16610 X-47.087
N16615 X-46.315 Y40.389
N16620 X-45.611 Y40.39
N16625 X-46.654 Y41.433
N16630 X-46.684 Y41.463
N16635 X-46.75 Y41.529 Z-3.168
N16640 X-46.815 Y41.594 Z-3.146
N16645 X-46.877 Y41.656 Z-3.11
N16650 X-46.933 Y41.712 Z-3.06
N16655 X-46.984 Y41.763 Z-2.999
N16660 X-47.027 Y41.806 Z-2.928
N16665 X-47.062 Y41.841 Z-2.847
N16670 X-47.088 Y41.867 Z-2.76
N16675 X-47.103 Y41.882 Z-2.669
N16680 X-47.108 Y41.887 Z-2.575
N16685 Z1.
N16690 X-47.303 Y40.118
N16695 Z-3.175
N16700 X-47.301
N16705 X-44.962 Y40.121
N16710 X-46.07 Y41.23
N16715 X-46.616 Y41.776
N16720 X-46.619 Y41.779
N16725 X-46.685 Y41.845 Z-3.168
N16730 X-46.75 Y41.91 Z-3.146
N16735 X-46.811 Y41.972 Z-3.11
N16740 X-46.868 Y42.029 Z-3.06
N16745 X-46.919 Y42.079 Z-2.999
N16750 X-46.962 Y42.122 Z-2.928
N16755 X-46.997 Y42.157 Z-2.847
N16760 X-47.022 Y42.183 Z-2.76
N16765 X-47.038 Y42.198 Z-2.669
N16770 X-47.043 Y42.203 Z-2.575
N16775 Z1.
N16780 X-47.826 Y39.868
N16785 Z-3.175
N16790 X-47.742 Y39.853
N16795 X-47.657 Y39.848
N16800 X-44.313 Y39.853
N16805 X-46.131 Y41.672
N16810 X-46.677 Y42.218
N16815 X-46.748 Y42.279
N16820 X-46.798 Y42.315
N16825 X-46.874 Y42.37 Z-3.168
N16830 X-46.948 Y42.424 Z-3.146
N16835 X-47.018 Y42.475 Z-3.11
N16840 X-47.083 Y42.522 Z-3.06
N16845 X-47.141 Y42.564 Z-2.999
N16850 X-47.19 Y42.6 Z-2.928
N16855 X-47.23 Y42.629 Z-2.847
N16860 X-47.259 Y42.65 Z-2.76
N16865 X-47.277 Y42.663 Z-2.669
N16870 X-47.283 Y42.667 Z-2.575
N16875 Z5.
N16880 X-41.333 Y46.755
N16885 Z1. F666.67
N16890 Z-3.175 F2000.
N16895 X-41.332 Y46.754
N16900 X-40.786 Y46.209
N16905 X-40.288 Y45.711
N16910 X-40.286 Y47.186
N16915 Y47.229
N16920 Y47.322 Z-3.168
N16925 Y47.414 Z-3.146
N16930 Y47.501 Z-3.11
N16935 Y47.581 Z-3.06
N16940 Y47.653 Z-2.999
N16945 X-40.285 Y47.714 Z-2.928
N16950 Y47.763 Z-2.847
N16955 Y47.799 Z-2.76
N16960 Y47.821 Z-2.669
N16965 Y47.829 Z-2.575
N16970 Z1.
N16975 X-41.676 Y46.717
N16980 Z-3.175
N16985 X-41.675 Y46.715
N16990 X-40.02 Y45.061
N16995 X-40.017 Y46.63
N17000 X-40.016 Y47.401
N17005 Y47.406
N17010 Y47.5 Z-3.168
N17015 Y47.591 Z-3.146
N17020 Y47.678 Z-3.11
N17025 Y47.758 Z-3.06
N17030 Y47.83 Z-2.999
N17035 Y47.891 Z-2.928
N17040 Y47.94 Z-2.847
N17045 X-40.015 Y47.976 Z-2.76
N17050 Y47.998 Z-2.669
N17055 Y48.006 Z-2.575
N17060 Z1.
N17065 X-42.222 Y46.91
N17070 Z-3.175
N17075 X-42.173 Y46.84
N17080 X-42.116 Y46.777
N17085 X-39.751 Y44.412
N17090 X-39.748 Y46.985
N17095 X-39.747 Y47.756
N17100 X-39.754 Y47.85
N17105 X-39.763 Y47.91
N17110 X-39.778 Y48.003 Z-3.168
N17115 X-39.792 Y48.094 Z-3.146
N17120 X-39.806 Y48.18 Z-3.11
N17125 X-39.818 Y48.259 Z-3.06
N17130 X-39.829 Y48.33 Z-2.999
N17135 X-39.839 Y48.39 Z-2.928
N17140 X-39.846 Y48.439 Z-2.847
N17145 X-39.852 Y48.474 Z-2.76
N17150 X-39.855 Y48.496 Z-2.669
N17155 X-39.856 Y48.503 Z-2.575
N17160 Z5.
N17165 X-53.048 Y58.47
N17170 Z1. F666.67
N17175 Z-3.175 F2000.
N17180 X-53.046 Y58.468
N17185 X-52.501 Y57.923
N17190 X-52.335 Y57.757
N17195 X-52.331 Y57.817
N17200 X-52.273 Y58.408
N17205 X-52.263 Y58.48
N17210 X-52.245 Y58.55
N17215 X-52.189 Y58.735
N17220 X-52.188 Y58.739
N17225 X-52.161 Y58.829 Z-3.168
N17230 X-52.134 Y58.917 Z-3.146
N17235 X-52.109 Y59. Z-3.11
N17240 X-52.086 Y59.077 Z-3.06
N17245 X-52.065 Y59.145 Z-2.999
N17250 X-52.047 Y59.204 Z-2.928
N17255 X-52.033 Y59.251 Z-2.847
N17260 X-52.022 Y59.285 Z-2.76
N17265 X-52.016 Y59.306 Z-2.669
N17270 X-52.014 Y59.313 Z-2.575
N17275 Z1.
N17280 X-53.39 Y58.431
N17285 Z-3.175
N17290 X-53.389 Y58.43
N17295 X-52.065 Y57.106
N17300 Y57.745
N17305 X-52.063 Y57.791
N17310 X-52.032 Y58.111
N17315 X-52.005 Y58.382
N17320 X-51.998 Y58.427
N17325 X-51.987 Y58.472
N17330 X-51.869 Y58.862
N17335 X-51.868 Y58.866
N17340 X-51.84 Y58.956 Z-3.168
N17345 X-51.814 Y59.044 Z-3.146
N17350 X-51.789 Y59.127 Z-3.11
N17355 X-51.765 Y59.204 Z-3.06
N17360 X-51.745 Y59.272 Z-2.999
N17365 X-51.727 Y59.331 Z-2.928
N17370 X-51.713 Y59.378 Z-2.847
N17375 X-51.702 Y59.412 Z-2.76
N17380 X-51.696 Y59.433 Z-2.669
N17385 X-51.694 Y59.44 Z-2.575
N17390 Z1.
N17395 X-53.937 Y58.625
N17400 Z-3.175
N17405 X-53.888 Y58.555
N17410 X-53.831 Y58.491
N17415 X-51.796 Y56.456
N17420 Y57.745
N17425 X-51.795 Y57.764
N17430 X-51.739 Y58.337
N17435 X-51.737 Y58.355
N17440 X-51.73 Y58.394
N17445 X-51.557 Y58.962
N17450 X-51.542 Y58.999
N17455 X-51.504 Y59.069
N17460 X-51.467 Y59.156
N17465 X-51.447 Y59.213
N17470 X-51.416 Y59.302 Z-3.168
N17475 X-51.386 Y59.388 Z-3.146
N17480 X-51.357 Y59.47 Z-3.11
N17485 X-51.331 Y59.546 Z-3.06
N17490 X-51.307 Y59.614 Z-2.999
N17495 X-51.287 Y59.671 Z-2.928
N17500 X-51.271 Y59.718 Z-2.847
N17505 X-51.259 Y59.752 Z-2.76
N17510 X-51.252 Y59.773 Z-2.669
N17515 X-51.249 Y59.78 Z-2.575
N17520 Z5.
N17525 X-58.635 Y52.29
N17530 Z1. F666.67
N17535 Z-3.175 F2000.
N17540 X-58.633 Y52.291
N17545 X-58.447 Y52.347
N17550 X-58.377 Y52.365
N17555 X-58.305 Y52.375
N17560 X-57.875 Y52.417
N17565 X-57.715 Y52.433
N17570 X-57.655 Y52.436
N17575 X-58.367 Y53.148
N17580 X-58.397 Y53.178
N17585 X-58.463 Y53.244 Z-3.168
N17590 X-58.528 Y53.309 Z-3.146
N17595 X-58.589 Y53.37 Z-3.11
N17600 X-58.646 Y53.427 Z-3.06
N17605 X-58.697 Y53.478 Z-2.999
N17610 X-58.74 Y53.521 Z-2.928
N17615 X-58.775 Y53.556 Z-2.847
N17620 X-58.8 Y53.581 Z-2.76
N17625 X-58.816 Y53.597 Z-2.669
N17630 X-58.821 Y53.602 Z-2.575
N17635 Z1.
N17640 X-58.762 Y51.97
N17645 Z-3.175
N17650 X-58.76 Y51.971
N17655 X-58.369 Y52.089
N17660 X-58.324 Y52.1
N17665 X-58.279 Y52.107
N17670 X-57.689 Y52.164
N17675 X-57.644 Y52.166
N17680 X-57.004
N17685 X-57.783 Y52.945
N17690 X-58.328 Y53.491
N17695 X-58.332 Y53.494
N17700 X-58.398 Y53.56 Z-3.168
N17705 X-58.463 Y53.625 Z-3.146
N17710 X-58.524 Y53.687 Z-3.11
N17715 X-58.581 Y53.743 Z-3.06
N17720 X-58.632 Y53.794 Z-2.999
N17725 X-58.675 Y53.837 Z-2.928
N17730 X-58.71 Y53.872 Z-2.847
N17735 X-58.735 Y53.898 Z-2.76
N17740 X-58.751 Y53.913 Z-2.669
N17745 X-58.756 Y53.918 Z-2.575
N17750 Z1.
N17755 X-59.126 Y51.544
N17760 Z-3.175
N17765 X-59.045 Y51.57
N17770 X-58.967 Y51.606
N17775 X-58.894 Y51.645
N17780 X-58.857 Y51.66
N17785 X-58.291 Y51.831
N17790 X-58.252 Y51.839
N17795 X-57.663 Y51.896
N17800 X-57.644 Y51.897
N17805 X-56.354
N17810 X-57.844 Y53.387
N17815 X-58.39 Y53.933
N17820 X-58.461 Y53.994
N17825 X-58.511 Y54.03
N17830 X-58.587 Y54.085 Z-3.168
N17835 X-58.661 Y54.139 Z-3.146
N17840 X-58.731 Y54.19 Z-3.11
N17845 X-58.796 Y54.237 Z-3.06
N17850 X-58.854 Y54.279 Z-2.999
N17855 X-58.903 Y54.315 Z-2.928
N17860 X-58.943 Y54.344 Z-2.847
N17865 X-58.972 Y54.365 Z-2.76
N17870 X-58.99 Y54.378 Z-2.669
N17875 X-58.996 Y54.382 Z-2.575
N17880 Z5.
N17885 X-4.999 Y61.802
N17890 Z1. F666.67
N17895 Z-3.175 F2000.
N17900 X-4.998 Y61.801
N17905 X-4.452 Y61.257
N17910 X-3.953 Y60.76
N17915 Y62.235
N17920 Y62.277
N17925 G19 G3 Y62.877 Z-2.575 J0. K0.6
N17930 G1 Z1.
N17935 X-5.342 Y61.763
N17940 Z-3.175
N17945 X-5.341 Y61.762
N17950 X-3.684 Y60.111
N17955 Y61.679
N17960 Y62.45
N17965 Y62.455
N17970 G3 Y63.055 Z-2.575 J0. K0.6
N17975 G1 Z1.
N17980 X-5.888 Y61.956
N17985 Z-3.175
N17990 X-5.839 Y61.886
N17995 X-5.783 Y61.822
N18000 X-3.414 Y59.463
N18005 Y62.034
N18010 Y62.806
N18015 X-3.422 Y62.9
N18020 X-3.431 Y62.96
N18025 X-3.446 Y63.053 Z-3.168
N18030 X-3.46 Y63.143 Z-3.146
N18035 X-3.474 Y63.229 Z-3.11
N18040 X-3.487 Y63.308 Z-3.06
N18045 X-3.498 Y63.379 Z-2.999
N18050 X-3.507 Y63.439 Z-2.928
N18055 X-3.515 Y63.488 Z-2.847
N18060 X-3.521 Y63.523 Z-2.76
N18065 X-3.524 Y63.545 Z-2.669
N18070 X-3.525 Y63.552 Z-2.575
N18075 Z5.
N18080 X3.572 Y62.237
N18085 Z1. F666.67
N18090 Z-3.175 F2000.
N18095 Y62.235
N18100 Y61.464
N18105 Y60.76
N18110 X4.616 Y61.801
N18115 X4.646 Y61.831
N18120 X4.713 Y61.897 Z-3.168
N18125 X4.778 Y61.962 Z-3.146
N18130 X4.839 Y62.023 Z-3.11
N18135 X4.896 Y62.08 Z-3.06
N18140 X4.947 Y62.13 Z-2.999
N18145 X4.99 Y62.174 Z-2.928
N18150 X5.025 Y62.208 Z-2.847
N18155 X5.05 Y62.234 Z-2.76
N18160 X5.066 Y62.249 Z-2.669
N18165 X5.071 Y62.255 Z-2.575
N18170 Z1.
N18175 X3.302 Y62.452
N18180 Z-3.175
N18185 Y62.45
N18190 Y60.111
N18195 X4.413 Y61.218
N18200 X4.959 Y61.762
N18205 X4.962 Y61.765
N18210 X5.029 Y61.832 Z-3.168
N18215 X5.094 Y61.896 Z-3.146
N18220 X5.155 Y61.958 Z-3.11
N18225 X5.212 Y62.014 Z-3.06
N18230 X5.263 Y62.065 Z-2.999
N18235 X5.306 Y62.108 Z-2.928
N18240 X5.341 Y62.143 Z-2.847
N18245 X5.367 Y62.168 Z-2.76
N18250 X5.382 Y62.184 Z-2.669
N18255 X5.387 Y62.189 Z-2.575
N18260 Z1.
N18265 X3.053 Y62.975
N18270 Z-3.175
N18275 X3.038 Y62.891
N18280 X3.033 Y62.806
N18285 Y59.463
N18290 X4.855 Y61.278
N18295 X5.401 Y61.822
N18300 X5.462 Y61.894
N18305 X5.498 Y61.943
N18310 X5.553 Y62.019 Z-3.168
N18315 X5.607 Y62.093 Z-3.146
N18320 X5.659 Y62.163 Z-3.11
N18325 X5.706 Y62.228 Z-3.06
N18330 X5.748 Y62.286 Z-2.999
N18335 X5.784 Y62.335 Z-2.928
N18340 X5.813 Y62.375 Z-2.847
N18345 X5.834 Y62.404 Z-2.76
N18350 X5.847 Y62.422 Z-2.669
N18355 X5.852 Y62.428 Z-2.575
N18360 Z5.
N18365 X3.572 Y79.735
N18370 Z1. F666.67
N18375 Z-3.175 F2000.
N18380 Y79.733
N18385 Y78.962
N18390 Y78.909
N18395 X3.695 Y79.012
N18400 X3.754 Y79.056
N18405 X3.816 Y79.093
N18410 X4.266 Y79.336
N18415 X4.271 Y79.338
N18420 X4.353 Y79.383 Z-3.168
N18425 X4.434 Y79.426 Z-3.146
N18430 X4.51 Y79.468 Z-3.11
N18435 X4.581 Y79.506 Z-3.06
N18440 X4.644 Y79.54 Z-2.999
N18445 X4.698 Y79.569 Z-2.928
N18450 X4.741 Y79.592 Z-2.847
N18455 X4.773 Y79.609 Z-2.76
N18460 X4.792 Y79.62 Z-2.669
N18465 X4.799 Y79.623 Z-2.575
N18470 Z1.
N18475 X3.302 Y79.95
N18480 Z-3.175
N18485 Y79.949
N18490 Y78.319
N18495 X3.376 Y78.394
N18500 X3.41 Y78.425
N18505 X3.868 Y78.804
N18510 X3.905 Y78.832
N18515 X3.944 Y78.856
N18520 X4.467 Y79.138
N18525 X4.509 Y79.158
N18530 X4.553 Y79.174
N18535 X4.557 Y79.175
N18540 X4.647 Y79.202 Z-3.168
N18545 X4.734 Y79.229 Z-3.146
N18550 X4.818 Y79.255 Z-3.11
N18555 X4.894 Y79.278 Z-3.06
N18560 X4.963 Y79.299 Z-2.999
N18565 X5.021 Y79.317 Z-2.928
N18570 X5.068 Y79.331 Z-2.847
N18575 X5.103 Y79.342 Z-2.76
N18580 X5.124 Y79.348 Z-2.669
N18585 X5.131 Y79.35 Z-2.575
N18590 Z1.
N18595 X3.053 Y80.473
N18600 Z-3.175
N18605 X3.038 Y80.389
N18610 X3.033 Y80.304
N18615 Y77.664
N18620 X3.567 Y78.205
N18625 X3.582 Y78.218
N18630 X4.039 Y78.597
N18635 X4.072 Y78.619
N18640 X4.595 Y78.901
N18645 X4.631 Y78.916
N18650 X4.973 Y79.021
N18655 X5.061 Y79.055
N18660 X5.116 Y79.082
N18665 X5.2 Y79.123 Z-3.168
N18670 X5.282 Y79.163 Z-3.146
N18675 X5.361 Y79.201 Z-3.11
N18680 X5.433 Y79.237 Z-3.06
N18685 X5.497 Y79.268 Z-2.999
N18690 X5.552 Y79.295 Z-2.928
N18695 X5.596 Y79.316 Z-2.847
N18700 X5.629 Y79.332 Z-2.76
N18705 X5.648 Y79.342 Z-2.669
N18710 X5.655 Y79.345 Z-2.575
N18715 Z5.
N18720 X-4.649 Y79.338
N18725 Z1. F666.67
N18730 Z-3.175 F2000.
N18735 X-4.648 Y79.337
N18740 X-4.195 Y79.092
N18745 X-4.133 Y79.055
N18750 X-4.075 Y79.011
N18755 X-3.989 Y78.94
N18760 X-3.953 Y78.91
N18765 Y79.734
N18770 Y79.777
N18775 G3 Y80.377 Z-2.575 J0. K0.6
N18780 G1 Z1.
N18785 X-4.94 Y79.176
N18790 Z-3.175
N18795 X-4.939 Y79.175
N18800 X-4.89 Y79.159
N18805 X-4.844 Y79.137
N18810 X-4.324 Y78.855
N18815 X-4.284 Y78.831
N18820 X-4.247 Y78.803
N18825 X-3.791 Y78.425
N18830 X-3.758 Y78.394
N18835 X-3.684 Y78.319
N18840 Y79.178
N18845 Y79.949
N18850 Y79.954
N18855 G3 Y80.554 Z-2.575 J0. K0.6
N18860 G1 Z1.
N18865 X-5.511 Y79.091
N18870 Z-3.175
N18875 X-5.435 Y79.052
N18880 X-5.355 Y79.022
N18885 X-5.009 Y78.915
N18890 X-4.972 Y78.9
N18895 X-4.647 Y78.724
N18900 X-4.452 Y78.618
N18905 X-4.419 Y78.596
N18910 X-3.963 Y78.218
N18915 X-3.949 Y78.205
N18920 X-3.414 Y77.664
N18925 Y79.534
N18930 Y80.305
N18935 X-3.422 Y80.399
N18940 X-3.431 Y80.459
N18945 X-3.446 Y80.552 Z-3.168
N18950 X-3.46 Y80.642 Z-3.146
N18955 X-3.474 Y80.728 Z-3.11
N18960 X-3.487 Y80.808 Z-3.06
N18965 X-3.498 Y80.878 Z-2.999
N18970 X-3.507 Y80.939 Z-2.928
N18975 X-3.515 Y80.987 Z-2.847
N18980 X-3.521 Y81.023 Z-2.76
N18985 X-3.524 Y81.045 Z-2.669
N18990 X-3.525 Y81.052 Z-2.575
N18995 Z5.
N19000 X39.905 Y47.187
N19005 Z1. F666.67
N19010 Z-3.175 F2000.
N19015 Y47.185
N19020 X39.906 Y46.414
N19025 X39.907 Y45.71
N19030 X40.951 Y46.753
N19035 X40.98 Y46.783
N19040 X41.047 Y46.849 Z-3.168
N19045 X41.112 Y46.914 Z-3.146
N19050 X41.173 Y46.976 Z-3.11
N19055 X41.23 Y47.032 Z-3.06
N19060 X41.28 Y47.083 Z-2.999
N19065 X41.324 Y47.126 Z-2.928
N19070 X41.358 Y47.161 Z-2.847
N19075 X41.384 Y47.186 Z-2.76
N19080 X41.399 Y47.202 Z-2.669
N19085 X41.405 Y47.207 Z-2.575
N19090 Z1.
N19095 X39.635 Y47.402
N19100 Z-3.175
N19105 Y47.4
N19110 X39.638 Y45.06
N19115 X40.748 Y46.169
N19120 X41.293 Y46.715
N19125 X41.297 Y46.718
N19130 X41.363 Y46.784 Z-3.168
N19135 X41.428 Y46.849 Z-3.146
N19140 X41.489 Y46.91 Z-3.11
N19145 X41.546 Y46.967 Z-3.06
N19150 X41.597 Y47.018 Z-2.999
N19155 X41.64 Y47.061 Z-2.928
N19160 X41.675 Y47.096 Z-2.847
N19165 X41.7 Y47.121 Z-2.76
N19170 X41.716 Y47.137 Z-2.669
N19175 X41.721 Y47.142 Z-2.575
N19180 Z1.
N19185 X39.385 Y47.925
N19190 Z-3.175
N19195 X39.37 Y47.841
N19200 X39.365 Y47.755
N19205 X39.37 Y44.411
N19210 X41.19 Y46.23
N19215 X41.735 Y46.776
N19220 X41.796 Y46.847
N19225 X41.832 Y46.897
N19230 X41.887 Y46.973 Z-3.168
N19235 X41.941 Y47.047 Z-3.146
N19240 X41.992 Y47.117 Z-3.11
N19245 X42.039 Y47.182 Z-3.06
N19250 X42.082 Y47.24 Z-2.999
N19255 X42.117 Y47.289 Z-2.928
N19260 X42.146 Y47.329 Z-2.847
N19265 X42.168 Y47.358 Z-2.76
N19270 X42.181 Y47.376 Z-2.669
N19275 X42.185 Y47.382 Z-2.575
N19280 Z5.
N19285 X46.273 Y41.433
N19290 Z1. F666.67
N19295 Z-3.175 F2000.
N19300 X46.272 Y41.432
N19305 X45.727 Y40.887
N19310 X45.229 Y40.389
N19315 X46.704 Y40.387
N19320 X46.746
N19325 X46.84 Z-3.168
N19330 X46.932 Y40.386 Z-3.146
N19335 X47.019 Z-3.11
N19340 X47.099 Z-3.06
N19345 X47.171 Z-2.999
N19350 X47.232 Z-2.928
N19355 X47.281 Z-2.847
N19360 X47.317 Z-2.76
N19365 X47.339 Z-2.669
N19370 X47.346 Z-2.575
N19375 Z1.
N19380 X46.234 Y41.776
N19385 Z-3.175
N19390 X46.233 Y41.775
N19395 X44.579 Y40.12
N19400 X46.148 Y40.118
N19405 X46.919 Y40.117
N19410 X46.924
N19415 X47.017 Z-3.168
N19420 X47.109 Y40.116 Z-3.146
N19425 X47.196 Z-3.11
N19430 X47.276 Z-3.06
N19435 X47.348 Z-2.999
N19440 X47.409 Z-2.928
N19445 X47.458 Z-2.847
N19450 X47.494 Z-2.76
N19455 X47.516 Z-2.669
N19460 X47.524 Z-2.575
N19465 Z1.
N19470 X46.428 Y42.322
N19475 Z-3.175
N19480 X46.358 Y42.273
N19485 X46.294 Y42.217
N19490 X43.931 Y39.852
N19495 X46.503 Y39.848
N19500 X47.274 Y39.847
N19505 X47.368 Y39.854
N19510 X47.428 Y39.864
N19515 X47.521 Y39.878 Z-3.168
N19520 X47.612 Y39.893 Z-3.146
N19525 X47.697 Y39.906 Z-3.11
N19530 X47.777 Y39.918 Z-3.06
N19535 X47.848 Y39.93 Z-2.999
N19540 X47.908 Y39.939 Z-2.928
N19545 X47.957 Y39.947 Z-2.847
N19550 X47.992 Y39.952 Z-2.76
N19555 X48.014 Y39.956 Z-2.669
N19560 X48.021 Y39.957 Z-2.575
N19565 Z5.
N19570 X57.986 Y53.148
N19575 Z1. F666.67
N19580 Z-3.175 F2000.
N19585 X57.985 Y53.147
N19590 X57.439 Y52.601
N19595 X57.273 Y52.435
N19600 X57.333 Y52.432
