%
(SNOWFLAKEMALE_TAPER_SECOND)
(T2  D=6. CR=0. TAPER=15DEG - ZMIN=-3.075 - CHAMFER MILL)
N10 G90 G94 G17 G91.1
N15 G21
(WHEN USING FUSION 360 FOR PERSONAL USE, THE FEEDRATE OF)
(RAPID MOVES IS REDUCED TO MATCH THE FEEDRATE OF CUTTING)
(MOVES, WHICH CAN INCREASE MACHINING TIME. UNRESTRICTED RAPID)
(MOVES ARE AVAILABLE WITH A FUSION 360 SUBSCRIPTION.)
N20 G53 G0 Z0.
(2D SNOWFLAKEMALETAPER)
N25 T2 M6
N30 S16000 M3
N35 G54
N40 G0 X10.813 Y-16.007
N45 G43 Z15. H2
N50 G1 Z5. F2000.
N55 Z1.
N60 Z-2.675
N65 X10.764 Y-15.937
N70 X10.708 Y-15.873
N75 X10.263 Y-15.428
N80 X10.205 Y-15.37
N85 X9.604 Y-15.75
N90 X9.529 Y-15.806
N95 X9.483 Y-15.846
N100 X9.413 Y-15.908 Z-2.668
N105 X9.344 Y-15.968 Z-2.646
N110 X9.278 Y-16.026 Z-2.61
N115 X9.218 Y-16.079 Z-2.56
N120 X9.164 Y-16.126 Z-2.499
N125 X9.118 Y-16.166 Z-2.428
N130 X9.081 Y-16.199 Z-2.347
N135 X9.054 Y-16.223 Z-2.26
N140 X9.038 Y-16.237 Z-2.169
N145 X9.032 Y-16.242 Z-2.075
N150 Z5.
N155 X4.394 Y-17.962
N160 Z1. F666.67
N165 Z-2.675 F2000.
N170 X4.309 Y-17.966
N175 X4.225 Y-17.98
N180 X3.612 Y-18.12
N185 X3.533 Y-18.138
N190 Y-18.847
N195 X3.54 Y-18.941
N200 X3.55 Y-19.001
N205 X3.564 Y-19.094 Z-2.668
N210 X3.579 Y-19.185 Z-2.646
N215 X3.592 Y-19.27 Z-2.61
N220 X3.605 Y-19.35 Z-2.56
N225 X3.616 Y-19.42 Z-2.499
N230 X3.626 Y-19.481 Z-2.428
N235 X3.633 Y-19.529 Z-2.347
N240 X3.639 Y-19.565 Z-2.26
N245 X3.643 Y-19.587 Z-2.169
N250 X3.644 Y-19.594 Z-2.075
N255 Z5.
N260 X-3.935 Y-19.017
N265 Z1. F666.67
N270 Z-2.675 F2000.
N275 X-3.921 Y-18.933
N280 X-3.915 Y-18.847
N285 Y-18.219
N290 Y-18.138
N295 X-4.607 Y-17.98
N300 X-4.701 Y-17.967
N305 X-4.761 Y-17.963
N310 X-4.855 Y-17.956 Z-2.668
N315 X-4.946 Y-17.95 Z-2.646
N320 X-5.033 Y-17.944 Z-2.61
N325 X-5.113 Y-17.939 Z-2.56
N330 X-5.185 Y-17.934 Z-2.499
N335 X-5.246 Y-17.93 Z-2.428
N340 X-5.295 Y-17.927 Z-2.347
N345 X-5.331 Y-17.925 Z-2.26
N350 X-5.353 Y-17.923 Z-2.169
N355 X-5.36 Z-2.075
N360 Z5.
N365 X-9.855 Y-15.857
N370 Z1. F666.67
N375 Z-2.675 F2000.
N380 X-9.918 Y-15.799
N385 X-9.987 Y-15.75
N390 X-10.518 Y-15.414
N395 X-10.588 Y-15.37
N400 X-11.09 Y-15.873
N405 X-11.151 Y-15.944
N410 X-11.187 Y-15.994
N415 X-11.242 Y-16.07 Z-2.668
N420 X-11.296 Y-16.144 Z-2.646
N425 X-11.347 Y-16.214 Z-2.61
N430 X-11.395 Y-16.279 Z-2.56
N435 X-11.437 Y-16.337 Z-2.499
N440 X-11.473 Y-16.386 Z-2.428
N445 X-11.501 Y-16.426 Z-2.347
N450 X-11.523 Y-16.455 Z-2.26
N455 X-11.536 Y-16.473 Z-2.169
N460 X-11.54 Y-16.479 Z-2.075
N465 Z5.
N470 X-16.489 Y-10.712
N475 Z1. F666.67
N480 Z-2.675 F2000.
N485 X-16.419 Y-10.664
N490 X-16.356 Y-10.607
N495 X-15.911 Y-10.163
N500 X-15.853 Y-10.104
N505 X-16.232 Y-9.504
N510 X-16.289 Y-9.428
N515 X-16.329 Y-9.382
N520 X-16.391 Y-9.312 Z-2.668
N525 X-16.451 Y-9.243 Z-2.646
N530 X-16.509 Y-9.178 Z-2.61
N535 X-16.562 Y-9.117 Z-2.56
N540 X-16.609 Y-9.063 Z-2.499
N545 X-16.649 Y-9.017 Z-2.428
N550 X-16.681 Y-8.98 Z-2.347
N555 X-16.705 Y-8.953 Z-2.26
N560 X-16.72 Y-8.937 Z-2.169
N565 X-16.725 Y-8.931 Z-2.075
N570 Z5.
N575 X-18.445 Y-4.293
N580 Z1. F666.67
N585 Z-2.675 F2000.
N590 X-18.449 Y-4.208
N595 X-18.463 Y-4.124
N600 X-18.603 Y-3.511
N605 X-18.621 Y-3.432
N610 X-19.33
N615 X-19.424 Y-3.439
N620 X-19.484 Y-3.449
N625 X-19.577 Y-3.464 Z-2.668
N630 X-19.667 Y-3.478 Z-2.646
N635 X-19.753 Y-3.492 Z-2.61
N640 X-19.833 Y-3.504 Z-2.56
N645 X-19.903 Y-3.515 Z-2.499
N650 X-19.964 Y-3.525 Z-2.428
N655 X-20.012 Y-3.533 Z-2.347
N660 X-20.048 Y-3.538 Z-2.26
N665 X-20.07 Y-3.542 Z-2.169
N670 X-20.077 Y-3.543 Z-2.075
N675 Z5.
N680 X-19.5 Y4.036
N685 Z1. F666.67
N690 Z-2.675 F2000.
N695 X-19.416 Y4.021
N700 X-19.331 Y4.016
N705 X-18.702
N710 X-18.621
N715 X-18.463 Y4.708
N720 X-18.45 Y4.801
N725 X-18.446 Y4.862
N730 X-18.439 Y4.955 Z-2.668
N735 X-18.433 Y5.047 Z-2.646
N740 X-18.428 Y5.134 Z-2.61
N745 X-18.422 Y5.214 Z-2.56
N750 X-18.417 Y5.285 Z-2.499
N755 X-18.413 Y5.346 Z-2.428
N760 X-18.41 Y5.395 Z-2.347
N765 X-18.408 Y5.431 Z-2.26
N770 X-18.406 Y5.453 Z-2.169
N775 Y5.46 Z-2.075
N780 Z5.
N785 X-16.34 Y9.955
N790 Z1. F666.67
N795 Z-2.675 F2000.
N800 X-16.282 Y10.018
N805 X-16.233 Y10.087
N810 X-15.897 Y10.619
N815 X-15.853 Y10.688
N820 X-16.356 Y11.191
N825 X-16.428 Y11.252
N830 X-16.477 Y11.288
N835 X-16.553 Y11.343 Z-2.668
N840 X-16.627 Y11.397 Z-2.646
N845 X-16.697 Y11.448 Z-2.61
N850 X-16.762 Y11.495 Z-2.56
N855 X-16.82 Y11.537 Z-2.499
N860 X-16.87 Y11.573 Z-2.428
N865 X-16.909 Y11.602 Z-2.347
N870 X-16.938 Y11.623 Z-2.26
N875 X-16.956 Y11.636 Z-2.169
N880 X-16.962 Y11.64 Z-2.075
N885 Z5.
N890 X-11.195 Y16.59
N895 Z1. F666.67
N900 Z-2.675 F2000.
N905 X-11.146 Y16.52
N910 X-11.09 Y16.456
N915 X-10.645 Y16.012
N920 X-10.587 Y15.954
N925 X-9.986 Y16.333
N930 X-9.911 Y16.39
N935 X-9.865 Y16.43
N940 X-9.795 Y16.492 Z-2.668
N945 X-9.726 Y16.552 Z-2.646
N950 X-9.66 Y16.609 Z-2.61
N955 X-9.6 Y16.662 Z-2.56
N960 X-9.546 Y16.709 Z-2.499
N965 X-9.5 Y16.75 Z-2.428
N970 X-9.463 Y16.782 Z-2.347
N975 X-9.436 Y16.806 Z-2.26
N980 X-9.42 Y16.821 Z-2.169
N985 X-9.414 Y16.825 Z-2.075
N990 Z5.
N995 X-4.776 Y18.546
N1000 Z1. F666.67
N1005 Z-2.675 F2000.
N1010 X-4.691 Y18.55
N1015 X-4.607 Y18.564
N1020 X-3.994 Y18.703
N1025 X-3.915 Y18.721
N1030 Y19.431
N1035 X-3.922 Y19.525
N1040 X-3.932 Y19.585
N1045 X-3.946 Y19.678 Z-2.668
N1050 X-3.961 Y19.768 Z-2.646
N1055 X-3.974 Y19.854 Z-2.61
N1060 X-3.987 Y19.933 Z-2.56
N1065 X-3.998 Y20.004 Z-2.499
N1070 X-4.008 Y20.064 Z-2.428
N1075 X-4.015 Y20.113 Z-2.347
N1080 X-4.021 Y20.149 Z-2.26
N1085 X-4.024 Y20.17 Z-2.169
N1090 X-4.026 Y20.178 Z-2.075
N1095 Z5.
N1100 X3.553 Y19.6
N1105 Z1. F666.67
N1110 Z-2.675 F2000.
N1115 X3.538 Y19.516
N1120 X3.533 Y19.431
N1125 Y18.802
N1130 Y18.721
N1135 X4.225 Y18.564
N1140 X4.318 Y18.55
N1145 X4.379 Y18.546
N1150 X4.473 Y18.54 Z-2.668
N1155 X4.564 Y18.534 Z-2.646
N1160 X4.651 Y18.528 Z-2.61
N1165 X4.731 Y18.523 Z-2.56
N1170 X4.802 Y18.518 Z-2.499
N1175 X4.863 Y18.514 Z-2.428
N1180 X4.913 Y18.51 Z-2.347
N1185 X4.948 Y18.508 Z-2.26
N1190 X4.97 Y18.507 Z-2.169
N1195 X4.978 Y18.506 Z-2.075
N1200 Z5.
N1205 X9.472 Y16.44
N1210 Z1. F666.67
N1215 Z-2.675 F2000.
N1220 X9.535 Y16.383
N1225 X9.605 Y16.333
N1230 X10.136 Y15.998
N1235 X10.206 Y15.954
N1240 X10.708 Y16.456
N1245 X10.769 Y16.528
N1250 X10.805 Y16.577
N1255 X10.86 Y16.653 Z-2.668
N1260 X10.914 Y16.727 Z-2.646
N1265 X10.965 Y16.798 Z-2.61
N1270 X11.012 Y16.863 Z-2.56
N1275 X11.054 Y16.92 Z-2.499
N1280 X11.09 Y16.97 Z-2.428
N1285 X11.119 Y17.01 Z-2.347
N1290 X11.14 Y17.039 Z-2.26
N1295 X11.153 Y17.057 Z-2.169
N1300 X11.158 Y17.063 Z-2.075
N1305 Z5.
N1310 X16.107 Y11.296
N1315 Z1. F666.67
N1320 Z-2.675 F2000.
N1325 X16.037 Y11.247
N1330 X15.974 Y11.19
N1335 X15.529 Y10.746
N1340 X15.471 Y10.688
N1345 X15.851 Y10.087
N1350 X15.907 Y10.012
N1355 X15.947 Y9.966
N1360 X16.009 Y9.895 Z-2.668
N1365 X16.069 Y9.826 Z-2.646
N1370 X16.127 Y9.761 Z-2.61
N1375 X16.18 Y9.701 Z-2.56
N1380 X16.227 Y9.647 Z-2.499
N1385 X16.267 Y9.601 Z-2.428
N1390 X16.3 Y9.564 Z-2.347
N1395 X16.323 Y9.537 Z-2.26
N1400 X16.338 Y9.52 Z-2.169
N1405 X16.343 Y9.515 Z-2.075
N1410 Z5.
N1415 X18.063 Y4.877
N1420 Z1. F666.67
N1425 Z-2.675 F2000.
N1430 X18.067 Y4.792
N1435 X18.081 Y4.708
N1440 X18.221 Y4.095
N1445 X18.239 Y4.016
N1450 X18.948
N1455 X19.042 Y4.023
N1460 X19.102 Y4.033
N1465 X19.195 Y4.047 Z-2.668
N1470 X19.285 Y4.062 Z-2.646
N1475 X19.371 Y4.075 Z-2.61
N1480 X19.451 Y4.088 Z-2.56
N1485 X19.521 Y4.099 Z-2.499
N1490 X19.582 Y4.108 Z-2.428
N1495 X19.63 Y4.116 Z-2.347
N1500 X19.666 Y4.122 Z-2.26
N1505 X19.688 Y4.125 Z-2.169
N1510 X19.695 Y4.126 Z-2.075
N1515 Z5.
N1520 X19.118 Y-3.452
N1525 Z1. F666.67
N1530 Z-2.675 F2000.
N1535 X19.034 Y-3.437
N1540 X18.949 Y-3.432
N1545 X18.32
N1550 X18.239
N1555 X18.081 Y-4.124
N1560 X18.068 Y-4.218
N1565 X18.064 Y-4.278
N1570 X18.057 Y-4.372 Z-2.668
N1575 X18.051 Y-4.463 Z-2.646
N1580 X18.046 Y-4.55 Z-2.61
N1585 X18.04 Y-4.63 Z-2.56
N1590 X18.035 Y-4.702 Z-2.499
N1595 X18.031 Y-4.763 Z-2.428
N1600 X18.028 Y-4.812 Z-2.347
N1605 X18.026 Y-4.848 Z-2.26
N1610 X18.024 Y-4.87 Z-2.169
N1615 Y-4.877 Z-2.075
N1620 Z5.
N1625 X15.958 Y-9.372
N1630 Z1. F666.67
N1635 Z-2.675 F2000.
N1640 X15.9 Y-9.435
N1645 X15.851 Y-9.504
N1650 X15.515 Y-10.035
N1655 X15.471 Y-10.105
N1660 X15.974 Y-10.607
N1665 X16.046 Y-10.668
N1670 X16.095 Y-10.704
N1675 X16.171 Y-10.759 Z-2.668
N1680 X16.245 Y-10.813 Z-2.646
N1685 X16.315 Y-10.864 Z-2.61
N1690 X16.38 Y-10.912 Z-2.56
N1695 X16.438 Y-10.954 Z-2.499
N1700 X16.488 Y-10.99 Z-2.428
N1705 X16.527 Y-11.018 Z-2.347
N1710 X16.556 Y-11.04 Z-2.26
N1715 X16.574 Y-11.053 Z-2.169
N1720 X16.58 Y-11.057 Z-2.075
N1725 Z5.
N1730 X28.327 Y-21.615
N1735 Z1. F666.67
N1740 Z-2.675 F2000.
N1745 X28.325 Y-21.616
N1750 X27.894 Y-21.746
N1755 X27.801 Y-21.769
N1760 X27.707 Y-21.783
N1765 X27.547 Y-21.799
N1770 X28.125 Y-22.377
N1775 X28.128 Y-22.381
N1780 X28.195 Y-22.447 Z-2.668
N1785 X28.26 Y-22.512 Z-2.646
N1790 X28.321 Y-22.573 Z-2.61
N1795 X28.378 Y-22.63 Z-2.56
N1800 X28.428 Y-22.681 Z-2.499
N1805 X28.472 Y-22.724 Z-2.428
N1810 X28.506 Y-22.759 Z-2.347
N1815 X28.532 Y-22.784 Z-2.26
N1820 X28.548 Y-22.8 Z-2.169
N1825 X28.553 Y-22.805 Z-2.075
N1830 Z1.
N1835 X28.652 Y-21.21
N1840 Z-2.675
N1845 X28.568 Y-21.24
N1850 X28.487 Y-21.276
N1855 X28.435 Y-21.298
N1860 X28.382 Y-21.317
N1865 X27.888 Y-21.466
N1870 X27.816 Y-21.488
N1875 X27.749 Y-21.505
N1880 X27.681 Y-21.515
N1885 X27.092 Y-21.572
N1890 X27.024 Y-21.575
N1895 X26.942
N1900 X27.679 Y-22.313
N1905 X28.123 Y-22.757
N1910 X28.195 Y-22.818
N1915 X28.244 Y-22.854
N1920 X28.32 Y-22.909 Z-2.668
N1925 X28.394 Y-22.963 Z-2.646
N1930 X28.465 Y-23.014 Z-2.61
N1935 X28.529 Y-23.061 Z-2.56
N1940 X28.587 Y-23.103 Z-2.499
N1945 X28.637 Y-23.139 Z-2.428
N1950 X28.677 Y-23.168 Z-2.347
N1955 X28.706 Y-23.189 Z-2.26
N1960 X28.724 Y-23.202 Z-2.169
N1965 X28.73 Y-23.207 Z-2.075
N1970 Z5.
N1975 X29.331 Y-23.937
N1980 Z1. F666.67
N1985 Z-2.675 F2000.
N1990 X29.38 Y-24.007
N1995 X29.437 Y-24.07
N2000 X29.881 Y-24.515
N2005 X30.048 Y-24.681
N2010 X30.439 Y-24.29
N2015 X30.489 Y-24.245
N2020 X30.669 Y-24.096
N2025 X30.737 Y-24.031
N2030 X30.777 Y-23.985
N2035 X30.84 Y-23.915 Z-2.668
N2040 X30.9 Y-23.847 Z-2.646
N2045 X30.958 Y-23.781 Z-2.61
N2050 X31.011 Y-23.721 Z-2.56
N2055 X31.059 Y-23.668 Z-2.499
N2060 X31.099 Y-23.622 Z-2.428
N2065 X31.132 Y-23.585 Z-2.347
N2070 X31.156 Y-23.558 Z-2.26
N2075 X31.171 Y-23.542 Z-2.169
N2080 X31.175 Y-23.536 Z-2.075
N2085 Z5.
N2090 X36.021 Y-29.207
N2095 Z1. F666.67
N2100 Z-2.675 F2000.
N2105 X35.956 Y-29.263
N2110 X35.898 Y-29.325
N2115 X35.75 Y-29.506
N2120 X35.704 Y-29.556
N2125 X35.473 Y-29.787
N2130 X35.313 Y-29.947
N2135 X35.924 Y-30.558
N2140 X35.996 Y-30.619
N2145 X36.045 Y-30.655
N2150 X36.121 Y-30.71 Z-2.668
N2155 X36.195 Y-30.764 Z-2.646
N2160 X36.265 Y-30.815 Z-2.61
N2165 X36.33 Y-30.862 Z-2.56
N2170 X36.388 Y-30.904 Z-2.499
N2175 X36.438 Y-30.94 Z-2.428
N2180 X36.478 Y-30.969 Z-2.347
N2185 X36.507 Y-30.99 Z-2.26
N2190 X36.525 Y-31.003 Z-2.169
N2195 X36.531 Y-31.007 Z-2.075
N2200 Z5.
N2205 X30.763 Y-35.957
N2210 Z1. F666.67
N2215 Z-2.675 F2000.
N2220 X30.714 Y-35.887
N2225 X30.658 Y-35.823
N2230 X30.213 Y-35.379
N2235 X30.047 Y-35.212
N2240 X29.656 Y-35.603
N2245 X29.605 Y-35.649
N2250 X29.425 Y-35.797
N2255 X29.357 Y-35.862
N2260 X29.317 Y-35.908
N2265 X29.254 Y-35.978 Z-2.668
N2270 X29.194 Y-36.047 Z-2.646
N2275 X29.136 Y-36.112 Z-2.61
N2280 X29.083 Y-36.172 Z-2.56
N2285 X29.035 Y-36.225 Z-2.499
N2290 X28.995 Y-36.271 Z-2.428
N2295 X28.962 Y-36.308 Z-2.347
N2300 X28.938 Y-36.335 Z-2.26
N2305 X28.924 Y-36.351 Z-2.169
N2310 X28.919 Y-36.357 Z-2.075
N2315 Z5.
N2320 X24.073 Y-30.686
N2325 Z1. F666.67
N2330 Z-2.675 F2000.
N2335 X24.138 Y-30.631
N2340 X24.196 Y-30.568
N2345 X24.344 Y-30.388
N2350 X24.39 Y-30.338
N2355 X24.621 Y-30.106
N2360 X24.781 Y-29.946
N2365 X24.17 Y-29.335
N2370 X24.098 Y-29.274
N2375 X24.049 Y-29.238
N2380 X23.973 Y-29.183 Z-2.668
N2385 X23.899 Y-29.129 Z-2.646
N2390 X23.829 Y-29.078 Z-2.61
N2395 X23.764 Y-29.031 Z-2.56
N2400 X23.706 Y-28.989 Z-2.499
N2405 X23.657 Y-28.953 Z-2.428
N2410 X23.617 Y-28.924 Z-2.347
N2415 X23.588 Y-28.903 Z-2.26
N2420 X23.57 Y-28.89 Z-2.169
N2425 X23.564 Y-28.886 Z-2.075
N2430 Z5.
N2435 X22.479 Y-28.025
N2440 Z1. F666.67
N2445 Z-2.675 F2000.
N2450 X22.478 Y-28.024
N2455 X22.033 Y-27.58
N2460 X21.899 Y-27.446
N2465 X21.883 Y-27.608
N2470 X21.869 Y-27.702
N2475 X21.846 Y-27.795
N2480 X21.716 Y-28.224
N2485 X21.715 Y-28.229
N2490 X21.687 Y-28.319 Z-2.668
N2495 X21.661 Y-28.406 Z-2.646
N2500 X21.635 Y-28.49 Z-2.61
N2505 X21.612 Y-28.566 Z-2.56
N2510 X21.591 Y-28.635 Z-2.499
N2515 X21.574 Y-28.693 Z-2.428
N2520 X21.559 Y-28.74 Z-2.347
N2525 X21.549 Y-28.775 Z-2.26
N2530 X21.543 Y-28.796 Z-2.169
N2535 X21.54 Y-28.803 Z-2.075
N2540 Z1.
N2545 X22.963 Y-28.156
N2550 Z-2.675
N2555 X22.914 Y-28.086
N2560 X22.857 Y-28.022
N2565 X21.676 Y-26.841
N2570 Y-26.923
N2575 X21.672 Y-26.99
N2580 X21.615 Y-27.582
N2585 X21.605 Y-27.65
N2590 X21.588 Y-27.717
N2595 X21.416 Y-28.285
N2600 X21.398 Y-28.336
N2605 X21.376 Y-28.386
N2610 X21.177 Y-28.8
N2615 X21.136 Y-28.884 Z-2.668
N2620 X21.097 Y-28.967 Z-2.646
N2625 X21.059 Y-29.045 Z-2.61
N2630 X21.024 Y-29.117 Z-2.56
N2635 X20.993 Y-29.182 Z-2.499
N2640 X20.967 Y-29.237 Z-2.428
N2645 X20.945 Y-29.281 Z-2.347
N2650 X20.93 Y-29.314 Z-2.26
N2655 X20.92 Y-29.334 Z-2.169
N2660 X20.917 Y-29.34 Z-2.075
N2665 Z5.
N2670 X4.416 Y-33.714
N2675 Z1. F666.67
N2680 Z-2.675 F2000.
N2685 X4.414 Y-33.713
N2690 X4.402 Y-33.709
N2695 X4.312 Y-33.677
N2700 X4.226 Y-33.636
N2705 X3.852 Y-33.434
N2710 X3.803 Y-33.407
N2715 Y-34.096
N2720 Y-34.101
N2725 G19 G2 Y-34.701 Z-2.075 J0. K0.6
N2730 G1 Z1.
N2735 X4.912 Y-33.605
N2740 Z-2.675
N2745 X4.837 Y-33.566
N2750 X4.757 Y-33.536
N2755 X4.481 Y-33.452
N2760 X4.417 Y-33.428
N2765 X4.354 Y-33.398
N2770 X3.834 Y-33.117
N2775 X3.775 Y-33.082
N2780 X3.72 Y-33.041
N2785 X3.533 Y-32.886
N2790 Y-33.734
N2795 Y-34.362
N2800 X3.54 Y-34.456
N2805 X3.55 Y-34.517
N2810 X3.564 Y-34.609 Z-2.668
N2815 X3.579 Y-34.7 Z-2.646
N2820 X3.592 Y-34.786 Z-2.61
N2825 X3.605 Y-34.865 Z-2.56
N2830 X3.616 Y-34.936 Z-2.499
N2835 X3.626 Y-34.996 Z-2.428
N2840 X3.633 Y-35.045 Z-2.347
N2845 X3.639 Y-35.08 Z-2.26
N2850 X3.643 Y-35.102 Z-2.169
N2855 X3.644 Y-35.109 Z-2.075
N2860 Z5.
N2865 X3.553 Y-37.26
N2870 Z1. F666.67
N2875 Z-2.675 F2000.
N2880 X3.538 Y-37.344
N2885 X3.533 Y-37.429
N2890 Y-38.058
N2895 Y-38.318
N2900 X4.422
N2905 X4.516 Y-38.311
N2910 X4.576 Y-38.301
N2915 X4.669 Y-38.286 Z-2.668
N2920 X4.759 Y-38.272 Z-2.646
N2925 X4.845 Y-38.259 Z-2.61
N2930 X4.924 Y-38.246 Z-2.56
N2935 X4.995 Y-38.235 Z-2.499
N2940 X5.055 Y-38.225 Z-2.428
N2945 X5.104 Y-38.218 Z-2.347
N2950 X5.14 Y-38.212 Z-2.26
N2955 X5.161 Y-38.208 Z-2.169
N2960 X5.169 Y-38.207 Z-2.075
N2965 Z5.
N2970 X4.591 Y-45.786
N2975 Z1. F666.67
N2980 Z-2.675 F2000.
N2985 X4.507 Y-45.771
N2990 X4.422 Y-45.766
N2995 X3.793
N3000 X3.533
N3005 Y-46.655
N3010 X3.54 Y-46.749
N3015 X3.55 Y-46.809
N3020 X3.564 Y-46.902 Z-2.668
N3025 X3.579 Y-46.992 Z-2.646
N3030 X3.592 Y-47.078 Z-2.61
N3035 X3.605 Y-47.157 Z-2.56
N3040 X3.616 Y-47.228 Z-2.499
N3045 X3.626 Y-47.288 Z-2.428
N3050 X3.633 Y-47.337 Z-2.347
N3055 X3.639 Y-47.373 Z-2.26
N3060 X3.643 Y-47.394 Z-2.169
N3065 X3.644 Y-47.402 Z-2.075
N3070 Z5.
N3075 X-3.935 Y-46.824
N3080 Z1. F666.67
N3085 Z-2.675 F2000.
N3090 X-3.921 Y-46.74
N3095 X-3.915 Y-46.655
N3100 Y-46.026
N3105 Y-45.766
N3110 X-4.805
N3115 X-4.898 Y-45.773
N3120 X-4.959 Y-45.783
N3125 X-5.051 Y-45.797 Z-2.668
N3130 X-5.142 Y-45.812 Z-2.646
N3135 X-5.228 Y-45.825 Z-2.61
N3140 X-5.307 Y-45.838 Z-2.56
N3145 X-5.378 Y-45.849 Z-2.499
N3150 X-5.438 Y-45.859 Z-2.428
N3155 X-5.487 Y-45.866 Z-2.347
N3160 X-5.522 Y-45.872 Z-2.26
N3165 X-5.544 Y-45.875 Z-2.169
N3170 X-5.551 Y-45.877 Z-2.075
N3175 Z5.
N3180 X-4.974 Y-38.298
N3185 Z1. F666.67
N3190 Z-2.675 F2000.
N3195 X-4.89 Y-38.313
N3200 X-4.805 Y-38.318
N3205 X-4.176
N3210 X-3.915
N3215 Y-37.429
N3220 X-3.923 Y-37.335
N3225 X-3.932 Y-37.275
N3230 X-3.947 Y-37.182 Z-2.668
N3235 X-3.961 Y-37.092 Z-2.646
N3240 X-3.975 Y-37.006 Z-2.61
N3245 X-3.988 Y-36.927 Z-2.56
N3250 X-3.999 Y-36.856 Z-2.499
N3255 X-4.008 Y-36.796 Z-2.428
N3260 X-4.016 Y-36.747 Z-2.347
N3265 X-4.022 Y-36.711 Z-2.26
N3270 X-4.025 Y-36.69 Z-2.169
N3275 X-4.026 Y-36.682 Z-2.075
N3280 Z5.
N3285 X-4.185 Y-34.099
N3290 Z1. F666.67
N3295 Z-2.675 F2000.
N3300 Y-34.097
N3305 Y-33.469
N3310 Y-33.408
N3315 X-4.617 Y-33.64
N3320 X-4.704 Y-33.682
N3325 X-4.794 Y-33.714
N3330 X-4.799 Y-33.715
N3335 X-4.889 Y-33.743 Z-2.668
N3340 X-4.976 Y-33.77 Z-2.646
N3345 X-5.059 Y-33.795 Z-2.61
N3350 X-5.136 Y-33.818 Z-2.56
N3355 X-5.205 Y-33.839 Z-2.499
N3360 X-5.263 Y-33.857 Z-2.428
N3365 X-5.31 Y-33.871 Z-2.347
N3370 X-5.345 Y-33.882 Z-2.26
N3375 X-5.366 Y-33.888 Z-2.169
N3380 X-5.373 Y-33.89 Z-2.075
N3385 Z1.
N3390 X-3.935 Y-34.533
N3395 Z-2.675
N3400 X-3.921 Y-34.449
N3405 X-3.915 Y-34.364
N3410 Y-32.886
N3415 X-4.106 Y-33.043
N3420 X-4.161 Y-33.084
N3425 X-4.22 Y-33.12
N3430 X-4.56 Y-33.303
N3435 X-4.745 Y-33.403
N3440 X-4.808 Y-33.433
N3445 X-4.873 Y-33.456
N3450 X-5.14 Y-33.538
N3455 X-5.228 Y-33.572
N3460 X-5.283 Y-33.599
N3465 X-5.367 Y-33.64 Z-2.668
N3470 X-5.449 Y-33.68 Z-2.646
N3475 X-5.528 Y-33.718 Z-2.61
N3480 X-5.6 Y-33.753 Z-2.56
N3485 X-5.664 Y-33.784 Z-2.499
N3490 X-5.719 Y-33.811 Z-2.428
N3495 X-5.763 Y-33.833 Z-2.347
N3500 X-5.796 Y-33.848 Z-2.26
N3505 X-5.816 Y-33.858 Z-2.169
N3510 X-5.822 Y-33.861 Z-2.075
N3515 Z5.
N3520 X-22.098 Y-28.226
N3525 Z1. F666.67
N3530 Z-2.675 F2000.
N3535 X-22.099 Y-28.224
N3540 X-22.229 Y-27.793
N3545 X-22.252 Y-27.7
N3550 X-22.266 Y-27.606
N3555 X-22.282 Y-27.446
N3560 X-22.86 Y-28.024
N3565 X-22.864 Y-28.027
N3570 X-22.93 Y-28.094 Z-2.668
N3575 X-22.995 Y-28.159 Z-2.646
N3580 X-23.056 Y-28.22 Z-2.61
N3585 X-23.113 Y-28.277 Z-2.56
N3590 X-23.164 Y-28.327 Z-2.499
N3595 X-23.207 Y-28.371 Z-2.428
N3600 X-23.242 Y-28.405 Z-2.347
N3605 X-23.267 Y-28.431 Z-2.26
N3610 X-23.283 Y-28.446 Z-2.169
N3615 X-23.288 Y-28.452 Z-2.075
N3620 Z1.
N3625 X-21.693 Y-28.551
N3630 Z-2.675
N3635 X-21.723 Y-28.467
N3640 X-21.759 Y-28.386
N3645 X-21.781 Y-28.334
N3650 X-21.8 Y-28.281
N3655 X-21.949 Y-27.787
N3660 X-21.971 Y-27.715
N3665 X-21.988 Y-27.648
N3670 X-21.998 Y-27.58
N3675 X-22.055 Y-26.99
N3680 X-22.058 Y-26.923
N3685 Y-26.841
N3690 X-22.796 Y-27.578
N3695 X-23.24 Y-28.022
N3700 X-23.301 Y-28.094
N3705 X-23.337 Y-28.143
N3710 X-23.392 Y-28.219 Z-2.668
N3715 X-23.446 Y-28.293 Z-2.646
N3720 X-23.497 Y-28.363 Z-2.61
N3725 X-23.544 Y-28.428 Z-2.56
N3730 X-23.586 Y-28.486 Z-2.499
N3735 X-23.622 Y-28.536 Z-2.428
N3740 X-23.651 Y-28.576 Z-2.347
N3745 X-23.672 Y-28.605 Z-2.26
N3750 X-23.685 Y-28.623 Z-2.169
N3755 X-23.69 Y-28.629 Z-2.075
N3760 Z5.
N3765 X-24.42 Y-29.23
N3770 Z1. F666.67
N3775 Z-2.675 F2000.
N3780 X-24.49 Y-29.279
N3785 X-24.553 Y-29.336
N3790 X-24.998 Y-29.78
N3795 X-25.164 Y-29.947
N3800 X-24.773 Y-30.338
N3805 X-24.728 Y-30.388
N3810 X-24.579 Y-30.568
N3815 X-24.514 Y-30.636
N3820 X-24.468 Y-30.676
N3825 X-24.398 Y-30.739 Z-2.668
N3830 X-24.33 Y-30.799 Z-2.646
N3835 X-24.264 Y-30.857 Z-2.61
N3840 X-24.204 Y-30.91 Z-2.56
N3845 X-24.151 Y-30.958 Z-2.499
N3850 X-24.105 Y-30.998 Z-2.428
N3855 X-24.068 Y-31.031 Z-2.347
N3860 X-24.041 Y-31.055 Z-2.26
N3865 X-24.025 Y-31.069 Z-2.169
N3870 X-24.019 Y-31.074 Z-2.075
N3875 Z5.
N3880 X-29.69 Y-35.92
N3885 Z1. F666.67
N3890 Z-2.675 F2000.
N3895 X-29.746 Y-35.855
N3900 X-29.808 Y-35.797
N3905 X-29.989 Y-35.649
N3910 X-30.039 Y-35.603
N3915 X-30.27 Y-35.372
N3920 X-30.43 Y-35.212
N3925 X-31.041 Y-35.823
N3930 X-31.102 Y-35.895
N3935 X-31.138 Y-35.944
N3940 X-31.193 Y-36.02 Z-2.668
N3945 X-31.247 Y-36.094 Z-2.646
N3950 X-31.298 Y-36.164 Z-2.61
N3955 X-31.345 Y-36.229 Z-2.56
N3960 X-31.387 Y-36.287 Z-2.499
N3965 X-31.423 Y-36.337 Z-2.428
N3970 X-31.452 Y-36.376 Z-2.347
N3975 X-31.473 Y-36.406 Z-2.26
N3980 X-31.486 Y-36.423 Z-2.169
N3985 X-31.49 Y-36.429 Z-2.075
N3990 Z5.
N3995 X-36.441 Y-30.662
N4000 Z1. F666.67
N4005 Z-2.675 F2000.
N4010 X-36.371 Y-30.613
N4015 X-36.307 Y-30.557
N4020 X-35.863 Y-30.112
N4025 X-35.696 Y-29.946
N4030 X-36.087 Y-29.555
N4035 X-36.133 Y-29.505
N4040 X-36.281 Y-29.324
N4045 X-36.347 Y-29.256
N4050 X-36.392 Y-29.216
N4055 X-36.462 Y-29.154 Z-2.668
N4060 X-36.531 Y-29.093 Z-2.646
N4065 X-36.596 Y-29.035 Z-2.61
N4070 X-36.656 Y-28.982 Z-2.56
N4075 X-36.71 Y-28.934 Z-2.499
N4080 X-36.755 Y-28.894 Z-2.428
N4085 X-36.792 Y-28.861 Z-2.347
N4090 X-36.819 Y-28.837 Z-2.26
N4095 X-36.836 Y-28.823 Z-2.169
N4100 X-36.841 Y-28.818 Z-2.075
N4105 Z5.
N4110 X-31.17 Y-23.972
N4115 Z1. F666.67
N4120 Z-2.675 F2000.
N4125 X-31.115 Y-24.037
N4130 X-31.052 Y-24.095
N4135 X-30.872 Y-24.244
N4140 X-30.822 Y-24.289
N4145 X-30.59 Y-24.521
N4150 X-30.43 Y-24.68
N4155 X-29.819 Y-24.07
N4160 X-29.758 Y-23.998
N4165 X-29.722 Y-23.949
N4170 X-29.667 Y-23.873 Z-2.668
N4175 X-29.613 Y-23.799 Z-2.646
N4180 X-29.562 Y-23.728 Z-2.61
N4185 X-29.515 Y-23.663 Z-2.56
N4190 X-29.473 Y-23.606 Z-2.499
N4195 X-29.437 Y-23.556 Z-2.428
N4200 X-29.408 Y-23.516 Z-2.347
N4205 X-29.387 Y-23.487 Z-2.26
N4210 X-29.374 Y-23.469 Z-2.169
N4215 X-29.37 Y-23.463 Z-2.075
N4220 Z5.
N4225 X-28.509 Y-22.378
N4230 Z1. F666.67
N4235 Z-2.675 F2000.
N4240 X-28.507 Y-22.377
N4245 X-28.063 Y-21.932
N4250 X-27.929 Y-21.798
N4255 X-28.091 Y-21.782
N4260 X-28.185 Y-21.768
N4265 X-28.278 Y-21.745
N4270 X-28.707 Y-21.615
N4275 X-28.712 Y-21.614
N4280 X-28.802 Y-21.586 Z-2.668
N4285 X-28.889 Y-21.56 Z-2.646
N4290 X-28.973 Y-21.534 Z-2.61
N4295 X-29.049 Y-21.511 Z-2.56
N4300 X-29.118 Y-21.49 Z-2.499
N4305 X-29.176 Y-21.473 Z-2.428
N4310 X-29.223 Y-21.458 Z-2.347
N4315 X-29.258 Y-21.448 Z-2.26
N4320 X-29.279 Y-21.442 Z-2.169
N4325 X-29.286 Y-21.439 Z-2.075
N4330 Z1.
N4335 X-28.639 Y-22.862
N4340 Z-2.675
N4345 X-28.569 Y-22.813
N4350 X-28.506 Y-22.756
N4355 X-27.324 Y-21.575
N4360 X-27.405
N4365 X-27.473 Y-21.572
N4370 X-28.064 Y-21.514
N4375 X-28.133 Y-21.504
N4380 X-28.2 Y-21.487
N4385 X-28.768 Y-21.315
N4390 X-28.819 Y-21.297
N4395 X-28.869 Y-21.275
N4400 X-29.287 Y-21.074
N4405 X-29.371 Y-21.033 Z-2.668
N4410 X-29.454 Y-20.993 Z-2.646
N4415 X-29.532 Y-20.956 Z-2.61
N4420 X-29.604 Y-20.921 Z-2.56
N4425 X-29.669 Y-20.89 Z-2.499
N4430 X-29.724 Y-20.863 Z-2.428
N4435 X-29.768 Y-20.842 Z-2.347
N4440 X-29.801 Y-20.826 Z-2.26
N4445 X-29.821 Y-20.817 Z-2.169
N4450 X-29.827 Y-20.813 Z-2.075
N4455 Z5.
N4460 X-34.197 Y-4.315
N4465 Z1. F666.67
N4470 Z-2.675 F2000.
N4475 X-34.196 Y-4.313
N4480 X-34.192 Y-4.3
N4485 X-34.16 Y-4.21
N4490 X-34.118 Y-4.124
N4495 X-33.917 Y-3.752
N4500 X-33.89 Y-3.702
N4505 X-34.579
N4510 X-34.584
N4515 G18 G3 X-35.184 Z-2.075 I0. K0.6
N4520 G1 Z1.
N4525 X-34.088 Y-4.812
N4530 Z-2.675
N4535 X-34.049 Y-4.736
N4540 X-34.019 Y-4.656
N4545 X-33.934 Y-4.38
N4550 X-33.911 Y-4.315
N4555 X-33.881 Y-4.253
N4560 X-33.6 Y-3.732
N4565 X-33.564 Y-3.673
N4570 X-33.523 Y-3.618
N4575 X-33.369 Y-3.432
N4580 X-34.217
N4585 X-34.846
N4590 X-34.939 Y-3.439
N4595 X-35. Y-3.449
N4600 X-35.092 Y-3.464 Z-2.668
N4605 X-35.183 Y-3.478 Z-2.646
N4610 X-35.269 Y-3.492 Z-2.61
N4615 X-35.348 Y-3.504 Z-2.56
N4620 X-35.419 Y-3.515 Z-2.499
N4625 X-35.479 Y-3.525 Z-2.428
N4630 X-35.528 Y-3.533 Z-2.347
N4635 X-35.563 Y-3.538 Z-2.26
N4640 X-35.585 Y-3.542 Z-2.169
N4645 X-35.592 Y-3.543 Z-2.075
N4650 Z5.
N4655 X-37.742 Y-3.452
N4660 Z1. F666.67
N4665 Z-2.675 F2000.
N4670 X-37.826 Y-3.437
N4675 X-37.911 Y-3.432
N4680 X-38.54
N4685 X-38.8
N4690 Y-4.321
N4695 X-38.793 Y-4.415
N4700 X-38.783 Y-4.475
N4705 X-38.769 Y-4.568 Z-2.668
N4710 X-38.754 Y-4.658 Z-2.646
N4715 X-38.741 Y-4.744 Z-2.61
N4720 X-38.728 Y-4.824 Z-2.56
N4725 X-38.717 Y-4.894 Z-2.499
N4730 X-38.708 Y-4.955 Z-2.428
N4735 X-38.7 Y-5.003 Z-2.347
N4740 X-38.694 Y-5.039 Z-2.26
N4745 X-38.691 Y-5.061 Z-2.169
N4750 X-38.69 Y-5.068 Z-2.075
N4755 Z5.
N4760 X-46.268 Y-4.49
N4765 Z1. F666.67
N4770 Z-2.675 F2000.
N4775 X-46.253 Y-4.406
N4780 X-46.248 Y-4.321
N4785 Y-3.693
N4790 Y-3.432
N4795 X-47.137
N4800 X-47.231 Y-3.439
N4805 X-47.291 Y-3.449
N4810 X-47.384 Y-3.464 Z-2.668
N4815 X-47.474 Y-3.478 Z-2.646
N4820 X-47.56 Y-3.492 Z-2.61
N4825 X-47.64 Y-3.504 Z-2.56
N4830 X-47.71 Y-3.515 Z-2.499
N4835 X-47.771 Y-3.525 Z-2.428
N4840 X-47.819 Y-3.533 Z-2.347
N4845 X-47.855 Y-3.538 Z-2.26
N4850 X-47.877 Y-3.542 Z-2.169
N4855 X-47.884 Y-3.543 Z-2.075
N4860 Z5.
N4865 X-47.307 Y4.036
N4870 Z1. F666.67
N4875 Z-2.675 F2000.
N4880 X-47.223 Y4.021
N4885 X-47.138 Y4.016
N4890 X-46.509
N4895 X-46.249
N4900 Y4.905
N4905 X-46.256 Y4.999
N4910 X-46.265 Y5.059
N4915 X-46.28 Y5.152 Z-2.668
N4920 X-46.294 Y5.242 Z-2.646
N4925 X-46.308 Y5.328 Z-2.61
N4930 X-46.321 Y5.407 Z-2.56
N4935 X-46.332 Y5.478 Z-2.499
N4940 X-46.341 Y5.538 Z-2.428
N4945 X-46.349 Y5.587 Z-2.347
N4950 X-46.355 Y5.623 Z-2.26
N4955 X-46.358 Y5.644 Z-2.169
N4960 X-46.359 Y5.652 Z-2.075
N4965 Z5.
N4970 X-38.781 Y5.074
N4975 Z1. F666.67
N4980 Z-2.675 F2000.
N4985 X-38.796 Y4.99
N4990 X-38.801 Y4.905
N4995 Y4.277
N5000 Y4.016
N5005 X-37.912
N5010 X-37.818 Y4.023
N5015 X-37.758 Y4.033
N5020 X-37.665 Y4.048 Z-2.668
N5025 X-37.575 Y4.062 Z-2.646
N5030 X-37.489 Y4.075 Z-2.61
N5035 X-37.409 Y4.088 Z-2.56
N5040 X-37.339 Y4.099 Z-2.499
N5045 X-37.278 Y4.109 Z-2.428
N5050 X-37.23 Y4.116 Z-2.347
N5055 X-37.194 Y4.122 Z-2.26
N5060 X-37.172 Y4.126 Z-2.169
N5065 X-37.165 Y4.127 Z-2.075
N5070 Z5.
N5075 X-34.581 Y4.286
N5080 Z1. F666.67
N5085 Z-2.675 F2000.
N5090 X-34.58
N5095 X-33.951
N5100 X-33.891
N5105 X-34.121 Y4.712
N5110 X-34.162 Y4.799
N5115 X-34.194 Y4.889
N5120 X-34.197 Y4.898
N5125 X-34.225 Y4.987 Z-2.668
N5130 X-34.251 Y5.075 Z-2.646
N5135 X-34.277 Y5.158 Z-2.61
N5140 X-34.3 Y5.235 Z-2.56
N5145 X-34.321 Y5.303 Z-2.499
N5150 X-34.339 Y5.362 Z-2.428
N5155 X-34.354 Y5.409 Z-2.347
N5160 X-34.364 Y5.443 Z-2.26
N5165 X-34.371 Y5.464 Z-2.169
N5170 X-34.373 Y5.471 Z-2.075
N5175 Z1.
N5180 X-35.015 Y4.036
N5185 Z-2.675
N5190 X-34.931 Y4.021
N5195 X-34.846 Y4.016
N5200 X-33.369
N5205 X-33.524 Y4.203
N5210 X-33.566 Y4.258
N5215 X-33.602 Y4.318
N5220 X-33.786 Y4.659
N5225 X-33.883 Y4.84
N5230 X-33.913 Y4.903
N5235 X-33.936 Y4.968
N5240 X-34.02 Y5.24
N5245 X-34.054 Y5.327
N5250 X-34.081 Y5.382
N5255 X-34.122 Y5.467 Z-2.668
N5260 X-34.162 Y5.549 Z-2.646
N5265 X-34.2 Y5.627 Z-2.61
N5270 X-34.236 Y5.699 Z-2.56
N5275 X-34.267 Y5.763 Z-2.499
N5280 X-34.294 Y5.818 Z-2.428
N5285 X-34.315 Y5.863 Z-2.347
N5290 X-34.331 Y5.895 Z-2.26
N5295 X-34.341 Y5.915 Z-2.169
N5300 X-34.344 Y5.921 Z-2.075
N5305 Z5.
N5310 X-28.709 Y22.199
N5315 Z1. F666.67
N5320 Z-2.675 F2000.
N5325 X-28.707
N5330 X-28.276 Y22.33
N5335 X-28.183 Y22.353
N5340 X-28.089 Y22.367
N5345 X-27.929 Y22.382
N5350 X-28.507 Y22.961
N5355 X-28.51 Y22.964
N5360 X-28.577 Y23.031 Z-2.668
N5365 X-28.642 Y23.095 Z-2.646
N5370 X-28.703 Y23.157 Z-2.61
N5375 X-28.76 Y23.214 Z-2.56
N5380 X-28.81 Y23.264 Z-2.499
N5385 X-28.854 Y23.307 Z-2.428
N5390 X-28.888 Y23.342 Z-2.347
N5395 X-28.914 Y23.368 Z-2.26
N5400 X-28.93 Y23.383 Z-2.169
N5405 X-28.935 Y23.388 Z-2.075
N5410 Z1.
N5415 X-29.034 Y21.794
N5420 Z-2.675
N5425 X-28.95 Y21.823
N5430 X-28.869 Y21.859
N5435 X-28.817 Y21.882
N5440 X-28.764 Y21.9
N5445 X-28.27 Y22.05
N5450 X-28.198 Y22.071
N5455 X-28.131 Y22.088
N5460 X-28.063 Y22.098
N5465 X-27.473 Y22.155
N5470 X-27.406 Y22.159
N5475 X-27.324
N5480 X-28.061 Y22.896
N5485 X-28.505 Y23.34
N5490 X-28.577 Y23.402
N5495 X-28.626 Y23.437
N5500 X-28.702 Y23.493 Z-2.668
N5505 X-28.776 Y23.546 Z-2.646
N5510 X-28.847 Y23.597 Z-2.61
N5515 X-28.911 Y23.645 Z-2.56
N5520 X-28.969 Y23.687 Z-2.499
N5525 X-29.019 Y23.723 Z-2.428
N5530 X-29.059 Y23.752 Z-2.347
N5535 X-29.088 Y23.773 Z-2.26
N5540 X-29.106 Y23.786 Z-2.169
N5545 X-29.112 Y23.79 Z-2.075
N5550 Z5.
N5555 X-29.713 Y24.52
N5560 Z1. F666.67
N5565 Z-2.675 F2000.
N5570 X-29.762 Y24.59
N5575 X-29.819 Y24.654
N5580 X-30.263 Y25.098
N5585 X-30.43 Y25.265
N5590 X-30.821 Y24.874
N5595 X-30.871 Y24.828
N5600 X-31.051 Y24.68
N5605 X-31.119 Y24.614
N5610 X-31.159 Y24.569
N5615 X-31.222 Y24.499 Z-2.668
N5620 X-31.282 Y24.43 Z-2.646
N5625 X-31.34 Y24.365 Z-2.61
N5630 X-31.393 Y24.305 Z-2.56
N5635 X-31.441 Y24.251 Z-2.499
N5640 X-31.481 Y24.206 Z-2.428
N5645 X-31.514 Y24.169 Z-2.347
N5650 X-31.538 Y24.142 Z-2.26
N5655 X-31.553 Y24.125 Z-2.169
N5660 X-31.557 Y24.12 Z-2.075
N5665 Z5.
N5670 X-36.403 Y29.791
N5675 Z1. F666.67
N5680 Z-2.675 F2000.
N5685 X-36.338 Y29.846
N5690 X-36.28 Y29.909
N5695 X-36.132 Y30.089
N5700 X-36.086 Y30.139
N5705 X-35.855 Y30.37
N5710 X-35.695 Y30.53
N5715 X-36.306 Y31.141
N5720 X-36.378 Y31.202
N5725 X-36.427 Y31.238
N5730 X-36.503 Y31.293 Z-2.668
N5735 X-36.577 Y31.347 Z-2.646
N5740 X-36.647 Y31.398 Z-2.61
N5745 X-36.712 Y31.446 Z-2.56
N5750 X-36.77 Y31.488 Z-2.499
N5755 X-36.82 Y31.524 Z-2.428
N5760 X-36.86 Y31.552 Z-2.347
N5765 X-36.889 Y31.574 Z-2.26
N5770 X-36.906 Y31.587 Z-2.169
N5775 X-36.912 Y31.591 Z-2.075
N5780 Z5.
N5785 X-31.145 Y36.541
N5790 Z1. F666.67
N5795 Z-2.675 F2000.
N5800 X-31.097 Y36.471
N5805 X-31.04 Y36.408
N5810 X-30.595 Y35.963
N5815 X-30.429 Y35.797
N5820 X-30.038 Y36.188
N5825 X-29.988 Y36.233
N5830 X-29.807 Y36.382
N5835 X-29.739 Y36.447
N5840 X-29.699 Y36.493
N5845 X-29.637 Y36.563 Z-2.668
N5850 X-29.576 Y36.631 Z-2.646
N5855 X-29.518 Y36.696 Z-2.61
N5860 X-29.465 Y36.756 Z-2.56
N5865 X-29.417 Y36.81 Z-2.499
N5870 X-29.377 Y36.856 Z-2.428
N5875 X-29.344 Y36.892 Z-2.347
N5880 X-29.32 Y36.919 Z-2.26
N5885 X-29.306 Y36.936 Z-2.169
N5890 X-29.301 Y36.941 Z-2.075
N5895 Z5.
N5900 X-24.455 Y31.27
N5905 Z1. F666.67
N5910 Z-2.675 F2000.
N5915 X-24.52 Y31.215
N5920 X-24.578 Y31.153
N5925 X-24.727 Y30.972
N5930 X-24.772 Y30.922
N5935 X-25.004 Y30.691
N5940 X-25.163 Y30.531
N5945 X-24.552 Y29.92
N5950 X-24.481 Y29.859
N5955 X-24.432 Y29.823
N5960 X-24.356 Y29.768 Z-2.668
N5965 X-24.282 Y29.714 Z-2.646
N5970 X-24.211 Y29.663 Z-2.61
N5975 X-24.146 Y29.616 Z-2.56
N5980 X-24.088 Y29.574 Z-2.499
N5985 X-24.039 Y29.538 Z-2.428
N5990 X-23.999 Y29.509 Z-2.347
N5995 X-23.97 Y29.487 Z-2.26
N6000 X-23.952 Y29.475 Z-2.169
N6005 X-23.946 Y29.47 Z-2.075
N6010 Z5.
N6015 X-22.861 Y28.609
N6020 Z1. F666.67
N6025 Z-2.675 F2000.
N6030 X-22.86 Y28.608
N6035 X-22.415 Y28.164
N6040 X-22.281 Y28.029
N6045 X-22.265 Y28.191
N6050 X-22.251 Y28.286
N6055 X-22.228 Y28.378
N6060 X-22.098 Y28.808
N6065 X-22.096 Y28.813
N6070 X-22.069 Y28.902 Z-2.668
N6075 X-22.043 Y28.99 Z-2.646
N6080 X-22.017 Y29.073 Z-2.61
N6085 X-21.994 Y29.15 Z-2.56
N6090 X-21.973 Y29.219 Z-2.499
N6095 X-21.956 Y29.277 Z-2.428
N6100 X-21.941 Y29.324 Z-2.347
N6105 X-21.931 Y29.359 Z-2.26
N6110 X-21.925 Y29.38 Z-2.169
N6115 X-21.922 Y29.387 Z-2.075
N6120 Z1.
N6125 X-23.345 Y28.74
N6130 Z-2.675
N6135 X-23.296 Y28.67
N6140 X-23.239 Y28.606
N6145 X-22.058 Y27.424
N6150 Y27.506
N6155 X-22.054 Y27.574
N6160 X-21.997 Y28.165
N6165 X-21.987 Y28.233
N6170 X-21.97 Y28.3
N6175 X-21.798 Y28.869
N6180 X-21.78 Y28.92
N6185 X-21.758 Y28.97
N6190 X-21.557 Y29.388
N6195 X-21.516 Y29.472 Z-2.668
N6200 X-21.476 Y29.555 Z-2.646
N6205 X-21.438 Y29.633 Z-2.61
N6210 X-21.403 Y29.705 Z-2.56
N6215 X-21.372 Y29.77 Z-2.499
N6220 X-21.346 Y29.825 Z-2.428
N6225 X-21.324 Y29.869 Z-2.347
N6230 X-21.309 Y29.902 Z-2.26
N6235 X-21.299 Y29.921 Z-2.169
N6240 X-21.296 Y29.928 Z-2.075
N6245 Z5.
N6250 X-4.798 Y34.3
N6255 Z1. F666.67
N6260 Z-2.675 F2000.
N6265 X-4.797 Y34.299
N6270 X-4.783 Y34.295
N6275 X-4.692 Y34.262
N6280 X-4.606 Y34.221
N6285 X-4.235 Y34.02
N6290 X-4.185 Y33.992
N6295 Y34.682
N6300 Y34.687
N6305 G19 G3 Y35.287 Z-2.075 J0. K0.6
N6310 G1 Z1.
N6315 X-5.295 Y34.191
N6320 Z-2.675
N6325 X-5.219 Y34.152
N6330 X-5.139 Y34.122
N6335 X-4.862 Y34.037
N6340 X-4.797 Y34.013
N6345 X-4.734 Y33.983
N6350 X-4.214 Y33.701
N6355 X-4.155 Y33.666
N6360 X-4.1 Y33.624
N6365 X-3.915 Y33.47
N6370 Y34.32
N6375 Y34.948
N6380 X-3.922 Y35.042
N6385 X-3.932 Y35.103
N6390 X-3.946 Y35.195 Z-2.668
N6395 X-3.961 Y35.286 Z-2.646
N6400 X-3.974 Y35.372 Z-2.61
N6405 X-3.987 Y35.451 Z-2.56
N6410 X-3.998 Y35.522 Z-2.499
N6415 X-4.008 Y35.582 Z-2.428
N6420 X-4.015 Y35.631 Z-2.347
N6425 X-4.021 Y35.666 Z-2.26
N6430 X-4.024 Y35.688 Z-2.169
N6435 X-4.026 Y35.695 Z-2.075
N6440 Z5.
N6445 X-3.935 Y37.843
N6450 Z1. F666.67
N6455 Z-2.675 F2000.
N6460 X-3.92 Y37.927
N6465 X-3.915 Y38.012
N6470 Y38.641
N6475 Y38.902
N6480 X-4.804
N6485 X-4.898 Y38.894
N6490 X-4.958 Y38.885
N6495 X-5.051 Y38.87 Z-2.668
N6500 X-5.141 Y38.856 Z-2.646
N6505 X-5.227 Y38.842 Z-2.61
N6510 X-5.306 Y38.829 Z-2.56
N6515 X-5.377 Y38.818 Z-2.499
N6520 X-5.437 Y38.809 Z-2.428
N6525 X-5.486 Y38.801 Z-2.347
N6530 X-5.522 Y38.795 Z-2.26
N6535 X-5.543 Y38.792 Z-2.169
N6540 X-5.551 Y38.791 Z-2.075
N6545 Z5.
N6550 X-4.973 Y46.369
N6555 Z1. F666.67
N6560 Z-2.675 F2000.
N6565 X-4.889 Y46.354
N6570 X-4.804 Y46.349
N6575 X-4.175
N6580 X-3.915
N6585 Y47.238
N6590 X-3.922 Y47.332
N6595 X-3.932 Y47.392
N6600 X-3.946 Y47.485 Z-2.668
N6605 X-3.961 Y47.576 Z-2.646
N6610 X-3.974 Y47.661 Z-2.61
N6615 X-3.987 Y47.741 Z-2.56
N6620 X-3.998 Y47.811 Z-2.499
N6625 X-4.008 Y47.872 Z-2.428
N6630 X-4.015 Y47.92 Z-2.347
N6635 X-4.021 Y47.956 Z-2.26
N6640 X-4.024 Y47.978 Z-2.169
N6645 X-4.026 Y47.985 Z-2.075
N6650 Z5.
N6655 X3.553 Y47.408
N6660 Z1. F666.67
N6665 Z-2.675 F2000.
N6670 X3.538 Y47.324
N6675 X3.533 Y47.238
N6680 Y46.61
N6685 Y46.349
N6690 X4.422
N6695 X4.516 Y46.357
N6700 X4.576 Y46.366
N6705 X4.669 Y46.381 Z-2.668
N6710 X4.759 Y46.395 Z-2.646
N6715 X4.845 Y46.409 Z-2.61
N6720 X4.925 Y46.421 Z-2.56
N6725 X4.995 Y46.433 Z-2.499
N6730 X5.056 Y46.442 Z-2.428
N6735 X5.104 Y46.45 Z-2.347
N6740 X5.14 Y46.455 Z-2.26
N6745 X5.162 Y46.459 Z-2.169
N6750 X5.169 Y46.46 Z-2.075
N6755 Z5.
N6760 X4.591 Y38.882
N6765 Z1. F666.67
N6770 Z-2.675 F2000.
N6775 X4.507 Y38.897
N6780 X4.422 Y38.902
N6785 X3.794
N6790 X3.533
N6795 Y38.013
N6800 X3.541 Y37.919
N6805 X3.55 Y37.858
N6810 X3.565 Y37.766 Z-2.668
N6815 X3.579 Y37.675 Z-2.646
N6820 X3.593 Y37.589 Z-2.61
N6825 X3.605 Y37.51 Z-2.56
N6830 X3.617 Y37.439 Z-2.499
N6835 X3.626 Y37.379 Z-2.428
N6840 X3.634 Y37.33 Z-2.347
N6845 X3.639 Y37.295 Z-2.26
N6850 X3.643 Y37.273 Z-2.169
N6855 X3.644 Y37.266 Z-2.075
N6860 Z5.
N6865 X3.803 Y34.681
N6870 Z1. F666.67
N6875 Z-2.675 F2000.
N6880 Y34.68
N6885 Y34.051
N6890 Y33.991
N6895 X4.231 Y34.221
N6900 X4.317 Y34.262
N6905 X4.407 Y34.295
N6910 X4.416 Y34.297
N6915 X4.506 Y34.325 Z-2.668
N6920 X4.593 Y34.352 Z-2.646
N6925 X4.676 Y34.377 Z-2.61
N6930 X4.753 Y34.401 Z-2.56
N6935 X4.822 Y34.422 Z-2.499
N6940 X4.88 Y34.439 Z-2.428
N6945 X4.927 Y34.454 Z-2.347
N6950 X4.961 Y34.464 Z-2.26
N6955 X4.982 Y34.471 Z-2.169
N6960 X4.99 Y34.473 Z-2.075
N6965 Z1.
N6970 X3.553 Y35.115
N6975 Z-2.675
N6980 X3.538 Y35.031
N6985 X3.533 Y34.946
N6990 Y33.469
N6995 X3.722 Y33.625
N7000 X3.777 Y33.666
N7005 X3.836 Y33.702
N7010 X4.177 Y33.886
N7015 X4.359 Y33.984
N7020 X4.421 Y34.013
N7025 X4.486 Y34.037
N7030 X4.757 Y34.12
N7035 X4.845 Y34.154
N7040 X4.9 Y34.181
N7045 X4.984 Y34.222 Z-2.668
N7050 X5.066 Y34.262 Z-2.646
N7055 X5.144 Y34.301 Z-2.61
N7060 X5.217 Y34.336 Z-2.56
N7065 X5.281 Y34.367 Z-2.499
N7070 X5.336 Y34.394 Z-2.428
N7075 X5.38 Y34.416 Z-2.347
N7080 X5.412 Y34.431 Z-2.26
N7085 X5.432 Y34.441 Z-2.169
N7090 X5.439 Y34.444 Z-2.075
N7095 Z5.
N7100 X21.716 Y28.809
N7105 Z1. F666.67
N7110 Z-2.675 F2000.
N7115 X21.717 Y28.808
N7120 X21.847 Y28.376
N7125 X21.87 Y28.284
N7130 X21.884 Y28.189
N7135 X21.899 Y28.029
N7140 X22.478 Y28.608
N7145 X22.481 Y28.611
N7150 X22.548 Y28.677 Z-2.668
N7155 X22.613 Y28.742 Z-2.646
N7160 X22.674 Y28.804 Z-2.61
N7165 X22.731 Y28.86 Z-2.56
N7170 X22.781 Y28.911 Z-2.499
N7175 X22.825 Y28.954 Z-2.428
N7180 X22.859 Y28.989 Z-2.347
N7185 X22.885 Y29.015 Z-2.26
N7190 X22.901 Y29.03 Z-2.169
N7195 X22.906 Y29.035 Z-2.075
N7200 Z1.
N7205 X21.311 Y29.136
N7210 Z-2.675
N7215 X21.34 Y29.052
N7220 X21.376 Y28.969
N7225 X21.399 Y28.918
N7230 X21.418 Y28.865
N7235 X21.567 Y28.371
N7240 X21.589 Y28.298
N7245 X21.605 Y28.231
N7250 X21.615 Y28.163
N7255 X21.673 Y27.574
N7260 X21.676 Y27.506
N7265 Y27.424
N7270 X22.413 Y28.161
N7275 X22.858 Y28.606
N7280 X22.919 Y28.677
N7285 X22.955 Y28.727
N7290 X23.01 Y28.803 Z-2.668
N7295 X23.064 Y28.877 Z-2.646
N7300 X23.115 Y28.947 Z-2.61
N7305 X23.162 Y29.012 Z-2.56
N7310 X23.204 Y29.07 Z-2.499
N7315 X23.24 Y29.119 Z-2.428
N7320 X23.269 Y29.159 Z-2.347
N7325 X23.29 Y29.188 Z-2.26
N7330 X23.303 Y29.206 Z-2.169
N7335 X23.307 Y29.212 Z-2.075
N7340 Z5.
N7345 X24.037 Y29.814
N7350 Z1. F666.67
N7355 Z-2.675 F2000.
N7360 X24.107 Y29.862
N7365 X24.171 Y29.919
N7370 X24.615 Y30.363
N7375 X24.782 Y30.53
N7380 X24.391 Y30.921
N7385 X24.345 Y30.971
N7390 X24.197 Y31.152
N7395 X24.132 Y31.219
N7400 X24.086 Y31.26
N7405 X24.016 Y31.322 Z-2.668
N7410 X23.947 Y31.383 Z-2.646
N7415 X23.882 Y31.441 Z-2.61
N7420 X23.822 Y31.494 Z-2.56
N7425 X23.769 Y31.541 Z-2.499
N7430 X23.723 Y31.582 Z-2.428
N7435 X23.686 Y31.615 Z-2.347
N7440 X23.659 Y31.638 Z-2.26
N7445 X23.643 Y31.653 Z-2.169
N7450 X23.637 Y31.658 Z-2.075
N7455 Z5.
N7460 X29.308 Y36.504
N7465 Z1. F666.67
N7470 Z-2.675 F2000.
N7475 X29.363 Y36.439
N7480 X29.426 Y36.381
N7485 X29.606 Y36.232
N7490 X29.657 Y36.187
N7495 X29.888 Y35.955
N7500 X30.048 Y35.796
N7505 X30.659 Y36.407
N7510 X30.72 Y36.478
N7515 X30.756 Y36.528
N7520 X30.811 Y36.603 Z-2.668
N7525 X30.865 Y36.678 Z-2.646
N7530 X30.916 Y36.748 Z-2.61
N7535 X30.963 Y36.813 Z-2.56
N7540 X31.005 Y36.871 Z-2.499
N7545 X31.041 Y36.92 Z-2.428
N7550 X31.07 Y36.96 Z-2.347
N7555 X31.091 Y36.989 Z-2.26
N7560 X31.104 Y37.007 Z-2.169
N7565 X31.108 Y37.013 Z-2.075
N7570 Z5.
N7575 X36.058 Y31.246
N7580 Z1. F666.67
N7585 Z-2.675 F2000.
N7590 X35.988 Y31.197
N7595 X35.924 Y31.14
N7600 X35.479 Y30.696
N7605 X35.313 Y30.529
N7610 X35.704 Y30.138
N7615 X35.75 Y30.088
N7620 X35.898 Y29.908
N7625 X35.963 Y29.84
N7630 X36.009 Y29.799
N7635 X36.079 Y29.737 Z-2.668
N7640 X36.148 Y29.676 Z-2.646
N7645 X36.213 Y29.619 Z-2.61
N7650 X36.273 Y29.565 Z-2.56
N7655 X36.326 Y29.518 Z-2.499
N7660 X36.372 Y29.477 Z-2.428
N7665 X36.409 Y29.445 Z-2.347
N7670 X36.436 Y29.421 Z-2.26
N7675 X36.452 Y29.406 Z-2.169
N7680 X36.458 Y29.401 Z-2.075
N7685 Z5.
N7690 X30.787 Y24.556
N7695 Z1. F666.67
N7700 Z-2.675 F2000.
N7705 X30.731 Y24.621
N7710 X30.669 Y24.679
N7715 X30.489 Y24.827
N7720 X30.438 Y24.873
N7725 X30.207 Y25.104
N7730 X30.047 Y25.264
N7735 X29.436 Y24.653
N7740 X29.375 Y24.581
N7745 X29.339 Y24.532
N7750 X29.284 Y24.456 Z-2.668
N7755 X29.23 Y24.382 Z-2.646
N7760 X29.179 Y24.312 Z-2.61
N7765 X29.132 Y24.247 Z-2.56
N7770 X29.09 Y24.189 Z-2.499
N7775 X29.054 Y24.139 Z-2.428
N7780 X29.025 Y24.099 Z-2.347
N7785 X29.004 Y24.07 Z-2.26
N7790 X28.991 Y24.053 Z-2.169
N7795 X28.987 Y24.047 Z-2.075
N7800 Z5.
N7805 X28.126 Y22.961
N7810 Z1. F666.67
N7815 Z-2.675 F2000.
N7820 X28.125 Y22.96
N7825 X27.681 Y22.516
N7830 X27.546 Y22.382
N7835 X27.709 Y22.366
N7840 X27.803 Y22.352
N7845 X27.896 Y22.329
N7850 X28.325 Y22.199
N7855 X28.33 Y22.197
N7860 X28.419 Y22.17 Z-2.668
N7865 X28.507 Y22.143 Z-2.646
N7870 X28.59 Y22.118 Z-2.61
N7875 X28.667 Y22.095 Z-2.56
N7880 X28.736 Y22.074 Z-2.499
N7885 X28.794 Y22.056 Z-2.428
N7890 X28.841 Y22.042 Z-2.347
N7895 X28.876 Y22.032 Z-2.26
N7900 X28.897 Y22.025 Z-2.169
N7905 X28.904 Y22.023 Z-2.075
N7910 Z1.
N7915 X28.257 Y23.445
N7920 Z-2.675
N7925 X28.187 Y23.397
N7930 X28.123 Y23.34
N7935 X26.941 Y22.158
N7940 X27.023
N7945 X27.091 Y22.155
N7950 X27.682 Y22.097
N7955 X27.751 Y22.087
N7960 X27.818 Y22.071
N7965 X28.386 Y21.898
N7970 X28.437 Y21.881
N7975 X28.486 Y21.859
N7980 X28.896 Y21.662
N7985 X28.981 Y21.621 Z-2.668
N7990 X29.063 Y21.581 Z-2.646
N7995 X29.142 Y21.544 Z-2.61
N8000 X29.214 Y21.509 Z-2.56
N8005 X29.278 Y21.478 Z-2.499
N8010 X29.333 Y21.451 Z-2.428
N8015 X29.378 Y21.43 Z-2.347
N8020 X29.41 Y21.414 Z-2.26
N8025 X29.43 Y21.405 Z-2.169
N8030 X29.437 Y21.402 Z-2.075
N8035 Z5.
N8040 X33.815 Y4.898
N8045 Z1. F666.67
N8050 Z-2.675 F2000.
N8055 X33.814 Y4.897
N8060 X33.81 Y4.884
N8065 X33.778 Y4.794
N8070 X33.737 Y4.708
N8075 X33.535 Y4.335
N8080 X33.508 Y4.285
N8085 X34.197
N8090 X34.202
N8095 G18 G2 X34.802 Z-2.075 I0. K0.6
N8100 G1 Z1.
N8105 X33.706 Y5.395
N8110 Z-2.675
N8115 X33.667 Y5.319
N8120 X33.637 Y5.239
N8125 X33.553 Y4.963
N8130 X33.529 Y4.898
N8135 X33.499 Y4.836
N8140 X33.218 Y4.315
N8145 X33.182 Y4.257
N8150 X33.141 Y4.201
N8155 X32.987 Y4.016
N8160 X33.835
N8165 X34.464
N8170 X34.558 Y4.023
N8175 X34.618 Y4.033
N8180 X34.711 Y4.047 Z-2.668
N8185 X34.801 Y4.062 Z-2.646
N8190 X34.887 Y4.075 Z-2.61
N8195 X34.966 Y4.088 Z-2.56
N8200 X35.037 Y4.099 Z-2.499
N8205 X35.097 Y4.108 Z-2.428
N8210 X35.146 Y4.116 Z-2.347
N8215 X35.182 Y4.122 Z-2.26
N8220 X35.203 Y4.125 Z-2.169
N8225 X35.211 Y4.126 Z-2.075
N8230 Z5.
N8235 X37.36 Y4.036
N8240 Z1. F666.67
N8245 Z-2.675 F2000.
N8250 X37.444 Y4.021
N8255 X37.529 Y4.016
N8260 X38.158
N8265 X38.418
N8270 Y4.905
N8275 X38.411 Y4.999
N8280 X38.402 Y5.059
N8285 X38.387 Y5.151 Z-2.668
N8290 X38.373 Y5.242 Z-2.646
N8295 X38.359 Y5.328 Z-2.61
N8300 X38.346 Y5.407 Z-2.56
N8305 X38.335 Y5.478 Z-2.499
N8310 X38.326 Y5.538 Z-2.428
N8315 X38.318 Y5.587 Z-2.347
N8320 X38.312 Y5.622 Z-2.26
N8325 X38.309 Y5.644 Z-2.169
N8330 X38.308 Y5.651 Z-2.075
N8335 Z5.
N8340 X45.886 Y5.074
N8345 Z1. F666.67
N8350 Z-2.675 F2000.
N8355 X45.871 Y4.99
N8360 X45.866 Y4.905
N8365 Y4.276
N8370 Y4.016
N8375 X46.755
N8380 X46.849 Y4.023
N8385 X46.909 Y4.033
N8390 X47.002 Y4.047 Z-2.668
N8395 X47.092 Y4.062 Z-2.646
N8400 X47.178 Y4.075 Z-2.61
N8405 X47.258 Y4.088 Z-2.56
N8410 X47.328 Y4.099 Z-2.499
N8415 X47.389 Y4.108 Z-2.428
N8420 X47.437 Y4.116 Z-2.347
N8425 X47.473 Y4.122 Z-2.26
N8430 X47.495 Y4.125 Z-2.169
N8435 X47.502 Y4.126 Z-2.075
N8440 Z5.
N8445 X46.925 Y-3.452
N8450 Z1. F666.67
N8455 Z-2.675 F2000.
N8460 X46.841 Y-3.437
N8465 X46.756 Y-3.432
N8470 X46.127
N8475 X45.867
N8480 Y-4.322
N8485 X45.874 Y-4.415
N8490 X45.883 Y-4.476
N8495 X45.898 Y-4.568 Z-2.668
N8500 X45.912 Y-4.659 Z-2.646
N8505 X45.926 Y-4.745 Z-2.61
N8510 X45.939 Y-4.824 Z-2.56
N8515 X45.95 Y-4.895 Z-2.499
N8520 X45.959 Y-4.955 Z-2.428
N8525 X45.967 Y-5.004 Z-2.347
N8530 X45.973 Y-5.039 Z-2.26
N8535 X45.976 Y-5.061 Z-2.169
N8540 X45.977 Y-5.068 Z-2.075
N8545 Z5.
N8550 X38.399 Y-4.491
N8555 Z1. F666.67
N8560 Z-2.675 F2000.
N8565 X38.414 Y-4.407
N8570 X38.419 Y-4.322
N8575 Y-3.693
N8580 Y-3.432
N8585 X37.53
N8590 X37.436 Y-3.44
N8595 X37.376 Y-3.449
N8600 X37.283 Y-3.464 Z-2.668
N8605 X37.193 Y-3.478 Z-2.646
N8610 X37.107 Y-3.492 Z-2.61
N8615 X37.027 Y-3.505 Z-2.56
N8620 X36.957 Y-3.516 Z-2.499
N8625 X36.896 Y-3.525 Z-2.428
N8630 X36.848 Y-3.533 Z-2.347
N8635 X36.812 Y-3.539 Z-2.26
N8640 X36.79 Y-3.542 Z-2.169
N8645 X36.783 Y-3.543 Z-2.075
N8650 Z5.
N8655 X34.199 Y-3.702
N8660 Z1. F666.67
N8665 Z-2.675 F2000.
N8670 X34.198
N8675 X33.569
N8680 X33.509
N8685 X33.739 Y-4.129
N8690 X33.78 Y-4.215
N8695 X33.812 Y-4.305
N8700 X33.815 Y-4.314
N8705 X33.843 Y-4.404 Z-2.668
N8710 X33.869 Y-4.492 Z-2.646
N8715 X33.895 Y-4.575 Z-2.61
N8720 X33.918 Y-4.652 Z-2.56
N8725 X33.939 Y-4.72 Z-2.499
N8730 X33.957 Y-4.778 Z-2.428
N8735 X33.972 Y-4.825 Z-2.347
N8740 X33.982 Y-4.86 Z-2.26
N8745 X33.989 Y-4.881 Z-2.169
N8750 X33.991 Y-4.888 Z-2.075
N8755 Z1.
N8760 X34.633 Y-3.452
N8765 Z-2.675
N8770 X34.549 Y-3.437
N8775 X34.464 Y-3.432
N8780 X32.987
N8785 X33.143 Y-3.62
N8790 X33.184 Y-3.675
N8795 X33.22 Y-3.734
N8800 X33.404 Y-4.076
N8805 X33.501 Y-4.257
N8810 X33.531 Y-4.319
N8815 X33.554 Y-4.384
N8820 X33.638 Y-4.656
N8825 X33.672 Y-4.744
N8830 X33.699 Y-4.799
N8835 X33.74 Y-4.883 Z-2.668
N8840 X33.78 Y-4.965 Z-2.646
N8845 X33.818 Y-5.044 Z-2.61
N8850 X33.854 Y-5.116 Z-2.56
N8855 X33.885 Y-5.18 Z-2.499
N8860 X33.912 Y-5.235 Z-2.428
N8865 X33.933 Y-5.279 Z-2.347
N8870 X33.949 Y-5.312 Z-2.26
N8875 X33.959 Y-5.331 Z-2.169
N8880 X33.962 Y-5.338 Z-2.075
N8885 Z5.
N8890 X62.059 Y-3.702
N8895 Z1. F666.67
N8900 Z-2.675 F2000.
N8905 X62.057
N8910 X61.429
N8915 X60.834
N8920 X61.698 Y-4.568
N8925 X61.701 Y-4.571
N8930 X61.767 Y-4.638 Z-2.668
N8935 X61.832 Y-4.702 Z-2.646
N8940 X61.893 Y-4.764 Z-2.61
N8945 X61.95 Y-4.821 Z-2.56
N8950 X62.001 Y-4.872 Z-2.499
N8955 X62.044 Y-4.915 Z-2.428
N8960 X62.078 Y-4.95 Z-2.347
N8965 X62.104 Y-4.975 Z-2.26
N8970 X62.119 Y-4.991 Z-2.169
N8975 X62.125 Y-4.996 Z-2.075
N8980 Z1.
N8985 X62.493 Y-3.452
N8990 Z-2.675
N8995 X62.409 Y-3.437
N9000 X62.324 Y-3.432
N9005 X60.185
N9010 X61.251 Y-4.502
N9015 X61.695 Y-4.947
N9020 X61.767 Y-5.008
N9025 X61.816 Y-5.044
N9030 X61.892 Y-5.1 Z-2.668
N9035 X61.966 Y-5.154 Z-2.646
N9040 X62.036 Y-5.205 Z-2.61
N9045 X62.101 Y-5.252 Z-2.56
N9050 X62.159 Y-5.294 Z-2.499
N9055 X62.208 Y-5.33 Z-2.428
N9060 X62.248 Y-5.359 Z-2.347
N9065 X62.277 Y-5.38 Z-2.26
N9070 X62.295 Y-5.393 Z-2.169
N9075 X62.301 Y-5.398 Z-2.075
N9080 Z5.
N9085 X61.698 Y5.152
N9090 Z1. F666.67
N9095 Z-2.675 F2000.
N9100 X61.697 Y5.151
N9105 X61.254 Y4.706
N9110 X60.834 Y4.285
N9115 X62.057
N9120 X62.062
N9125 G2 X62.662 Z-2.075 I0. K0.6
N9130 G1 Z1.
N9135 X61.828 Y5.636
N9140 Z-2.675
N9145 X61.758 Y5.587
N9150 X61.695 Y5.53
N9155 X60.184 Y4.015
N9160 X61.695
N9165 X62.324
N9170 X62.418 Y4.023
N9175 X62.478 Y4.032
N9180 X62.57 Y4.047 Z-2.668
N9185 X62.661 Y4.061 Z-2.646
N9190 X62.747 Y4.075 Z-2.61
N9195 X62.826 Y4.087 Z-2.56
N9200 X62.897 Y4.099 Z-2.499
N9205 X62.957 Y4.108 Z-2.428
N9210 X63.006 Y4.116 Z-2.347
N9215 X63.041 Y4.121 Z-2.26
N9220 X63.063 Y4.125 Z-2.169
N9225 X63.07 Y4.126 Z-2.075
N9230 Z5.
N9235 X79.172 Y4.898
N9240 Z1. F666.67
N9245 Z-2.675 F2000.
N9250 X79.171 Y4.897
N9255 X79.167 Y4.883
N9260 X79.135 Y4.793
N9265 X79.093 Y4.707
N9270 X78.892 Y4.335
N9275 X78.865 Y4.285
N9280 X79.554
N9285 X79.559
N9290 G2 X80.159 Z-2.075 I0. K0.6
N9295 G1 Z1.
N9300 X79.063 Y5.395
N9305 Z-2.675
N9310 X79.024 Y5.319
N9315 X78.994 Y5.239
N9320 X78.909 Y4.963
N9325 X78.886 Y4.898
N9330 X78.856 Y4.835
N9335 X78.575 Y4.315
N9340 X78.539 Y4.256
N9345 X78.498 Y4.201
N9350 X78.344 Y4.015
N9355 X79.192
N9360 X79.821
N9365 X79.915 Y4.023
N9370 X79.975 Y4.032
N9375 X80.067 Y4.047 Z-2.668
N9380 X80.158 Y4.061 Z-2.646
N9385 X80.244 Y4.075 Z-2.61
N9390 X80.323 Y4.087 Z-2.56
N9395 X80.394 Y4.099 Z-2.499
N9400 X80.454 Y4.108 Z-2.428
N9405 X80.503 Y4.116 Z-2.347
N9410 X80.538 Y4.121 Z-2.26
N9415 X80.56 Y4.125 Z-2.169
N9420 X80.567 Y4.126 Z-2.075
N9425 Z5.
N9430 X79.556 Y-3.702
N9435 Z1. F666.67
N9440 Z-2.675 F2000.
N9445 X79.554
N9450 X78.926
N9455 X78.865
N9460 X79.095 Y-4.128
N9465 X79.136 Y-4.215
N9470 X79.169 Y-4.305
N9475 X79.172 Y-4.314
N9480 X79.199 Y-4.404 Z-2.668
N9485 X79.226 Y-4.491 Z-2.646
N9490 X79.251 Y-4.574 Z-2.61
N9495 X79.275 Y-4.651 Z-2.56
N9500 X79.296 Y-4.72 Z-2.499
N9505 X79.314 Y-4.778 Z-2.428
N9510 X79.328 Y-4.825 Z-2.347
N9515 X79.339 Y-4.86 Z-2.26
N9520 X79.345 Y-4.881 Z-2.169
N9525 X79.347 Y-4.888 Z-2.075
N9530 Z1.
N9535 X79.99 Y-3.452
N9540 Z-2.675
N9545 X79.906 Y-3.437
N9550 X79.821 Y-3.432
N9555 X78.344
N9560 X78.499 Y-3.619
N9565 X78.54 Y-3.675
N9570 X78.576 Y-3.734
N9575 X78.76 Y-4.075
N9580 X78.858 Y-4.256
N9585 X78.888 Y-4.319
N9590 X78.911 Y-4.384
N9595 X78.994 Y-4.656
N9600 X79.029 Y-4.744
N9605 X79.055 Y-4.798
N9610 X79.097 Y-4.883 Z-2.668
N9615 X79.137 Y-4.965 Z-2.646
N9620 X79.175 Y-5.043 Z-2.61
N9625 X79.21 Y-5.115 Z-2.56
N9630 X79.241 Y-5.18 Z-2.499
N9635 X79.268 Y-5.235 Z-2.428
N9640 X79.29 Y-5.279 Z-2.347
N9645 X79.306 Y-5.311 Z-2.26
N9650 X79.315 Y-5.331 Z-2.169
N9655 X79.319 Y-5.338 Z-2.075
N9660 Z5.
N9665 X47.01 Y-40.035
N9670 Z1. F666.67
N9675 Z-2.675 F2000.
N9680 X47.009
N9685 X46.38 Y-40.036
N9690 X45.786
N9695 X46.65 Y-40.901
N9700 X46.654 Y-40.904
N9705 X46.72 Y-40.971 Z-2.668
N9710 X46.785 Y-41.036 Z-2.646
N9715 X46.846 Y-41.097 Z-2.61
N9720 X46.903 Y-41.154 Z-2.56
N9725 X46.954 Y-41.205 Z-2.499
N9730 X46.997 Y-41.248 Z-2.428
N9735 X47.032 Y-41.283 Z-2.347
N9740 X47.057 Y-41.308 Z-2.26
N9745 X47.073 Y-41.324 Z-2.169
N9750 X47.078 Y-41.329 Z-2.075
N9755 Z1.
N9760 X47.444 Y-39.784
N9765 Z-2.675
N9770 X47.36 Y-39.77
N9775 X47.275 Y-39.765
N9780 X45.136 Y-39.768
N9785 X46.204 Y-40.836
N9790 X46.648 Y-41.281
N9795 X46.72 Y-41.342
N9800 X46.769 Y-41.378
N9805 X46.845 Y-41.433 Z-2.668
N9810 X46.919 Y-41.487 Z-2.646
N9815 X46.989 Y-41.538 Z-2.61
N9820 X47.054 Y-41.585 Z-2.56
N9825 X47.112 Y-41.627 Z-2.499
N9830 X47.162 Y-41.663 Z-2.428
N9835 X47.202 Y-41.692 Z-2.347
N9840 X47.231 Y-41.713 Z-2.26
N9845 X47.248 Y-41.726 Z-2.169
N9850 X47.254 Y-41.73 Z-2.075
N9855 Z5.
N9860 X41.002 Y-46.549
N9865 Z1. F666.67
N9870 Z-2.675 F2000.
N9875 X41.001 Y-46.548
N9880 X40.557 Y-46.103
N9885 X40.136 Y-45.683
N9890 X40.135 Y-46.906
N9895 Y-46.911
N9900 X40.134 Y-47.005 Z-2.668
N9905 Y-47.096 Z-2.646
N9910 Y-47.183 Z-2.61
N9915 Y-47.263 Z-2.56
N9920 Y-47.335 Z-2.499
N9925 Y-47.396 Z-2.428
N9930 Y-47.445 Z-2.347
N9935 Y-47.481 Z-2.26
N9940 Y-47.503 Z-2.169
N9945 Y-47.511 Z-2.075
N9950 Z1.
N9955 X41.486 Y-46.679
N9960 Z-2.675
N9965 X41.437 Y-46.609
N9970 X41.38 Y-46.546
N9975 X39.867 Y-45.033
N9980 X39.865 Y-46.544
N9985 X39.864 Y-47.172
N9990 X39.872 Y-47.266
N9995 X39.881 Y-47.326
N10000 X39.896 Y-47.419 Z-2.668
N10005 X39.91 Y-47.51 Z-2.646
N10010 X39.923 Y-47.596 Z-2.61
N10015 X39.936 Y-47.675 Z-2.56
N10020 X39.947 Y-47.746 Z-2.499
N10025 X39.956 Y-47.806 Z-2.428
N10030 X39.964 Y-47.855 Z-2.347
N10035 X39.97 Y-47.89 Z-2.26
N10040 X39.973 Y-47.912 Z-2.169
N10045 X39.974 Y-47.919 Z-2.075
N10050 Z5.
N10055 X52.717 Y-58.263
N10060 Z1. F666.67
N10065 Z-2.675 F2000.
N10070 X52.716 Y-58.262
N10075 X52.271 Y-57.818
N10080 X52.137 Y-57.683
N10085 X52.121 Y-57.846
N10090 X52.107 Y-57.94
N10095 X52.084 Y-58.033
N10100 X51.954 Y-58.462
N10105 X51.953 Y-58.467
N10110 X51.925 Y-58.556 Z-2.668
N10115 X51.899 Y-58.644 Z-2.646
N10120 X51.873 Y-58.727 Z-2.61
N10125 X51.85 Y-58.804 Z-2.56
N10130 X51.829 Y-58.873 Z-2.499
N10135 X51.812 Y-58.931 Z-2.428
N10140 X51.797 Y-58.978 Z-2.347
N10145 X51.787 Y-59.013 Z-2.26
N10150 X51.78 Y-59.034 Z-2.169
N10155 X51.778 Y-59.041 Z-2.075
N10160 Z1.
N10165 X53.201 Y-58.394
N10170 Z-2.675
N10175 X53.152 Y-58.324
N10180 X53.095 Y-58.26
N10185 X51.914 Y-57.078
N10190 Y-57.16
N10195 X51.91 Y-57.228
N10200 X51.853 Y-57.819
N10205 X51.843 Y-57.888
N10210 X51.826 Y-57.955
N10215 X51.653 Y-58.523
N10220 X51.636 Y-58.574
N10225 X51.614 Y-58.623
N10230 X51.417 Y-59.033
N10235 X51.377 Y-59.118 Z-2.668
N10240 X51.337 Y-59.2 Z-2.646
N10245 X51.299 Y-59.279 Z-2.61
N10250 X51.264 Y-59.351 Z-2.56
N10255 X51.233 Y-59.415 Z-2.499
N10260 X51.207 Y-59.471 Z-2.428
N10265 X51.186 Y-59.515 Z-2.347
N10270 X51.17 Y-59.547 Z-2.26
N10275 X51.16 Y-59.567 Z-2.169
N10280 X51.157 Y-59.574 Z-2.075
N10285 Z5.
N10290 X58.565 Y-51.854
N10295 Z1. F666.67
N10300 Z-2.675 F2000.
N10305 X58.563
N10310 X58.131 Y-51.985
N10315 X58.039 Y-52.008
N10320 X57.945 Y-52.022
N10325 X57.785 Y-52.037
N10330 X58.363 Y-52.616
N10335 X58.367 Y-52.619
N10340 X58.433 Y-52.685 Z-2.668
N10345 X58.498 Y-52.75 Z-2.646
N10350 X58.559 Y-52.812 Z-2.61
N10355 X58.616 Y-52.868 Z-2.56
N10360 X58.667 Y-52.919 Z-2.499
N10365 X58.71 Y-52.962 Z-2.428
N10370 X58.745 Y-52.997 Z-2.347
N10375 X58.77 Y-53.023 Z-2.26
N10380 X58.786 Y-53.038 Z-2.169
N10385 X58.791 Y-53.043 Z-2.075
N10390 Z1.
N10395 X58.892 Y-51.448
N10400 Z-2.675
N10405 X58.807 Y-51.478
N10410 X58.725 Y-51.514
N10415 X58.673 Y-51.537
N10420 X58.62 Y-51.555
N10425 X58.126 Y-51.705
N10430 X58.053 Y-51.727
N10435 X57.987 Y-51.743
N10440 X57.919 Y-51.753
N10445 X57.329 Y-51.811
N10450 X57.261 Y-51.814
N10455 X57.18
N10460 X57.917 Y-52.551
N10465 X58.361 Y-52.995
N10470 X58.433 Y-53.057
N10475 X58.482 Y-53.092
N10480 X58.558 Y-53.148 Z-2.668
N10485 X58.632 Y-53.201 Z-2.646
N10490 X58.703 Y-53.252 Z-2.61
N10495 X58.768 Y-53.3 Z-2.56
N10500 X58.826 Y-53.342 Z-2.499
N10505 X58.875 Y-53.378 Z-2.428
N10510 X58.915 Y-53.407 Z-2.347
N10515 X58.944 Y-53.428 Z-2.26
N10520 X58.962 Y-53.441 Z-2.169
N10525 X58.968 Y-53.445 Z-2.075
N10530 Z5.
N10535 X4.669 Y-61.597
N10540 Z1. F666.67
N10545 Z-2.675 F2000.
N10550 X4.668 Y-61.596
N10555 X4.223 Y-61.152
N10560 X3.802 Y-60.733
N10565 Y-61.955
N10570 Y-61.96
N10575 G19 G2 Y-62.56 Z-2.075 J0. K0.6
N10580 G1 Z1.
N10585 X5.153 Y-61.727
N10590 Z-2.675
N10595 X5.104 Y-61.657
N10600 X5.048 Y-61.593
N10605 X3.533 Y-60.083
N10610 Y-61.594
N10615 Y-62.222
N10620 X3.54 Y-62.316
N10625 X3.549 Y-62.376
N10630 X3.564 Y-62.469 Z-2.668
N10635 X3.578 Y-62.559 Z-2.646
N10640 X3.592 Y-62.645 Z-2.61
N10645 X3.605 Y-62.724 Z-2.56
N10650 X3.616 Y-62.795 Z-2.499
N10655 X3.625 Y-62.856 Z-2.428
N10660 X3.633 Y-62.904 Z-2.347
N10665 X3.639 Y-62.94 Z-2.26
N10670 X3.642 Y-62.961 Z-2.169
N10675 X3.643 Y-62.969 Z-2.075
N10680 Z5.
N10685 X-4.185 Y-61.957
N10690 Z1. F666.67
N10695 Z-2.675 F2000.
N10700 Y-61.955
N10705 Y-61.327
N10710 Y-60.733
N10715 X-5.051 Y-61.596
N10720 X-5.054 Y-61.599
N10725 X-5.121 Y-61.665 Z-2.668
N10730 X-5.185 Y-61.73 Z-2.646
N10735 X-5.247 Y-61.791 Z-2.61
N10740 X-5.304 Y-61.848 Z-2.56
N10745 X-5.355 Y-61.898 Z-2.499
N10750 X-5.398 Y-61.942 Z-2.428
N10755 X-5.433 Y-61.976 Z-2.347
N10760 X-5.458 Y-62.002 Z-2.26
N10765 X-5.474 Y-62.017 Z-2.169
N10770 X-5.479 Y-62.023 Z-2.075
N10775 Z1.
N10780 X-3.935 Y-62.391
N10785 Z-2.675
N10790 X-3.92 Y-62.307
N10795 X-3.915 Y-62.222
N10800 Y-60.083
N10805 X-4.985 Y-61.149
N10810 X-5.43 Y-61.593
N10815 X-5.491 Y-61.664
N10820 X-5.527 Y-61.714
N10825 X-5.583 Y-61.79 Z-2.668
N10830 X-5.637 Y-61.863 Z-2.646
N10835 X-5.688 Y-61.934 Z-2.61
N10840 X-5.735 Y-61.999 Z-2.56
N10845 X-5.777 Y-62.056 Z-2.499
N10850 X-5.813 Y-62.106 Z-2.428
N10855 X-5.842 Y-62.146 Z-2.347
N10860 X-5.864 Y-62.175 Z-2.26
N10865 X-5.876 Y-62.193 Z-2.169
N10870 X-5.881 Y-62.198 Z-2.075
N10875 Z5.
N10880 X-4.185 Y-79.456
N10885 Z1. F666.67
N10890 Z-2.675 F2000.
N10895 Y-79.454
N10900 Y-78.826
N10905 Y-78.765
N10910 X-4.617 Y-78.997
N10915 X-4.704 Y-79.039
N10920 X-4.794 Y-79.071
N10925 X-4.799 Y-79.072
N10930 X-4.888 Y-79.1 Z-2.668
N10935 X-4.976 Y-79.126 Z-2.646
N10940 X-5.059 Y-79.152 Z-2.61
N10945 X-5.136 Y-79.175 Z-2.56
N10950 X-5.204 Y-79.196 Z-2.499
N10955 X-5.263 Y-79.214 Z-2.428
N10960 X-5.31 Y-79.228 Z-2.347
N10965 X-5.344 Y-79.239 Z-2.26
N10970 X-5.365 Y-79.245 Z-2.169
N10975 X-5.372 Y-79.247 Z-2.075
N10980 Z1.
N10985 X-3.935 Y-79.89
N10990 Z-2.675
N10995 X-3.92 Y-79.806
N11000 X-3.915 Y-79.721
N11005 Y-78.243
N11010 X-4.106 Y-78.4
N11015 X-4.161 Y-78.441
N11020 X-4.22 Y-78.477
N11025 X-4.56 Y-78.66
N11030 X-4.745 Y-78.76
N11035 X-4.807 Y-78.79
N11040 X-4.873 Y-78.813
N11045 X-5.14 Y-78.894
N11050 X-5.228 Y-78.929
N11055 X-5.282 Y-78.956
N11060 X-5.367 Y-78.997 Z-2.668
N11065 X-5.449 Y-79.037 Z-2.646
N11070 X-5.527 Y-79.075 Z-2.61
N11075 X-5.599 Y-79.11 Z-2.56
N11080 X-5.664 Y-79.141 Z-2.499
N11085 X-5.719 Y-79.168 Z-2.428
N11090 X-5.763 Y-79.189 Z-2.347
N11095 X-5.795 Y-79.205 Z-2.26
N11100 X-5.815 Y-79.215 Z-2.169
N11105 X-5.822 Y-79.218 Z-2.075
N11110 Z5.
N11115 X4.415 Y-79.07
N11120 Z1. F666.67
N11125 Z-2.675 F2000.
N11130 X4.414
N11135 X4.402 Y-79.066
N11140 X4.312 Y-79.033
N11145 X4.226 Y-78.992
N11150 X3.852 Y-78.79
N11155 X3.802 Y-78.764
N11160 Y-79.452
N11165 Y-79.457
N11170 G2 Y-80.057 Z-2.075 J0. K0.6
N11175 G1 Z1.
N11180 X4.912 Y-78.961
N11185 Z-2.675
N11190 X4.836 Y-78.922
N11195 X4.756 Y-78.892
N11200 X4.481 Y-78.808
N11205 X4.416 Y-78.785
N11210 X4.354 Y-78.755
N11215 X3.833 Y-78.474
N11220 X3.775 Y-78.438
N11225 X3.72 Y-78.397
N11230 X3.533 Y-78.243
N11235 Y-79.09
N11240 Y-79.719
N11245 X3.54 Y-79.813
N11250 X3.549 Y-79.873
N11255 X3.564 Y-79.966 Z-2.668
N11260 X3.578 Y-80.056 Z-2.646
N11265 X3.592 Y-80.142 Z-2.61
N11270 X3.605 Y-80.221 Z-2.56
N11275 X3.616 Y-80.292 Z-2.499
N11280 X3.625 Y-80.352 Z-2.428
N11285 X3.633 Y-80.401 Z-2.347
N11290 X3.639 Y-80.437 Z-2.26
N11295 X3.642 Y-80.458 Z-2.169
N11300 X3.643 Y-80.466 Z-2.075
N11305 Z5.
N11310 X-40.518 Y-46.907
N11315 Z1. F666.67
N11320 Z-2.675 F2000.
N11325 Y-46.906
N11330 X-40.519 Y-46.277
N11335 Y-45.683
N11340 X-41.384 Y-46.548
N11345 X-41.388 Y-46.551
N11350 X-41.454 Y-46.617 Z-2.668
N11355 X-41.519 Y-46.682 Z-2.646
N11360 X-41.58 Y-46.744 Z-2.61
N11365 X-41.637 Y-46.8 Z-2.56
N11370 X-41.688 Y-46.851 Z-2.499
N11375 X-41.731 Y-46.894 Z-2.428
N11380 X-41.766 Y-46.929 Z-2.347
N11385 X-41.791 Y-46.954 Z-2.26
N11390 X-41.807 Y-46.97 Z-2.169
N11395 X-41.812 Y-46.975 Z-2.075
N11400 Z1.
N11405 X-40.267 Y-47.341
N11410 Z-2.675
N11415 X-40.253 Y-47.257
N11420 X-40.248 Y-47.172
N11425 X-40.251 Y-45.033
N11430 X-41.319 Y-46.101
N11435 X-41.764 Y-46.546
N11440 X-41.825 Y-46.617
N11445 X-41.861 Y-46.666
N11450 X-41.916 Y-46.742 Z-2.668
N11455 X-41.97 Y-46.816 Z-2.646
N11460 X-42.021 Y-46.887 Z-2.61
N11465 X-42.068 Y-46.952 Z-2.56
N11470 X-42.11 Y-47.01 Z-2.499
N11475 X-42.146 Y-47.059 Z-2.428
N11480 X-42.175 Y-47.099 Z-2.347
N11485 X-42.196 Y-47.128 Z-2.26
N11490 X-42.209 Y-47.146 Z-2.169
N11495 X-42.213 Y-47.152 Z-2.075
N11500 Z5.
N11505 X-47.034 Y-40.901
N11510 Z1. F666.67
N11515 Z-2.675 F2000.
N11520 X-47.033 Y-40.9
N11525 X-46.589 Y-40.456
N11530 X-46.169 Y-40.035
N11535 X-47.392 Y-40.034
N11540 X-47.396
N11545 X-47.49 Z-2.668
N11550 X-47.582 Y-40.033 Z-2.646
N11555 X-47.669 Z-2.61
N11560 X-47.749 Z-2.56
N11565 X-47.821 Z-2.499
N11570 X-47.882 Z-2.428
N11575 X-47.931 Z-2.347
N11580 X-47.967 Z-2.26
N11585 X-47.989 Z-2.169
N11590 X-47.996 Z-2.075
N11595 Z1.
N11600 X-47.165 Y-41.385
N11605 Z-2.675
N11610 X-47.095 Y-41.336
N11615 X-47.031 Y-41.28
N11620 X-45.519 Y-39.767
N11625 X-47.03 Y-39.764
N11630 X-47.658
N11635 X-47.752 Y-39.771
N11640 X-47.812 Y-39.78
N11645 X-47.905 Y-39.795 Z-2.668
N11650 X-47.995 Y-39.809 Z-2.646
N11655 X-48.081 Y-39.823 Z-2.61
N11660 X-48.16 Y-39.835 Z-2.56
N11665 X-48.231 Y-39.846 Z-2.499
N11670 X-48.292 Y-39.856 Z-2.428
N11675 X-48.34 Y-39.863 Z-2.347
N11680 X-48.376 Y-39.869 Z-2.26
N11685 X-48.398 Y-39.872 Z-2.169
N11690 X-48.405 Y-39.873 Z-2.075
N11695 Z5.
N11700 X-58.747 Y-52.616
N11705 Z1. F666.67
N11710 Z-2.675 F2000.
N11715 X-58.746 Y-52.615
N11720 X-58.302 Y-52.17
N11725 X-58.167 Y-52.036
N11730 X-58.33 Y-52.02
N11735 X-58.424 Y-52.006
N11740 X-58.517 Y-51.983
N11745 X-58.946 Y-51.853
N11750 X-58.951 Y-51.852
N11755 X-59.04 Y-51.824 Z-2.668
N11760 X-59.128 Y-51.798 Z-2.646
N11765 X-59.211 Y-51.773 Z-2.61
N11770 X-59.288 Y-51.749 Z-2.56
N11775 X-59.357 Y-51.729 Z-2.499
N11780 X-59.415 Y-51.711 Z-2.428
N11785 X-59.462 Y-51.697 Z-2.347
N11790 X-59.497 Y-51.686 Z-2.26
N11795 X-59.518 Y-51.68 Z-2.169
N11800 X-59.525 Y-51.678 Z-2.075
N11805 Z1.
N11810 X-58.878 Y-53.1
N11815 Z-2.675
N11820 X-58.808 Y-53.051
N11825 X-58.744 Y-52.994
N11830 X-57.562 Y-51.813
N11835 X-57.645
N11840 X-57.713 Y-51.809
N11845 X-58.304 Y-51.752
N11850 X-58.372 Y-51.742
N11855 X-58.439 Y-51.725
N11860 X-59.007 Y-51.553
N11865 X-59.058 Y-51.535
N11870 X-59.107 Y-51.514
N11875 X-59.517 Y-51.317
N11880 X-59.602 Y-51.276 Z-2.668
N11885 X-59.684 Y-51.236 Z-2.646
N11890 X-59.763 Y-51.198 Z-2.61
N11895 X-59.835 Y-51.164 Z-2.56
N11900 X-59.899 Y-51.133 Z-2.499
N11905 X-59.955 Y-51.106 Z-2.428
N11910 X-59.999 Y-51.085 Z-2.347
N11915 X-60.031 Y-51.069 Z-2.26
N11920 X-60.051 Y-51.06 Z-2.169
N11925 X-60.058 Y-51.056 Z-2.075
N11930 Z5.
N11935 X-52.337 Y-58.464
N11940 Z1. F666.67
N11945 Z-2.675 F2000.
N11950 Y-58.462
N11955 X-52.468 Y-58.031
N11960 X-52.491 Y-57.938
N11965 X-52.505 Y-57.844
N11970 X-52.52 Y-57.683
N11975 X-53.099 Y-58.262
N11980 X-53.102 Y-58.265
N11985 X-53.169 Y-58.332 Z-2.668
N11990 X-53.233 Y-58.396 Z-2.646
N11995 X-53.295 Y-58.458 Z-2.61
N12000 X-53.352 Y-58.515 Z-2.56
N12005 X-53.402 Y-58.565 Z-2.499
N12010 X-53.446 Y-58.609 Z-2.428
N12015 X-53.48 Y-58.643 Z-2.347
N12020 X-53.506 Y-58.669 Z-2.26
N12025 X-53.521 Y-58.684 Z-2.169
N12030 X-53.527 Y-58.69 Z-2.075
N12035 Z1.
N12040 X-51.932 Y-58.789
N12045 Z-2.675
N12050 X-51.961 Y-58.705
N12055 X-51.997 Y-58.624
N12060 X-52.02 Y-58.572
N12065 X-52.038 Y-58.519
N12070 X-52.188 Y-58.025
N12075 X-52.21 Y-57.953
N12080 X-52.226 Y-57.886
N12085 X-52.236 Y-57.818
N12090 X-52.294 Y-57.228
N12095 X-52.297 Y-57.161
N12100 Y-57.078
N12105 X-53.034 Y-57.816
N12110 X-53.479 Y-58.26
N12115 X-53.54 Y-58.332
N12120 X-53.576 Y-58.381
N12125 X-53.631 Y-58.457 Z-2.668
N12130 X-53.685 Y-58.531 Z-2.646
N12135 X-53.736 Y-58.601 Z-2.61
N12140 X-53.783 Y-58.666 Z-2.56
N12145 X-53.825 Y-58.724 Z-2.499
N12150 X-53.861 Y-58.774 Z-2.428
N12155 X-53.89 Y-58.814 Z-2.347
N12160 X-53.911 Y-58.843 Z-2.26
N12165 X-53.924 Y-58.861 Z-2.169
N12170 X-53.928 Y-58.866 Z-2.075
N12175 Z5.
N12180 X-62.08 Y-4.569
N12185 Z1. F666.67
N12190 Z-2.675 F2000.
N12195 X-62.079 Y-4.567
N12200 X-61.636 Y-4.122
N12205 X-61.216 Y-3.702
N12210 X-62.439
N12215 X-62.443
N12220 G18 G3 X-63.043 Z-2.075 I0. K0.6
N12225 G1 Z1.
N12230 X-62.21 Y-5.053
N12235 Z-2.675
N12240 X-62.14 Y-5.004
N12245 X-62.077 Y-4.947
N12250 X-60.566 Y-3.432
N12255 X-62.077
N12260 X-62.706
N12265 X-62.799 Y-3.439
N12270 X-62.86 Y-3.449
N12275 X-62.952 Y-3.463 Z-2.668
N12280 X-63.043 Y-3.478 Z-2.646
N12285 X-63.129 Y-3.491 Z-2.61
N12290 X-63.208 Y-3.504 Z-2.56
N12295 X-63.279 Y-3.515 Z-2.499
N12300 X-63.339 Y-3.525 Z-2.428
N12305 X-63.388 Y-3.532 Z-2.347
N12310 X-63.423 Y-3.538 Z-2.26
N12315 X-63.445 Y-3.541 Z-2.169
N12320 X-63.452 Y-3.543 Z-2.075
N12325 Z5.
N12330 X-62.441 Y4.285
N12335 Z1. F666.67
N12340 Z-2.675 F2000.
N12345 X-62.439
N12350 X-61.811
N12355 X-61.216
N12360 X-62.08 Y5.151
N12365 X-62.083 Y5.155
N12370 X-62.149 Y5.221 Z-2.668
N12375 X-62.214 Y5.286 Z-2.646
N12380 X-62.275 Y5.348 Z-2.61
N12385 X-62.332 Y5.404 Z-2.56
N12390 X-62.383 Y5.455 Z-2.499
N12395 X-62.426 Y5.498 Z-2.428
N12400 X-62.46 Y5.533 Z-2.347
N12405 X-62.486 Y5.559 Z-2.26
N12410 X-62.501 Y5.574 Z-2.169
N12415 X-62.507 Y5.58 Z-2.075
N12420 Z1.
N12425 X-62.875 Y4.036
N12430 Z-2.675
N12435 X-62.791 Y4.021
N12440 X-62.706 Y4.016
N12445 X-60.566
N12450 X-61.633 Y5.086
N12455 X-62.077 Y5.531
N12460 X-62.148 Y5.592
N12465 X-62.198 Y5.628
N12470 X-62.274 Y5.683 Z-2.668
N12475 X-62.348 Y5.737 Z-2.646
N12480 X-62.418 Y5.788 Z-2.61
N12485 X-62.483 Y5.836 Z-2.56
N12490 X-62.541 Y5.878 Z-2.499
N12495 X-62.59 Y5.914 Z-2.428
N12500 X-62.63 Y5.943 Z-2.347
N12505 X-62.659 Y5.964 Z-2.26
N12510 X-62.677 Y5.977 Z-2.169
N12515 X-62.683 Y5.981 Z-2.075
N12520 Z5.
N12525 X-79.938 Y4.285
N12530 Z1. F666.67
N12535 Z-2.675 F2000.
N12540 X-79.936
N12545 X-79.308
N12550 X-79.247
N12555 X-79.477 Y4.712
N12560 X-79.519 Y4.798
N12565 X-79.551 Y4.888
N12570 X-79.554 Y4.897
N12575 X-79.581 Y4.987 Z-2.668
N12580 X-79.608 Y5.075 Z-2.646
N12585 X-79.633 Y5.158 Z-2.61
N12590 X-79.657 Y5.235 Z-2.56
N12595 X-79.678 Y5.303 Z-2.499
N12600 X-79.696 Y5.361 Z-2.428
N12605 X-79.71 Y5.409 Z-2.347
N12610 X-79.721 Y5.443 Z-2.26
N12615 X-79.727 Y5.464 Z-2.169
N12620 X-79.729 Y5.471 Z-2.075
N12625 Z1.
N12630 X-80.372 Y4.036
N12635 Z-2.675
N12640 X-80.288 Y4.021
N12645 X-80.203 Y4.016
N12650 X-78.726
N12655 X-78.881 Y4.203
N12660 X-78.922 Y4.258
N12665 X-78.958 Y4.317
N12670 X-79.142 Y4.659
N12675 X-79.24 Y4.84
N12680 X-79.27 Y4.902
N12685 X-79.293 Y4.967
N12690 X-79.376 Y5.24
N12695 X-79.411 Y5.327
N12700 X-79.438 Y5.382
N12705 X-79.479 Y5.466 Z-2.668
N12710 X-79.519 Y5.549 Z-2.646
N12715 X-79.557 Y5.627 Z-2.61
N12720 X-79.592 Y5.699 Z-2.56
N12725 X-79.624 Y5.763 Z-2.499
N12730 X-79.65 Y5.818 Z-2.428
N12735 X-79.672 Y5.862 Z-2.347
N12740 X-79.688 Y5.895 Z-2.26
N12745 X-79.697 Y5.915 Z-2.169
N12750 X-79.701 Y5.921 Z-2.075
N12755 Z5.
N12760 X-79.553 Y-4.315
N12765 Z1. F666.67
N12770 Z-2.675 F2000.
N12775 Y-4.313
N12780 X-79.549 Y-4.3
N12785 X-79.516 Y-4.21
N12790 X-79.475 Y-4.124
N12795 X-79.274 Y-3.751
N12800 X-79.247 Y-3.702
N12805 X-79.936
N12810 X-79.94
N12815 G3 X-80.54 Z-2.075 I0. K0.6
N12820 G1 Z1.
N12825 X-79.445 Y-4.811
N12830 Z-2.675
N12835 X-79.406 Y-4.735
N12840 X-79.376 Y-4.655
N12845 X-79.291 Y-4.379
N12850 X-79.267 Y-4.314
N12855 X-79.238 Y-4.252
N12860 X-78.957 Y-3.732
N12865 X-78.921 Y-3.673
N12870 X-78.88 Y-3.618
N12875 X-78.726 Y-3.432
N12880 X-79.574
N12885 X-80.202
N12890 X-80.296 Y-3.439
N12895 X-80.356 Y-3.449
N12900 X-80.449 Y-3.463 Z-2.668
N12905 X-80.539 Y-3.478 Z-2.646
N12910 X-80.625 Y-3.491 Z-2.61
N12915 X-80.705 Y-3.504 Z-2.56
N12920 X-80.775 Y-3.515 Z-2.499
N12925 X-80.836 Y-3.525 Z-2.428
N12930 X-80.884 Y-3.532 Z-2.347
N12935 X-80.92 Y-3.538 Z-2.26
N12940 X-80.942 Y-3.541 Z-2.169
N12945 X-80.949 Y-3.543 Z-2.075
N12950 Z5.
N12955 X-47.392 Y40.618
N12960 Z1. F666.67
N12965 Z-2.675 F2000.
N12970 X-47.391
N12975 X-46.762 Y40.619
N12980 X-46.168 Y40.62
N12985 X-47.032 Y41.485
N12990 X-47.036 Y41.488
N12995 X-47.102 Y41.554 Z-2.668
N13000 X-47.167 Y41.619 Z-2.646
N13005 X-47.228 Y41.681 Z-2.61
N13010 X-47.285 Y41.737 Z-2.56
N13015 X-47.336 Y41.788 Z-2.499
N13020 X-47.379 Y41.831 Z-2.428
N13025 X-47.414 Y41.866 Z-2.347
N13030 X-47.439 Y41.892 Z-2.26
N13035 X-47.455 Y41.907 Z-2.169
N13040 X-47.46 Y41.912 Z-2.075
N13045 Z1.
N13050 X-47.826 Y40.368
N13055 Z-2.675
N13060 X-47.742 Y40.353
N13065 X-47.657 Y40.348
N13070 X-45.518 Y40.351
N13075 X-46.586 Y41.42
N13080 X-47.03 Y41.864
N13085 X-47.102 Y41.925
N13090 X-47.151 Y41.961
N13095 X-47.227 Y42.016 Z-2.668
N13100 X-47.301 Y42.07 Z-2.646
N13105 X-47.371 Y42.121 Z-2.61
N13110 X-47.436 Y42.168 Z-2.56
N13115 X-47.494 Y42.21 Z-2.499
N13120 X-47.544 Y42.246 Z-2.428
N13125 X-47.583 Y42.275 Z-2.347
N13130 X-47.613 Y42.297 Z-2.26
N13135 X-47.63 Y42.309 Z-2.169
N13140 X-47.636 Y42.314 Z-2.075
N13145 Z5.
N13150 X-41.384 Y47.133
N13155 Z1. F666.67
N13160 Z-2.675 F2000.
N13165 X-41.383 Y47.132
N13170 X-40.939 Y46.688
N13175 X-40.518 Y46.267
N13180 X-40.517 Y47.49
N13185 Y47.495
N13190 Y47.589 Z-2.668
N13195 X-40.516 Y47.681 Z-2.646
N13200 Y47.767 Z-2.61
N13205 Y47.848 Z-2.56
N13210 Y47.919 Z-2.499
N13215 Y47.981 Z-2.428
N13220 Y48.03 Z-2.347
N13225 Y48.066 Z-2.26
N13230 Y48.088 Z-2.169
N13235 Y48.095 Z-2.075
N13240 Z1.
N13245 X-41.868 Y47.264
N13250 Z-2.675
N13255 X-41.819 Y47.194
N13260 X-41.763 Y47.13
N13265 X-40.25 Y45.617
N13270 X-40.247 Y47.128
N13275 Y47.757
N13280 X-40.254 Y47.851
N13285 X-40.263 Y47.911
N13290 X-40.278 Y48.004 Z-2.668
N13295 X-40.292 Y48.094 Z-2.646
N13300 X-40.306 Y48.18 Z-2.61
N13305 X-40.318 Y48.259 Z-2.56
N13310 X-40.329 Y48.33 Z-2.499
N13315 X-40.339 Y48.39 Z-2.428
N13320 X-40.346 Y48.439 Z-2.347
N13325 X-40.352 Y48.475 Z-2.26
N13330 X-40.355 Y48.496 Z-2.169
N13335 X-40.356 Y48.504 Z-2.075
N13340 Z5.
N13345 X-53.099 Y58.848
N13350 Z1. F666.67
N13355 Z-2.675 F2000.
N13360 X-53.098 Y58.847
N13365 X-52.654 Y58.402
N13370 X-52.519 Y58.268
N13375 X-52.503 Y58.43
N13380 X-52.489 Y58.525
N13385 X-52.466 Y58.617
N13390 X-52.336 Y59.047
N13395 X-52.335 Y59.051
N13400 X-52.308 Y59.141 Z-2.668
N13405 X-52.281 Y59.229 Z-2.646
N13410 X-52.256 Y59.312 Z-2.61
N13415 X-52.232 Y59.389 Z-2.56
N13420 X-52.212 Y59.457 Z-2.499
N13425 X-52.194 Y59.516 Z-2.428
N13430 X-52.18 Y59.563 Z-2.347
N13435 X-52.169 Y59.597 Z-2.26
N13440 X-52.163 Y59.618 Z-2.169
N13445 X-52.161 Y59.625 Z-2.075
N13450 Z1.
N13455 X-53.583 Y58.978
N13460 Z-2.675
N13465 X-53.534 Y58.908
N13470 X-53.478 Y58.845
N13475 X-52.296 Y57.663
N13480 Y57.745
N13485 X-52.293 Y57.813
N13490 X-52.235 Y58.404
N13495 X-52.225 Y58.472
N13500 X-52.208 Y58.539
N13505 X-52.036 Y59.107
N13510 X-52.018 Y59.158
N13515 X-51.997 Y59.208
N13520 X-51.799 Y59.618
N13525 X-51.759 Y59.702 Z-2.668
N13530 X-51.719 Y59.785 Z-2.646
N13535 X-51.681 Y59.863 Z-2.61
N13540 X-51.646 Y59.935 Z-2.56
N13545 X-51.615 Y60. Z-2.499
N13550 X-51.589 Y60.055 Z-2.428
N13555 X-51.568 Y60.099 Z-2.347
N13560 X-51.552 Y60.132 Z-2.26
N13565 X-51.542 Y60.152 Z-2.169
N13570 X-51.539 Y60.158 Z-2.075
N13575 Z5.
N13580 X-58.947 Y52.437
N13585 Z1. F666.67
N13590 Z-2.675 F2000.
N13595 X-58.945 Y52.438
N13600 X-58.514 Y52.568
N13605 X-58.421 Y52.591
N13610 X-58.327 Y52.605
N13615 X-58.166 Y52.621
N13620 X-58.745 Y53.199
N13625 X-58.748 Y53.203
N13630 X-58.815 Y53.269 Z-2.668
N13635 X-58.879 Y53.334 Z-2.646
N13640 X-58.941 Y53.395 Z-2.61
N13645 X-58.998 Y53.452 Z-2.56
N13650 X-59.048 Y53.503 Z-2.499
N13655 X-59.092 Y53.546 Z-2.428
N13660 X-59.126 Y53.581 Z-2.347
N13665 X-59.152 Y53.606 Z-2.26
N13670 X-59.167 Y53.622 Z-2.169
N13675 X-59.173 Y53.627 Z-2.075
N13680 Z1.
N13685 X-59.272 Y52.032
N13690 Z-2.675
N13695 X-59.188 Y52.062
N13700 X-59.107 Y52.098
N13705 X-59.055 Y52.12
N13710 X-59.002 Y52.139
N13715 X-58.508 Y52.288
N13720 X-58.436 Y52.31
N13725 X-58.369 Y52.327
N13730 X-58.301 Y52.337
N13735 X-57.711 Y52.394
N13740 X-57.644 Y52.397
N13745 X-57.561
N13750 X-58.299 Y53.135
N13755 X-58.743 Y53.579
N13760 X-58.815 Y53.64
N13765 X-58.864 Y53.676
N13770 X-58.94 Y53.731 Z-2.668
N13775 X-59.014 Y53.785 Z-2.646
N13780 X-59.084 Y53.836 Z-2.61
N13785 X-59.149 Y53.883 Z-2.56
N13790 X-59.207 Y53.925 Z-2.499
N13795 X-59.257 Y53.961 Z-2.428
N13800 X-59.296 Y53.99 Z-2.347
N13805 X-59.326 Y54.011 Z-2.26
N13810 X-59.343 Y54.024 Z-2.169
N13815 X-59.349 Y54.029 Z-2.075
N13820 Z5.
N13825 X-5.051 Y62.18
N13830 Z1. F666.67
N13835 Z-2.675 F2000.
N13840 X-5.05 Y62.179
N13845 X-4.605 Y61.736
N13850 X-4.184 Y61.316
N13855 Y62.539
N13860 Y62.543
N13865 G19 G3 Y63.143 Z-2.075 J0. K0.6
N13870 G1 Z1.
N13875 X-5.535 Y62.31
N13880 Z-2.675
N13885 X-5.486 Y62.24
N13890 X-5.429 Y62.176
N13895 X-3.914 Y60.667
N13900 Y62.177
N13905 Y62.806
N13910 X-3.922 Y62.899
N13915 X-3.931 Y62.96
N13920 X-3.946 Y63.052 Z-2.668
N13925 X-3.96 Y63.143 Z-2.646
N13930 X-3.974 Y63.229 Z-2.61
N13935 X-3.987 Y63.308 Z-2.56
N13940 X-3.998 Y63.379 Z-2.499
N13945 X-4.007 Y63.439 Z-2.428
N13950 X-4.015 Y63.488 Z-2.347
N13955 X-4.021 Y63.523 Z-2.26
N13960 X-4.024 Y63.545 Z-2.169
N13965 X-4.025 Y63.552 Z-2.075
N13970 Z5.
N13975 X3.803 Y62.54
N13980 Z1. F666.67
N13985 Z-2.675 F2000.
N13990 Y62.539
N13995 Y61.91
N14000 Y61.316
N14005 X4.668 Y62.179
N14010 X4.672 Y62.183
N14015 X4.738 Y62.249 Z-2.668
N14020 X4.803 Y62.313 Z-2.646
N14025 X4.865 Y62.375 Z-2.61
N14030 X4.922 Y62.431 Z-2.56
N14035 X4.972 Y62.482 Z-2.499
N14040 X5.016 Y62.525 Z-2.428
N14045 X5.05 Y62.56 Z-2.347
N14050 X5.076 Y62.585 Z-2.26
N14055 X5.092 Y62.601 Z-2.169
N14060 X5.097 Y62.606 Z-2.075
N14065 Z1.
N14070 X3.553 Y62.975
N14075 Z-2.675
N14080 X3.538 Y62.891
N14085 X3.533 Y62.806
N14090 Y60.667
N14095 X4.603 Y61.733
N14100 X5.048 Y62.176
N14105 X5.109 Y62.248
N14110 X5.145 Y62.297
N14115 X5.2 Y62.373 Z-2.668
N14120 X5.254 Y62.447 Z-2.646
N14125 X5.306 Y62.517 Z-2.61
N14130 X5.353 Y62.582 Z-2.56
N14135 X5.395 Y62.64 Z-2.499
N14140 X5.431 Y62.689 Z-2.428
N14145 X5.46 Y62.729 Z-2.347
N14150 X5.481 Y62.758 Z-2.26
N14155 X5.494 Y62.776 Z-2.169
N14160 X5.499 Y62.782 Z-2.075
N14165 Z5.
N14170 X3.803 Y80.039
N14175 Z1. F666.67
N14180 Z-2.675 F2000.
N14185 Y80.037
N14190 Y79.409
N14195 Y79.348
N14200 X4.229 Y79.578
N14205 X4.316 Y79.62
N14210 X4.406 Y79.652
N14215 X4.415 Y79.655
N14220 X4.505 Y79.682 Z-2.668
N14225 X4.593 Y79.709 Z-2.646
N14230 X4.676 Y79.735 Z-2.61
N14235 X4.753 Y79.758 Z-2.56
N14240 X4.821 Y79.779 Z-2.499
N14245 X4.879 Y79.797 Z-2.428
N14250 X4.926 Y79.811 Z-2.347
N14255 X4.961 Y79.822 Z-2.26
N14260 X4.982 Y79.828 Z-2.169
N14265 X4.989 Y79.83 Z-2.075
N14270 Z1.
N14275 X3.553 Y80.473
N14280 Z-2.675
N14285 X3.538 Y80.389
N14290 X3.533 Y80.304
N14295 Y78.827
N14300 X3.72 Y78.982
N14305 X3.776 Y79.023
N14310 X3.835 Y79.059
N14315 X4.176 Y79.243
N14320 X4.357 Y79.341
N14325 X4.42 Y79.371
N14330 X4.485 Y79.394
N14335 X4.757 Y79.477
N14340 X4.844 Y79.512
N14345 X4.899 Y79.539
N14350 X4.984 Y79.58 Z-2.668
N14355 X5.066 Y79.62 Z-2.646
N14360 X5.144 Y79.658 Z-2.61
N14365 X5.216 Y79.693 Z-2.56
N14370 X5.281 Y79.725 Z-2.499
N14375 X5.336 Y79.751 Z-2.428
N14380 X5.38 Y79.773 Z-2.347
N14385 X5.412 Y79.789 Z-2.26
N14390 X5.432 Y79.798 Z-2.169
N14395 X5.439 Y79.802 Z-2.075
N14400 Z5.
N14405 X-4.797 Y79.656
N14410 Z1. F666.67
N14415 Z-2.675 F2000.
N14420 X-4.796 Y79.655
N14425 X-4.783 Y79.651
N14430 X-4.692 Y79.619
N14435 X-4.606 Y79.577
N14440 X-4.234 Y79.376
N14445 X-4.184 Y79.349
N14450 Y80.038
N14455 Y80.043
N14460 G3 Y80.643 Z-2.075 J0. K0.6
N14465 G1 Z1.
N14470 X-5.294 Y79.547
N14475 Z-2.675
N14480 X-5.218 Y79.508
N14485 X-5.138 Y79.478
N14490 X-4.862 Y79.393
N14495 X-4.797 Y79.37
N14500 X-4.734 Y79.34
N14505 X-4.214 Y79.058
N14510 X-4.155 Y79.022
N14515 X-4.1 Y78.981
N14520 X-3.914 Y78.827
N14525 Y79.676
N14530 Y80.305
N14535 X-3.922 Y80.399
N14540 X-3.931 Y80.459
N14545 X-3.946 Y80.551 Z-2.668
N14550 X-3.96 Y80.642 Z-2.646
N14555 X-3.974 Y80.728 Z-2.61
N14560 X-3.987 Y80.807 Z-2.56
N14565 X-3.998 Y80.878 Z-2.499
N14570 X-4.007 Y80.938 Z-2.428
N14575 X-4.015 Y80.987 Z-2.347
N14580 X-4.021 Y81.022 Z-2.26
N14585 X-4.024 Y81.044 Z-2.169
N14590 X-4.025 Y81.051 Z-2.075
N14595 Z5.
N14600 X40.136 Y47.491
N14605 Z1. F666.67
N14610 Z-2.675 F2000.
N14615 Y47.489
N14620 Y46.861
N14625 X40.137 Y46.266
N14630 X41.002 Y47.131
N14635 X41.005 Y47.135
N14640 X41.072 Y47.201 Z-2.668
N14645 X41.137 Y47.266 Z-2.646
N14650 X41.198 Y47.327 Z-2.61
N14655 X41.255 Y47.384 Z-2.56
N14660 X41.305 Y47.435 Z-2.499
N14665 X41.349 Y47.478 Z-2.428
N14670 X41.383 Y47.513 Z-2.347
N14675 X41.409 Y47.538 Z-2.26
N14680 X41.424 Y47.554 Z-2.169
N14685 X41.43 Y47.559 Z-2.075
N14690 Z1.
N14695 X39.885 Y47.925
N14700 Z-2.675
N14705 X39.87 Y47.841
N14710 X39.865 Y47.756
N14715 X39.868 Y45.616
N14720 X40.937 Y46.685
N14725 X41.381 Y47.129
N14730 X41.443 Y47.201
N14735 X41.478 Y47.25
N14740 X41.534 Y47.326 Z-2.668
N14745 X41.587 Y47.4 Z-2.646
N14750 X41.639 Y47.47 Z-2.61
N14755 X41.686 Y47.535 Z-2.56
N14760 X41.728 Y47.593 Z-2.499
N14765 X41.764 Y47.643 Z-2.428
N14770 X41.793 Y47.683 Z-2.347
N14775 X41.814 Y47.712 Z-2.26
N14780 X41.827 Y47.729 Z-2.169
N14785 X41.831 Y47.735 Z-2.075
N14790 Z5.
N14795 X46.651 Y41.485
N14800 Z1. F666.67
N14805 Z-2.675 F2000.
N14810 X46.65 Y41.484
N14815 X46.206 Y41.039
N14820 X45.786 Y40.619
N14825 X47.008 Y40.617
N14830 X47.013
N14835 X47.107 Z-2.668
N14840 X47.198 Z-2.646
N14845 X47.285 Z-2.61
N14850 X47.366 Z-2.56
N14855 X47.437 Z-2.499
N14860 X47.498 Z-2.428
N14865 X47.548 Y40.616 Z-2.347
N14870 X47.584 Z-2.26
N14875 X47.606 Z-2.169
N14880 X47.613 Z-2.075
N14885 Z1.
N14890 X46.782 Y41.969
N14895 Z-2.675
N14900 X46.712 Y41.92
N14905 X46.648 Y41.863
N14910 X45.136 Y40.35
N14915 X46.646 Y40.348
N14920 X47.275 Y40.347
N14925 X47.369 Y40.354
N14930 X47.429 Y40.364
N14935 X47.522 Y40.378 Z-2.668
N14940 X47.612 Y40.393 Z-2.646
N14945 X47.698 Y40.406 Z-2.61
N14950 X47.777 Y40.418 Z-2.56
N14955 X47.848 Y40.43 Z-2.499
N14960 X47.908 Y40.439 Z-2.428
N14965 X47.957 Y40.447 Z-2.347
N14970 X47.993 Y40.452 Z-2.26
N14975 X48.014 Y40.456 Z-2.169
N14980 X48.022 Y40.457 Z-2.075
N14985 Z5.
N14990 X58.364 Y53.199
N14995 Z1. F666.67
N15000 Z-2.675 F2000.
N15005 X58.363 Y53.198
N15010 X57.918 Y52.754
N15015 X57.784 Y52.62
N15020 X57.947 Y52.604
N15025 X58.041 Y52.59
N15030 X58.134 Y52.567
N15035 X58.563 Y52.436
N15040 X58.567 Y52.435
N15045 X58.657 Y52.408 Z-2.668
N15050 X58.745 Y52.381 Z-2.646
N15055 X58.828 Y52.356 Z-2.61
N15060 X58.905 Y52.333 Z-2.56
N15065 X58.973 Y52.312 Z-2.499
N15070 X59.032 Y52.294 Z-2.428
N15075 X59.079 Y52.28 Z-2.347
N15080 X59.113 Y52.269 Z-2.26
N15085 X59.134 Y52.263 Z-2.169
N15090 X59.141 Y52.261 Z-2.075
N15095 Z1.
N15100 X58.495 Y53.683
N15105 Z-2.675
N15110 X58.425 Y53.635
N15115 X58.361 Y53.578
N15120 X57.179 Y52.396
N15125 X57.261
N15130 X57.329 Y52.393
N15135 X57.92 Y52.335
N15140 X57.989 Y52.325
N15145 X58.055 Y52.308
N15150 X58.624 Y52.136
N15155 X58.675 Y52.118
N15160 X58.724 Y52.097
N15165 X59.134 Y51.9
N15170 X59.218 Y51.859 Z-2.668
N15175 X59.301 Y51.82 Z-2.646
N15180 X59.379 Y51.782 Z-2.61
N15185 X59.452 Y51.747 Z-2.56
N15190 X59.516 Y51.716 Z-2.499
N15195 X59.571 Y51.69 Z-2.428
N15200 X59.616 Y51.668 Z-2.347
N15205 X59.648 Y51.653 Z-2.26
N15210 X59.668 Y51.643 Z-2.169
N15215 X59.675 Y51.64 Z-2.075
N15220 Z5.
N15225 X51.954 Y59.048
N15230 Z1. F666.67
N15235 Z-2.675 F2000.
N15240 X51.955 Y59.046
N15245 X52.086 Y58.614
N15250 X52.109 Y58.522
N15255 X52.123 Y58.427
N15260 X52.138 Y58.267
N15265 X52.717 Y58.846
N15270 X52.72 Y58.849
N15275 X52.786 Y58.916 Z-2.668
N15280 X52.851 Y58.98 Z-2.646
N15285 X52.913 Y59.042 Z-2.61
N15290 X52.969 Y59.099 Z-2.56
N15295 X53.02 Y59.149 Z-2.499
N15300 X53.063 Y59.193 Z-2.428
N15305 X53.098 Y59.227 Z-2.347
N15310 X53.123 Y59.253 Z-2.26
N15315 X53.139 Y59.268 Z-2.169
N15320 X53.144 Y59.274 Z-2.075
N15325 Z1.
N15330 X51.549 Y59.375
N15335 Z-2.675
N15340 X51.579 Y59.29
N15345 X51.615 Y59.207
N15350 X51.638 Y59.156
N15355 X51.656 Y59.103
N15360 X51.805 Y58.609
N15365 X51.827 Y58.536
N15370 X51.844 Y58.469
N15375 X51.854 Y58.401
N15380 X51.911 Y57.812
N15385 X51.915 Y57.744
N15390 Y57.662
N15395 X52.652 Y58.4
N15400 X53.096 Y58.844
N15405 X53.157 Y58.916
N15410 X53.193 Y58.965
N15415 X53.248 Y59.041 Z-2.668
N15420 X53.302 Y59.115 Z-2.646
N15425 X53.353 Y59.185 Z-2.61
N15430 X53.4 Y59.25 Z-2.56
N15435 X53.442 Y59.308 Z-2.499
N15440 X53.478 Y59.358 Z-2.428
N15445 X53.507 Y59.398 Z-2.347
N15450 X53.528 Y59.427 Z-2.26
N15455 X53.541 Y59.445 Z-2.169
N15460 X53.546 Y59.451 Z-2.075
N15465 Z15.
N15470 G17
(WHEN USING FUSION 360 FOR PERSONAL USE, THE FEEDRATE OF)
(RAPID MOVES IS REDUCED TO MATCH THE FEEDRATE OF CUTTING)
(MOVES, WHICH CAN INCREASE MACHINING TIME. UNRESTRICTED RAPID)
(MOVES ARE AVAILABLE WITH A FUSION 360 SUBSCRIPTION.)
(2D CONTOUR3)
N15475 G0 X14.46 Y10.435
N15480 G1 Z15. F2000.
N15485 Z5.
N15490 Z1. F666.67
N15495 Z-3.075
N15500 X14.334 Y10.617 F2000.
N15505 G2 X14.369 Y11. I0.247 J0.171
N15510 G1 X18.992 Y15.623
N15515 X19.037 Y15.66
N15520 X19.089 Y15.688
N15525 X19.145 Y15.705
N15530 X19.204 Y15.711
N15535 X27.016
N15540 X27.291 Y15.724
N15545 X27.555 Y15.763
N15550 X27.813 Y15.827
N15555 X28.065 Y15.917
N15560 X28.306 Y16.031
N15565 X28.535 Y16.169
N15570 X28.75 Y16.328
N15575 X28.948 Y16.507
N15580 X29.128 Y16.705
N15585 X29.288 Y16.92
N15590 X29.425 Y17.149
N15595 X29.54 Y17.39
N15600 X29.63 Y17.642
N15605 X29.695 Y17.902
N15610 X29.734 Y18.167
N15615 X29.747 Y18.435
N15620 X29.734 Y18.702
N15625 X29.695 Y18.966
N15630 X29.631 Y19.224
N15635 X29.541 Y19.476
N15640 X29.427 Y19.717
N15645 X29.289 Y19.946
N15650 X29.13 Y20.161
N15655 X28.951 Y20.359
N15660 X28.753 Y20.539
N15665 X28.538 Y20.699
N15670 X28.309 Y20.836
N15675 X28.068 Y20.951
N15680 X27.816 Y21.041
N15685 X27.556 Y21.106
N15690 X27.291 Y21.145
N15695 X27.016 Y21.158
N15700 X25.251
N15705 G2 X25.039 Y21.671 I0. J0.3
N15710 G1 X29.835 Y26.466
N15715 G2 X30.259 I0.212 J-0.212
N15720 G1 X31.14 Y25.585
N15725 X31.344 Y25.4
N15730 X31.558 Y25.241
N15735 X31.786 Y25.104
N15740 X32.027 Y24.99
N15745 X32.279 Y24.899
N15750 X32.539 Y24.834
N15755 X32.804 Y24.795
N15760 X33.071 Y24.782
N15765 X33.339 Y24.795
N15770 X33.603 Y24.834
N15775 X33.862 Y24.899
N15780 X34.115 Y24.989
N15785 X34.356 Y25.104
N15790 X34.584 Y25.241
N15795 X34.798 Y25.4
N15800 X34.997 Y25.58
N15805 X35.177 Y25.779
N15810 X35.336 Y25.992
N15815 X35.473 Y26.22
N15820 X35.588 Y26.462
N15825 X35.678 Y26.713
N15830 X35.743 Y26.972
N15835 X35.782 Y27.236
N15840 X35.795 Y27.504
N15845 X35.782 Y27.771
N15850 X35.744 Y28.035
N15855 X35.679 Y28.294
N15860 X35.589 Y28.546
N15865 X35.475 Y28.788
N15870 X35.337 Y29.017
N15875 X35.177 Y29.232
N15880 X34.992 Y29.436
N15885 X34.111 Y30.317
N15890 G2 Y30.741 I0.212 J0.212
N15895 G1 X37.195 Y33.826
N15900 X37.241 Y33.863
N15905 X37.293 Y33.891
N15910 X37.349 Y33.908
N15915 X37.408 Y33.914
N15920 X54.228 Y33.89
N15925 X54.505 Y33.903
N15930 X54.769 Y33.941
N15935 X55.027 Y34.005
N15940 X55.278 Y34.095
N15945 X55.52 Y34.209
N15950 X55.748 Y34.346
N15955 X55.963 Y34.505
N15960 X56.161 Y34.684
N15965 X56.341 Y34.882
N15970 X56.5 Y35.095
N15975 X56.638 Y35.324
N15980 X56.753 Y35.565
N15985 X56.843 Y35.817
N15990 X56.909 Y36.076
N15995 X56.948 Y36.34
N16000 X56.961 Y36.608
N16005 X56.949 Y36.876
N16010 X56.911 Y37.14
N16015 X56.847 Y37.398
N16020 X56.757 Y37.65
N16025 X56.643 Y37.892
N16030 X56.506 Y38.121
N16035 X56.347 Y38.336
N16040 X56.168 Y38.535
N16045 X55.97 Y38.715
N16050 X55.756 Y38.875
N16055 X55.527 Y39.013
N16060 X55.285 Y39.128
N16065 X55.033 Y39.219
N16070 X54.773 Y39.284
N16075 X54.508 Y39.324
N16080 X54.233 Y39.337
N16085 X43.448 Y39.353
N16090 G2 X43.237 Y39.865 I0. J0.3
N16095 G1 X49.23 Y45.861
N16100 X49.275 Y45.898
N16105 X49.327 Y45.926
N16110 X49.383 Y45.943
N16115 X49.442 Y45.949
N16120 X57.254
N16125 X57.529 Y45.962
N16130 X57.793 Y46.001
N16135 X58.051 Y46.065
N16140 X58.302 Y46.155
N16145 X58.544 Y46.269
N16150 X58.773 Y46.406
N16155 X58.988 Y46.566
N16160 X59.186 Y46.745
N16165 X59.366 Y46.943
N16170 X59.525 Y47.158
N16175 X59.663 Y47.386
N16180 X59.778 Y47.628
N16185 X59.868 Y47.88
N16190 X59.933 Y48.14
N16195 X59.972 Y48.405
N16200 X59.985 Y48.672
N16205 X59.972 Y48.94
N16210 X59.933 Y49.204
N16215 X59.869 Y49.462
N16220 X59.779 Y49.714
N16225 X59.665 Y49.955
N16230 X59.527 Y50.184
N16235 X59.368 Y50.399
N16240 X59.189 Y50.597
N16245 X58.99 Y50.777
N16250 X58.776 Y50.936
N16255 X58.547 Y51.074
N16260 X58.306 Y51.189
N16265 X58.054 Y51.279
N16270 X57.794 Y51.344
N16275 X57.529 Y51.383
N16280 X57.254 Y51.396
N16285 X55.489
N16290 G2 X55.277 Y51.908 I0. J0.3
N16295 G1 X59.182 Y55.813
N16300 X59.367 Y56.017
N16305 X59.526 Y56.231
N16310 X59.663 Y56.459
N16315 X59.778 Y56.7
N16320 X59.868 Y56.952
N16325 X59.933 Y57.211
N16330 X59.972 Y57.475
N16335 X59.986 Y57.742
N16340 X59.973 Y58.01
N16345 X59.934 Y58.274
N16350 X59.869 Y58.533
N16355 X59.779 Y58.785
N16360 X59.665 Y59.027
N16365 X59.527 Y59.256
N16370 X59.367 Y59.471
N16375 X59.187 Y59.67
N16380 X58.988 Y59.85
N16385 X58.774 Y60.009
N16390 X58.547 Y60.146
N16395 X58.305 Y60.261
N16400 X58.053 Y60.351
N16405 X57.794 Y60.416
N16410 X57.53 Y60.455
N16415 X57.263 Y60.468
N16420 X56.996 Y60.455
N16425 X56.732 Y60.416
N16430 X56.473 Y60.352
N16435 X56.221 Y60.262
N16440 X55.979 Y60.147
N16445 X55.749 Y60.01
N16450 X55.534 Y59.85
N16455 X55.331 Y59.665
N16460 X51.427 Y55.76
N16465 G2 X50.915 Y55.972 I-0.212 J0.212
N16470 G1 Y57.737
N16475 X50.901 Y58.012
N16480 X50.863 Y58.275
N16485 X50.798 Y58.533
N16490 X50.708 Y58.785
N16495 X50.594 Y59.027
N16500 X50.457 Y59.256
N16505 X50.298 Y59.47
N16510 X50.118 Y59.669
N16515 X49.92 Y59.849
N16520 X49.706 Y60.008
N16525 X49.477 Y60.146
N16530 X49.235 Y60.26
N16535 X48.983 Y60.351
N16540 X48.723 Y60.416
N16545 X48.459 Y60.455
N16550 X48.191 Y60.468
N16555 X47.923 Y60.455
N16560 X47.659 Y60.416
N16565 X47.401 Y60.351
N16570 X47.15 Y60.262
N16575 X46.908 Y60.147
N16580 X46.679 Y60.01
N16585 X46.464 Y59.851
N16590 X46.266 Y59.671
N16595 X46.086 Y59.473
N16600 X45.927 Y59.259
N16605 X45.789 Y59.03
N16610 X45.674 Y58.788
N16615 X45.584 Y58.536
N16620 X45.519 Y58.277
N16625 X45.48 Y58.012
N16630 X45.467 Y57.737
N16635 Y49.925
N16640 X45.461 Y49.866
N16645 X45.444 Y49.81
N16650 X45.416 Y49.758
N16655 X45.379 Y49.712
N16660 X39.383 Y43.716
N16665 G2 X38.871 Y43.928 I-0.212 J0.212
N16670 G1 X38.856 Y54.719
N16675 X38.842 Y54.993
N16680 X38.803 Y55.257
N16685 X38.738 Y55.514
N16690 X38.648 Y55.766
N16695 X38.534 Y56.007
N16700 X38.396 Y56.236
N16705 X38.237 Y56.45
N16710 X38.057 Y56.648
N16715 X37.859 Y56.827
N16720 X37.645 Y56.986
N16725 X37.417 Y57.123
N16730 X37.175 Y57.238
N16735 X36.923 Y57.328
N16740 X36.664 Y57.392
N16745 X36.399 Y57.431
N16750 X36.132 Y57.444
N16755 X35.861 Y57.431
N16760 X35.598 Y57.391
N16765 X35.339 Y57.327
N16770 X35.088 Y57.236
N16775 X34.846 Y57.122
N16780 X34.617 Y56.984
N16785 X34.402 Y56.825
N16790 X34.204 Y56.645
N16795 X34.024 Y56.446
N16800 X33.865 Y56.232
N16805 X33.728 Y56.002
N16810 X33.614 Y55.76
N16815 X33.524 Y55.508
N16820 X33.459 Y55.248
N16825 X33.421 Y54.983
N16830 X33.408 Y54.708
N16835 X33.432 Y37.89
N16840 X33.426 Y37.832
N16845 X33.409 Y37.775
N16850 X33.381 Y37.723
N16855 X33.344 Y37.678
N16860 X30.26 Y34.594
N16865 G2 X29.835 I-0.212 J0.212
N16870 G1 X28.955 Y35.474
N16875 X28.751 Y35.66
N16880 X28.537 Y35.819
N16885 X28.309 Y35.956
N16890 X28.068 Y36.07
N16895 X27.816 Y36.161
N16900 X27.557 Y36.226
N16905 X27.293 Y36.265
N16910 X27.025 Y36.278
N16915 X26.758 Y36.265
N16920 X26.494 Y36.226
N16925 X26.235 Y36.162
N16930 X25.983 Y36.072
N16935 X25.741 Y35.957
N16940 X25.512 Y35.819
N16945 X25.297 Y35.66
N16950 X25.098 Y35.479
N16955 X24.918 Y35.281
N16960 X24.759 Y35.067
N16965 X24.622 Y34.839
N16970 X24.507 Y34.598
N16975 X24.417 Y34.346
N16980 X24.352 Y34.087
N16985 X24.313 Y33.823
N16990 X24.299 Y33.556
N16995 X24.312 Y33.288
N17000 X24.351 Y33.024
N17005 X24.416 Y32.765
N17010 X24.506 Y32.513
N17015 X24.62 Y32.271
N17020 X24.758 Y32.042
N17025 X24.918 Y31.827
N17030 X25.103 Y31.623
N17035 X25.984 Y30.742
N17040 G2 Y30.318 I-0.212 J-0.212
N17045 G1 X21.188 Y25.522
N17050 G2 X20.676 Y25.734 I-0.212 J0.212
N17055 G1 Y27.499
N17060 X20.663 Y27.774
N17065 X20.624 Y28.037
N17070 X20.56 Y28.296
N17075 X20.47 Y28.547
N17080 X20.356 Y28.789
N17085 X20.218 Y29.018
N17090 X20.059 Y29.233
N17095 X19.879 Y29.431
N17100 X19.681 Y29.611
N17105 X19.467 Y29.77
N17110 X19.238 Y29.908
N17115 X18.996 Y30.022
N17120 X18.744 Y30.113
N17125 X18.485 Y30.178
N17130 X18.22 Y30.217
N17135 X17.952 Y30.23
N17140 X17.684 Y30.217
N17145 X17.421 Y30.178
N17150 X17.163 Y30.114
N17155 X16.911 Y30.024
N17160 X16.669 Y29.909
N17165 X16.44 Y29.772
N17170 X16.226 Y29.613
N17175 X16.027 Y29.433
N17180 X15.847 Y29.235
N17185 X15.688 Y29.021
N17190 X15.55 Y28.792
N17195 X15.436 Y28.55
N17200 X15.346 Y28.299
N17205 X15.281 Y28.039
N17210 X15.242 Y27.774
N17215 X15.228 Y27.499
N17220 Y19.687
N17225 X15.223 Y19.628
N17230 X15.205 Y19.572
N17235 X15.178 Y19.52
N17240 X15.14 Y19.475
N17245 X10.517 Y14.851
N17250 G2 X10.134 Y14.817 I-0.212 J0.212
N17255 G1 X9.718 Y15.105
N17260 X9.298 Y15.378
N17265 X8.87 Y15.64
N17270 X8.435 Y15.889
N17275 X7.994 Y16.126
N17280 X7.545 Y16.35
N17285 X7.091 Y16.562
N17290 X6.63 Y16.76
N17295 X6.164 Y16.946
N17300 X5.693 Y17.118
N17305 X5.217 Y17.277
N17310 X4.738 Y17.422
N17315 X4.255 Y17.554
N17320 X3.768 Y17.672
N17325 X3.277 Y17.776
N17330 X2.779 Y17.868
N17335 G2 X2.533 Y18.163 I0.054 J0.295
N17340 G1 Y23.237
N17345 X2.539 Y23.295
N17350 X2.556 Y23.351
N17355 X2.583 Y23.403
N17360 X2.62 Y23.448
N17365 X7.786 Y28.656
N17370 X7.97 Y28.86
N17375 X8.128 Y29.074
N17380 X8.264 Y29.303
N17385 X8.378 Y29.544
N17390 X8.467 Y29.796
N17395 X8.53 Y30.056
N17400 X8.568 Y30.32
N17405 X8.58 Y30.587
N17410 X8.566 Y30.855
N17415 X8.527 Y31.119
N17420 X8.461 Y31.378
N17425 X8.371 Y31.629
N17430 X8.256 Y31.871
N17435 X8.117 Y32.1
N17440 X7.957 Y32.314
N17445 X7.777 Y32.512
N17450 X7.578 Y32.691
N17455 X7.363 Y32.848
N17460 X7.134 Y32.984
N17465 X6.892 Y33.098
N17470 X6.64 Y33.186
N17475 X6.38 Y33.25
N17480 X6.116 Y33.288
N17485 X5.848 Y33.3
N17490 X5.581 Y33.286
N17495 X5.317 Y33.246
N17500 X5.058 Y33.181
N17505 X4.806 Y33.09
N17510 X4.565 Y32.975
N17515 X4.336 Y32.837
N17520 X4.121 Y32.676
N17525 X3.918 Y32.491
N17530 X3.046 Y31.61
N17535 G2 X2.533 Y31.821 I-0.213 J0.211
N17540 G1 Y39.602
N17545 G2 X2.833 Y39.902 I0.3 J0.
N17550 G1 X5.85
N17555 X6.125 Y39.915
N17560 X6.388 Y39.954
N17565 X6.647 Y40.018
N17570 X6.898 Y40.108
N17575 X7.14 Y40.222
N17580 X7.369 Y40.359
N17585 X7.584 Y40.519
N17590 X7.782 Y40.698
N17595 X7.962 Y40.896
N17600 X8.121 Y41.111
N17605 X8.259 Y41.339
N17610 X8.374 Y41.581
N17615 X8.464 Y41.833
N17620 X8.529 Y42.093
N17625 X8.568 Y42.358
N17630 X8.581 Y42.625
N17635 X8.568 Y42.893
N17640 X8.529 Y43.157
N17645 X8.465 Y43.415
N17650 X8.375 Y43.667
N17655 X8.26 Y43.908
N17660 X8.123 Y44.137
N17665 X7.964 Y44.352
N17670 X7.784 Y44.55
N17675 X7.586 Y44.73
N17680 X7.372 Y44.889
N17685 X7.143 Y45.027
N17690 X6.901 Y45.142
N17695 X6.649 Y45.232
N17700 X6.39 Y45.297
N17705 X6.125 Y45.336
N17710 X5.85 Y45.349
N17715 X2.833
N17720 G2 X2.533 Y45.649 I0. J0.3
N17725 G1 Y50.442
N17730 X2.539 Y50.501
N17735 X2.556 Y50.557
N17740 X2.584 Y50.609
N17745 X2.621 Y50.654
N17750 X13.822 Y61.819
N17755 X14.008 Y62.023
N17760 X14.167 Y62.236
N17765 X14.304 Y62.464
N17770 X14.419 Y62.705
N17775 X14.509 Y62.957
N17780 X14.574 Y63.216
N17785 X14.614 Y63.48
N17790 X14.628 Y63.747
N17795 X14.615 Y64.015
N17800 X14.577 Y64.279
N17805 X14.513 Y64.538
N17810 X14.423 Y64.79
N17815 X14.309 Y65.032
N17820 X14.172 Y65.262
N17825 X14.013 Y65.477
N17830 X13.832 Y65.676
N17835 X13.634 Y65.857
N17840 X13.421 Y66.017
N17845 X13.194 Y66.155
N17850 X12.953 Y66.27
N17855 X12.702 Y66.36
N17860 X12.443 Y66.425
N17865 X12.179 Y66.465
N17870 X11.911 Y66.478
N17875 X11.644 Y66.465
N17880 X11.38 Y66.426
N17885 X11.12 Y66.362
N17890 X10.868 Y66.272
N17895 X10.626 Y66.158
N17900 X10.396 Y66.02
N17905 X10.181 Y65.861
N17910 X9.976 Y65.676
N17915 X3.045 Y58.768
N17920 G2 X2.533 Y58.981 I-0.212 J0.213
N17925 G1 Y68.594
N17930 X2.539 Y68.652
N17935 X2.555 Y68.708
N17940 X2.583 Y68.76
N17945 X2.62 Y68.805
N17950 X7.786 Y74.013
N17955 X7.97 Y74.217
N17960 X8.128 Y74.431
N17965 X8.264 Y74.66
N17970 X8.377 Y74.901
N17975 X8.466 Y75.153
N17980 X8.53 Y75.412
N17985 X8.568 Y75.677
N17990 X8.58 Y75.944
N17995 X8.566 Y76.211
N18000 X8.526 Y76.476
N18005 X8.461 Y76.735
N18010 X8.37 Y76.986
N18015 X8.255 Y77.228
N18020 X8.117 Y77.457
N18025 X7.957 Y77.671
N18030 X7.777 Y77.869
N18035 X7.578 Y78.047
N18040 X7.363 Y78.205
N18045 X7.133 Y78.341
N18050 X6.891 Y78.454
N18055 X6.639 Y78.543
N18060 X6.379 Y78.607
N18065 X6.115 Y78.645
N18070 X5.847 Y78.657
N18075 X5.58 Y78.643
N18080 X5.316 Y78.604
N18085 X5.057 Y78.538
N18090 X4.805 Y78.448
N18095 X4.564 Y78.333
N18100 X4.335 Y78.194
N18105 X4.121 Y78.033
N18110 X3.918 Y77.848
N18115 X3.046 Y76.967
N18120 G2 X2.533 Y77.178 I-0.213 J0.211
N18125 G1 Y81.927
N18130 X2.52 Y82.202
N18135 X2.481 Y82.466
N18140 X2.417 Y82.724
N18145 X2.327 Y82.976
N18150 X2.212 Y83.217
N18155 X2.075 Y83.446
N18160 X1.916 Y83.661
N18165 X1.736 Y83.859
N18170 X1.538 Y84.039
N18175 X1.324 Y84.199
N18180 X1.095 Y84.336
N18185 X0.853 Y84.451
N18190 X0.601 Y84.541
N18195 X0.342 Y84.606
N18200 X0.077 Y84.645
N18205 X-0.191 Y84.658
N18210 X-0.459 Y84.645
N18215 X-0.722 Y84.606
N18220 X-0.98 Y84.542
N18225 X-1.232 Y84.452
N18230 X-1.474 Y84.338
N18235 X-1.703 Y84.201
N18240 X-1.917 Y84.041
N18245 X-2.116 Y83.862
N18250 X-2.296 Y83.664
N18255 X-2.455 Y83.449
N18260 X-2.593 Y83.221
N18265 X-2.707 Y82.979
N18270 X-2.797 Y82.727
N18275 X-2.862 Y82.467
N18280 X-2.901 Y82.202
N18285 X-2.914 Y81.927
N18290 Y77.178
N18295 G2 X-3.428 Y76.967 I-0.3 J0.
N18300 G1 X-4.299 Y77.848
N18305 X-4.502 Y78.034
N18310 X-4.715 Y78.194
N18315 X-4.943 Y78.332
N18320 X-5.184 Y78.447
N18325 X-5.435 Y78.538
N18330 X-5.694 Y78.604
N18335 X-5.958 Y78.644
N18340 X-6.226 Y78.658
N18345 X-6.493 Y78.646
N18350 X-6.758 Y78.608
N18355 X-7.017 Y78.545
N18360 X-7.27 Y78.456
N18365 X-7.513 Y78.343
N18370 X-7.743 Y78.206
N18375 X-7.959 Y78.048
N18380 X-8.158 Y77.869
N18385 X-8.339 Y77.671
N18390 X-8.498 Y77.458
N18395 X-8.636 Y77.23
N18400 X-8.751 Y76.989
N18405 X-8.842 Y76.738
N18410 X-8.907 Y76.479
N18415 X-8.947 Y76.215
N18420 X-8.962 Y75.947
N18425 X-8.95 Y75.68
N18430 X-8.912 Y75.416
N18435 X-8.849 Y75.157
N18440 X-8.76 Y74.904
N18445 X-8.647 Y74.662
N18450 X-8.51 Y74.432
N18455 X-8.352 Y74.217
N18460 X-8.167 Y74.013
N18465 X-3.001 Y68.805
N18470 X-2.965 Y68.76
N18475 X-2.937 Y68.708
N18480 X-2.92 Y68.652
N18485 X-2.914 Y68.594
N18490 Y58.981
N18495 G2 X-3.426 Y58.768 I-0.3 J0.
N18500 G1 X-10.358 Y65.676
N18505 X-10.562 Y65.86
N18510 X-10.776 Y66.019
N18515 X-11.005 Y66.156
N18520 X-11.246 Y66.27
N18525 X-11.498 Y66.36
N18530 X-11.757 Y66.425
N18535 X-12.021 Y66.464
N18540 X-12.289 Y66.477
N18545 X-12.556 Y66.464
N18550 X-12.82 Y66.425
N18555 X-13.079 Y66.36
N18560 X-13.331 Y66.27
N18565 X-13.572 Y66.155
N18570 X-13.801 Y66.017
N18575 X-14.016 Y65.856
N18580 X-14.214 Y65.676
N18585 X-14.394 Y65.477
N18590 X-14.553 Y65.263
N18595 X-14.689 Y65.035
N18600 X-14.803 Y64.793
N18605 X-14.893 Y64.541
N18610 X-14.958 Y64.282
N18615 X-14.996 Y64.018
N18620 X-15.009 Y63.751
N18625 X-14.996 Y63.483
N18630 X-14.957 Y63.219
N18635 X-14.892 Y62.96
N18640 X-14.802 Y62.708
N18645 X-14.687 Y62.467
N18650 X-14.549 Y62.237
N18655 X-14.389 Y62.023
N18660 X-14.204 Y61.819
N18665 X-3.003 Y50.654
N18670 X-2.966 Y50.609
N18675 X-2.938 Y50.557
N18680 X-2.921 Y50.501
N18685 X-2.915 Y50.442
N18690 Y45.649
N18695 G2 X-3.215 Y45.349 I-0.3 J0.
N18700 G1 X-6.231
N18705 X-6.506 Y45.336
N18710 X-6.77 Y45.297
N18715 X-7.028 Y45.233
N18720 X-7.28 Y45.143
N18725 X-7.522 Y45.029
N18730 X-7.751 Y44.891
N18735 X-7.965 Y44.732
N18740 X-8.164 Y44.553
N18745 X-8.343 Y44.354
N18750 X-8.503 Y44.14
N18755 X-8.64 Y43.911
N18760 X-8.755 Y43.67
N18765 X-8.845 Y43.418
N18770 X-8.91 Y43.158
N18775 X-8.949 Y42.893
N18780 X-8.962 Y42.625
N18785 X-8.949 Y42.358
N18790 X-8.911 Y42.094
N18795 X-8.846 Y41.836
N18800 X-8.756 Y41.584
N18805 X-8.642 Y41.343
N18810 X-8.505 Y41.114
N18815 X-8.346 Y40.899
N18820 X-8.166 Y40.701
N18825 X-7.968 Y40.521
N18830 X-7.754 Y40.361
N18835 X-7.525 Y40.224
N18840 X-7.283 Y40.109
N18845 X-7.031 Y40.019
N18850 X-6.771 Y39.954
N18855 X-6.506 Y39.915
N18860 X-6.231 Y39.902
N18865 X-3.215
N18870 G2 X-2.915 Y39.602 I0. J-0.3
N18875 G1 Y31.821
N18880 G2 X-3.428 Y31.61 I-0.3 J0.
N18885 G1 X-4.3 Y32.491
N18890 X-4.503 Y32.677
N18895 X-4.716 Y32.837
N18900 X-4.943 Y32.976
N18905 X-5.184 Y33.091
N18910 X-5.436 Y33.182
N18915 X-5.695 Y33.248
N18920 X-5.959 Y33.288
N18925 X-6.226 Y33.303
N18930 X-6.494 Y33.291
N18935 X-6.758 Y33.253
N18940 X-7.018 Y33.189
N18945 X-7.271 Y33.1
N18950 X-7.513 Y32.987
N18955 X-7.744 Y32.85
N18960 X-7.959 Y32.691
N18965 X-8.159 Y32.512
N18970 X-8.339 Y32.315
N18975 X-8.498 Y32.101
N18980 X-8.636 Y31.874
N18985 X-8.751 Y31.632
N18990 X-8.842 Y31.381
N18995 X-8.908 Y31.122
N19000 X-8.948 Y30.858
N19005 X-8.962 Y30.591
N19010 X-8.95 Y30.323
N19015 X-8.913 Y30.059
N19020 X-8.849 Y29.8
N19025 X-8.761 Y29.548
N19030 X-8.647 Y29.305
N19035 X-8.511 Y29.075
N19040 X-8.352 Y28.86
N19045 X-8.167 Y28.656
N19050 X-3.002 Y23.448
N19055 X-2.965 Y23.403
N19060 X-2.937 Y23.351
N19065 X-2.921 Y23.295
N19070 X-2.915 Y23.237
N19075 Y18.163
N19080 G2 X-3.161 Y17.868 I-0.3 J0.
N19085 G1 X-3.659 Y17.776
N19090 X-4.149 Y17.672
N19095 X-4.636 Y17.554
N19100 X-5.12 Y17.422
N19105 X-5.599 Y17.277
N19110 X-6.074 Y17.118
N19115 X-6.545 Y16.946
N19120 X-7.012 Y16.76
N19125 X-7.472 Y16.562
N19130 X-7.927 Y16.35
N19135 X-8.375 Y16.126
N19140 X-8.817 Y15.889
N19145 X-9.252 Y15.64
N19150 X-9.68 Y15.378
N19155 X-10.1 Y15.105
N19160 X-10.516 Y14.817
N19165 G2 X-10.899 Y14.851 I-0.171 J0.247
N19170 G1 X-15.522 Y19.475
N19175 X-15.559 Y19.52
N19180 X-15.587 Y19.572
N19185 X-15.604 Y19.628
N19190 X-15.61 Y19.687
N19195 Y27.499
N19200 X-15.623 Y27.774
N19205 X-15.662 Y28.037
N19210 X-15.726 Y28.296
N19215 X-15.816 Y28.547
N19220 X-15.93 Y28.789
N19225 X-16.068 Y29.018
N19230 X-16.227 Y29.233
N19235 X-16.407 Y29.431
N19240 X-16.605 Y29.611
N19245 X-16.819 Y29.77
N19250 X-17.048 Y29.908
N19255 X-17.29 Y30.023
N19260 X-17.541 Y30.113
N19265 X-17.801 Y30.178
N19270 X-18.066 Y30.217
N19275 X-18.334 Y30.23
N19280 X-18.601 Y30.217
N19285 X-18.865 Y30.178
N19290 X-19.123 Y30.114
N19295 X-19.375 Y30.024
N19300 X-19.617 Y29.909
N19305 X-19.846 Y29.772
N19310 X-20.06 Y29.613
N19315 X-20.259 Y29.433
N19320 X-20.439 Y29.235
N19325 X-20.598 Y29.021
N19330 X-20.736 Y28.792
N19335 X-20.85 Y28.55
N19340 X-20.94 Y28.299
N19345 X-21.005 Y28.039
N19350 X-21.044 Y27.774
N19355 X-21.058 Y27.499
N19360 Y25.734
N19365 G2 X-21.57 Y25.522 I-0.3 J0.
N19370 G1 X-26.365 Y30.319
N19375 G2 Y30.743 I0.212 J0.212
N19380 G1 X-25.484 Y31.624
N19385 X-25.299 Y31.828
N19390 X-25.14 Y32.042
N19395 X-25.003 Y32.27
N19400 X-24.888 Y32.511
N19405 X-24.798 Y32.763
N19410 X-24.733 Y33.022
N19415 X-24.694 Y33.286
N19420 X-24.681 Y33.553
N19425 X-24.694 Y33.82
N19430 X-24.733 Y34.085
N19435 X-24.797 Y34.344
N19440 X-24.887 Y34.596
N19445 X-25.002 Y34.837
N19450 X-25.139 Y35.067
N19455 X-25.299 Y35.282
N19460 X-25.48 Y35.48
N19465 X-25.678 Y35.66
N19470 X-25.892 Y35.82
N19475 X-26.12 Y35.957
N19480 X-26.361 Y36.071
N19485 X-26.613 Y36.162
N19490 X-26.872 Y36.227
N19495 X-27.136 Y36.266
N19500 X-27.403 Y36.279
N19505 X-27.671 Y36.266
N19510 X-27.935 Y36.227
N19515 X-28.194 Y36.163
N19520 X-28.446 Y36.073
N19525 X-28.688 Y35.958
N19530 X-28.917 Y35.82
N19535 X-29.132 Y35.661
N19540 X-29.336 Y35.475
N19545 X-30.217 Y34.594
N19550 G2 X-30.641 I-0.212 J0.212
N19555 G1 X-33.725 Y37.679
N19560 X-33.763 Y37.724
N19565 X-33.79 Y37.776
N19570 X-33.807 Y37.833
N19575 X-33.813 Y37.891
N19580 X-33.789 Y54.709
N19585 X-33.802 Y54.984
N19590 X-33.84 Y55.248
N19595 X-33.904 Y55.506
N19600 X-33.994 Y55.758
N19605 X-34.108 Y56.
N19610 X-34.245 Y56.23
N19615 X-34.403 Y56.444
N19620 X-34.583 Y56.643
N19625 X-34.781 Y56.823
N19630 X-34.995 Y56.983
N19635 X-35.224 Y57.121
N19640 X-35.466 Y57.236
N19645 X-35.718 Y57.327
N19650 X-35.978 Y57.392
N19655 X-36.242 Y57.432
N19660 X-36.51 Y57.445
N19665 X-36.78 Y57.432
N19670 X-37.044 Y57.393
N19675 X-37.302 Y57.329
N19680 X-37.553 Y57.24
N19685 X-37.795 Y57.126
N19690 X-38.024 Y56.989
N19695 X-38.238 Y56.83
N19700 X-38.436 Y56.651
N19705 X-38.616 Y56.453
N19710 X-38.776 Y56.239
N19715 X-38.913 Y56.011
N19720 X-39.028 Y55.77
N19725 X-39.119 Y55.518
N19730 X-39.184 Y55.259
N19735 X-39.223 Y54.994
N19740 X-39.237 Y54.72
N19745 X-39.252 Y43.929
