%
(SNOWFLAKEMALE_3175_FIRST_A)
(T1  D=3.175 CR=0. - ZMIN=-3.175 - FLAT END MILL)
N10 G90 G94 G17 G91.1
N15 G21
(WHEN USING FUSION 360 FOR PERSONAL USE, THE FEEDRATE OF)
(RAPID MOVES IS REDUCED TO MATCH THE FEEDRATE OF CUTTING)
(MOVES, WHICH CAN INCREASE MACHINING TIME. UNRESTRICTED RAPID)
(MOVES ARE AVAILABLE WITH A FUSION 360 SUBSCRIPTION.)
N20 G53 G0 Z0.
(SNOWFLAKEMALECLEARINGBIT3175MM)
N25 T1 M6
N30 S7000 M3
N35 G54
N40 M8
N45 G0 X9.6 Y-21.398
N50 G43 Z15. H1
N55 G1 Z5. F2000.
N60 Z2.5
N65 Z-3.175 F666.67
N70 Y-21.383 F2000.
N75 X9.594 Y-21.337
N80 X9.577 Y-21.295
N85 X9.549 Y-21.259
N90 X9.473 Y-21.184
N95 X9.439 Y-21.157
N100 X9.4 Y-21.14
N105 X9.357 Y-21.132
N110 X9.314 Y-21.136
N115 X9.273 Y-21.15
N120 X9.206 Y-21.182
N125 G3 X9.157 Y-21.464 I0.076 J-0.158
N130 G1 X9.346 Y-21.654
N135 G3 X9.6 Y-21.549 I0.105 J0.105
N140 G1 Y-21.398
N145 G2 X10.095 Y-20.212 I1.668 J0.
N150 G3 X10.098 Y-18.927 I-0.637 J0.644
N155 G1 X10.054 Y-18.883
N160 G3 X9.484 Y-18.786 I-0.353 J-0.353
N165 X8.676 Y-19.217 I4.886 J-10.125
N170 G2 X7.845 Y-19.602 I-2.386 J4.061
N175 X7.152 Y-19.821 I-3.958 J11.32
N180 G3 X6.458 Y-20.04 I3.265 J-11.539
N185 X6.124 Y-20.512 I0.165 J-0.472
N190 G1 Y-20.891
N195 G3 X6.41 Y-21.587 I0.987 J0.
N200 X8.391 Y-23.552 I125.348 J124.332
N205 G2 X10.371 Y-25.518 I-123.368 J-126.297
N210 X10.88 Y-26.116 I-3.645 J-3.616
N215 X11.295 Y-26.782 I-4.496 J-3.266
N220 G1 X11.358 Y-26.911
N225 X11.421 Y-27.039
N230 X11.444 Y-27.069
N235 X11.476 Y-27.09
N240 X11.513 Y-27.1
N245 X11.552 Y-27.097
N250 X11.587 Y-27.081
N255 X11.614 Y-27.055
N260 X11.632 Y-27.021
N265 X11.638 Y-26.983
N270 G2 X11.624 Y-23.977 I109.728 J2.018
N275 G3 X11.637 Y-20.971 I-333.725 J3.006
N280 X11.281 Y-20.109 I-1.218 J0.
N285 G1 X10.098 Y-18.927
N290 Z5.
N295 X21.645 Y-9.142
N300 Z2.5 F666.67
N305 Z-3.175
N310 X21.565 Y-9.063 F2000.
N315 G3 X21.284 Y-9.111 I-0.123 J-0.124
N320 G1 X21.254 Y-9.172
N325 X21.24 Y-9.213
N330 X21.237 Y-9.256
N335 X21.244 Y-9.299
N340 X21.262 Y-9.338
N345 X21.288 Y-9.372
N350 X21.361 Y-9.445
N355 X21.397 Y-9.473
N360 X21.44 Y-9.491
N365 X21.485 Y-9.497
N370 X21.642
N375 G3 X21.746 Y-9.243 I0. J0.148
N380 G1 X21.645 Y-9.142
N385 G2 X21.481 Y-7.49 I0.918 J0.924
N390 G3 X20.701 Y-6.026 I-0.78 J0.525
N395 G1 X20.615
N400 G3 X20.143 Y-6.361 I0. J-0.5
N405 X19.877 Y-7.236 I10.604 J-3.708
N410 G2 X19.561 Y-8.094 I-4.556 J1.187
N415 X19.226 Y-8.739 I-10.768 J5.196
N420 G3 X18.89 Y-9.383 I10.433 J-5.84
N425 X18.987 Y-9.953 I0.45 J-0.217
N430 G1 X20.212 Y-11.177
N435 G3 X21.073 Y-11.534 I0.861 J0.861
N440 X24.072 Y-11.523 I0. J420.542
N445 G2 X27.071 Y-11.535 I0.989 J-138.684
N450 G1 X27.109 Y-11.529
N455 X27.143 Y-11.511
N460 X27.169 Y-11.483
N465 X27.185 Y-11.448
N470 X27.188 Y-11.41
N475 X27.179 Y-11.373
N480 X27.158 Y-11.341
N485 X27.127 Y-11.317
N490 G3 X26.714 Y-11.104 I-9.175 J-17.28
N495 G2 X26.324 Y-10.852 I0.952 J1.9
N500 X23.949 Y-8.639 I15.371 J18.876
N505 G3 X21.686 Y-6.312 I-67.162 J-63.066
N510 X20.991 Y-6.026 I-0.696 J-0.701
N515 G1 X20.701
N520 Z5.
N525 X21.646 Y9.723
N530 Z2.5 F666.67
N535 Z-3.175
N540 X21.649 Y9.726 F2000.
N545 X21.753 Y9.829
N550 G3 X21.649 Y10.083 I-0.105 J0.105
N555 G1 X21.484
N560 X21.438 Y10.077
N565 X21.396 Y10.059
N570 X21.36 Y10.031
N575 X21.284 Y9.956
N580 X21.258 Y9.922
N585 X21.24 Y9.883
N590 X21.233 Y9.84
N595 X21.237 Y9.797
N600 X21.251 Y9.756
N605 X21.283 Y9.689
N610 G3 X21.564 Y9.641 I0.158 J0.076
N615 G1 X21.646 Y9.723
N620 G2 X23.428 Y10.086 I1.167 J-1.176
N625 G3 X25.209 Y10.449 I0.616 J1.529
N630 G2 X25.615 Y10.853 I124.653 J-124.789
N635 X26.212 Y11.361 I3.608 J-3.635
N640 X26.877 Y11.777 I3.288 J-4.525
N645 G1 X27.007 Y11.84
N650 X27.136 Y11.904
N655 X27.166 Y11.927
N660 X27.188 Y11.959
N665 X27.197 Y11.996
N670 X27.194 Y12.034
N675 X27.178 Y12.069
N680 X27.152 Y12.097
N685 X27.118 Y12.115
N690 X27.08 Y12.121
N695 G2 X24.076 Y12.107 I-2.016 J116.907
N700 G3 X21.072 Y12.12 I-3.004 J-355.253
N705 X20.21 Y11.763 I0. J-1.218
N710 G1 X18.983 Y10.536
N715 G3 X18.887 Y9.966 I0.353 J-0.353
N720 X19.318 Y9.159 I10.125 J4.886
N725 G2 X19.703 Y8.328 I-4.062 J-2.386
N730 X19.922 Y7.634 I-11.322 J-3.959
N735 G3 X20.141 Y6.941 I11.541 J3.265
N740 X20.613 Y6.606 I0.472 J0.165
N745 G1 X20.992
N750 G3 X21.687 Y6.893 I0. J0.987
N755 X23.651 Y8.873 I-124.247 J125.193
N760 G2 X25.209 Y10.449 I126.211 J-123.213
N765 G1 Z5.
N770 X9.599 Y21.981
N775 Z2.5 F666.67
N780 Z-3.175
N785 Y22.13 F2000.
N790 G3 X9.345 Y22.235 I-0.148 J0.
N795 G1 X9.16 Y22.047
N800 G3 X9.208 Y21.766 I0.124 J-0.123
N805 G1 X9.273 Y21.735
N810 X9.314 Y21.721
N815 X9.357 Y21.717
N820 X9.4 Y21.725
N825 X9.439 Y21.742
N830 X9.473 Y21.768
N835 X9.548 Y21.843
N840 X9.576 Y21.879
N845 X9.593 Y21.921
N850 X9.599 Y21.967
N855 Y21.981
N860 G2 X10.61 Y23.509 I1.66 J0.
N865 G3 X11.621 Y25.037 I-0.638 J1.521
N870 G2 X11.637 Y27.561 I120.976 J0.51
N875 G1 X11.631 Y27.599
N880 X11.613 Y27.633
N885 X11.585 Y27.659
N890 X11.55 Y27.674
N895 X11.512 Y27.678
N900 X11.475 Y27.668
N905 X11.443 Y27.647
N910 X11.42 Y27.617
N915 G3 X11.205 Y27.2 I17.955 J-9.523
N920 G2 X10.95 Y26.806 I-1.904 J0.954
N925 X8.736 Y24.434 I-19.201 J15.693
N930 G3 X6.411 Y22.17 I63.858 J-67.91
N935 X6.125 Y21.474 I0.701 J-0.695
N940 G1 Y21.096
N945 G3 X6.46 Y20.625 I0.5 J0.
N950 X7.335 Y20.358 I3.71 J10.609
N955 G2 X8.195 Y20.042 I-1.188 J-4.558
N960 X8.839 Y19.706 I-5.204 J-10.783
N965 G3 X9.484 Y19.371 I5.848 J10.448
N970 X10.054 Y19.468 I0.217 J0.45
N975 G1 X11.28 Y20.693
N980 G3 X11.636 Y21.555 I-0.861 J0.861
N985 X11.624 Y24.558 I-367.421 J0.
N990 G2 X11.621 Y25.037 I120.973 J0.989
N995 G1 Z5.
N1000 X-9.92 Y21.832
N1005 Z2.5 F666.67
N1010 Z-3.175
N1015 X-9.855 Y21.767 F2000.
N1020 X-9.821 Y21.741
N1025 X-9.782 Y21.723
N1030 X-9.739 Y21.716
N1035 X-9.696 Y21.719
N1040 X-9.655 Y21.733
N1045 X-9.588 Y21.766
N1050 G3 X-9.539 Y22.047 I-0.076 J0.158
N1055 G1 X-9.619 Y22.127
N1060 X-9.624 Y22.133
N1065 X-9.728 Y22.237
N1070 G3 X-9.982 Y22.133 I-0.105 J-0.105
N1075 G1 Y21.966
N1080 X-9.976 Y21.921
N1085 X-9.958 Y21.879
N1090 X-9.931 Y21.842
N1095 X-9.92 Y21.832
N1100 G2 X-9.712 Y20.696 I-0.719 J-0.719
N1105 G3 X-8.87 Y19.906 I0.557 J-0.25
N1110 G2 X-8.227 Y20.186 I2.197 J-4.166
N1115 X-7.534 Y20.405 I3.958 J-11.319
N1120 G3 X-6.84 Y20.624 I-3.265 J11.538
N1125 X-6.506 Y21.095 I-0.165 J0.472
N1130 G1 Y21.475
N1135 G3 X-6.792 Y22.17 I-0.987 J0.
N1140 X-8.773 Y24.136 I-125.353 J-124.334
N1145 G2 X-10.753 Y26.101 I123.373 J126.3
N1150 X-11.262 Y26.699 I3.645 J3.616
N1155 X-11.677 Y27.366 I4.496 J3.266
N1160 G1 X-11.74 Y27.494
N1165 X-11.803 Y27.622
N1170 X-11.826 Y27.653
N1175 X-11.858 Y27.674
N1180 X-11.895 Y27.683
N1185 X-11.933 Y27.68
N1190 X-11.968 Y27.664
N1195 X-11.996 Y27.638
N1200 X-12.014 Y27.604
N1205 X-12.02 Y27.566
N1210 G2 X-12.006 Y24.56 I-110.053 J-2.017
N1215 G3 X-12.019 Y21.554 I334.7 J-3.006
N1220 X-11.662 Y20.693 I1.218 J0.
N1225 G1 X-10.436 Y19.466
N1230 G3 X-9.866 Y19.37 I0.353 J0.353
N1235 X-9.058 Y19.801 I-4.886 J10.125
N1240 G1 X-8.87 Y19.906
N1245 Z5.
N1250 X-22.027 Y9.724
N1255 Z2.5 F666.67
N1260 Z-3.175
N1265 X-21.947 Y9.644 F2000.
N1270 G3 X-21.665 Y9.692 I0.123 J0.124
N1275 G1 X-21.635 Y9.756
N1280 X-21.621 Y9.797
N1285 X-21.617 Y9.84
N1290 X-21.625 Y9.882
N1295 X-21.642 Y9.922
N1300 X-21.669 Y9.956
N1305 X-21.733 Y10.021
N1310 X-21.743 Y10.03
N1315 X-21.779 Y10.058
N1320 X-21.821 Y10.075
N1325 X-21.866 Y10.081
N1330 X-21.877
N1335 X-21.884
N1340 X-22.027
N1345 G3 X-22.131 Y9.828 I0. J-0.148
N1350 G1 X-22.027 Y9.724
N1355 G2 X-21.864 Y8.073 I-0.918 J-0.925
N1360 G3 X-21.084 Y6.608 I0.78 J-0.525
N1365 G1 X-20.996
N1370 G3 X-20.524 Y6.943 I0. J0.5
N1375 X-20.258 Y7.818 I-10.609 J3.71
N1380 G2 X-19.942 Y8.678 I4.557 J-1.188
N1385 X-19.606 Y9.322 I10.779 J-5.202
N1390 G3 X-19.271 Y9.966 I-10.444 J5.847
N1395 X-19.367 Y10.536 I-0.45 J0.217
N1400 G1 X-20.593 Y11.762
N1405 G3 X-21.455 Y12.119 I-0.861 J-0.861
N1410 X-24.457 Y12.107 I0. J-380.163
N1415 G2 X-27.459 Y12.119 I-0.989 J125.222
N1420 G1 X-27.496 Y12.114
N1425 X-27.53 Y12.096
N1430 X-27.557 Y12.068
N1435 X-27.572 Y12.033
N1440 X-27.575 Y11.995
N1445 X-27.566 Y11.958
N1450 X-27.545 Y11.926
N1455 X-27.514 Y11.902
N1460 G3 X-27.1 Y11.689 I9.305 J17.56
N1465 G2 X-26.708 Y11.436 I-0.951 J-1.902
N1470 X-24.333 Y9.222 I-15.391 J-18.898
N1475 G3 X-22.069 Y6.895 I67.271 J63.174
N1480 X-21.373 Y6.608 I0.696 J0.701
N1485 G1 X-21.084
N1490 Z5.
N1495 X-21.733 Y-9.436
N1500 Z2.5 F666.67
N1505 Z-3.175
N1510 X-21.669 Y-9.372 F2000.
N1515 X-21.643 Y-9.338
N1520 X-21.626 Y-9.299
N1525 X-21.618 Y-9.256
N1530 X-21.622 Y-9.213
N1535 X-21.636 Y-9.172
N1540 X-21.665 Y-9.11
N1545 G3 X-21.947 Y-9.062 I-0.158 J-0.076
N1550 G1 X-22.02 Y-9.135
N1555 X-22.129 Y-9.243
N1560 G3 X-22.024 Y-9.497 I0.105 J-0.105
N1565 G1 X-21.867
N1570 X-21.821 Y-9.491
N1575 X-21.779 Y-9.473
N1580 X-21.743 Y-9.445
N1585 X-21.733 Y-9.436
N1590 G2 X-20.598 Y-9.227 I0.719 J-0.719
N1595 G3 X-19.808 Y-8.385 I0.25 J0.557
N1600 G2 X-20.087 Y-7.745 I4.165 J2.193
N1605 X-20.306 Y-7.053 I11.295 J3.95
N1610 G3 X-20.525 Y-6.36 I-11.514 J-3.257
N1615 X-20.996 Y-6.025 I-0.472 J-0.165
N1620 G1 X-21.372
N1625 G3 X-22.068 Y-6.312 I0. J-0.987
N1630 X-24.032 Y-8.292 I124.196 J-125.14
N1635 G2 X-25.995 Y-10.271 I-126.16 J123.16
N1640 X-26.591 Y-10.778 I-3.569 J3.596
N1645 X-27.255 Y-11.192 I-3.307 J4.563
N1650 G1 X-27.382 Y-11.254
N1655 X-27.51 Y-11.317
N1660 X-27.54 Y-11.34
N1665 X-27.561 Y-11.372
N1670 X-27.571 Y-11.41
N1675 X-27.567 Y-11.448
N1680 X-27.552 Y-11.483
N1685 X-27.526 Y-11.511
N1690 X-27.492 Y-11.529
N1695 X-27.454 Y-11.534
N1700 G2 X-24.454 Y-11.523 I2.011 J-136.741
N1705 G3 X-21.455 Y-11.534 I3. J414.735
N1710 X-20.593 Y-11.177 I0. J1.218
N1715 G1 X-19.368 Y-9.952
N1720 G3 X-19.272 Y-9.382 I-0.353 J0.353
N1725 X-19.703 Y-8.575 I-10.115 J-4.881
N1730 G1 X-19.808 Y-8.385
N1735 Z5.
N1740 X-9.623 Y-21.545
N1745 Z2.5 F666.67
N1750 Z-3.175
N1755 X-9.542 Y-21.464 F2000.
N1760 G3 X-9.59 Y-21.183 I-0.124 J0.123
N1765 G1 X-9.656 Y-21.151
N1770 X-9.697 Y-21.137
N1775 X-9.74 Y-21.134
N1780 X-9.782 Y-21.141
N1785 X-9.822 Y-21.158
N1790 X-9.856 Y-21.185
N1795 X-9.916 Y-21.245
N1800 X-9.918 Y-21.247
N1805 X-9.93 Y-21.259
N1810 X-9.958 Y-21.296
N1815 X-9.975 Y-21.338
N1820 X-9.981 Y-21.383
N1825 Y-21.397
N1830 Y-21.401
N1835 Y-21.547
N1840 G3 X-9.728 Y-21.651 I0.148 J0.
N1845 G1 X-9.623 Y-21.545
N1850 G2 X-7.972 Y-21.381 I0.925 J-0.917
N1855 G3 X-6.507 Y-20.601 I0.524 J0.78
N1860 G1 Y-20.513
N1865 G3 X-6.842 Y-20.041 I-0.5 J0.
N1870 X-7.718 Y-19.774 I-3.71 J-10.609
N1875 G2 X-8.577 Y-19.458 I1.188 J4.558
N1880 X-9.221 Y-19.123 I5.203 J10.783
N1885 G3 X-9.866 Y-18.787 I-5.848 J-10.447
N1890 X-10.436 Y-18.884 I-0.217 J-0.45
N1895 G1 X-11.662 Y-20.11
N1900 G3 X-12.019 Y-20.971 I0.861 J-0.861
N1905 X-12.006 Y-23.974 I367.151 J0.
N1910 G2 X-12.019 Y-26.977 I-120.883 J-0.989
N1915 G1 X-12.013 Y-27.015
N1920 X-11.996 Y-27.049
N1925 X-11.968 Y-27.075
N1930 X-11.933 Y-27.091
N1935 X-11.895 Y-27.094
N1940 X-11.857 Y-27.085
N1945 X-11.825 Y-27.064
N1950 X-11.802 Y-27.033
N1955 G3 X-11.587 Y-26.617 I-17.862 J9.475
N1960 G2 X-11.332 Y-26.223 I1.904 J-0.954
N1965 X-9.119 Y-23.85 I19.186 J-15.677
N1970 G3 X-6.794 Y-21.586 I-63.827 J67.88
N1975 X-6.507 Y-20.891 I-0.701 J0.695
N1980 G1 Y-20.601
N1985 Z5.
N1990 X-19.758 Y-49.786
N1995 Z2.5 F666.67
N2000 Z-3.175
N2005 X-19.393 Y-49.422 F2000.
N2010 G3 X-19.309 Y-48.859 I-0.336 J0.338
N2015 G2 X-19.847 Y-47.751 I13.93 J7.446
N2020 X-20.273 Y-46.595 I9.463 J4.145
N2025 G1 X-20.317 Y-46.429
N2030 X-20.362 Y-46.263
N2035 G3 X-20.725 Y-46.112 I-0.244 J-0.074
N2040 G2 X-21.432 Y-46.46 I-5.522 J10.348
N2045 G3 X-21.771 Y-46.984 I0.236 J-0.523
N2050 G1 X-21.768 Y-48.946
N2055 X-21.764 Y-51.426
N2060 G3 X-21.51 Y-51.532 I0.149 J0.
N2065 G1 X-19.758 Y-49.786
N2070 Z5.
N2075 X21.384 Y-48.953
N2080 Z2.5 F666.67
N2085 Z-3.175
N2090 X21.387 Y-46.984 F2000.
N2095 G3 X21.049 Y-46.46 I-0.574 J0.001
N2100 G2 X20.343 Y-46.113 I4.814 J10.696
N2105 G3 X19.979 Y-46.264 I-0.12 J-0.225
N2110 G1 X19.933 Y-46.436
N2115 X19.886 Y-46.608
N2120 G2 X19.462 Y-47.758 I-9.9 J3.002
N2125 X18.926 Y-48.86 I-14.166 J6.206
N2130 G3 X19.01 Y-49.421 I0.419 J-0.225
N2135 G1 X19.37 Y-49.781
N2140 X21.126 Y-51.531
N2145 G3 X21.381 Y-51.426 I0.105 J0.106
N2150 G1 X21.384 Y-48.953
N2155 Z5.
N2160 X49.888 Y-19.274
N2165 Z2.5 F666.67
N2170 Z-3.175
N2175 X49.524 Y-18.909 F2000.
N2180 G3 X48.962 Y-18.825 I-0.338 J-0.337
N2185 G2 X47.853 Y-19.363 I-7.464 J13.963
N2190 X46.697 Y-19.789 I-4.145 J9.458
N2195 G1 X46.531 Y-19.834
N2200 X46.364 Y-19.879
N2205 G3 X46.214 Y-20.242 I0.074 J-0.244
N2210 G2 X46.561 Y-20.949 I-10.347 J-5.525
N2215 G3 X47.085 Y-21.288 I0.523 J0.236
N2220 G1 X49.047 Y-21.285
N2225 X49.062
N2230 X51.53 Y-21.281
N2235 G3 X51.636 Y-21.027 I0. J0.149
N2240 G1 X49.888 Y-19.274
N2245 Z5.
N2250 X49.055 Y21.867
N2255 Z2.5 F666.67
N2260 Z-3.175
N2265 X47.085 Y21.87 F2000.
N2270 G3 X46.561 Y21.532 I-0.001 J-0.574
N2275 G2 X46.214 Y20.825 I-10.696 J4.815
N2280 G3 X46.365 Y20.462 I0.225 J-0.12
N2285 G1 X46.537 Y20.415
N2290 X46.71 Y20.369
N2295 G2 X47.859 Y19.944 I-3.001 J-9.893
N2300 X48.961 Y19.408 I-6.227 J-14.205
N2305 G3 X49.523 Y19.491 I0.225 J0.419
N2310 G1 X49.885 Y19.854
N2315 X51.635 Y21.609
N2320 G3 X51.529 Y21.864 I-0.106 J0.105
N2325 G1 X49.055 Y21.867
N2330 Z5.
N2335 X21.385 Y49.536
N2340 Z2.5 F666.67
N2345 Z-3.175
N2350 X21.382 Y52.01 F2000.
N2355 G3 X21.127 Y52.115 I-0.149 J0.
N2360 G1 X19.01 Y50.005
N2365 G3 X18.926 Y49.443 I0.336 J-0.338
N2370 G2 X19.464 Y48.335 I-13.929 J-7.446
N2375 X19.891 Y47.178 I-9.464 J-4.146
N2380 G1 X19.935 Y47.013
N2385 X19.98 Y46.847
N2390 G3 X20.343 Y46.696 I0.244 J0.074
N2395 G2 X21.05 Y47.044 I5.525 J-10.347
N2400 G3 X21.388 Y47.568 I-0.236 J0.523
N2405 G1 X21.385 Y49.529
N2410 Y49.533
N2415 Y49.536
N2420 Z5.
N2425 X-19.757 Y50.369
N2430 Z2.5 F666.67
N2435 Z-3.175
N2440 X-19.762 Y50.374 F2000.
N2445 X-21.509 Y52.115
N2450 G3 X-21.763 Y52.01 I-0.105 J-0.106
N2455 G1 X-21.77 Y47.569
N2460 G3 X-21.431 Y47.045 I0.574 J-0.001
N2465 G2 X-20.724 Y46.697 I-4.815 J-10.696
N2470 G3 X-20.361 Y46.848 I0.12 J0.224
N2475 G1 X-20.315 Y47.02
N2480 X-20.268 Y47.191
N2485 G2 X-19.844 Y48.341 I9.902 J-3.002
N2490 X-19.308 Y49.443 I14.165 J-6.205
N2495 G3 X-19.392 Y50.005 I-0.419 J0.225
N2500 G1 X-19.752 Y50.364
N2505 X-19.757 Y50.369
N2510 Z5.
N2515 X-50.27 Y19.857
N2520 Z2.5 F666.67
N2525 Z-3.175
N2530 X-49.906 Y19.492 F2000.
N2535 G3 X-49.343 Y19.408 I0.338 J0.337
N2540 G2 X-48.235 Y19.946 I7.466 J-13.968
N2545 X-47.079 Y20.373 I4.145 J-9.457
N2550 G1 X-46.913 Y20.417
N2555 X-46.746 Y20.462
N2560 G3 X-46.596 Y20.826 I-0.074 J0.244
N2565 G2 X-46.943 Y21.533 I10.347 J5.525
N2570 G3 X-47.467 Y21.871 I-0.523 J-0.236
N2575 G1 X-49.43 Y21.868
N2580 X-51.912 Y21.865
N2585 G3 X-52.018 Y21.61 I0. J-0.149
N2590 G1 X-50.27 Y19.857
N2595 Z5.
N2600 X-49.437 Y-21.284
N2605 Z2.5 F666.67
N2610 Z-3.175
N2615 X-47.468 Y-21.287 F2000.
N2620 G3 X-46.944 Y-20.948 I0.001 J0.574
N2625 G2 X-46.597 Y-20.241 I10.696 J-4.815
N2630 G3 X-46.748 Y-19.878 I-0.225 J0.12
N2635 G1 X-46.919 Y-19.831
N2640 X-47.091 Y-19.785
N2645 G2 X-48.241 Y-19.361 I3.001 J9.896
N2650 X-49.343 Y-18.825 I6.222 J14.198
N2655 G3 X-49.905 Y-18.908 I-0.225 J-0.419
N2660 G1 X-50.265 Y-19.268
N2665 X-50.275 Y-19.279
N2670 X-52.017 Y-21.026
N2675 G3 X-51.911 Y-21.28 I0.106 J-0.105
N2680 G1 X-49.437 Y-21.284
N2685 Z5.
N2690 X-102.067 Y-102.963
N2695 Z1. F666.67
N2700 Z-3.175 F2000.
N2705 X-102.076 Y-102.954
N2710 G2 X-102.949 Y-102.087 I43.492 J44.661
N2715 G3 X-104.097 Y-102.248 I-0.514 J-0.507
N2720 G1 X-104.225 Y-102.482
N2725 G3 X-103.533 Y-103.548 I0.634 J-0.346
N2730 G1 X-102.58 Y-103.471
N2735 X-102.478
N2740 X-102.376 Y-103.484
N2745 X-98.259 Y-104.337
N2750 G3 X-97.64 Y-103.083 I0.147 J0.707
N2755 G2 X-103.077 Y-97.744 I38.859 J45.001
N2760 G3 X-104.1 Y-97.695 I-0.536 J-0.48
N2765 X-104.136 Y-98.718 I0.487 J-0.53
N2770 G1 X-101.593 Y-101.412
N2775 X-101.526 Y-101.474
N2780 X-101.452 Y-101.528
N2785 X-98.111 Y-103.628
N2790 G3 X-97.836 Y-103.73 I0.383 J0.609
N2795 G1 X-93.621 Y-104.368
N2800 G3 X-93.076 Y-103.085 I0.108 J0.711
N2805 G2 X-94.726 Y-101.777 I35.958 J47.026
N2810 X-103.081 Y-93.278 I35.945 J43.696
N2815 G3 X-104.104 Y-93.177 I-0.561 J-0.445
N2820 X-104.175 Y-94.202 I0.462 J-0.547
N2825 G1 X-99.506 Y-99.408
N2830 X-99.448 Y-99.465
N2835 X-99.385 Y-99.515
N2840 X-93.511 Y-103.654
N2845 G3 X-93.194 Y-103.778 I0.412 J0.585
N2850 G1 X-88.624 Y-104.393
N2855 G3 X-88.135 Y-103.085 I0.095 J0.71
N2860 G2 X-92.906 Y-99.565 I31.021 J47.031
N2865 X-103.081 Y-88.46 I34.127 J41.485
N2870 G3 X-104.099 Y-88.296 I-0.587 J-0.403
N2875 X-104.214 Y-89.32 I0.431 J-0.567
N2880 G1 X-97.454 Y-97.394
N2885 X-97.39 Y-97.462
N2890 X-97.317 Y-97.52
N2895 X-88.527 Y-103.68
N2900 G3 X-88.201 Y-103.804 I0.409 J0.583
N2905 G1 X-83.03 Y-104.414
N2910 G3 X-82.607 Y-103.08 I0.083 J0.707
N2915 G2 X-91.096 Y-97.364 I25.498 J47.032
N2920 X-103.08 Y-83.082 I32.318 J39.287
N2925 G3 X-104.087 Y-82.84 I-0.616 J-0.348
N2930 X-104.258 Y-83.861 I0.39 J-0.59
N2935 G1 X-95.419 Y-95.385
N2940 X-95.369 Y-95.444
N2945 X-95.312 Y-95.498
N2950 X-95.249 Y-95.544
N2955 X-82.945 Y-103.702
N2960 G3 X-82.623 Y-103.816 I0.391 J0.59
N2965 G1 X-76.281 Y-104.446
N2970 G3 X-75.948 Y-103.085 I0.07 J0.704
N2975 G2 X-89.298 Y-95.179 I18.844 J47.043
N2980 X-101.435 Y-80.178 I30.522 J37.103
N2985 X-103.081 Y-76.683 I45.278 J23.46
N2990 G1 X-103.09 Y-76.66
N2995 Z5.
N3000 X-66.014 Y-103.088
N3005 Z1. F666.67
N3010 Z-3.175 F2000.
N3015 X-66.026 Y-103.085
N3020 G2 X-71.501 Y-101.714 I8.228 J44.468
N3025 X-87.512 Y-93.007 I14.6 J45.918
N3030 X-98.953 Y-78.855 I28.737 J34.933
N3035 X-103.087 Y-67.631 I42.8 J22.137
N3040 G1 X-103.09 Y-67.619
N3045 Z5.
N3050 X-40.183 Y-103.094
N3055 Z1. F666.67
N3060 Z-3.175 F2000.
N3065 X-40.199 Y-103.074
N3070 G2 X-41.906 Y-100.837 I37.577 J30.43
N3075 G3 X-42.521 Y-100.572 I-0.528 J-0.379
N3080 G2 X-47.524 Y-101. I-6.89 J51.008
N3085 X-52.543 Y-100.848 I-1.375 J37.482
N3090 G3 X-53.65 Y-100.846 I-0.566 J-5.798
N3095 G2 X-70.689 Y-99.044 I-4.149 J42.231
N3100 X-85.738 Y-90.851 I13.79 J43.25
N3105 X-96.49 Y-77.541 I26.965 J32.78
N3110 X-101.333 Y-61.131 I40.34 J20.824
N3115 X-101.328 Y-53.142 I40.663 J3.972
N3120 G3 X-101.304 Y-52.592 I-5.018 J0.496
N3125 X-101.334 Y-52.042 I-6.397 J-0.069
N3130 G2 X-101.484 Y-47.03 I37.322 J3.628
N3135 X-101.055 Y-42.034 I51.484 J-1.902
N3140 G3 X-101.32 Y-41.419 I-0.644 J0.087
N3145 G2 X-103.078 Y-40.095 I28.217 J39.313
N3150 G1 X-103.088 Y-40.088
N3155 Z5.
N3160 X-36.579 Y-103.091
N3165 Z1. F666.67
N3170 Z-3.175 F2000.
N3175 X-36.587 Y-103.082
N3180 G2 X-36.874 Y-102.76 I27.715 J24.965
N3185 X-40.632 Y-97.813 I32.353 J28.473
N3190 G3 X-41.197 Y-97.569 I-0.466 J-0.304
N3195 G2 X-52.866 Y-98.044 I-7.535 J41.568
N3200 G3 X-53.394 Y-98.046 I-0.254 J-2.605
N3205 G2 X-53.92 Y-98.099 I-7.984 J75.871
N3210 X-69.886 Y-96.403 I-3.879 J39.488
N3215 X-83.985 Y-88.72 I12.99 J40.613
N3220 X-94.055 Y-76.243 I25.214 J30.651
N3225 X-98.586 Y-60.862 I37.909 J19.526
N3230 X-98.752 Y-56.841 I35.673 J3.484
N3235 X-98.524 Y-52.823 I48.207 J-0.722
N3240 G3 X-98.53 Y-52.297 I-2.383 J0.235
N3245 G2 X-98.587 Y-51.775 I21.169 J2.586
N3250 X-98.703 Y-46.224 I36.352 J3.533
N3255 X-98.053 Y-40.71 I44.706 J-2.473
N3260 G3 X-98.297 Y-40.145 I-0.547 J0.099
N3265 G2 X-103.087 Y-36.524 I23.536 J36.121
N3270 G1 X-103.096 Y-36.516
N3275 Z5.
N3280 X-32.791 Y-103.096
N3285 Z1. F666.67
N3290 Z-3.175 F2000.
N3295 X-32.8 Y-103.087
N3300 G2 X-35.474 Y-100.238 I24.468 J25.637
N3305 X-39.333 Y-94.732 I29.634 J24.88
N3310 G3 X-39.848 Y-94.51 I-0.407 J-0.235
N3315 G2 X-46.191 Y-95.45 I-8.675 J36.664
N3320 X-52.602 Y-95.337 I-2.495 J40.224
N3325 G3 X-53.395 Y-95.326 I-0.462 J-4.729
N3330 X-54.186 Y-95.392 I1.977 J-28.243
N3335 G2 X-69.095 Y-93.801 I-3.614 J36.784
N3340 X-82.257 Y-86.62 I12.201 J38.014
N3345 X-91.655 Y-74.963 I23.488 J28.553
N3350 X-95.879 Y-60.598 I35.513 J18.246
N3355 X-96.032 Y-56.843 I33.013 J3.225
N3360 X-95.817 Y-53.09 I45.575 J-0.729
N3365 G3 X-95.81 Y-52.299 I-4.404 J0.435
N3370 X-95.88 Y-51.512 I-48.068 J-3.878
N3375 G2 X-95.938 Y-45.4 I34.847 J3.387
N3380 X-94.994 Y-39.362 I39.485 J-3.082
N3385 G3 X-95.216 Y-38.847 I-0.458 J0.108
N3390 G2 X-100.911 Y-34.789 I18.55 J32.064
N3395 X-103.079 Y-32.769 I26.408 J30.504
N3400 G1 X-103.096 Y-32.751
N3405 Z5.
N3410 X-28.735 Y-103.094
N3415 Z1. F666.67
N3420 Z-3.175 F2000.
N3425 X-28.754 Y-103.079
N3430 G2 X-33.573 Y-98.337 I24.545 J29.765
N3435 X-37.544 Y-92.528 I25.273 J21.537
N3440 X-37.78 Y-92.055 I7.561 J4.066
N3445 G3 X-38.012 Y-91.58 I-10.128 J-4.668
N3450 X-38.489 Y-91.379 I-0.359 J-0.187
N3455 G2 X-45.053 Y-92.708 I-10.342 J34.203
N3460 X-51.751 Y-92.737 I-3.49 J32.825
N3465 G3 X-52.802 Y-92.656 I-2.554 J-26.159
N3470 X-53.856 Y-92.677 I-0.389 J-6.792
N3475 G2 X-67.751 Y-91.419 I-3.645 J37.101
N3480 X-80.104 Y-84.934 I9.425 J32.959
N3485 X-89.02 Y-74.229 I23.692 J28.801
N3490 X-93.164 Y-60.928 I29.973 J16.634
N3495 X-93.16 Y-53.353 I38.555 J3.766
N3500 G3 X-93.14 Y-52.302 I-6.596 J0.652
N3505 X-93.222 Y-51.253 I-28.719 J-1.735
N3510 G2 X-93.193 Y-44.562 I32.916 J3.199
N3515 X-91.863 Y-38.003 I35.347 J-3.753
N3520 G3 X-92.064 Y-37.527 I-0.387 J0.117
N3525 G2 X-95.325 Y-35.663 I21.764 J41.87
N3530 X-98.371 Y-33.465 I15.084 J24.114
N3535 X-103.087 Y-28.832 I24.708 J29.867
N3540 G1 X-103.095 Y-28.822
N3545 Z5.
N3550 X-25.148 Y-103.095
N3555 Z1. F666.67
N3560 Z-3.175 F2000.
N3565 X-25.156 Y-103.086
N3570 G2 X-25.589 Y-102.57 I23.024 J19.761
N3575 G3 X-26.203 Y-101.862 I-13.5 J-11.076
N3580 X-26.885 Y-101.218 I-4.691 J-4.29
N3585 G2 X-31.556 Y-96.669 I22.92 J28.205
N3590 X-35.244 Y-91.291 I23.037 J19.751
N3595 X-35.977 Y-89.832 I25.764 J13.857
N3600 X-36.645 Y-88.341 I44.708 J20.918
N3605 G3 X-37.071 Y-88.157 I-0.311 J-0.133
N3610 G2 X-45.657 Y-90.127 I-12.063 J32.884
N3615 X-48.874 Y-90.254 I-2.711 J27.845
N3620 X-52.087 Y-90.069 I0.733 J40.61
N3625 X-52.597 Y-89.997 I0.604 J6.187
N3630 G3 X-53.11 Y-89.951 I-0.513 J-2.816
N3635 X-53.909 Y-90.018 I0. J-4.774
N3640 G2 X-54.703 Y-90.124 I-1.912 J11.273
N3645 X-67.555 Y-88.737 I-3.097 J31.525
N3650 X-78.894 Y-82.532 I10.667 J32.958
N3655 X-86.984 Y-72.472 I20.131 J24.472
N3660 X-90.611 Y-60.083 I30.852 J15.757
N3665 X-90.739 Y-56.846 I27.856 J2.721
N3670 X-90.549 Y-53.611 I40.503 J-0.748
N3675 X-90.48 Y-53.119 I6.01 J-0.594
N3680 G3 X-90.435 Y-52.624 I-2.707 J0.495
N3685 X-90.504 Y-51.81 I-4.889 J0.
N3690 G2 X-90.611 Y-50.999 I11.431 J1.932
N3695 X-90.437 Y-43.682 I30.258 J2.941
N3700 X-88.641 Y-36.586 I35.044 J-5.098
N3705 G3 X-88.825 Y-36.159 I-0.317 J0.116
N3710 G2 X-101.678 Y-26.427 I13.166 J30.743
N3715 G3 X-102.347 Y-25.719 I-5.188 J-4.227
N3720 X-103.082 Y-25.081 I-12.353 J-13.489
N3725 G1 X-103.092 Y-25.073
N3730 Z5.
N3735 X-21.674 Y-103.096
N3740 Z1. F666.67
N3745 Z-3.175 F2000.
N3750 X-21.683 Y-103.087
N3755 G2 X-23.623 Y-100.958 I19.566 J19.774
N3760 X-24.059 Y-100.386 I8.009 J6.571
N3765 G3 X-24.525 Y-99.838 I-3.407 J-2.421
N3770 X-25.12 Y-99.341 I-3.229 J-3.258
N3775 G2 X-25.739 Y-98.873 I6.286 J8.966
N3780 X-31.486 Y-92.592 I18.273 J22.487
N3785 X-35.206 Y-84.936 I25.068 J16.914
N3790 G3 X-35.58 Y-84.774 I-0.258 J-0.083
N3795 G2 X-40.619 Y-86.635 I-12.698 J26.624
N3800 X-45.904 Y-87.596 I-8.432 J31.36
N3805 X-48.576 Y-87.712 I-2.404 J24.686
N3810 X-51.246 Y-87.567 I0.334 J30.924
N3815 X-51.505 Y-87.533 I0.406 J4.162
N3820 G3 X-51.765 Y-87.5 I-0.665 J-4.128
N3825 X-54.465 Y-87.501 I-1.346 J-13.785
N3830 G1 X-54.71 Y-87.533
N3835 X-54.955 Y-87.564
N3840 G2 X-66.814 Y-86.289 I-2.863 J29.147
N3845 X-77.279 Y-80.568 I9.795 J30.351
N3850 X-84.741 Y-71.276 I18.519 J22.513
N3855 X-88.08 Y-59.836 I28.615 J14.561
N3860 X-88.196 Y-57.144 I24.591 J2.402
N3865 X-88.047 Y-54.454 I31.071 J-0.365
N3870 G1 X-88.017 Y-54.22
N3875 X-87.986 Y-53.985
N3880 G3 X-87.984 Y-51.284 I-13.78 J1.361
N3885 X-88.018 Y-51.018 I-4.285 J-0.417
N3890 G2 X-88.053 Y-50.751 I4.251 J0.683
N3895 X-87.722 Y-42.733 I29.013 J2.82
N3900 X-85.258 Y-35.096 I29.813 J-5.403
N3905 G3 X-85.419 Y-34.721 I-0.244 J0.117
N3910 G2 X-93.281 Y-30.807 I8.953 J27.833
N3915 X-99.707 Y-24.821 I18.468 J26.269
N3920 X-100.003 Y-24.425 I4.528 J3.69
N3925 G3 X-100.318 Y-24.044 I-2.244 J-1.532
N3930 X-100.88 Y-23.566 I-3.066 J-3.041
N3935 G2 X-101.467 Y-23.117 I6.127 J8.613
N3940 X-103.087 Y-21.68 I18.51 J22.508
N3945 G1 X-103.096 Y-21.672
N3950 Z5.
N3955 X-17.667 Y-103.095
N3960 Z1. F666.67
N3965 Z-3.175 F2000.
N3970 X-17.686 Y-103.079
N3975 G2 X-21.556 Y-99.261 I16.173 J20.262
N3980 G1 X-21.659 Y-99.127
N3985 X-21.762 Y-98.993
N3990 G3 X-23.665 Y-97.099 I-10.329 J-8.475
N3995 G1 X-23.861 Y-96.95
N4000 X-24.056 Y-96.801
N4005 G2 X-29.546 Y-90.678 I16.526 J20.337
N4010 X-33.01 Y-83.219 I25.024 J16.156
N4015 X-33.148 Y-82.685 I6.238 J1.904
N4020 G3 X-33.275 Y-82.148 I-13.393 J-2.879
N4025 X-33.688 Y-81.86 I-0.375 J-0.096
N4030 G2 X-34.567 Y-81.94 I-5.474 J55.376
N4035 X-35.447 Y-81.995 I-1.828 J22.066
N4040 G3 X-36.406 Y-82.241 I0.102 J-2.393
N4045 G2 X-41.159 Y-84.047 I-11.786 J23.854
N4050 X-46.16 Y-84.969 I-7.895 J28.806
N4055 X-49.041 Y-85.05 I-2.024 J20.781
N4060 X-51.915 Y-84.831 I1.697 J41.263
N4065 G3 X-54.305 I-1.195 J-10.734
N4070 G2 X-57.189 Y-85.05 I-4.562 J40.991
N4075 X-60.081 Y-84.967 I-0.849 J20.86
N4080 X-70.525 Y-81.923 I2.884 J29.34
N4085 X-79.013 Y-75.119 I11.986 J23.648
N4090 X-84.257 Y-65.556 I22.668 J18.65
N4095 X-85.434 Y-54.712 I25.282 J8.23
N4100 X-85.376 Y-54.265 I7.408 J-0.732
N4105 G3 X-85.315 Y-53.819 I-9.237 J1.481
N4110 Y-51.429 I-10.734 J1.195
N4115 G2 X-85.534 Y-48.555 I40.949 J4.56
N4120 X-85.453 Y-45.673 I20.877 J0.855
N4125 X-84.531 Y-40.673 I29.733 J-2.898
N4130 X-82.725 Y-35.921 I25.676 J-7.039
N4135 G3 X-82.479 Y-34.962 I-2.147 J1.061
N4140 G2 X-82.424 Y-34.082 I22.136 J-0.946
N4145 X-82.344 Y-33.203 I54.155 J-4.48
N4150 G3 X-82.632 Y-32.791 I-0.385 J0.038
N4155 G2 X-86.068 Y-31.689 I7.764 J30.121
N4160 X-89.344 Y-30.18 I10.284 J26.649
N4165 X-93.628 Y-27.278 I12.202 J22.621
N4170 X-97.264 Y-23.596 I17.426 J20.843
N4175 X-97.424 Y-23.386 I3.278 J2.671
N4180 G3 X-97.585 Y-23.176 I-3.438 J-2.461
N4185 X-99.463 Y-21.29 I-10.395 J-8.47
N4190 G1 X-99.616 Y-21.171
N4195 X-99.769 Y-21.053
N4200 G2 X-103.082 Y-17.807 I16.941 J20.601
N4205 G1 X-103.09 Y-17.797
N4210 Z5.
N4215 X-103.089 Y98.287
N4220 Z1. F666.67
N4225 Z-3.175 F2000.
N4230 X-103.081 Y98.297
N4235 G2 X-98.336 Y103.08 I44.517 J-39.416
N4240 G3 X-98.287 Y104.101 I-0.481 J0.535
N4245 X-99.309 Y104.139 I-0.53 J-0.487
N4250 G1 X-101.675 Y101.92
N4255 X-101.741 Y101.848
N4260 X-101.798 Y101.769
N4265 X-103.619 Y98.774
N4270 G3 X-103.716 Y98.509 I0.615 J-0.374
N4275 G1 X-104.355 Y94.363
N4280 G3 X-103.078 Y93.809 I0.711 J-0.11
N4285 G2 X-102.254 Y94.834 I46.539 J-36.594
N4290 X-93.889 Y103.079 I43.691 J-35.954
N4295 G3 X-93.79 Y104.101 I-0.447 J0.559
N4300 X-94.814 Y104.173 I-0.547 J-0.462
N4305 G1 X-99.662 Y99.838
N4310 X-99.719 Y99.781
N4315 X-99.769 Y99.718
N4320 X-103.641 Y94.251
N4325 G3 X-103.766 Y93.936 I0.584 J-0.414
N4330 G1 X-104.385 Y89.459
N4335 G3 X-103.084 Y88.957 I0.709 J-0.098
N4340 G2 X-100.042 Y93.014 I46.55 J-31.746
N4345 X-89.093 Y103.079 I41.481 J-34.135
N4350 G3 X-88.931 Y104.096 I-0.405 J0.586
N4355 X-89.954 Y104.211 I-0.567 J-0.431
N4360 G1 X-97.632 Y97.803
N4365 X-97.698 Y97.74
N4370 X-97.756 Y97.669
N4375 X-103.673 Y89.358
N4380 G3 X-103.8 Y89.031 I0.58 J-0.413
N4385 G1 X-104.41 Y84.011
N4390 G3 X-103.083 Y83.574 I0.707 J-0.086
N4395 G2 X-97.842 Y91.203 I46.555 J-26.368
N4400 X-83.739 Y103.082 I39.283 J-32.326
N4405 G3 X-83.499 Y104.088 I-0.35 J0.615
N4410 X-84.518 Y104.26 I-0.59 J-0.391
N4415 G1 X-95.587 Y95.804
N4420 X-95.645 Y95.755
N4425 X-95.697 Y95.7
N4430 X-95.743 Y95.64
N4435 X-103.699 Y83.923
N4440 G3 X-103.817 Y83.598 I0.585 J-0.397
N4445 G1 X-104.44 Y77.594
N4450 G3 X-103.087 Y77.24 I0.704 J-0.073
N4455 G2 X-95.657 Y89.405 I46.809 J-20.239
N4460 X-80.654 Y101.539 I37.099 J-30.529
N4465 X-77.397 Y103.082 I23.452 J-45.28
N4470 G1 X-77.375 Y103.092
N4475 Z5.
N4480 X-103.089 Y68.395
N4485 Z1. F666.67
N4490 Z-3.175 F2000.
N4495 X-103.086 Y68.407
N4500 G2 X-102.193 Y71.618 I43.98 J-10.507
N4505 X-93.485 Y87.618 I45.916 J-14.62
N4510 X-79.331 Y99.057 I34.93 J-28.744
N4515 X-68.545 Y103.085 I22.129 J-42.801
N4520 G1 X-68.533 Y103.088
N4525 Z5.
N4530 X-103.094 Y40.667
N4535 Z1. F666.67
N4540 Z-3.175 F2000.
N4545 X-103.085 Y40.675
N4550 G2 X-101.319 Y42.003 I29.964 J-37.964
N4555 G3 X-101.054 Y42.618 I-0.379 J0.528
N4560 G2 X-101.483 Y47.619 I51.001 J6.892
N4565 X-101.332 Y52.636 I37.487 J1.379
N4570 G3 Y53.775 I-5.85 J0.57
N4575 G2 X-99.522 Y70.805 I42.229 J4.125
N4580 X-91.33 Y85.844 I43.248 J-13.809
N4585 X-78.018 Y96.594 I32.776 J-26.972
N4590 X-61.607 Y101.434 I20.817 J-40.341
N4595 X-53.624 Y101.428 I3.965 J-40.664
N4600 G3 X-53.078 Y101.404 I0.497 J5.026
N4605 X-52.532 Y101.433 I-0.062 J6.274
N4610 G2 X-47.517 Y101.585 I3.633 J-37.316
N4615 X-42.519 Y101.156 I-1.898 J-51.492
N4620 G3 X-41.904 Y101.421 I0.087 J0.644
N4625 G2 X-40.656 Y103.084 I39.258 J-28.173
N4630 G1 X-40.648 Y103.094
N4635 Z5.
N4640 X-103.094 Y37.103
N4645 Z1. F666.67
N4650 Z-3.175 F2000.
N4655 X-103.075 Y37.119
N4660 G2 X-98.296 Y40.729 I28.306 J-32.501
N4665 G3 X-98.052 Y41.295 I-0.304 J0.466
N4670 G2 X-98.528 Y52.959 I41.565 J7.537
N4675 G3 X-98.53 Y53.503 I-2.667 J0.26
N4680 G2 X-98.585 Y54.043 I62.642 J6.665
N4685 X-96.882 Y70.001 I39.486 J3.857
N4690 X-89.199 Y84.091 I40.612 J-13.007
N4695 X-76.72 Y94.159 I30.648 J-25.221
N4700 X-61.339 Y98.687 I19.519 J-37.91
N4705 X-57.321 Y98.852 I3.478 J-35.673
N4710 X-53.306 Y98.624 I-0.726 J-48.214
N4715 G3 X-52.783 Y98.63 I0.234 J2.368
N4720 G2 X-52.264 Y98.687 I2.599 J-21.307
N4725 X-46.711 Y98.803 I3.539 J-36.346
N4730 X-41.195 Y98.154 I-2.469 J-44.712
N4735 G3 X-40.63 Y98.397 I0.099 J0.547
N4740 G2 X-37.099 Y103.085 I36.095 J-23.516
N4745 G1 X-37.091 Y103.094
N4750 Z5.
N4755 X-103.088 Y33.393
N4760 Z1. F666.67
N4765 Z-3.175 F2000.
N4770 X-103.079 Y33.402
N4775 G2 X-100.71 Y35.58 I25.155 J-24.98
N4780 X-95.215 Y39.431 I24.868 J-29.64
N4785 G3 X-94.993 Y39.946 I-0.235 J0.407
N4790 G2 X-95.933 Y46.287 I36.658 J8.676
N4795 X-95.82 Y52.696 I40.232 J2.499
N4800 G3 X-95.81 Y53.503 I-4.776 J0.465
N4805 X-95.878 Y54.308 I-30.939 J-2.211
N4810 G2 X-94.28 Y69.209 I36.782 J3.593
N4815 X-87.099 Y82.363 I38.013 J-12.217
N4820 X-75.441 Y91.758 I28.551 J-23.495
N4825 X-61.075 Y95.98 I18.24 J-35.514
N4830 X-57.322 Y96.132 I3.219 J-33.013
N4835 X-53.573 Y95.917 I-0.733 J-45.582
N4840 G3 X-52.785 Y95.91 I0.434 J4.393
N4845 X-52.001 Y95.98 I-3.745 J46.595
N4850 G2 X-45.887 Y96.039 I3.393 J-34.842
N4855 X-39.847 Y95.095 I-3.078 J-39.49
N4860 G3 X-39.332 Y95.317 I0.108 J0.458
N4865 G2 X-35.255 Y101.034 I32.058 J-18.543
N4870 X-33.356 Y103.077 I30.454 J-26.405
N4875 G1 X-33.339 Y103.095
N4880 Z5.
N4885 X-103.094 Y29.408
N4890 Z1. F666.67
N4895 Z-3.175 F2000.
N4900 X-103.078 Y29.427
N4905 G2 X-98.826 Y33.666 I29.345 J-25.18
N4910 X-93.046 Y37.624 I21.531 J-25.242
N4915 X-92.556 Y37.869 I4.215 J-7.815
N4920 G3 X-92.063 Y38.111 I-4.96 J10.734
N4925 X-91.862 Y38.588 I-0.187 J0.36
N4930 G2 X-93.191 Y45.15 I34.26 J10.353
N4935 X-93.221 Y51.846 I32.811 J3.495
N4940 X-93.133 Y52.525 I10.988 J-1.071
N4945 G3 X-93.079 Y53.208 I-4.25 J0.682
N4950 X-93.133 Y53.889 I-4.296 J0.
N4955 G2 X-93.221 Y54.567 I10.881 J1.749
N4960 X-91.726 Y68.431 I34.129 J3.334
N4965 X-85.037 Y80.666 I35.462 J-11.443
N4970 X-74.185 Y89.402 I26.492 J-21.801
N4975 X-60.816 Y93.323 I16.985 J-33.162
N4980 X-57.324 Y93.462 I2.965 J-30.408
N4985 X-53.836 Y93.26 I-0.742 J-43.014
N4990 G3 X-52.787 Y93.24 I0.651 J6.588
N4995 X-51.742 Y93.322 I-1.702 J28.3
N5000 G2 X-45.048 Y93.294 I3.207 J-32.933
N5005 X-38.488 Y91.964 I-3.739 J-35.279
N5010 G3 X-38.012 Y92.164 I0.117 J0.387
N5015 G2 X-36.15 Y95.423 I41.853 J-21.746
N5020 X-33.956 Y98.466 I24.111 J-15.075
N5025 X-29.441 Y103.081 I29.805 J-24.64
N5030 G1 X-29.431 Y103.089
N5035 Z5.
N5040 X-103.094 Y25.656
N5045 Z1. F666.67
N5050 Z-3.175 F2000.
N5055 X-103.084 Y25.664
N5060 X-103.05 Y25.692
N5065 G3 X-102.336 Y26.312 I-10.756 J13.113
N5070 X-101.688 Y27. I-4.415 J4.809
N5075 G2 X-97.157 Y31.649 I28.229 J-22.976
N5080 X-91.806 Y35.324 I19.757 J-23.03
N5085 X-90.331 Y36.067 I13.983 J-25.923
N5090 X-88.824 Y36.743 I20.594 J-43.905
N5095 G3 X-88.64 Y37.17 I-0.133 J0.311
N5100 G2 X-90.61 Y45.762 I32.875 J12.062
N5105 X-90.737 Y48.974 I27.843 J2.707
N5110 X-90.552 Y52.182 I40.633 J-0.733
N5115 X-90.481 Y52.694 I6.198 J-0.604
N5120 G3 X-90.434 Y53.208 I-2.823 J0.514
N5125 X-90.503 Y54.017 I-4.849 J0.
N5130 G2 X-90.61 Y54.822 I11.375 J1.927
N5135 X-89.217 Y67.667 I31.523 J3.079
N5140 X-83.011 Y78.999 I32.957 J-10.682
N5145 X-72.951 Y87.087 I24.47 J-20.137
N5150 X-60.561 Y90.712 I15.751 J-30.853
N5155 X-57.326 Y90.839 I2.716 J-27.856
N5160 X-54.093 Y90.65 I-0.752 J-40.51
N5165 X-53.602 Y90.581 I-0.594 J-6.008
N5170 G3 X-53.107 Y90.536 I0.494 J2.705
N5175 X-52.295 Y90.604 I0. J4.871
N5180 G2 X-51.488 Y90.711 I1.929 J-11.406
N5185 X-44.168 Y90.538 I2.946 J-30.252
N5190 X-37.07 Y88.741 I-5.096 J-35.049
N5195 G3 X-36.644 Y88.926 I0.116 J0.317
N5200 G2 X-26.874 Y101.81 I30.726 J-13.152
N5205 G3 X-26.184 Y102.465 I-3.906 J4.81
N5210 X-25.648 Y103.082 I-15.132 J13.679
N5215 G1 X-25.64 Y103.092
N5220 Z5.
N5225 X-103.096 Y22.251
N5230 Z1. F666.67
N5235 Z-3.175 F2000.
N5240 X-103.087 Y22.26
N5245 G2 X-101.437 Y23.726 I19.292 J-20.042
N5250 X-100.866 Y24.162 I6.575 J-8.016
N5255 G3 X-100.318 Y24.628 I-2.423 J3.411
N5260 X-99.815 Y25.229 I-3.297 J3.269
N5265 G2 X-99.342 Y25.854 I9.034 J-6.343
N5270 X-93.066 Y31.59 I22.488 J-18.303
N5275 X-85.418 Y35.305 I16.901 J-25.062
N5280 G3 X-85.256 Y35.679 I-0.083 J0.258
N5285 G2 X-87.119 Y40.721 I26.619 J12.697
N5290 X-88.08 Y46.008 I31.36 J8.43
N5295 X-88.195 Y48.676 I24.689 J2.4
N5300 X-88.051 Y51.342 I30.92 J-0.333
N5305 X-88.017 Y51.603 I4.193 J-0.409
N5310 G3 X-87.983 Y51.864 I-4.159 J0.67
N5315 Y54.553 I-13.78 J1.343
N5320 X-88.017 Y54.812 I-4.173 J-0.408
N5325 G2 X-88.051 Y55.072 I4.14 J0.667
N5330 X-86.77 Y66.925 I29.14 J2.846
N5335 X-81.048 Y77.383 I30.356 J-9.813
N5340 X-71.755 Y84.843 I22.511 J-18.524
N5345 X-60.315 Y88.181 I14.556 J-28.615
N5350 X-57.625 Y88.296 I2.397 J-24.586
N5355 X-54.936 Y88.147 I-0.368 J-31.079
N5360 G1 X-54.702 Y88.117
N5365 X-54.468 Y88.086
N5370 G3 X-51.765 Y88.084 I1.361 J13.778
N5375 X-51.502 Y88.118 I-0.412 J4.232
N5380 G2 X-51.238 Y88.152 I0.675 J-4.198
N5385 X-43.218 Y87.823 I2.825 J-29.01
N5390 X-35.579 Y85.359 I-5.401 J-29.814
N5395 G3 X-35.205 Y85.52 I0.116 J0.244
N5400 G2 X-31.279 Y93.4 I27.829 J-8.946
N5405 X-25.271 Y99.836 I26.228 J-18.463
N5410 X-24.891 Y100.119 I3.56 J-4.384
N5415 G3 X-24.525 Y100.421 I-1.46 J2.143
N5420 X-24.047 Y100.984 I-3.041 J3.067
N5425 G2 X-23.598 Y101.57 I8.612 J-6.128
N5430 X-22.269 Y103.077 I22.506 J-18.512
N5435 G1 X-22.252 Y103.095
N5440 Z5.
N5445 X-103.095 Y18.355
N5450 Z1. F666.67
N5455 Z-3.175 F2000.
N5460 X-103.087 Y18.364
N5465 G2 X-99.742 Y21.658 I19.787 J-16.751
N5470 G1 X-99.608 Y21.761
N5475 X-99.474 Y21.864
N5480 G3 X-97.581 Y23.764 I-8.49 J10.35
N5485 X-97.427 Y23.967 I-3.162 J2.574
N5490 G2 X-97.272 Y24.169 I3.316 J-2.371
N5495 X-91.164 Y29.642 I20.338 J-16.553
N5500 X-83.729 Y33.102 I16.167 J-25.024
N5505 X-83.182 Y33.244 I1.947 J-6.352
N5510 G3 X-82.632 Y33.374 I-3.002 J13.927
N5515 X-82.343 Y33.787 I-0.096 J0.375
N5520 G2 X-82.423 Y34.666 I55.07 J5.443
N5525 X-82.478 Y35.547 I22.07 J1.826
N5530 G3 X-82.724 Y36.506 I-2.393 J-0.102
N5535 G2 X-84.531 Y41.261 I23.851 J11.785
N5540 X-85.452 Y46.264 I28.806 J7.893
N5545 X-85.533 Y49.142 I20.78 J2.02
N5550 X-85.314 Y52.014 I41.284 J-1.699
N5555 G3 Y54.403 I-10.725 J1.193
N5560 G2 X-85.534 Y57.296 I40.785 J4.547
N5565 X-85.449 Y60.196 I20.898 J0.843
N5570 X-82.403 Y70.633 I29.334 J-2.899
N5575 X-75.6 Y79.115 I23.646 J-11.996
N5580 X-66.037 Y84.358 I18.648 J-22.672
N5585 X-55.195 Y85.534 I8.228 J-25.282
N5590 X-54.748 Y85.476 I-0.732 J-7.404
N5595 G3 X-54.302 Y85.416 I1.48 J9.23
N5600 X-51.912 I1.195 J10.734
N5605 G2 X-49.036 Y85.634 I4.559 J-40.945
N5610 X-46.152 Y85.553 I0.853 J-20.876
N5615 X-41.154 Y84.631 I-2.903 J-29.731
N5620 X-36.404 Y82.825 I-7.042 J-25.679
N5625 G3 X-35.446 Y82.579 I1.061 J2.147
N5630 G2 X-34.565 Y82.524 I-0.95 J-22.115
N5635 X-33.687 Y82.444 I-4.661 J-56.165
N5640 G3 X-33.274 Y82.733 I0.038 J0.385
N5645 G2 X-30.668 Y89.44 I29.408 J-7.567
N5650 X-27.752 Y93.742 I22.594 J-12.177
N5655 X-24.049 Y97.389 I20.832 J-17.446
N5660 G1 X-23.86 Y97.533
N5665 X-23.672 Y97.677
N5670 G3 X-21.772 Y99.564 I-8.439 J10.392
N5675 G1 X-21.653 Y99.718
N5680 X-21.534 Y99.872
N5685 G2 X-18.406 Y103.083 I20.599 J-16.944
N5690 G1 X-18.396 Y103.091
N5695 Z5.
N5700 X97.911 Y103.094
N5705 Z1. F666.67
N5710 Z-3.175 F2000.
N5715 X97.93 Y103.078
N5720 G2 X103.08 Y97.892 I-39.532 J-44.413
N5725 G3 X104.101 Y97.832 I0.541 J0.475
N5730 X104.149 Y98.855 I-0.481 J0.535
N5735 G1 X101.748 Y101.459
N5740 X101.68 Y101.523
N5745 X101.605 Y101.578
N5750 X98.408 Y103.615
N5755 G3 X98.131 Y103.719 I-0.387 J-0.607
N5760 G1 X94.004 Y104.357
N5765 G3 X93.448 Y103.082 I-0.11 J-0.711
N5770 G2 X94.35 Y102.354 I-36.716 J-46.442
N5775 X103.078 Y93.377 I-35.954 J-43.691
N5780 G3 X104.099 Y93.264 I0.566 J0.439
N5785 X104.183 Y94.288 I-0.456 J0.552
N5790 G1 X99.693 Y99.422
N5795 X99.636 Y99.479
N5800 X99.574 Y99.53
N5805 X93.892 Y103.644
N5810 G3 X93.57 Y103.773 I-0.42 J-0.58
N5815 G1 X89.12 Y104.387
N5820 G3 X88.617 Y103.087 I-0.098 J-0.709
N5825 G2 X92.53 Y100.142 I-31.889 J-46.452
N5830 X103.082 Y88.476 I-34.135 J-41.481
N5835 G3 X104.097 Y88.299 I0.592 J0.395
N5840 X104.227 Y89.321 I-0.423 J0.573
N5845 G1 X97.697 Y97.351
N5850 X97.634 Y97.419
N5855 X97.563 Y97.479
N5860 X89.02 Y103.674
N5865 G3 X88.687 Y103.804 I-0.418 J-0.577
N5870 G1 X83.71 Y104.406
N5875 G3 X83.271 Y103.081 I-0.085 J-0.707
N5880 G2 X90.72 Y97.942 I-26.549 J-46.451
N5885 X103.079 Y82.976 I-32.326 J-39.283
N5890 G3 X104.081 Y82.718 I0.621 J0.338
N5895 X104.27 Y83.735 I-0.38 J0.597
N5900 G1 X95.757 Y95.247
N5905 X95.707 Y95.307
N5910 X95.652 Y95.361
N5915 X95.591 Y95.408
N5920 X83.623 Y103.695
N5925 G3 X83.293 Y103.817 I-0.403 J-0.582
N5930 G1 X77.355 Y104.434
N5935 G3 X76.998 Y103.082 I-0.073 J-0.704
N5940 G2 X88.921 Y95.757 I-20.481 J-46.703
N5945 X101.055 Y80.754 I-30.529 J-37.099
N5950 X103.085 Y76.33 I-45.281 J-23.452
N5955 G1 X103.09 Y76.318
N5960 Z5.
N5965 X68.322 Y103.089
N5970 Z1. F666.67
N5975 Z-3.175 F2000.
N5980 X68.334 Y103.086
N5985 G2 X71.138 Y102.292 I-10.918 J-43.882
N5990 X87.134 Y93.585 I-14.623 J-45.914
N5995 X98.573 Y79.431 I-28.744 J-34.929
N6000 X103.087 Y66.41 I-42.802 J-22.129
N6005 G1 X103.089 Y66.398
N6010 Z5.
N6015 X40.27 Y103.089
N6020 Z1. F666.67
N6025 Z-3.175 F2000.
N6030 X40.278 Y103.079
N6035 G2 X41.523 Y101.42 I-38.01 J-29.831
N6040 G3 X42.138 Y101.155 I0.528 J0.379
N6045 G2 X47.141 Y101.584 I6.89 J-51.009
N6050 X52.16 Y101.432 I1.375 J-37.481
N6055 G3 X53.298 Y101.433 I0.563 J5.771
N6060 G2 X70.325 Y99.622 I4.118 J-42.231
N6065 X85.361 Y91.43 I-13.811 J-43.247
N6070 X96.11 Y78.118 I-26.972 J-32.776
N6075 X100.95 Y61.707 I-40.342 J-20.816
N6080 X100.945 Y53.725 I-40.664 J-3.964
N6085 G3 X100.921 Y53.178 I5.025 J-0.497
N6090 X100.95 Y52.632 I6.274 J0.062
N6095 G2 X101.101 Y47.618 I-37.316 J-3.633
N6100 X100.672 Y42.62 I-51.493 J1.897
N6105 G3 X100.937 Y42.005 I0.644 J-0.087
N6110 G2 X103.075 Y40.379 I-28.115 J-39.18
N6115 G1 X103.094 Y40.364
N6120 Z5.
N6125 X36.709 Y103.094
N6130 Z1. F666.67
N6135 Z-3.175 F2000.
N6140 X36.718 Y103.085
N6145 G2 X40.249 Y98.396 I-32.566 J-28.206
N6150 G3 X40.814 Y98.153 I0.466 J0.304
N6155 G2 X52.483 Y98.627 I7.535 J-41.568
N6160 G3 X53.026 Y98.63 I0.257 J2.629
N6165 G2 X53.566 Y98.686 I5.184 J-47.576
N6170 X69.521 Y96.982 I3.85 J-39.488
N6175 X83.607 Y89.299 I-13.01 J-40.61
N6180 X93.675 Y76.82 I-25.221 J-30.648
N6185 X98.204 Y61.439 I-37.91 J-19.519
N6190 X98.369 Y57.421 I-35.673 J-3.478
N6195 X98.14 Y53.406 I-48.215 J0.727
N6200 G3 X98.146 Y52.884 I2.368 J-0.234
N6205 G2 X98.203 Y52.365 I-21.295 J-2.598
N6210 X98.32 Y46.812 I-36.346 J-3.539
N6215 X97.67 Y41.296 I-44.713 J2.469
N6220 G3 X97.914 Y40.731 I0.547 J-0.099
N6225 G2 X102.852 Y36.98 I-23.474 J-36.035
N6230 X103.086 Y36.773 I-24.691 J-28.055
N6235 G1 X103.095 Y36.765
N6240 Z5.
N6245 X33.013 Y103.089
N6250 Z1. F666.67
N6255 Z-3.175 F2000.
N6260 X33.022 Y103.08
N6265 G2 X35.079 Y100.836 I-25.069 J-25.042
N6270 X38.951 Y95.316 I-29.617 J-24.892
N6275 G3 X39.466 Y95.094 I0.407 J0.235
N6280 G2 X45.808 Y96.034 I8.675 J-36.664
N6285 X52.219 Y95.92 I2.495 J-40.225
N6290 G3 X53.026 Y95.91 I0.461 J4.722
N6295 X53.83 Y95.979 I-2.429 J33.226
N6300 G2 X68.728 Y94.38 I3.587 J-36.785
N6305 X81.879 Y87.199 I-12.22 J-38.011
N6310 X91.275 Y75.541 I-23.495 J-28.551
N6315 X95.496 Y61.175 I-35.514 J-18.24
N6320 X95.649 Y57.423 I-33.013 J-3.218
N6325 X95.434 Y53.673 I-45.583 J0.734
N6330 G3 X95.426 Y52.886 I4.392 J-0.434
N6335 X95.496 Y52.101 I46.606 J3.747
N6340 G2 X95.555 Y45.988 I-34.843 J-3.393
N6345 X94.611 Y39.948 I-39.49 J3.078
N6350 G3 X94.833 Y39.432 I0.458 J-0.108
N6355 G2 X100.539 Y35.365 I-18.518 J-32.019
N6360 X103.082 Y32.961 I-26.447 J-30.517
N6365 G1 X103.091 Y32.952
N6370 Z5.
N6375 X29.072 Y103.088
N6380 Z1. F666.67
N6385 Z-3.175 F2000.
N6390 X29.081 Y103.08
N6395 G2 X37.161 Y93.111 I-21.942 J-26.044
N6400 X37.397 Y92.638 I-7.561 J-4.067
N6405 G3 X37.63 Y92.163 I10.128 J4.668
N6410 X38.107 Y91.963 I0.359 J0.187
N6415 G2 X44.671 Y93.292 I10.34 J-34.189
N6420 X51.368 Y93.321 I3.49 J-32.83
N6425 X52.044 Y93.233 I-1.069 J-10.948
N6430 G3 X52.724 Y93.179 I0.679 J4.227
N6435 X53.408 Y93.234 I0. J4.317
N6440 G2 X54.089 Y93.322 I1.754 J-10.916
N6445 X67.95 Y91.826 I3.328 J-34.131
N6450 X80.182 Y85.137 I-11.445 J-35.461
N6455 X88.919 Y74.285 I-21.801 J-26.492
N6460 X92.839 Y60.916 I-33.163 J-16.984
N6465 X92.979 Y57.424 I-30.408 J-2.965
N6470 X92.777 Y53.936 I-43.015 J0.742
N6475 G3 X92.756 Y52.888 I6.587 J-0.651
N6480 X92.839 Y51.842 I28.301 J1.702
N6485 G2 X92.81 Y45.15 I-32.924 J-3.206
N6490 X91.481 Y38.59 I-35.308 J3.742
N6495 G3 X91.681 Y38.114 I0.387 J-0.117
N6500 G2 X94.982 Y36.224 I-21.464 J-41.314
N6505 X98.061 Y33.991 I-15.22 J-24.23
N6510 X103.086 Y28.965 I-24.816 J-29.83
N6515 G1 X103.094 Y28.955
N6520 Z5.
N6525 X25.255 Y103.096
N6530 Z1. F666.67
N6535 Z-3.175 F2000.
N6540 X25.27 Y103.077
N6545 G3 X25.807 Y102.457 I14.877 J12.337
N6550 X26.475 Y101.824 I4.417 J3.99
N6555 G2 X31.162 Y97.266 I-22.882 J-28.222
N6560 X34.862 Y91.875 I-23.028 J-19.766
N6565 X35.595 Y90.415 I-25.764 J-13.857
N6570 X36.262 Y88.925 I-44.707 J-20.917
N6575 G3 X36.689 Y88.741 I0.311 J0.133
N6580 G2 X45.275 Y90.71 I12.063 J-32.884
N6585 X48.491 Y90.838 I2.711 J-27.845
N6590 X51.705 Y90.652 I-0.733 J-40.613
N6595 X52.213 Y90.581 I-0.602 J-6.17
N6600 G3 X52.724 Y90.535 I0.511 J2.806
N6605 X53.536 Y90.603 I-0.001 J4.868
N6610 G2 X54.344 Y90.711 I1.93 J-11.402
N6615 X67.186 Y89.316 I3.074 J-31.525
N6620 X78.515 Y83.112 I-10.684 J-32.956
N6625 X86.604 Y73.051 I-20.137 J-24.47
N6630 X90.228 Y60.661 I-30.853 J-15.751
N6635 X90.355 Y57.426 I-27.856 J-2.716
N6640 X90.166 Y54.194 I-40.511 J0.752
N6645 X90.097 Y53.702 I-6.008 J0.594
N6650 G3 X90.052 Y53.208 I2.705 J-0.494
N6655 X90.12 Y52.396 I4.871 J0.
N6660 G2 X90.228 Y51.588 I-11.405 J-1.929
N6665 X90.055 Y44.269 I-30.254 J-2.946
N6670 X88.259 Y37.173 I-35.049 J5.095
N6675 G3 X88.443 Y36.746 I0.317 J-0.116
N6680 G2 X101.31 Y26.993 I-13.142 J-30.706
N6685 G3 X101.972 Y26.295 I4.977 J4.049
N6690 X102.699 Y25.666 I13.046 J14.351
N6695 G2 X103.085 Y25.344 I-20.12 J-24.469
N6700 G1 X103.094 Y25.336
N6705 Z5.
N6710 X21.864 Y103.096
N6715 Z1. F666.67
N6720 Z-3.175 F2000.
N6725 X21.882 Y103.078
N6730 G2 X23.241 Y101.541 I-20.147 J-19.183
N6735 X23.678 Y100.969 I-8.022 J-6.582
N6740 G3 X24.144 Y100.42 I3.416 J2.427
N6745 X24.727 Y99.933 I3.148 J3.175
N6750 G2 X25.334 Y99.475 I-6.192 J-8.843
N6755 X31.095 Y93.188 I-18.243 J-22.5
N6760 X34.824 Y85.519 I-25.061 J-16.927
N6765 G3 X35.198 Y85.358 I0.258 J0.083
N6770 G2 X40.237 Y87.219 I12.698 J-26.624
N6775 X45.522 Y88.18 I8.432 J-31.358
N6780 X48.193 Y88.295 I2.403 J-24.674
N6785 X50.864 Y88.15 I-0.336 J-30.942
N6790 X51.121 Y88.117 I-0.403 J-4.127
N6795 G3 X51.377 Y88.084 I0.66 J4.094
N6800 X54.067 I1.346 J13.785
N6805 X54.33 Y88.118 I-0.412 J4.224
N6810 G2 X54.593 Y88.152 I0.675 J-4.19
N6815 X66.443 Y86.87 I2.842 J-29.142
N6820 X76.9 Y81.148 I-9.816 J-30.356
N6825 X84.36 Y71.855 I-18.524 J-22.511
N6830 X87.697 Y60.415 I-28.615 J-14.555
N6835 X87.812 Y57.725 I-24.585 J-2.397
N6840 X87.664 Y55.037 I-31.08 J0.368
N6845 G1 X87.633 Y54.803
N6850 X87.603 Y54.569
N6855 G3 X87.601 Y51.866 I13.779 J-1.362
N6860 X87.635 Y51.602 I4.231 J0.412
N6865 G2 X87.669 Y51.339 I-4.197 J-0.675
N6870 X87.339 Y43.32 I-29.012 J-2.825
N6875 X84.876 Y35.681 I-29.814 J5.399
N6880 G3 X85.037 Y35.307 I0.244 J-0.116
N6885 G2 X92.908 Y31.386 I-8.933 J-27.792
N6890 X99.338 Y25.389 I-18.499 J-26.279
N6895 X99.627 Y25.002 I-4.449 J-3.62
N6900 G3 X99.934 Y24.629 I2.188 J1.493
N6905 X100.497 Y24.151 I3.068 J3.043
N6910 G2 X101.084 Y23.702 I-6.129 J-8.616
N6915 X103.077 Y21.903 I-18.508 J-22.508
N6920 G1 X103.095 Y21.885
N6925 Z5.
N6930 X17.991 Y103.095
N6935 Z1. F666.67
N6940 Z-3.175 F2000.
N6945 X18.01 Y103.079
N6950 G2 X21.173 Y99.845 I-16.877 J-19.676
N6955 G1 X21.278 Y99.71
N6960 X21.382 Y99.574
N6965 G3 X23.296 Y97.671 I10.327 J8.473
N6970 G1 X23.474 Y97.536
N6975 X23.652 Y97.401
N6980 G2 X29.155 Y91.272 I-16.506 J-20.358
N6985 X32.627 Y83.802 I-24.999 J-16.161
N6990 X32.766 Y83.268 I-6.238 J-1.904
N6995 G3 X32.893 Y82.732 I13.396 J2.879
N7000 X33.305 Y82.443 I0.374 J0.096
N7005 G2 X34.184 Y82.523 I5.416 J-54.686
N7010 X35.065 Y82.579 I1.829 J-22.074
N7015 G3 X36.024 Y82.824 I-0.102 J2.393
N7020 G2 X40.777 Y84.631 I11.787 J-23.854
N7025 X45.777 Y85.553 I7.895 J-28.804
N7030 X48.657 Y85.633 I2.023 J-20.776
N7035 X51.53 Y85.415 I-1.697 J-41.294
N7040 G3 X53.92 I1.194 J10.729
N7045 G2 X56.812 Y85.634 I4.545 J-40.769
N7050 X59.712 Y85.55 I0.843 J-20.903
N7055 X70.149 Y82.503 I-2.899 J-29.335
N7060 X78.631 Y75.7 I-11.996 J-23.646
N7065 X83.874 Y66.137 I-22.672 J-18.647
N7070 X85.05 Y55.295 I-25.282 J-8.228
N7075 X84.993 Y54.849 I-7.404 J0.732
N7080 G3 X84.932 Y54.403 I9.228 J-1.48
N7085 Y52.013 I10.734 J-1.195
N7090 G2 X85.151 Y49.137 I-40.948 J-4.56
N7095 X85.069 Y46.253 I-20.875 J-0.854
N7100 X84.147 Y41.255 I-29.735 J2.903
N7105 X82.341 Y36.504 I-25.676 J7.04
N7110 G3 X82.096 Y35.546 I2.147 J-1.061
N7115 G2 X82.041 Y34.667 I-22.15 J0.947
N7120 X81.961 Y33.79 I-53.145 J4.391
N7125 G3 X82.249 Y33.378 I0.385 J-0.038
N7130 G2 X89.027 Y30.731 I-7.536 J-29.293
N7135 X93.281 Y27.833 I-12.244 J-22.548
N7140 X96.893 Y24.165 I-17.503 J-20.846
N7145 G1 X97.044 Y23.967
N7150 X97.195 Y23.769
N7155 G3 X99.079 Y21.875 I10.397 J8.459
N7160 G1 X99.233 Y21.756
N7165 X99.387 Y21.638
N7170 G2 X103.078 Y17.94 I-16.94 J-20.601
N7175 G1 X103.094 Y17.921
N7180 Z5.
N7185 X103.088 Y-101.558
N7190 Z1. F666.67
N7195 Z-3.175 F2000.
N7200 X103.079 Y-101.567
N7205 G2 X101.554 Y-103.081 I-44.681 J43.465
N7210 G3 X102.457 Y-104.203 I0.5 J-0.521
N7215 G1 X103.035 Y-103.815
N7220 G3 X103.341 Y-103.356 I-0.402 J0.6
N7225 G1 X103.597 Y-102.071
N7230 X104.34 Y-97.873
N7235 G3 X103.083 Y-97.274 I-0.711 J0.126
N7240 G2 X97.288 Y-103.085 I-44.897 J38.974
N7245 G3 X97.226 Y-104.109 I0.473 J-0.542
N7250 X98.25 Y-104.155 I0.535 J0.481
N7255 G1 X101.191 Y-101.43
N7260 X101.252 Y-101.366
N7265 X101.304 Y-101.296
N7270 X103.626 Y-97.745
N7275 G3 X103.735 Y-97.459 I-0.602 J0.394
N7280 G1 X104.369 Y-93.267
N7285 G3 X103.087 Y-92.721 I-0.711 J0.108
N7290 G2 X101.868 Y-94.254 I-46.928 J36.089
N7295 X92.753 Y-103.087 I-43.683 J35.955
N7300 G3 X92.638 Y-104.109 I0.438 J-0.567
N7305 X93.663 Y-104.192 I0.553 J0.455
N7310 G1 X99.162 Y-99.37
N7315 X99.22 Y-99.313
N7320 X99.271 Y-99.25
N7325 X103.655 Y-93.157
N7330 G3 X103.784 Y-92.834 I-0.581 J0.418
N7335 G1 X104.394 Y-88.292
N7340 G3 X103.087 Y-87.8 I-0.71 J0.095
N7345 G2 X99.656 Y-92.433 I-46.934 J31.173
N7350 X87.845 Y-103.08 I-41.473 J34.136
N7355 G3 X87.664 Y-104.096 I0.393 J-0.594
N7360 X88.688 Y-104.225 I0.574 J0.422
N7365 G1 X97.115 Y-97.352
N7370 X97.185 Y-97.287
N7375 X97.245 Y-97.214
N7380 X103.681 Y-88.194
N7385 G3 X103.808 Y-87.865 I-0.58 J0.414
N7390 G1 X104.419 Y-82.722
N7395 G3 X103.087 Y-82.296 I-0.707 J0.084
N7400 G2 X97.456 Y-90.623 I-46.939 J25.673
N7405 X82.306 Y-103.08 I-39.275 J32.327
N7410 G3 X82.044 Y-104.082 I0.336 J-0.623
N7415 X83.063 Y-104.271 I0.597 J0.38
N7420 G1 X95.049 Y-95.376
N7425 X95.11 Y-95.325
N7430 X95.165 Y-95.267
N7435 X95.213 Y-95.204
N7440 X103.708 Y-82.635
N7445 G3 X103.826 Y-82.309 I-0.586 J0.396
N7450 G1 X104.445 Y-76.089
N7455 G3 X103.086 Y-75.751 I-0.704 J0.07
N7460 G2 X95.271 Y-88.824 I-47.187 J19.334
N7465 X80.285 Y-100.947 I-37.092 J30.53
N7470 X75.588 Y-103.087 I-23.468 J45.281
N7475 G1 X75.576 Y-103.092
N7480 Z5.
N7485 X103.089 Y-66.056
N7490 Z1. F666.67
N7495 Z-3.175 F2000.
N7500 X103.086 Y-66.069
N7505 G2 X101.808 Y-71.039 I-44.365 J8.754
N7510 X93.1 Y-87.037 I-45.912 J14.624
N7515 X78.961 Y-98.465 I-34.922 J28.744
N7520 X65.396 Y-103.085 I-22.144 J42.802
N7525 G1 X65.372 Y-103.089
N7530 Z5.
N7535 X103.093 Y-39.78
N7540 Z1. F666.67
N7545 Z-3.175 F2000.
N7550 X103.083 Y-39.787
N7555 G2 X100.937 Y-41.42 I-30.38 J37.704
N7560 G3 X100.672 Y-42.035 I0.379 J-0.528
N7565 G2 X101.101 Y-47.04 I-51.001 J-6.892
N7570 X100.949 Y-52.06 I-37.484 J-1.376
N7575 G3 X100.95 Y-53.197 I5.763 J-0.563
N7580 G2 X99.138 Y-70.226 I-42.232 J-4.118
N7585 X90.945 Y-85.263 I-43.245 J13.813
N7590 X77.648 Y-96.003 I-32.769 J26.972
N7595 X61.256 Y-100.846 I-20.831 J40.343
N7600 X53.264 Y-100.845 I-3.994 J40.661
N7605 G3 X52.707 Y-100.82 I-0.52 J-5.288
N7610 X52.149 Y-100.849 I0.044 J-6.204
N7615 G2 X47.136 Y-101. I-3.633 J37.315
N7620 X42.138 Y-100.572 I1.897 J51.495
N7625 G3 X41.523 Y-100.837 I-0.087 J-0.644
N7630 G2 X39.81 Y-103.082 I-39.249 J28.166
N7635 G1 X39.802 Y-103.092
N7640 Z5.
N7645 X-13.034 Y-103.093
N7650 Z1. F666.67
N7655 Z-3.175 F2000.
N7660 X-13.055 Y-103.081
N7665 G2 X-16.477 Y-100.689 I13.538 J23.014
N7670 X-18.354 Y-98.909 I11.62 J14.129
N7675 X-20.038 Y-96.945 I29.6 J27.082
N7680 G3 X-21.672 Y-95.326 I-7.931 J-6.368
N7685 G2 X-23.702 Y-93.608 I23.81 J30.204
N7690 X-25.538 Y-91.685 I12.462 J13.738
N7695 X-28.95 Y-86.38 I20.471 J16.916
N7700 X-30.977 Y-80.407 I22.69 J11.031
N7705 G3 X-31.276 Y-79.8 I-1.318 J-0.27
N7710 G2 X-31.492 Y-79.544 I15.008 J12.913
N7715 X-31.705 Y-79.286 I38.281 J31.826
N7720 G3 X-32.355 Y-79.04 I-0.539 J-0.442
N7725 G2 X-35.853 Y-79.377 I-4.324 J26.604
N7730 G3 X-37.309 Y-79.75 I0.101 J-3.423
N7735 G2 X-41.74 Y-81.478 I-10.811 J21.172
N7740 X-46.415 Y-82.35 I-7.317 J26.26
N7745 X-49.234 Y-82.418 I-1.868 J19.189
N7750 X-52.043 Y-82.165 I1.727 J34.979
N7755 G3 X-54.177 I-1.068 J-8.174
N7760 G2 X-57.292 Y-82.406 I-3.831 J29.345
N7765 X-60.414 Y-82.29 I-0.619 J25.581
N7770 X-69.81 Y-79.323 I2.335 J23.748
N7775 X-77.358 Y-72.989 I13.22 J23.419
N7780 X-81.113 Y-66.564 I18.091 J14.884
N7785 X-82.835 Y-59.324 I25.59 J9.908
N7790 X-82.902 Y-56.502 I19.157 J1.871
N7795 X-82.65 Y-53.691 I35.054 J-1.733
N7800 G3 Y-51.557 I-8.174 J1.067
N7805 G2 X-82.89 Y-48.451 I29.309 J3.828
N7810 X-82.777 Y-45.338 I25.631 J0.626
N7815 X-81.905 Y-40.96 I22.391 J-2.182
N7820 X-80.233 Y-36.822 I24.257 J-7.394
N7825 G3 X-79.861 Y-35.37 I-3.041 J1.553
N7830 G2 X-79.525 Y-31.872 I26.484 J-0.78
N7835 G3 X-79.771 Y-31.222 I-0.687 J0.112
N7840 G2 X-80.287 Y-30.791 I21.608 J26.387
N7845 G3 X-80.894 Y-30.493 I-0.877 J-1.019
N7850 G2 X-86.87 Y-28.462 I5.07 J24.724
N7855 X-92.177 Y-25.044 I11.631 J23.892
N7860 X-94.093 Y-23.213 I11.83 J14.3
N7865 X-95.806 Y-21.19 I28.548 J25.895
N7870 G3 X-97.426 Y-19.556 I-7.989 J-6.303
N7875 G2 X-99.401 Y-17.862 I24.833 J30.946
N7880 X-101.19 Y-15.972 I12.408 J13.538
N7885 X-103.079 Y-13.363 I20.642 J16.937
N7890 G1 X-103.097 Y-13.329
N7895 X-103.107 Y-13.293
N7900 X-103.111 Y-13.256
N7905 X-103.115 Y13.833
N7910 X-103.111 Y13.871
N7915 X-103.101 Y13.907
N7920 X-103.083 Y13.941
N7925 G2 X-101.17 Y16.58 I22.53 J-14.32
N7930 X-99.39 Y18.456 I14.127 J-11.621
N7935 X-97.426 Y20.14 I27.082 J-29.607
N7940 G3 X-95.805 Y21.774 I-6.377 J7.944
N7945 G2 X-94.093 Y23.798 I30.271 J-23.88
N7950 X-92.176 Y25.63 I13.737 J-12.46
N7955 X-86.87 Y29.046 I16.939 J-20.48
N7960 X-80.895 Y31.076 I11.036 J-22.669
N7965 G3 X-80.288 Y31.374 I-0.27 J1.318
N7970 G2 X-79.77 Y31.807 I15.044 J-17.48
N7975 G3 X-79.524 Y32.457 I-0.441 J0.538
N7980 G2 X-79.86 Y35.954 I26.605 J4.321
N7985 G3 X-80.233 Y37.409 I-3.42 J-0.101
N7990 G2 X-81.962 Y41.841 I21.169 J10.811
N7995 X-82.834 Y46.518 I26.26 J7.315
N8000 X-82.901 Y49.335 I19.189 J1.866
N8005 X-82.649 Y52.142 I34.99 J-1.729
N8010 G3 Y54.276 I-8.167 J1.066
N8015 G2 X-82.89 Y57.398 I29.271 J3.827
N8020 X-82.773 Y60.527 I25.595 J0.612
N8025 X-79.802 Y69.917 I23.746 J-2.346
N8030 X-73.47 Y77.46 I23.418 J-13.23
N8035 X-67.044 Y81.215 I14.883 J-18.095
N8040 X-59.803 Y82.935 I9.904 J-25.587
N8045 X-56.984 Y83.003 I1.868 J-19.155
N8050 X-54.174 Y82.75 I-1.736 J-35.069
N8055 G3 X-52.04 I1.067 J8.173
N8060 G2 X-48.932 Y82.99 I3.828 J-29.311
N8065 X-45.817 Y82.877 I0.625 J-25.623
N8070 X-41.442 Y82.005 I-2.186 J-22.387
N8075 X-37.306 Y80.334 I-7.398 J-24.261
N8080 G3 X-35.853 Y79.961 I1.554 J3.045
N8085 G2 X-32.354 Y79.625 I-0.789 J-26.553
N8090 G3 X-31.703 Y79.871 I0.112 J0.688
N8095 G2 X-31.491 Y80.128 I39.611 J-32.499
N8100 X-31.275 Y80.383 I15.214 J-12.649
N8105 G3 X-30.977 Y80.991 I-1.02 J0.877
N8110 G2 X-28.949 Y86.966 I24.693 J-5.049
N8115 X-25.535 Y92.272 I23.886 J-11.618
N8120 X-23.7 Y94.193 I14.278 J-11.804
N8125 X-21.672 Y95.909 I25.974 J-28.649
N8130 G3 X-20.038 Y97.528 I-6.298 J7.986
N8135 G2 X-18.344 Y99.503 I30.942 J-24.834
N8140 X-16.454 Y101.292 I13.538 J-12.409
N8145 X-14.006 Y103.078 I16.937 J-20.644
N8150 G1 X-13.972 Y103.096
N8155 X-13.935 Y103.106
N8160 X-13.897 Y103.11
N8165 X13.508 Y103.114
N8170 X13.546 Y103.111
N8175 X13.583 Y103.1
N8180 X13.617 Y103.082
N8185 G2 X16.095 Y101.273 I-14.482 J-22.432
N8190 X17.972 Y99.492 I-11.622 J-14.131
N8195 X19.656 Y97.528 I-29.585 J-27.069
N8200 G3 X21.291 Y95.908 I7.937 J6.372
N8205 G2 X23.32 Y94.191 I-23.959 J-30.382
N8210 X25.156 Y92.269 I-12.431 J-13.712
N8215 X28.568 Y86.964 I-20.471 J-16.916
N8220 X30.595 Y80.991 I-22.69 J-11.031
N8225 G3 X30.893 Y80.384 I1.318 J0.27
N8230 G2 X31.109 Y80.128 I-15.016 J-12.92
N8235 X31.323 Y79.87 I-37.515 J-31.19
N8240 G3 X31.973 Y79.624 I0.539 J0.442
N8245 G2 X35.471 Y79.96 I4.326 J-26.615
N8250 G3 X36.927 Y80.334 I-0.101 J3.423
N8255 G2 X41.357 Y82.062 I10.812 J-21.172
N8260 X46.032 Y82.934 I7.317 J-26.259
N8265 X48.85 Y83.001 I1.868 J-19.185
N8270 X51.658 Y82.749 I-1.727 J-34.999
N8275 G3 X53.792 I1.066 J8.17
N8280 G2 X56.914 Y82.99 I3.826 J-29.264
N8285 X60.043 Y82.873 I0.611 J-25.601
N8290 X69.433 Y79.903 I-2.346 J-23.746
N8295 X76.977 Y73.57 I-13.229 J-23.418
N8300 X80.731 Y67.144 I-18.095 J-14.883
N8305 X82.452 Y59.903 I-25.587 J-9.903
N8310 X82.519 Y57.084 I-19.155 J-1.867
N8315 X82.266 Y54.275 I-35.071 J1.737
N8320 G3 Y52.14 I8.174 J-1.067
N8325 G2 X82.507 Y49.033 I-29.311 J-3.828
N8330 X82.393 Y45.918 I-25.624 J-0.625
N8335 X81.521 Y41.542 I-22.39 J2.186
N8340 X79.85 Y37.406 I-24.258 J7.396
N8345 G3 X79.478 Y35.954 I3.041 J-1.553
N8350 G2 X79.142 Y32.457 I-26.472 J0.779
N8355 G3 X79.388 Y31.806 I0.688 J-0.112
N8360 G2 X79.645 Y31.594 I-33.474 J-40.798
N8365 X79.9 Y31.378 I-12.639 J-15.207
N8370 G3 X80.508 Y31.08 I0.877 J1.02
N8375 G2 X86.515 Y29.035 I-5.039 J-24.647
N8380 X91.842 Y25.589 I-11.669 J-23.878
N8385 X93.732 Y23.775 I-11.819 J-14.208
N8390 X95.423 Y21.775 I-28.981 J-26.201
N8395 G3 X97.043 Y20.141 I7.99 J6.304
N8400 G2 X99.019 Y18.446 I-24.822 J-30.936
N8405 X100.808 Y16.556 I-12.409 J-13.54
N8410 X103.08 Y13.327 I-20.642 J-16.937
N8415 G1 X103.101 Y13.278
N8420 X103.108 Y13.225
N8425 X103.154 Y-36.038
N8430 X103.146 Y-36.094
N8435 X103.124 Y-36.145
N8440 X103.087 Y-36.187
N8445 G2 X102.839 Y-36.408 I-24.879 J27.806
N8450 X97.913 Y-40.146 I-28.471 J32.398
N8455 G3 X97.67 Y-40.712 I0.304 J-0.466
N8460 G2 X98.145 Y-52.383 I-41.566 J-7.537
N8465 G3 X98.148 Y-52.925 I2.625 J-0.256
N8470 G2 X98.203 Y-53.465 I-46.798 J-5.108
N8475 X96.499 Y-69.422 I-39.489 J-3.85
N8480 X88.814 Y-83.51 I-40.608 J13.011
N8485 X76.349 Y-93.568 I-30.641 J25.22
N8490 X60.986 Y-98.099 I-19.532 J37.912
N8495 X56.963 Y-98.267 I-3.504 J35.669
N8500 X52.943 Y-98.041 I0.698 J48.22
N8505 G3 X52.411 Y-98.046 I-0.243 J-2.476
N8510 G2 X51.882 Y-98.102 I-3.206 J27.44
N8515 X46.329 Y-98.219 I-3.539 J36.345
N8520 X40.814 Y-97.569 I2.469 J44.714
N8525 G3 X40.249 Y-97.813 I-0.099 J-0.547
N8530 G2 X36.484 Y-102.768 I-36.091 J23.512
N8535 X36.208 Y-103.079 I-27.996 J24.654
N8540 G1 X36.165 Y-103.115
N8545 X36.114 Y-103.137
N8550 X36.059 Y-103.145
N8555 X-6.146 Y-103.094
N8560 X-6.2 Y-103.087
N8565 G2 X-10.566 Y-101.33 I5.811 J20.75
N8570 X-14.253 Y-98.928 I12.199 J22.748
N8575 X-17.402 Y-95.854 I12.292 J15.743
N8580 X-17.787 Y-95.354 I7.682 J6.303
N8585 G3 X-18.162 Y-94.847 I-17.546 J-12.622
N8590 X-19.591 Y-93.432 I-5.846 J-4.47
N8595 G2 X-21.803 Y-91.571 I15.686 J20.9
N8600 X-23.781 Y-89.463 I15.762 J16.767
N8605 X-26.709 Y-84.735 I15.803 J13.059
N8610 X-28.347 Y-79.421 I21.294 J9.471
N8615 G3 X-28.885 Y-78.323 I-2.201 J-0.399
N8620 G2 X-30.619 Y-76.177 I19.122 J17.219
N8625 G3 X-31.179 Y-75.971 I-0.431 J-0.309
N8630 G2 X-36.595 Y-76.616 I-5.219 J20.766
N8635 G3 X-37.939 Y-76.95 I-0.012 J-2.826
N8640 G2 X-39.814 Y-77.88 I-16.255 J30.416
N8645 X-41.773 Y-78.622 I-6.404 J13.96
N8650 X-46.073 Y-79.534 I-7.522 J24.874
N8655 X-50.468 Y-79.593 I-2.464 J19.722
N8660 X-51.236 Y-79.495 I1.293 J13.248
N8665 G1 X-52.177 Y-79.348
N8670 G3 X-54.042 I-0.933 J-5.95
N8675 G2 X-60.143 Y-79.533 I-3.79 J24.19
N8680 X-68.506 Y-76.879 I2.065 J21.002
N8685 X-75.219 Y-71.229 I11.926 J20.984
N8690 X-79.265 Y-63.418 I16.253 J13.372
N8695 X-80.007 Y-54.652 I23.32 J6.388
N8700 X-79.927 Y-54.103 I6.078 J-0.601
N8705 G3 X-79.832 Y-53.557 I-16.071 J3.08
N8710 Y-51.691 I-5.951 J0.932
N8715 G2 X-80.019 Y-45.606 I24.18 J3.79
N8720 X-79.197 Y-41.548 I20.057 J-1.955
N8725 X-77.593 Y-37.73 I20.917 J-6.539
N8730 G1 X-77.514 Y-37.593
N8735 X-77.435 Y-37.457
N8740 G3 X-77.1 Y-36.111 I-2.485 J1.332
N8745 G2 X-76.456 Y-30.695 I22.252 J0.1
N8750 G3 X-76.661 Y-30.135 I-0.514 J0.129
N8755 G2 X-78.809 Y-28.402 I13.949 J19.473
N8760 G3 X-79.907 Y-27.862 I-1.499 J-1.665
N8765 G2 X-85.477 Y-26.061 I3.947 J21.722
N8770 X-90.411 Y-22.91 I10.309 J21.577
N8775 X-92.274 Y-21.112 I10.797 J13.051
N8780 X-93.912 Y-19.108 I23.461 J20.856
N8785 G3 X-95.329 Y-17.68 I-5.887 J-4.422
N8790 G2 X-97.49 Y-15.837 I16.09 J21.055
N8795 X-99.425 Y-13.756 I15.802 J16.634
N8800 X-102.749 Y-8.035 I15.986 J13.117
N8805 X-103.084 Y-7.106 I23.054 J8.829
N8810 G1 X-103.092 Y-7.074
N8815 X-103.095 Y-7.042
N8820 Y7.751
N8825 X-103.092 Y7.785
N8830 X-103.083 Y7.819
N8835 G2 X-101.813 Y10.668 I20.265 J-7.328
N8840 X-99.409 Y14.355 I22.744 J-12.198
N8845 X-96.334 Y17.505 I15.742 J-12.294
N8850 X-95.835 Y17.889 I6.299 J-7.679
N8855 G3 X-95.329 Y18.264 I-12.601 J17.521
N8860 X-93.912 Y19.693 I-4.476 J5.855
N8865 G2 X-92.055 Y21.9 I20.913 J-15.707
N8870 X-89.952 Y23.874 I16.789 J-15.782
N8875 X-85.224 Y26.805 I13.075 J-15.808
N8880 X-79.908 Y28.445 I9.475 J-21.273
N8885 G3 X-78.81 Y28.985 I-0.4 J2.202
N8890 G2 X-76.66 Y30.72 I17.156 J-19.048
N8895 G3 X-76.455 Y31.28 I-0.308 J0.431
N8900 G2 X-77.099 Y36.695 I20.767 J5.216
N8905 G3 X-77.433 Y38.039 I-2.823 J0.013
N8910 G2 X-78.364 Y39.916 I30.303 J16.201
N8915 X-79.106 Y41.876 I13.969 J6.406
N8920 X-80.017 Y46.173 I24.877 J7.518
N8925 X-80.076 Y50.565 I19.724 J2.464
N8930 X-79.978 Y51.339 I13.32 J-1.298
N8935 G1 X-79.831 Y52.277
N8940 G3 Y54.141 I-5.946 J0.932
N8945 G2 X-80.016 Y60.254 I24.155 J3.79
N8950 X-77.359 Y68.612 I20.999 J-2.075
N8955 X-71.71 Y75.321 I20.983 J-11.935
N8960 X-63.9 Y79.365 I13.371 J-16.256
N8965 X-55.135 Y80.107 I6.387 J-23.32
N8970 X-54.586 Y80.028 I-0.601 J-6.077
N8975 G3 X-54.04 Y79.932 I3.079 J16.064
N8980 X-52.175 I0.932 J5.95
N8985 G2 X-46.086 Y80.12 I3.79 J-24.179
N8990 X-42.03 Y79.296 I-1.958 J-20.054
N8995 X-38.213 Y77.693 I-6.543 J-20.92
N9000 G1 X-38.077 Y77.615
N9005 X-37.941 Y77.536
N9010 G3 X-36.595 Y77.201 I1.334 J2.488
N9015 G2 X-31.178 Y76.556 I0.094 J-22.283
N9020 G3 X-30.618 Y76.761 I0.129 J0.514
N9025 G2 X-28.885 Y78.907 I19.414 J-13.91
N9030 G3 X-28.346 Y80.004 I-1.661 J1.496
N9035 G2 X-26.548 Y85.574 I21.694 J-3.927
N9040 X-23.4 Y90.507 I21.57 J-10.296
N9045 X-21.599 Y92.374 I13.03 J-10.772
N9050 X-19.59 Y94.015 I20.915 J-23.539
N9055 G3 X-18.162 Y95.431 I-4.418 J5.884
N9060 G2 X-16.319 Y97.592 I21.053 J-16.091
N9065 X-14.239 Y99.526 I16.634 J-15.805
N9070 X-8.519 Y102.85 I13.116 J-15.986
N9075 X-7.885 Y103.083 I8.831 J-23.056
N9080 G1 X-7.852 Y103.092
N9085 X-7.819 Y103.094
N9090 X7.538 Y103.096
N9095 X7.574 Y103.093
N9100 X7.609 Y103.083
N9105 G2 X10.182 Y101.915 I-7.601 J-20.161
N9110 X13.87 Y99.512 I-12.194 J-22.747
N9115 X17.02 Y96.437 I-12.291 J-15.744
N9120 X17.405 Y95.937 I-7.687 J-6.307
N9125 G3 X17.781 Y95.43 I17.591 J12.655
N9130 X19.209 Y94.014 I5.85 J4.473
N9135 G2 X21.421 Y92.154 I-15.744 J-20.97
N9140 X23.399 Y90.047 I-15.725 J-16.736
N9145 X26.327 Y85.319 I-15.803 J-13.059
N9150 X27.964 Y80.004 I-21.294 J-9.471
N9155 G3 X28.503 Y78.907 I2.201 J0.399
N9160 G2 X30.237 Y76.76 I-19.111 J-17.209
N9165 G3 X30.797 Y76.555 I0.431 J0.309
N9170 G2 X36.212 Y77.2 I5.22 J-20.769
N9175 G3 X37.556 Y77.533 I0.012 J2.826
N9180 G2 X39.432 Y78.464 I16.26 J-30.424
N9185 X41.39 Y79.205 I6.403 J-13.958
N9190 X45.69 Y80.117 I7.522 J-24.872
N9195 X50.085 Y80.176 I2.464 J-19.722
N9200 X50.849 Y80.079 I-1.289 J-13.201
N9205 G1 X51.793 Y79.931
N9210 G3 X53.658 Y79.932 I0.932 J5.948
N9215 G2 X59.771 Y80.116 I3.789 J-24.153
N9220 X68.128 Y77.459 I-2.075 J-21.
N9225 X74.837 Y71.811 I-11.934 J-20.982
N9230 X78.882 Y64. I-16.256 J-13.371
N9235 X79.623 Y55.236 I-23.32 J-6.387
N9240 X79.544 Y54.687 I-6.077 J0.601
N9245 G3 X79.449 Y54.14 I16.062 J-3.078
N9250 Y52.275 I5.951 J-0.932
N9255 G2 X79.636 Y46.187 I-24.18 J-3.79
N9260 X78.813 Y42.13 I-20.057 J1.958
N9265 X77.21 Y38.314 I-20.917 J6.541
N9270 G1 X77.131 Y38.177
N9275 X77.052 Y38.04
N9280 G3 X76.717 Y36.695 I2.485 J-1.332
N9285 G2 X76.073 Y31.28 I-22.248 J-0.1
N9290 G3 X76.279 Y30.72 I0.514 J-0.129
N9295 G2 X78.424 Y28.988 I-13.899 J-19.405
N9300 G3 X79.522 Y28.449 I1.496 J1.662
N9305 G2 X85.119 Y26.637 I-3.92 J-21.656
N9310 X90.071 Y23.459 I-10.342 J-21.561
N9315 X91.91 Y21.677 I-10.8 J-12.983
N9320 X93.529 Y19.693 I-23.722 J-21.021
N9325 G3 X94.946 Y18.265 I5.887 J4.422
N9330 G2 X97.108 Y16.421 I-16.086 J-21.053
N9335 X99.043 Y14.34 I-15.802 J-16.634
N9340 X102.368 Y8.619 I-15.986 J-13.117
N9345 X103.086 Y6.448 I-23.053 J-8.829
N9350 G1 X103.093 Y6.394
N9355 X103.135 Y-32.289
N9360 X103.128 Y-32.34
N9365 X103.109 Y-32.387
N9370 X103.079 Y-32.428
N9375 G2 X100.318 Y-35.005 I-25.54 J24.593
N9380 X94.833 Y-38.848 I-24.868 J29.661
N9385 G3 X94.61 Y-39.363 I0.235 J-0.407
N9390 G2 X95.551 Y-45.707 I-36.662 J-8.677
N9395 X95.438 Y-52.119 I-40.224 J-2.496
N9400 G3 X95.428 Y-52.925 I4.717 J-0.461
N9405 X95.496 Y-53.729 I33.357 J2.442
N9410 G2 X93.897 Y-68.629 I-36.785 J-3.587
N9415 X86.714 Y-81.781 I-38.009 J12.221
N9420 X75.069 Y-91.168 I-28.544 J23.494
N9425 X60.72 Y-95.392 I-18.253 J35.516
N9430 X56.963 Y-95.547 I-3.243 J33.01
N9435 X53.209 Y-95.334 I0.707 J45.588
N9440 G3 X52.412 Y-95.326 I-0.445 J-4.526
N9445 X51.618 Y-95.395 I3.151 J-40.589
N9450 G2 X45.505 Y-95.454 I-3.393 J34.842
N9455 X39.466 Y-94.51 I3.078 J39.49
N9460 G3 X38.95 Y-94.732 I-0.108 J-0.458
N9465 G2 X34.871 Y-100.454 I-32.059 J18.542
N9470 X32.378 Y-103.08 I-30.446 J26.403
N9475 G1 X32.369 Y-103.089
N9480 Z5.
N9485 X103.091 Y-28.376
N9490 Z1. F666.67
N9495 Z-3.175 F2000.
N9500 X103.083 Y-28.386
N9505 G2 X98.424 Y-33.099 I-29.72 J24.718
N9510 X92.64 Y-37.053 I-21.521 J25.274
N9515 X92.161 Y-37.292 I-4.116 J7.645
N9520 G3 X91.68 Y-37.528 I4.755 J-10.306
N9525 X91.479 Y-38.004 I0.187 J-0.36
N9530 G2 X92.809 Y-44.57 I-34.261 J-10.354
N9535 X92.838 Y-51.268 I-32.809 J-3.492
N9540 X92.751 Y-51.944 I-10.944 J1.068
N9545 G3 X92.697 Y-52.623 I4.225 J-0.679
N9550 X92.751 Y-53.307 I4.317 J0.
N9555 G2 X92.839 Y-53.988 I-10.916 J-1.754
N9560 X91.343 Y-67.851 I-34.132 J-3.328
N9565 X84.653 Y-80.084 I-35.459 J11.446
N9570 X73.812 Y-88.812 I-26.486 J21.8
N9575 X60.459 Y-92.735 I-16.996 J33.165
N9580 X56.963 Y-92.877 I-2.987 J30.405
N9585 X53.47 Y-92.677 I0.717 J43.02
N9590 G3 X52.413 Y-92.656 I-0.662 J-6.738
N9595 X51.359 Y-92.738 I1.589 J-27.225
N9600 G2 X44.666 Y-92.709 I-3.207 J32.934
N9605 X38.106 Y-91.379 I3.737 J35.273
N9610 G3 X37.63 Y-91.58 I-0.117 J-0.387
N9615 G2 X35.769 Y-94.839 I-41.84 J21.738
N9620 X33.573 Y-97.883 I-24.114 J15.077
N9625 X28.371 Y-103.079 I-29.798 J24.635
N9630 G1 X28.351 Y-103.095
N9635 Z5.
N9640 X103.096 Y-24.751
N9645 Z1. F666.67
N9650 Z-3.175 F2000.
N9655 X103.087 Y-24.759
N9660 G2 X102.67 Y-25.107 I-19.663 J23.112
N9665 G3 X101.948 Y-25.736 I10.279 J-12.529
N9670 X101.292 Y-26.434 I4.623 J-5.001
N9675 G2 X96.757 Y-31.081 I-28.223 J23.006
N9680 X91.402 Y-34.753 I-19.739 J23.044
N9685 X89.937 Y-35.49 I-13.923 J25.86
N9690 X88.442 Y-36.16 I-20.813 J44.43
N9695 G3 X88.258 Y-36.587 I0.133 J-0.311
N9700 G2 X90.228 Y-45.174 I-32.879 J-12.063
N9705 X90.355 Y-48.391 I-27.845 J-2.711
N9710 X90.169 Y-51.604 I-40.61 J0.733
N9715 X90.098 Y-52.112 I-6.168 J0.602
N9720 G3 X90.052 Y-52.623 I2.804 J-0.511
N9725 X90.121 Y-53.435 I4.868 J0.001
N9730 G2 X90.228 Y-54.243 I-11.402 J-1.93
N9735 X88.833 Y-67.086 I-31.526 J-3.074
N9740 X82.627 Y-78.417 I-32.954 J10.685
N9745 X72.577 Y-86.498 I-24.464 J20.136
N9750 X60.203 Y-90.124 I-15.762 J30.856
N9755 X56.963 Y-90.254 I-2.736 J27.853
N9760 X53.727 Y-90.066 I0.728 J40.516
N9765 X53.229 Y-89.996 I0.597 J6.073
N9770 G3 X52.727 Y-89.951 I-0.501 J-2.745
N9775 X51.914 Y-90.019 I0. J-4.879
N9780 G2 X51.105 Y-90.127 I-1.931 J11.416
N9785 X43.786 Y-89.954 I-2.946 J30.252
N9790 X36.689 Y-88.157 I5.096 J35.05
N9795 G3 X36.262 Y-88.341 I-0.116 J-0.317
N9800 G2 X26.485 Y-101.232 I-30.724 J13.15
N9805 G3 X25.799 Y-101.883 I3.849 J-4.742
N9810 X25.181 Y-102.601 I15.43 J-13.916
N9815 G2 X24.78 Y-103.079 I-24.467 J20.123
N9820 G1 X24.772 Y-103.088
N9825 Z5.
N9830 X103.088 Y-21.301
N9835 Z1. F666.67
N9840 Z-3.175 F2000.
N9845 X103.079 Y-21.31
N9850 G2 X101.057 Y-23.141 I-19.667 J19.678
N9855 X100.485 Y-23.578 I-6.579 J8.019
N9860 G3 X99.937 Y-24.043 I2.425 J-3.414
N9865 X99.427 Y-24.653 I3.353 J-3.325
N9870 G2 X98.947 Y-25.286 I-9.12 J6.41
N9875 X92.675 Y-31.012 I-22.479 J18.324
N9880 X85.036 Y-34.722 I-16.902 J25.081
N9885 G3 X84.875 Y-35.097 I0.083 J-0.258
N9890 G2 X86.736 Y-40.136 I-26.62 J-12.697
N9895 X87.697 Y-45.421 I-31.363 J-8.433
N9900 X87.812 Y-48.093 I-24.673 J-2.402
N9905 X87.668 Y-50.763 I-30.945 J0.337
N9910 X87.634 Y-51.02 I-4.121 J0.402
N9915 G3 X87.601 Y-51.276 I4.088 J-0.659
N9920 Y-53.966 I13.784 J-1.346
N9925 X87.635 Y-54.229 I4.224 J0.412
N9930 G2 X87.669 Y-54.492 I-4.19 J-0.675
N9935 X86.387 Y-66.344 I-29.142 J-2.842
N9940 X80.664 Y-76.801 I-30.354 J9.817
N9945 X71.381 Y-84.254 I-22.505 J18.523
N9950 X59.954 Y-87.594 I-14.566 J28.619
N9955 X57.261 Y-87.711 I-2.421 J24.64
N9960 X54.57 Y-87.564 I0.341 J30.992
N9965 G1 X54.326 Y-87.533
N9970 X54.083 Y-87.501
N9975 G3 X51.386 Y-87.5 I-1.355 J-13.781
N9980 X51.121 Y-87.534 I0.414 J-4.256
N9985 G2 X50.856 Y-87.568 I-0.679 J4.222
N9990 X42.836 Y-87.238 I-2.825 J29.009
N9995 X35.197 Y-84.774 I5.401 J29.816
N10000 G3 X34.823 Y-84.936 I-0.116 J-0.244
N10005 G2 X30.895 Y-92.82 I-27.83 J8.945
N10010 X24.883 Y-99.257 I-26.222 J18.463
N10015 X24.506 Y-99.538 I-3.536 J4.357
N10020 G3 X24.143 Y-99.837 I1.447 J-2.124
N10025 X23.666 Y-100.4 I3.037 J-3.063
N10030 G2 X23.217 Y-100.986 I-8.607 J6.124
N10035 X21.32 Y-103.077 I-22.507 J18.511
N10040 G1 X21.303 Y-103.094
N10045 Z5.
N10050 X103.091 Y-17.314
N10055 Z1. F666.67
N10060 Z-3.175 F2000.
N10065 X103.083 Y-17.324
N10070 G2 X99.361 Y-21.074 I-20.166 J16.295
N10075 G1 X99.227 Y-21.177
N10080 X99.093 Y-21.28
N10085 G3 X97.207 Y-23.172 I8.494 J-10.353
N10090 X97.043 Y-23.386 I3.345 J-2.726
N10095 G2 X96.879 Y-23.601 I-3.508 J2.512
N10100 X90.755 Y-29.076 I-20.316 J16.561
N10105 X83.302 Y-32.53 I-16.149 J25.074
N10110 X82.777 Y-32.666 I-1.878 J6.162
N10115 G3 X82.25 Y-32.791 I2.805 J-13.053
N10120 X81.961 Y-33.204 I0.097 J-0.375
N10125 G2 X82.041 Y-34.083 I-55.013 J-5.438
N10130 X82.096 Y-34.965 I-22.07 J-1.826
N10135 G3 X82.342 Y-35.923 I2.393 J0.102
N10140 G2 X84.148 Y-40.676 I-23.852 J-11.785
N10145 X85.07 Y-45.677 I-28.809 J-7.895
N10150 X85.151 Y-48.557 I-20.775 J-2.023
N10155 X84.932 Y-51.429 I-41.293 J1.697
N10160 G3 Y-53.819 I10.729 J-1.194
N10165 G2 X85.152 Y-56.711 I-40.771 J-4.545
N10170 X85.067 Y-59.611 I-20.903 J-0.843
N10175 X82.02 Y-70.049 I-29.334 J2.898
N10180 X75.217 Y-78.531 I-23.646 J11.996
N10185 X65.661 Y-83.771 I-18.646 J22.672
N10190 X54.827 Y-84.95 I-8.233 J25.28
N10195 X54.374 Y-84.892 I0.738 J7.503
N10200 G3 X53.922 Y-84.831 I-1.51 J-9.442
N10205 X51.532 I-1.194 J-10.731
N10210 G2 X48.655 Y-85.05 I-4.56 J40.923
N10215 X45.77 Y-84.968 I-0.854 J20.88
N10220 X40.772 Y-84.046 I2.903 J29.731
N10225 X36.021 Y-82.24 I7.042 J25.679
N10230 G3 X35.064 Y-81.995 I-1.061 J-2.147
N10235 G2 X34.183 Y-81.939 I0.95 J22.116
N10240 X33.305 Y-81.86 I4.649 J56.029
N10245 G3 X32.893 Y-82.148 I-0.038 J-0.385
N10250 G2 X30.285 Y-88.858 I-29.406 J7.565
N10255 X27.367 Y-93.162 I-22.588 J12.176
N10260 X23.662 Y-96.81 I-20.832 J17.453
N10265 G1 X23.477 Y-96.951
N10270 X23.292 Y-97.091
N10275 G3 X21.39 Y-98.981 I8.432 J-10.389
N10280 G1 X21.271 Y-99.134
N10285 X21.153 Y-99.288
N10290 G2 X17.334 Y-103.077 I-20.6 J16.943
N10295 G1 X17.315 Y-103.093
N10300 Z5.
N10305 X103.09 Y-12.727
N10310 Z1. F666.67
N10315 Z-3.175 F2000.
N10320 X103.083 Y-12.738
N10325 G2 X100.787 Y-15.998 I-22.912 J13.702
N10330 X99.008 Y-17.873 I-14.124 J11.621
N10335 X97.045 Y-19.555 I-27.093 J29.62
N10340 G3 X95.424 Y-21.19 I6.377 J-7.943
N10345 G2 X93.71 Y-23.216 I-30.163 J23.792
N10350 X91.79 Y-25.049 I-13.755 J12.483
N10355 X86.485 Y-28.463 I-16.933 J20.482
N10360 X80.512 Y-30.493 I-11.047 J22.702
N10365 G3 X79.905 Y-30.791 I0.27 J-1.318
N10370 G2 X79.388 Y-31.223 I-15.042 J17.48
N10375 G3 X79.142 Y-31.873 I0.441 J-0.538
N10380 G2 X79.478 Y-35.371 I-26.605 J-4.321
N10385 G3 X79.851 Y-36.826 I3.421 J0.101
N10390 G2 X81.579 Y-41.257 I-21.17 J-10.81
N10395 X82.451 Y-45.932 I-26.263 J-7.317
N10400 X82.518 Y-48.75 I-19.184 J-1.868
N10405 X82.266 Y-51.557 I-34.999 J1.727
N10410 G3 X82.267 Y-53.691 I8.17 J-1.066
N10415 G2 X82.507 Y-56.813 I-29.264 J-3.826
N10420 X82.391 Y-59.942 I-25.602 J-0.611
N10425 X79.42 Y-69.333 I-23.747 J2.346
N10430 X73.088 Y-76.876 I-23.414 J13.226
N10435 X66.67 Y-80.627 I-14.879 J18.092
N10440 X59.439 Y-82.349 I-9.915 J25.595
N10445 X56.611 Y-82.418 I-1.884 J19.176
N10450 X53.794 Y-82.165 I1.716 J34.982
N10455 G3 X51.66 I-1.066 J-8.171
N10460 G2 X48.551 Y-82.406 I-3.83 J29.302
N10465 X45.435 Y-82.292 I-0.625 J25.625
N10470 X41.06 Y-81.421 I2.186 J22.387
N10475 X36.924 Y-79.749 I7.398 J24.262
N10480 G3 X35.471 Y-79.377 I-1.555 J-3.045
N10485 G2 X31.973 Y-79.04 I0.789 J26.551
N10490 G3 X31.322 Y-79.286 I-0.112 J-0.688
N10495 G2 X31.109 Y-79.544 I-39.863 J32.706
N10500 X30.893 Y-79.8 I-15.212 J12.647
N10505 G3 X30.595 Y-80.408 I1.02 J-0.877
N10510 G2 X28.567 Y-86.383 I-24.693 J5.049
N10515 X25.152 Y-91.689 I-23.886 J11.618
N10520 X23.318 Y-93.61 I-14.272 J11.799
N10525 X21.29 Y-95.325 I-25.99 J28.671
N10530 G3 X19.656 Y-96.945 I6.297 J-7.985
N10535 G2 X17.96 Y-98.921 I-30.93 J24.824
N10540 X16.07 Y-100.71 I-13.538 J12.411
N10545 X12.662 Y-103.087 I-16.935 J20.648
N10550 G1 X12.651 Y-103.094
N10555 Z5.
N10560 X103.09 Y-6.055
N10565 Z1. F666.67
N10570 Z-3.175 F2000.
N10575 X103.087 Y-6.066
N10580 G2 X101.433 Y-10.081 I-20.649 J6.16
N10585 X99.029 Y-13.77 I-22.742 J12.191
N10590 X95.954 Y-16.92 I-15.745 J12.294
N10595 X95.454 Y-17.304 I-6.302 J7.682
N10600 G3 X94.947 Y-17.68 I12.621 J-17.545
N10605 X93.531 Y-19.109 I4.476 J-5.854
N10610 G2 X91.671 Y-21.319 I-20.864 J15.669
N10615 X89.565 Y-23.294 I-16.824 J15.826
N10620 X84.839 Y-26.223 I-13.063 J15.801
N10625 X79.525 Y-27.863 I-9.487 J21.314
N10630 G3 X78.427 Y-28.402 I0.401 J-2.205
N10635 G2 X76.279 Y-30.137 I-17.144 J19.039
N10640 G3 X76.073 Y-30.696 I0.308 J-0.431
N10645 G2 X76.717 Y-36.112 I-20.766 J-5.216
N10650 G3 X77.051 Y-37.456 I2.824 J-0.013
N10655 G2 X77.982 Y-39.333 I-30.393 J-16.243
N10660 X78.723 Y-41.293 I-13.964 J-6.404
N10665 X79.634 Y-45.591 I-24.879 J-7.519
N10670 X79.694 Y-49.985 I-19.721 J-2.462
N10675 X79.597 Y-50.748 I-13.188 J1.288
N10680 G1 X79.449 Y-51.692
N10685 G3 Y-53.557 I5.948 J-0.932
N10690 G2 X79.634 Y-59.67 I-24.153 J-3.789
N10695 X76.977 Y-68.028 I-21. J2.075
N10700 X71.328 Y-74.736 I-20.979 J11.931
N10705 X63.522 Y-78.779 I-13.37 J16.257
N10710 X54.763 Y-79.523 I-6.393 J23.324
N10715 X54.21 Y-79.443 I0.601 J6.112
N10720 G3 X53.659 Y-79.347 I-3.121 J-16.307
N10725 X51.794 Y-79.348 I-0.932 J-5.949
N10730 G2 X45.704 Y-79.535 I-3.792 J24.175
N10735 X41.649 Y-78.712 I1.958 J20.055
N10740 X37.834 Y-77.11 I6.541 J20.921
N10745 G1 X37.696 Y-77.031
N10750 X37.558 Y-76.951
N10755 G3 X36.212 Y-76.616 I-1.334 J-2.488
N10760 G2 X30.796 Y-75.972 I-0.093 J22.283
N10765 G3 X30.236 Y-76.177 I-0.129 J-0.514
N10770 G2 X28.503 Y-78.323 I-19.412 J13.907
N10775 G3 X27.964 Y-79.421 I1.661 J-1.496
N10780 G2 X26.166 Y-84.991 I-21.694 J3.927
N10785 X23.017 Y-89.924 I-21.57 J10.296
N10790 X21.216 Y-91.79 I-13.025 J10.768
N10795 X19.208 Y-93.431 I-20.925 J23.555
N10800 G3 X17.78 Y-94.847 I4.417 J-5.884
N10805 G2 X15.936 Y-97.01 I-21.051 J16.089
N10810 X13.854 Y-98.944 I-16.631 J15.803
N10815 X8.134 Y-102.268 I-13.115 J15.99
N10820 X5.595 Y-103.085 I-8.827 J23.053
N10825 X3.218 Y-102.225 I-0.566 J2.15
N10830 G3 X0.931 Y-101.146 I-2.106 J-1.499
N10835 G2 X-9.294 Y-98.957 I-1.32 J18.809
N10840 X-12.545 Y-96.849 I11.053 J20.612
N10845 X-15.325 Y-94.149 I10.527 J13.618
N10850 X-15.869 Y-93.44 I10.628 J8.72
N10855 G1 X-16.33 Y-92.797
N10860 G3 X-17.558 Y-91.581 I-4.206 J-3.016
N10865 G2 X-21.705 Y-87.747 I12.258 J17.424
N10870 X-24.451 Y-83.209 I14.013 J11.579
N10875 X-25.829 Y-78.087 I18.168 J7.633
N10880 G3 X-26.29 Y-77.148 I-1.608 J-0.206
N10885 G2 X-28.022 Y-75.172 I14.34 J14.318
N10890 X-29.463 Y-72.974 I14.047 J10.787
N10895 G3 X-29.935 Y-72.793 I-0.345 J-0.191
N10900 G2 X-32.365 Y-73.482 I-7.734 J22.638
N10905 X-34.858 Y-73.887 I-4.48 J19.702
N10910 X-36.104 Y-73.941 I-1.113 J11.257
N10915 X-37.351 Y-73.902 I0.384 J32.554
N10920 G3 X-38.486 Y-74.177 I-0.103 J-2.055
N10925 G2 X-40.743 Y-75.331 I-11.969 J20.642
N10930 X-43.119 Y-76.215 I-8.224 J18.456
N10935 X-47.691 Y-76.96 I-5.09 J16.832
N10940 X-52.309 Y-76.592 I-0.626 J21.268
N10945 G3 X-53.911 Y-76.591 I-0.801 J-4.196
N10950 G2 X-58.831 Y-76.908 I-3.723 J19.503
N10955 X-63.684 Y-76.037 I1.271 J21.055
N10960 X-70.444 Y-72.293 I5.35 J17.632
N10965 X-75.258 Y-66.247 I14.099 J16.168
N10970 X-77.268 Y-59.992 I16.124 J8.63
N10975 X-77.076 Y-53.425 I20.515 J2.687
N10980 G3 Y-51.823 I-4.196 J0.801
N10985 G2 X-77.392 Y-46.905 I19.496 J3.723
N10990 X-76.523 Y-42.054 I21.063 J-1.27
N10995 X-75.709 Y-39.974 I13.592 J-4.12
N11000 X-74.661 Y-38.002 I27.342 J-13.266
N11005 G3 X-74.386 Y-36.866 I-1.781 J1.032
N11010 G2 X-74.295 Y-33.67 I20.304 J1.022
N11015 X-73.656 Y-30.538 I16.882 J-1.816
N11020 X-73.471 Y-29.993 I8.888 J-2.708
N11025 G3 X-73.277 Y-29.451 I-18.757 J7.01
N11030 X-73.459 Y-28.979 I-0.373 J0.127
N11035 G2 X-75.657 Y-27.538 I8.594 J15.502
N11040 X-77.633 Y-25.806 I12.315 J16.046
N11045 G3 X-78.572 Y-25.345 I-1.146 J-1.148
N11050 G2 X-83.953 Y-23.807 I2.391 J18.543
N11055 X-88.694 Y-20.835 I8.888 J19.448
N11060 X-90.504 Y-19.067 I9.751 J11.787
N11065 X-92.062 Y-17.074 I18.999 J16.467
N11070 G3 X-93.28 Y-15.847 I-4.234 J-2.981
N11075 G2 X-97.343 Y-12.048 I12.5 J17.442
N11080 X-100.261 Y-7.006 I13.919 J11.421
N11085 X-101.586 Y-1.334 I20.594 J7.803
N11090 X-99.439 Y9.395 I18.768 J1.824
N11095 X-97.331 Y12.647 I20.609 J-11.053
N11100 X-94.63 Y15.427 I13.617 J-10.529
N11105 X-93.922 Y15.969 I8.705 J-10.613
N11110 G1 X-93.279 Y16.431
N11115 G3 X-92.061 Y17.659 I-3.02 J4.212
N11120 G2 X-88.236 Y21.798 I17.433 J-12.274
N11125 X-83.697 Y24.548 I11.594 J-14.017
N11130 X-78.574 Y25.928 I7.638 J-18.152
N11135 G3 X-77.635 Y26.389 I-0.207 J1.609
N11140 G2 X-75.657 Y28.122 I14.297 J-14.316
N11145 X-73.458 Y29.564 I10.798 J-14.067
N11150 G3 X-73.277 Y30.036 I-0.191 J0.345
N11155 G2 X-73.965 Y32.464 I22.631 J7.73
N11160 X-74.37 Y34.955 I19.696 J4.478
N11165 X-74.424 Y36.203 I11.265 J1.114
N11170 X-74.385 Y37.451 I32.489 J-0.385
N11175 G3 X-74.66 Y38.586 I-2.054 J0.103
N11180 G2 X-75.814 Y40.845 I20.639 J11.969
N11185 X-76.699 Y43.222 I18.45 J8.22
N11190 X-77.443 Y47.792 I16.833 J5.087
N11195 X-77.075 Y52.408 I21.27 J0.625
N11200 G3 Y54.01 I-4.193 J0.801
N11205 G2 X-77.391 Y58.935 I19.485 J3.724
N11210 X-76.519 Y63.792 I21.051 J-1.276
N11215 X-72.774 Y70.547 I17.632 J-5.359
N11220 X-66.732 Y75.358 I16.168 J-14.104
N11225 X-60.476 Y77.368 I8.631 J-16.123
N11230 X-53.908 Y77.176 I2.688 J-20.515
N11235 G3 X-52.306 I0.801 J4.196
N11240 G2 X-47.386 Y77.493 I3.723 J-19.495
N11245 X-42.534 Y76.622 I-1.272 J-21.059
N11250 X-40.456 Y75.809 I-4.122 J-13.587
N11255 X-38.486 Y74.762 I-13.287 J-27.377
N11260 G3 X-37.35 Y74.487 I1.033 J1.783
N11265 G2 X-34.154 Y74.395 I1.017 J-20.338
N11270 X-31.022 Y73.756 I-1.816 J-16.88
N11275 X-30.477 Y73.571 I-2.712 J-8.901
N11280 G3 X-29.934 Y73.377 I7.032 J18.813
N11285 X-29.462 Y73.559 I0.127 J0.373
N11290 G2 X-28.021 Y75.756 I15.481 J-8.585
N11295 X-26.289 Y77.732 I16.07 J-12.34
N11300 G3 X-25.828 Y78.671 I-1.147 J1.145
N11305 G2 X-24.293 Y84.05 I18.521 J-2.375
N11310 X-21.324 Y88.791 I19.438 J-8.874
N11315 X-19.553 Y90.604 I11.768 J-9.729
N11320 X-17.557 Y92.164 I16.508 J-19.058
N11325 G3 X-16.329 Y93.381 I-2.979 J4.232
N11330 G2 X-12.53 Y97.444 I17.441 J-12.5
N11335 X-7.49 Y100.361 I11.42 J-13.92
N11340 X-1.82 Y101.687 I7.805 J-20.597
N11345 X8.909 Y99.542 I1.827 J-18.765
N11350 X12.162 Y97.433 I-11.048 J-20.61
N11355 X14.942 Y94.733 I-10.527 J-13.619
N11360 X15.488 Y94.022 I-10.644 J-8.733
N11365 G1 X15.948 Y93.38
N11370 G3 X17.176 Y92.163 I4.209 J3.018
N11375 G2 X21.323 Y88.331 I-12.282 J-17.451
N11380 X24.069 Y83.793 I-14.013 J-11.579
N11385 X25.447 Y78.67 I-18.168 J-7.633
N11390 G3 X25.907 Y77.731 I1.608 J0.206
N11395 G2 X27.639 Y75.755 I-14.336 J-14.314
N11400 X29.081 Y73.558 I-14.05 J-10.788
N11405 G3 X29.553 Y73.376 I0.345 J0.191
N11410 G2 X31.981 Y74.065 I7.734 J-22.636
N11415 X34.472 Y74.47 I4.483 J-19.71
N11420 X35.72 Y74.524 I1.116 J-11.267
N11425 X36.968 Y74.486 I-0.379 J-32.476
N11430 G3 X38.104 Y74.761 I0.103 J2.055
N11435 G2 X40.361 Y75.914 I11.97 J-20.644
N11440 X42.736 Y76.798 I8.224 J-18.455
N11445 X47.307 Y77.544 I5.09 J-16.83
N11450 X51.925 Y77.175 I0.627 J-21.271
N11455 G3 X53.527 Y77.176 I0.801 J4.194
N11460 G2 X58.45 Y77.492 I3.724 J-19.484
N11465 X63.306 Y76.62 I-1.275 J-21.055
N11470 X70.063 Y72.875 I-5.356 J-17.632
N11475 X74.875 Y66.831 I-14.104 J-16.168
N11480 X76.885 Y60.576 I-16.124 J-8.63
N11485 X76.693 Y54.009 I-20.515 J-2.687
N11490 G3 Y52.406 I4.196 J-0.801
N11495 G2 X77.009 Y47.488 I-19.496 J-3.723
N11500 X76.14 Y42.637 I-21.062 J1.271
N11505 X75.326 Y40.557 I-13.591 J4.121
N11510 X74.278 Y38.585 I-27.348 J13.27
N11515 G3 X74.003 Y37.45 I1.781 J-1.032
N11520 G2 X73.912 Y34.254 I-20.298 J-1.021
N11525 X73.272 Y31.121 I-16.886 J1.817
N11530 X73.088 Y30.577 I-8.879 J2.705
N11535 G3 X72.894 Y30.036 I18.692 J-6.985
N11540 X73.076 Y29.564 I0.373 J-0.127
N11545 G2 X75.273 Y28.123 I-8.58 J-15.478
N11550 X77.249 Y26.392 I-12.344 J-16.079
N11555 G3 X78.189 Y25.931 I1.146 J1.148
N11560 G2 X83.592 Y24.384 I-2.372 J-18.495
N11565 X88.348 Y21.389 I-8.913 J-19.427
N11570 X90.137 Y19.633 I-9.765 J-11.738
N11575 X91.679 Y17.659 I-19.147 J-16.545
N11580 G3 X92.897 Y16.431 I4.234 J2.981
N11585 G2 X96.961 Y12.632 I-12.497 J-17.442
N11590 X99.879 Y7.59 I-13.919 J-11.421
N11595 X101.204 Y1.918 I-20.594 J-7.803
N11600 X99.059 Y-8.809 I-18.767 J-1.824
N11605 X96.95 Y-12.062 I-20.605 J11.046
N11610 X94.249 Y-14.842 I-13.62 J10.529
N11615 X93.541 Y-15.386 I-8.715 J10.623
N11620 G1 X92.898 Y-15.847
N11625 G3 X91.68 Y-17.075 I3.019 J-4.211
N11630 G2 X87.849 Y-21.218 I-17.418 J12.263
N11635 X83.312 Y-23.966 I-11.585 J14.013
N11640 X78.19 Y-25.346 I-7.646 J18.183
N11645 G3 X77.251 Y-25.807 I0.208 J-1.609
N11650 G2 X75.275 Y-27.539 I-14.288 J14.311
N11655 X73.076 Y-28.98 I-10.792 J14.063
N11660 G3 X72.895 Y-29.452 I0.191 J-0.345
N11665 G2 X73.583 Y-31.88 I-22.629 J-7.73
N11670 X73.988 Y-34.372 I-19.695 J-4.478
N11675 X74.042 Y-35.619 I-11.266 J-1.114
N11680 X74.003 Y-36.868 I-32.479 J0.385
N11685 G3 X74.278 Y-38.003 I2.054 J-0.103
N11690 G2 X75.432 Y-40.261 I-20.635 J-11.965
N11695 X76.317 Y-42.638 I-18.455 J-8.222
N11700 X77.061 Y-47.208 I-16.833 J-5.087
N11705 X76.693 Y-51.824 I-21.271 J-0.626
N11710 G3 Y-53.426 I4.194 J-0.801
N11715 G2 X77.009 Y-58.35 I-19.484 J-3.724
N11720 X76.137 Y-63.206 I-21.054 J1.276
N11725 X72.393 Y-69.961 I-17.633 J5.357
N11730 X66.351 Y-74.772 I-16.161 J14.094
N11735 X60.095 Y-76.783 I-8.635 J16.132
N11740 X53.527 Y-76.591 I-2.69 J20.51
N11745 G3 X51.925 Y-76.592 I-0.801 J-4.195
N11750 G2 X47.005 Y-76.908 I-3.725 J19.493
N11755 X42.151 Y-76.038 I1.271 J21.06
N11760 X40.074 Y-75.225 I4.123 J13.59
N11765 X38.104 Y-74.178 I13.277 J27.36
N11770 G3 X36.968 Y-73.902 I-1.033 J-1.783
N11775 G2 X33.773 Y-73.811 I-1.017 J20.338
N11780 X30.641 Y-73.171 I1.816 J16.88
N11785 X30.095 Y-72.987 I2.712 J8.902
N11790 G3 X29.553 Y-72.793 I-7.033 J-18.819
N11795 X29.08 Y-72.974 I-0.127 J-0.373
N11800 G2 X27.639 Y-75.172 I-15.481 J8.583
N11805 X25.907 Y-77.148 I-16.07 J12.34
N11810 G3 X25.446 Y-78.087 I1.147 J-1.145
N11815 G2 X23.911 Y-83.467 I-18.521 J2.375
N11820 X20.942 Y-88.208 I-19.438 J8.874
N11825 X19.171 Y-90.02 I-11.763 J9.725
N11830 X17.175 Y-91.581 I-16.515 J19.069
N11835 G3 X15.947 Y-92.798 I2.978 J-4.231
N11840 G2 X12.146 Y-96.862 I-17.44 J12.499
N11845 X7.106 Y-99.779 I-11.42 J13.923
N11850 X1.435 Y-101.104 I-7.801 J20.594
N11855 X0.931 Y-101.146 I-1.824 J18.767
N11860 X-1.171 Y-99.85 I-0.148 J2.113
N11865 G3 X-3.096 Y-98.303 I-2.386 J-0.997
N11870 G2 X-8.042 Y-96.677 I3.355 J18.539
N11875 X-13.314 Y-92.5 I6.987 J14.235
N11880 X-13.952 Y-91.668 I12.299 J10.091
N11885 X-14.545 Y-90.803 I21.227 J15.192
N11890 G3 X-15.579 Y-89.779 I-2.933 J-1.925
N11895 G2 X-18.975 Y-86.892 I9.136 J14.19
N11900 X-21.542 Y-83.248 I13.8 J12.447
N11905 X-22.716 Y-80.4 I13.276 J7.14
N11910 X-23.312 Y-77.379 I15.732 J4.674
N11915 X-23.334 Y-77.069 I4.928 J0.499
N11920 G3 X-23.356 Y-76.76 I-5.276 J-0.212
N11925 X-23.775 Y-75.943 I-1.246 J-0.124
N11930 G2 X-26.392 Y-73.007 I10.666 J12.139
N11935 X-28.249 Y-69.54 I14.177 J9.823
N11940 G3 X-28.637 Y-69.398 I-0.257 J-0.102
N11945 G2 X-37.878 Y-71.263 I-7.714 J14.393
N11950 G1 X-37.974 Y-71.251
N11955 X-38.071 Y-71.238
N11960 G3 X-39.084 Y-71.49 I-0.151 J-1.557
N11965 G2 X-42.967 Y-73.404 I-9.482 J14.343
N11970 X-47.196 Y-74.325 I-6.021 J17.482
N11975 X-49.833 Y-74.332 I-1.357 J13.937
N11980 X-52.436 Y-73.906 I1.704 J18.562
N11985 G3 X-53.783 I-0.674 J-2.838
N11990 G2 X-58.38 Y-74.334 I-3.817 J16.079
N11995 X-62.929 Y-73.549 I0.882 J18.686
N12000 X-68.795 Y-70.282 I4.599 J15.159
N12005 X-72.966 Y-65.02 I12.469 J14.168
N12010 X-74.751 Y-59.289 I14.055 J7.523
N12015 X-74.39 Y-53.298 I17.34 J1.961
N12020 G3 Y-51.95 I-2.838 J0.674
N12025 G2 X-74.819 Y-47.356 I16.073 J3.816
N12030 X-74.035 Y-42.808 I18.694 J-0.881
N12035 X-73.157 Y-40.63 I12.699 J-3.849
N12040 X-71.975 Y-38.601 I18.649 J-9.509
N12045 G3 X-71.722 Y-37.587 I-1.31 J0.865
N12050 G2 X-71.758 Y-34.413 I18.855 J1.8
N12055 X-71.177 Y-31.293 I14.216 J-1.034
N12060 X-70.608 Y-29.691 I17.843 J-5.436
N12065 X-69.883 Y-28.152 I14.809 J-6.034
N12070 G3 X-70.025 Y-27.765 I-0.243 J0.131
N12075 G2 X-73.493 Y-25.908 I6.342 J16.015
N12080 X-76.429 Y-23.291 I9.202 J13.281
N12085 G3 X-77.248 Y-22.871 I-0.942 J-0.828
N12090 X-77.537 Y-22.851 I-0.457 J-4.618
N12095 G2 X-77.826 Y-22.831 I0.168 J4.638
N12100 X-84.928 Y-20.386 I1.604 J16.193
N12105 X-90.261 Y-15.095 I9.337 J14.743
N12110 G3 X-91.285 Y-14.062 I-2.95 J-1.901
N12115 G2 X-94.63 Y-11.179 I9.302 J14.175
N12120 X-97.159 Y-7.56 I13.864 J12.38
N12125 X-98.997 Y1.67 I14.314 J7.65
N12130 X-97.159 Y8.143 I18.748 J-1.827
N12135 X-92.981 Y13.416 I14.235 J-6.987
N12140 X-92.149 Y14.054 I10.084 J-12.294
N12145 X-91.285 Y14.646 I15.208 J-21.255
N12150 G3 X-90.26 Y15.68 I-1.928 J2.937
N12155 G2 X-87.379 Y19.069 I14.195 J-9.147
N12160 X-83.746 Y21.633 I12.468 J-13.814
N12165 X-80.896 Y22.812 I7.16 J-13.274
N12170 X-77.871 Y23.411 I4.687 J-15.716
N12175 X-77.558 Y23.433 I0.506 J-4.971
N12180 G3 X-77.246 Y23.455 I-0.222 J5.391
N12185 X-76.43 Y23.875 I-0.124 J1.246
N12190 G2 X-73.492 Y26.492 I12.136 J-10.661
N12195 X-70.024 Y28.349 I9.825 J-14.184
N12200 G3 X-69.882 Y28.737 I-0.102 J0.257
N12205 G2 X-71.748 Y37.958 I14.386 J7.711
N12210 G1 X-71.735 Y38.065
N12215 X-71.721 Y38.172
N12220 G3 X-71.974 Y39.186 I-1.561 J0.149
N12225 G2 X-73.887 Y43.069 I14.345 J9.481
N12230 X-74.808 Y47.299 I17.479 J6.019
N12235 X-74.815 Y49.935 I13.941 J1.355
N12240 X-74.389 Y52.536 I18.56 J-1.704
N12245 G3 Y53.883 I-2.836 J0.673
N12250 G2 X-74.818 Y58.483 I16.066 J3.818
N12255 X-74.031 Y63.036 I18.681 J-0.886
N12260 X-70.764 Y68.897 I15.158 J-4.607
N12265 X-65.504 Y73.066 I14.168 J-12.474
N12270 X-59.773 Y74.852 I7.523 J-14.054
N12275 X-53.781 Y74.49 I1.962 J-17.34
N12280 G3 X-52.433 Y74.491 I0.674 J2.838
N12285 G2 X-47.837 Y74.919 I3.817 J-16.073
N12290 X-43.288 Y74.134 I-0.883 J-18.69
N12295 X-41.111 Y73.257 I-3.852 J-12.699
N12300 X-39.084 Y72.075 I-9.511 J-18.648
N12305 G3 X-38.07 Y71.823 I0.863 J1.306
N12310 G2 X-34.897 Y71.86 I1.802 J-18.544
N12315 X-31.778 Y71.277 I-1.054 J-14.277
N12320 X-30.174 Y70.707 I-5.442 J-17.859
N12325 X-28.635 Y69.982 I-6.032 J-14.804
N12330 G3 X-28.248 Y70.124 I0.131 J0.243
N12335 G2 X-26.391 Y73.591 I16.01 J-6.343
N12340 X-23.774 Y76.527 I13.287 J-9.209
N12345 G3 X-23.355 Y77.343 I-0.826 J0.94
N12350 G2 X-23.153 Y79.038 I42.56 J-4.21
N12355 X-22.784 Y80.705 I10.638 J-1.483
N12360 X-20.681 Y85.314 I18.613 J-5.709
N12365 X-17.326 Y89.111 I13.073 J-8.171
N12370 X-16.469 Y89.761 I10.217 J-12.581
N12375 X-15.578 Y90.363 I14.295 J-20.206
N12380 G3 X-14.544 Y91.387 I-1.9 J2.949
N12385 G2 X-11.662 Y94.731 I14.174 J-9.302
N12390 X-8.043 Y97.26 I12.381 J-13.866
N12395 X1.19 Y99.098 I7.65 J-14.314
N12400 X7.66 Y97.26 I-1.831 J-18.751
N12405 X12.932 Y93.083 I-6.987 J-14.235
N12410 X13.57 Y92.251 I-12.301 J-10.093
N12415 X14.163 Y91.386 I-21.213 J-15.182
N12420 G3 X15.197 Y90.361 I2.935 J1.927
N12425 G2 X18.593 Y87.475 I-9.15 J-14.206
N12430 X21.16 Y83.831 I-13.788 J-12.44
N12435 X22.334 Y80.984 I-13.276 J-7.14
N12440 X22.93 Y77.962 I-15.732 J-4.674
N12445 X22.952 Y77.653 I-4.928 J-0.499
N12450 G3 X22.973 Y77.344 I5.278 J0.212
N12455 X23.393 Y76.527 I1.246 J0.124
N12460 G2 X26.01 Y73.59 I-10.666 J-12.139
N12465 X27.866 Y70.123 I-14.177 J-9.823
N12470 G3 X28.254 Y69.981 I0.257 J0.102
N12475 G2 X37.495 Y71.847 I7.714 J-14.393
N12480 G1 X37.592 Y71.834
N12485 X37.688 Y71.822
N12490 G3 X38.702 Y72.074 I0.151 J1.557
N12495 G2 X42.585 Y73.987 I9.482 J-14.343
N12500 X46.814 Y74.908 I6.021 J-17.481
N12505 X49.45 Y74.915 I1.357 J-13.937
N12510 X52.052 Y74.489 I-1.704 J-18.566
N12515 G3 X53.4 Y74.49 I0.673 J2.836
N12520 G2 X57.998 Y74.918 I3.817 J-16.065
N12525 X62.55 Y74.132 I-0.886 J-18.685
N12530 X68.413 Y70.864 I-4.605 J-15.158
N12535 X72.583 Y65.604 I-12.473 J-14.168
N12540 X74.368 Y59.873 I-14.055 J-7.523
N12545 X74.007 Y53.881 I-17.34 J-1.961
N12550 G3 Y52.534 I2.838 J-0.674
N12555 G2 X74.435 Y47.939 I-16.074 J-3.817
N12560 X73.651 Y43.391 I-18.692 J0.882
N12565 X72.774 Y41.213 I-12.698 J3.85
N12570 X71.592 Y39.185 I-18.65 J9.51
N12575 G3 X71.339 Y38.17 I1.31 J-0.865
N12580 G2 X71.375 Y34.997 I-18.824 J-1.8
N12585 X70.793 Y31.877 I-14.223 J1.036
N12590 X70.225 Y30.275 I-17.854 J5.439
N12595 X69.5 Y28.737 I-14.79 J6.025
N12600 G3 X69.642 Y28.35 I0.243 J-0.131
N12605 G2 X73.108 Y26.494 I-6.338 J-16.004
N12610 X76.044 Y23.878 I-9.214 J-13.296
N12615 G3 X76.861 Y23.459 I0.94 J0.826
N12620 G2 X78.571 Y23.254 I-4.1 J-41.429
N12625 X80.252 Y22.878 I-1.506 J-10.686
N12630 X84.839 Y20.775 I-5.748 J-18.594
N12635 X88.62 Y17.434 I-8.206 J-13.094
N12640 X89.273 Y16.574 I-12.598 J-10.25
N12645 X89.878 Y15.679 I-20.04 J-14.2
N12650 G3 X90.903 Y14.646 I2.95 J1.902
N12655 G2 X94.248 Y11.764 I-9.301 J-14.175
N12660 X96.777 Y8.144 I-13.864 J-12.381
N12665 X98.616 Y-1.086 I-14.314 J-7.65
N12670 X96.778 Y-7.558 I-18.748 J1.827
N12675 X92.6 Y-12.832 I-14.236 J6.987
N12680 X91.768 Y-13.47 I-10.088 J12.296
N12685 X90.903 Y-14.062 I-15.2 J21.241
N12690 G3 X89.879 Y-15.096 I1.928 J-2.936
N12695 G2 X86.992 Y-18.49 I-14.187 J9.141
N12700 X83.35 Y-21.057 I-12.473 J13.835
N12705 X80.483 Y-22.238 I-7.136 J13.253
N12710 X77.44 Y-22.832 I-4.659 J15.753
N12715 X77.153 Y-22.852 I-0.452 J4.575
N12720 G3 X76.866 Y-22.871 I0.166 J-4.594
N12725 X76.048 Y-23.291 I0.123 J-1.248
N12730 G2 X73.11 Y-25.909 I-12.14 J10.665
N12735 X69.642 Y-27.766 I-9.807 J14.154
N12740 G3 X69.5 Y-28.153 I0.102 J-0.257
N12745 G2 X71.366 Y-37.377 I-14.383 J-7.711
N12750 G1 X71.353 Y-37.483
N12755 X71.339 Y-37.588
N12760 G3 X71.592 Y-38.602 I1.561 J-0.15
N12765 G2 X73.505 Y-42.484 I-14.344 J-9.48
N12770 X74.425 Y-46.713 I-17.484 J-6.021
N12775 X74.433 Y-49.35 I-13.936 J-1.357
N12780 X74.007 Y-51.952 I-18.566 J1.704
N12785 G3 Y-53.299 I2.836 J-0.673
N12790 G2 X74.436 Y-57.898 I-16.065 J-3.817
N12795 X73.649 Y-62.45 I-18.683 J0.886
N12800 X70.383 Y-68.311 I-15.16 J4.606
N12805 X65.124 Y-72.48 I-14.161 J12.463
N12810 X59.392 Y-74.266 I-7.527 J14.063
N12815 X53.4 Y-73.906 I-1.964 J17.334
N12820 G3 X52.052 I-0.673 J-2.837
N12825 G2 X47.456 Y-74.335 I-3.818 J16.072
N12830 X42.906 Y-73.55 I0.882 J18.69
N12835 X40.729 Y-72.672 I3.853 J12.702
N12840 X38.701 Y-71.49 I9.507 J18.641
N12845 G3 X37.687 Y-71.238 I-0.863 J-1.306
N12850 G2 X34.515 Y-71.275 I-1.801 J18.546
N12855 X31.396 Y-70.693 I1.053 J14.277
N12860 X29.793 Y-70.123 I5.445 J17.873
N12865 X28.253 Y-69.398 I6.02 J14.778
N12870 G3 X27.866 Y-69.54 I-0.131 J-0.243
N12875 G2 X26.009 Y-73.007 I-16.009 J6.341
N12880 X23.393 Y-75.943 I-13.288 J9.209
N12885 G3 X22.973 Y-76.76 I0.826 J-0.94
N12890 G2 X22.772 Y-78.455 I-42.565 J4.21
N12895 X22.402 Y-80.121 I-10.638 J1.483
N12900 X20.298 Y-84.732 I-18.612 J5.709
N12905 X16.941 Y-88.53 I-13.071 J8.171
N12910 X16.085 Y-89.178 I-10.198 J12.565
N12915 X15.196 Y-89.779 I-14.342 J20.284
N12920 G3 X14.162 Y-90.803 I1.899 J-2.949
N12925 G2 X11.281 Y-94.147 I-14.174 J9.302
N12930 X7.663 Y-96.675 I-12.384 J13.868
N12935 X-1.572 Y-98.515 I-7.651 J14.312
N12940 X-3.096 Y-98.303 I1.831 J18.751
N12945 X-4.69 Y-96.683 I0.351 J1.939
N12950 G3 X-6.078 Y-94.884 I-2.364 J-0.389
N12955 G2 X-9.154 Y-93.076 I6.524 J14.619
N12960 X-12.847 Y-88.926 I8.364 J11.161
N12965 G3 X-13.718 Y-88.063 I-2.037 J-1.185
N12970 G2 X-19.022 Y-82.759 I7.019 J12.323
N12975 X-20.991 Y-75.52 I13.066 J7.441
N12980 G3 X-21.336 Y-74.812 I-0.926 J-0.012
N12985 G2 X-22.486 Y-73.848 I25.211 J31.252
N12990 X-23.532 Y-72.771 I5.883 J6.759
N12995 X-25.658 Y-69.412 I12.566 J10.305
N13000 X-26.834 Y-65.616 I12.776 J6.041
N13005 G3 X-27.131 Y-65.504 I-0.181 J-0.029
N13010 G2 X-28.163 Y-66.319 I-20.889 J25.395
N13015 X-29.27 Y-67.028 I-5.082 J6.707
N13020 X-33.321 Y-68.572 I-8.022 J14.967
N13025 X-37.646 Y-68.874 I-3.062 J12.732
N13030 X-38.25 Y-68.796 I0.932 J9.619
N13035 G3 X-38.851 Y-68.702 I-9.537 J-59.258
N13040 X-39.671 Y-68.918 I-0.16 J-1.061
N13045 G2 X-52.484 Y-71.377 I-8.804 J11.264
N13050 G3 X-53.735 I-0.626 J-2.121
N13055 G2 X-59.442 Y-71.814 I-3.878 J13.146
N13060 X-64.887 Y-70.053 I2.143 J15.922
N13065 X-69.269 Y-66.3 I6.352 J11.853
N13070 X-71.882 Y-61.156 I13.121 J9.901
N13075 X-72.45 Y-57.202 I12.698 J3.839
N13080 X-71.861 Y-53.25 I14.41 J-0.126
N13085 G3 Y-51.998 I-2.123 J0.626
N13090 G2 X-69.402 Y-39.186 I13.638 J4.024
N13095 G3 X-69.187 Y-38.367 I-0.844 J0.659
N13100 G2 X-69.373 Y-36.323 I17.145 J2.591
N13105 X-69.304 Y-34.272 I15.743 J0.497
N13110 X-68.676 Y-31.431 I12.23 J-1.212
N13115 X-67.504 Y-28.769 I17.487 J-6.109
N13120 X-66.799 Y-27.671 I7.403 J-3.98
N13125 X-65.989 Y-26.648 I25.526 J-19.353
N13130 G3 X-66.101 Y-26.351 I-0.141 J0.116
N13135 G2 X-69.894 Y-25.176 I2.233 J13.918
N13140 X-73.25 Y-23.054 I6.959 J14.717
N13145 X-74.329 Y-22.006 I5.647 J6.895
N13150 X-75.295 Y-20.853 I31.016 J26.964
N13155 G3 X-76.004 Y-20.508 I-0.722 J-0.583
N13160 G2 X-80.441 Y-19.806 I0.229 J15.835
N13165 X-85.123 Y-17.295 I3.991 J13.06
N13170 X-88.547 Y-13.232 I9.306 J11.318
N13175 G3 X-89.408 Y-12.363 I-2.043 J-1.164
N13180 G2 X-93.562 Y-8.667 I7. J12.047
N13185 X-96.071 Y-3.706 I12.816 J9.596
N13190 X-96.068 Y4.298 I13.221 J3.998
N13195 X-93.559 Y9.255 I15.318 J-4.641
N13200 X-89.407 Y12.948 I11.16 J-8.364
N13205 G3 X-88.546 Y13.817 I-1.182 J2.033
N13210 G2 X-83.242 Y19.121 I12.331 J-7.028
N13215 X-76.004 Y21.091 I7.443 J-13.061
N13220 G3 X-75.296 Y21.436 I-0.013 J0.926
N13225 G2 X-74.329 Y22.59 I31.683 J-25.559
N13230 X-73.249 Y23.639 I6.732 J-5.855
N13235 X-69.893 Y25.76 I10.31 J-12.593
N13240 X-66.101 Y26.935 I6.035 J-12.77
N13245 G3 X-65.989 Y27.232 I-0.029 J0.181
N13250 G2 X-66.803 Y28.264 I25.615 J21.058
N13255 X-67.512 Y29.37 I6.703 J5.079
N13260 X-69.054 Y33.413 I14.963 J8.021
N13265 X-69.359 Y37.73 I12.735 J3.069
N13270 X-69.28 Y38.342 I9.684 J-0.927
N13275 G3 X-69.185 Y38.951 I-67.84 J10.867
N13280 X-69.401 Y39.771 I-1.059 J0.16
N13285 G2 X-71.86 Y52.582 I11.263 J8.804
N13290 G3 X-71.861 Y53.837 I-2.127 J0.627
N13295 G2 X-72.298 Y59.545 I13.137 J3.877
N13300 X-70.534 Y64.991 I15.921 J-2.147
N13305 X-66.782 Y69.371 I11.852 J-6.357
N13310 X-61.64 Y71.983 I9.901 J-13.124
N13315 X-57.685 Y72.55 I3.84 J-12.695
N13320 X-53.733 Y71.962 I-0.125 J-14.411
N13325 G3 X-52.481 I0.626 J2.123
N13330 G2 X-39.669 Y69.502 I4.023 J-13.638
N13335 G3 X-38.85 Y69.287 I0.66 J0.845
N13340 G2 X-36.809 Y69.473 I2.596 J-17.225
N13345 X-34.761 Y69.404 I0.501 J-15.724
N13350 X-31.917 Y68.776 I-1.208 J-12.229
N13355 X-29.251 Y67.603 I-6.112 J-17.496
N13360 X-28.153 Y66.897 I-3.981 J-7.403
N13365 X-27.13 Y66.088 I-19.297 J-25.45
N13370 G3 X-26.833 Y66.2 I0.116 J0.141
N13375 G2 X-25.657 Y69.997 I13.934 J-2.238
N13380 X-23.53 Y73.356 I14.691 J-6.95
N13385 X-22.485 Y74.431 I6.899 J-5.66
N13390 X-21.335 Y75.394 I26.938 J-30.997
N13395 G3 X-20.991 Y76.102 I-0.581 J0.72
N13400 G2 X-20.481 Y79.771 I14.863 J-0.195
N13405 X-19.112 Y83.212 I15.488 J-4.168
N13410 X-16.796 Y86.31 I11.559 J-6.23
N13415 X-13.715 Y88.648 I10.382 J-10.477
N13420 G3 X-12.846 Y89.51 I-1.164 J2.043
N13425 G2 X-9.15 Y93.663 I12.046 J-7.
N13430 X-4.189 Y96.172 I9.596 J-12.817
N13435 X3.818 Y96.168 I3.998 J-13.221
N13440 X8.773 Y93.658 I-4.648 J-15.323
N13445 X12.466 Y89.508 I-8.363 J-11.158
N13450 G3 X13.334 Y88.647 I2.031 J1.181
N13455 G2 X18.639 Y83.343 I-7.023 J-12.328
N13460 X20.609 Y76.104 I-13.062 J-7.442
N13465 G3 X20.953 Y75.396 I0.926 J0.013
N13470 G2 X22.105 Y74.431 I-24.908 J-30.882
N13475 X23.151 Y73.353 I-5.899 J-6.772
N13480 X25.276 Y69.995 I-12.568 J-10.304
N13485 X26.452 Y66.2 I-12.776 J-6.04
N13490 G3 X26.749 Y66.088 I0.181 J0.029
N13495 G2 X27.781 Y66.902 I20.823 J-25.309
N13500 X28.887 Y67.612 I5.083 J-6.709
N13505 X32.939 Y69.155 I8.022 J-14.968
N13510 X37.264 Y69.457 I3.062 J-12.732
N13515 X37.867 Y69.379 I-0.932 J-9.621
N13520 G3 X38.468 Y69.286 I9.552 J59.355
N13525 X39.289 Y69.501 I0.16 J1.061
N13530 G2 X52.099 Y71.961 I8.804 J-11.264
N13535 G3 X53.353 I0.627 J2.125
N13540 G2 X59.061 Y72.398 I3.877 J-13.137
N13545 X64.507 Y70.635 I-2.147 J-15.921
N13550 X68.887 Y66.883 I-6.357 J-11.852
N13555 X71.499 Y61.741 I-13.124 J-9.902
N13560 X72.066 Y57.786 I-12.695 J-3.84
N13565 X71.478 Y53.834 I-14.412 J0.125
N13570 G3 Y52.581 I2.124 J-0.627
N13575 G2 X69.018 Y39.769 I-13.638 J-4.023
N13580 G3 X68.803 Y38.95 I0.844 J-0.659
N13585 G2 X68.989 Y36.906 I-17.147 J-2.591
N13590 X68.92 Y34.854 I-15.735 J-0.496
N13595 X68.292 Y32.014 I-12.231 J1.214
N13600 X67.12 Y29.352 I-17.487 J6.11
N13605 X66.416 Y28.255 I-7.402 J3.98
N13610 X65.607 Y27.232 I-25.473 J19.31
N13615 G3 X65.719 Y26.935 I0.141 J-0.116
N13620 G2 X69.517 Y25.758 I-2.235 J-13.926
N13625 X72.876 Y23.63 I-6.957 J-14.701
N13630 X73.95 Y22.587 I-5.639 J-6.873
N13635 X74.911 Y21.439 I-31.598 J-27.44
N13640 G3 X75.619 Y21.094 I0.72 J0.582
N13645 G2 X79.307 Y20.579 I-0.194 J-14.836
N13650 X82.762 Y19.194 I-4.193 J-15.471
N13655 X85.839 Y16.883 I-6.271 J-11.549
N13660 X88.164 Y13.816 I-10.504 J-10.38
N13665 G3 X89.026 Y12.948 I2.043 J1.165
N13670 G2 X93.18 Y9.251 I-6.999 J-12.047
N13675 X95.689 Y4.29 I-12.815 J-9.596
N13680 X95.686 Y-3.717 I-13.221 J-3.998
N13685 X93.176 Y-8.672 I-15.321 J4.647
N13690 X89.026 Y-12.364 I-11.159 J8.364
N13695 G3 X88.164 Y-13.233 I1.182 J-2.034
N13700 G2 X82.859 Y-18.536 I-12.321 J7.022
N13705 X75.622 Y-20.508 I-7.455 J13.095
N13710 G3 X74.913 Y-20.853 I0.013 J-0.928
N13715 G2 X73.947 Y-22.007 I-31.735 J25.604
N13720 X72.867 Y-23.055 I-6.73 J5.853
N13725 X69.511 Y-25.177 I-10.315 J12.599
N13730 X65.718 Y-26.351 I-6.023 J12.74
N13735 G3 X65.606 Y-26.648 I0.029 J-0.181
N13740 G2 X66.42 Y-27.679 I-25.675 J-21.106
N13745 X67.13 Y-28.785 I-6.702 J-5.079
N13750 X68.672 Y-32.83 I-14.961 J-8.021
N13755 X68.976 Y-37.148 I-12.734 J-3.068
N13760 X68.898 Y-37.759 I-9.676 J0.928
N13765 G3 X68.803 Y-38.368 I66.966 J-10.736
N13770 X69.019 Y-39.188 I1.059 J-0.16
N13775 G2 X71.478 Y-51.998 I-11.263 J-8.804
N13780 G3 Y-53.253 I2.126 J-0.627
N13785 G2 X71.916 Y-58.96 I-13.137 J-3.877
N13790 X70.152 Y-64.406 I-15.923 J2.147
N13795 X66.404 Y-68.782 I-11.848 J6.353
N13800 X61.268 Y-71.394 I-9.908 J13.124
