%
(SNOWFLAKEFEMALETAPERBIT)
(T2  D=6. CR=0. TAPER=15DEG - ZMIN=-3.175 - CHAMFER MILL)
N10 G90 G94 G17 G91.1
N15 G21
(WHEN USING FUSION 360 FOR PERSONAL USE, THE FEEDRATE OF)
(RAPID MOVES IS REDUCED TO MATCH THE FEEDRATE OF CUTTING)
(MOVES, WHICH CAN INCREASE MACHINING TIME. UNRESTRICTED RAPID)
(MOVES ARE AVAILABLE WITH A FUSION 360 SUBSCRIPTION.)
N20 G53 G0 Z0.
(FEMALEPOCKETTAPERBIT)
N25 T2 M6
N30 S16000 M3
N35 G54
N40 G0 X0.228 Y0.351
N45 G43 Z15. H2
N50 G1 Z5. F2000.
N55 Z2.5
N60 Z-3.175 F666.67
N65 X0.211 Y0.361 F2000.
N70 X0.191 Y0.366
N75 X0.171 Y0.361
N80 X0.141 Y0.342
N85 X0.121 Y0.312
N90 X0.117 Y0.291
N95 X0.121 Y0.272
N100 X0.14 Y0.242
N105 X0.171 Y0.222
N110 X0.191 Y0.217
N115 X0.211 Y0.222
N120 X0.241 Y0.241
N125 X0.261 Y0.272
N130 X0.265 Y0.293
N135 X0.261 Y0.312
N140 X0.242 Y0.342
N145 X0.228 Y0.351
N150 X0.182 Y0.388
N155 X0.145 Y0.434
N160 X0.119 Y0.488
N165 X0.106 Y0.545
N170 X0.093 Y0.589
N175 X0.067 Y0.626
N180 X0.029 Y0.652
N185 X-0.014 Y0.665
N190 X-0.06 Y0.662
N195 X-0.102 Y0.645
N200 X-0.139 Y0.622
N205 X-0.218 Y0.496
N210 X-0.234 Y0.462
N215 X-0.249 Y0.42
N220 X-0.278 Y0.291
N225 X-0.25 Y0.164
N230 X-0.235 Y0.122
N235 X-0.218 Y0.087
N240 X-0.139 Y-0.037
N245 X-0.013 Y-0.117
N250 X0.021 Y-0.134
N255 X0.063 Y-0.148
N260 X0.191 Y-0.177
N265 X0.319 Y-0.148
N270 X0.361 Y-0.134
N275 X0.396 Y-0.117
N280 X0.52 Y-0.039
N285 X0.6 Y0.088
N290 X0.617 Y0.122
N295 X0.631 Y0.164
N300 X0.66 Y0.293
N305 X0.632 Y0.419
N310 X0.617 Y0.461
N315 X0.6 Y0.497
N320 X0.521 Y0.621
N325 X0.395 Y0.701
N330 X0.361 Y0.717
N335 X0.319 Y0.732
N340 X0.191 Y0.761
N345 X0.063 Y0.732
N350 X0.021 Y0.717
N355 X-0.014 Y0.7
N360 X-0.102 Y0.645
N365 G2 X-0.377 Y0.628 I-0.153 J0.242
N370 G3 X-0.624 Y0.507 I-0.075 J-0.16
N375 G1 X-0.673 Y0.291
N380 X-0.62 Y0.057
N385 X-0.591 Y-0.026
N390 X-0.555 Y-0.1
N395 X-0.419 Y-0.317
N400 X-0.2 Y-0.455
N405 X-0.127 Y-0.49
N410 X-0.044 Y-0.519
N415 X0.191 Y-0.572
N420 X0.426 Y-0.519
N425 X0.509 Y-0.49
N430 X0.583 Y-0.454
N435 X0.799 Y-0.318
N440 X0.937 Y-0.1
N445 X0.973 Y-0.025
N450 X1.002 Y0.057
N455 X1.055 Y0.293
N460 X1.002 Y0.526
N465 X0.973 Y0.609
N470 X0.937 Y0.684
N475 X0.801 Y0.9
N480 X0.582 Y1.038
N485 X0.508 Y1.074
N490 X0.425 Y1.103
N495 X0.191 Y1.156
N500 X-0.043 Y1.103
N505 X-0.126 Y1.074
N510 X-0.201 Y1.038
N515 X-0.418 Y0.901
N520 X-0.555 Y0.683
N525 X-0.591 Y0.609
N530 X-0.62 Y0.526
N535 X-0.624 Y0.507
N540 G2 X-0.843 Y0.29 I-0.281 J0.064
N545 G3 X-1.009 Y0.029 I0.046 J-0.212
N550 G1 X-0.991 Y-0.049
N555 X-0.948 Y-0.173
N560 X-0.893 Y-0.287
N565 X-0.698 Y-0.596
N570 X-0.387 Y-0.792
N575 X-0.274 Y-0.846
N580 X-0.15 Y-0.89
N585 X0.191 Y-0.967
N590 X0.532 Y-0.89
N595 X0.656 Y-0.846
N600 X0.77 Y-0.791
N605 X1.079 Y-0.597
N610 X1.274 Y-0.287
N615 X1.329 Y-0.173
N620 X1.372 Y-0.049
N625 X1.45 Y0.293
N630 X1.373 Y0.633
N635 X1.33 Y0.756
N640 X1.275 Y0.871
N645 X1.08 Y1.179
N650 X0.769 Y1.375
N655 X0.656 Y1.43
N660 X0.532 Y1.473
N665 X0.191 Y1.551
N670 X-0.15 Y1.473
N675 X-0.274 Y1.43
N680 X-0.388 Y1.375
N685 X-0.697 Y1.18
N690 X-0.893 Y0.87
N695 X-0.947 Y0.757
N700 X-0.991 Y0.633
N705 X-1.068 Y0.291
N710 X-1.009 Y0.029
N715 G2 X-1.111 Y-0.271 I-0.296 J-0.067
N720 G3 X-1.16 Y-0.585 I0.154 J-0.185
N725 G1 X-0.977 Y-0.875
N730 X-0.574 Y-1.129
N735 X-0.422 Y-1.203
N740 X-0.257 Y-1.26
N745 X0.191 Y-1.362
N750 X0.639 Y-1.261
N755 X0.804 Y-1.203
N760 X0.957 Y-1.129
N765 X1.358 Y-0.876
N770 X1.612 Y-0.474
N775 X1.686 Y-0.321
N780 X1.743 Y-0.156
N785 X1.845 Y0.293
N790 X1.744 Y0.739
N795 X1.686 Y0.904
N800 X1.612 Y1.058
N805 X1.359 Y1.458
N810 X0.956 Y1.713
N815 X0.804 Y1.786
N820 X0.639 Y1.844
N825 X0.191 Y1.946
N830 X-0.257 Y1.844
N835 X-0.422 Y1.786
N840 X-0.575 Y1.712
N845 X-0.976 Y1.459
N850 X-1.23 Y1.057
N855 X-1.304 Y0.905
N860 X-1.361 Y0.74
N865 X-1.463 Y0.291
N870 X-1.362 Y-0.156
N875 X-1.304 Y-0.321
N880 X-1.23 Y-0.474
N885 X-1.16 Y-0.585
N890 G2 X-1.182 Y-0.91 I-0.234 J-0.148
N895 G3 X-1.132 Y-1.233 I0.166 J-0.139
N900 G1 X-0.761 Y-1.467
N905 X-0.57 Y-1.559
N910 X-0.363 Y-1.631
N915 X0.191 Y-1.757
N920 X0.746 Y-1.631
N925 X0.952 Y-1.559
N930 X1.145 Y-1.466
N935 X1.637 Y-1.155
N940 X1.949 Y-0.661
N945 X2.042 Y-0.469
N950 X2.114 Y-0.263
N955 X2.24 Y0.293
N960 X2.114 Y0.846
N965 X2.042 Y1.052
N970 X1.949 Y1.245
N975 X1.638 Y1.738
N980 X1.143 Y2.05
N985 X0.952 Y2.143
N990 X0.745 Y2.215
N995 X0.191 Y2.341
N1000 X-0.363 Y2.215
N1005 X-0.57 Y2.143
N1010 X-0.762 Y2.05
N1015 X-1.255 Y1.738
N1020 X-1.567 Y1.244
N1025 X-1.66 Y1.052
N1030 X-1.732 Y0.846
N1035 X-1.858 Y0.291
N1040 X-1.732 Y-0.263
N1045 X-1.66 Y-0.469
N1050 X-1.567 Y-0.661
N1055 X-1.256 Y-1.154
N1060 X-1.132 Y-1.233
N1065 G2 X-0.996 Y-1.548 I-0.162 J-0.257
N1070 G3 X-0.842 Y-1.855 I0.276 J-0.054
N1075 G1 X-0.717 Y-1.915
N1080 X-0.47 Y-2.002
N1085 X0.191 Y-2.152
N1090 X0.852 Y-2.002
N1095 X1.1 Y-1.915
N1100 X1.332 Y-1.804
N1105 X1.916 Y-1.435
N1110 X2.287 Y-0.848
N1115 X2.398 Y-0.616
N1120 X2.485 Y-0.369
N1125 X2.635 Y0.293
N1130 X2.485 Y0.953
N1135 X2.399 Y1.2
N1140 X2.287 Y1.432
N1145 X1.918 Y2.017
N1150 X1.33 Y2.387
N1155 X1.099 Y2.499
N1160 X0.852 Y2.585
N1165 X0.191 Y2.736
N1170 X-0.47 Y2.586
N1175 X-0.717 Y2.499
N1180 X-0.949 Y2.387
N1185 X-1.535 Y2.018
N1190 X-1.905 Y1.431
N1195 X-2.016 Y1.2
N1200 X-2.103 Y0.953
N1205 X-2.253 Y0.291
N1210 X-2.103 Y-0.369
N1215 X-2.017 Y-0.617
N1220 X-1.905 Y-0.848
N1225 X-1.536 Y-1.433
N1230 X-0.948 Y-1.804
N1235 X-0.842 Y-1.855
N1240 G2 X-0.67 Y-2.137 I-0.132 J-0.274
N1245 G3 X-0.468 Y-2.397 I0.26 J-0.007
N1250 G1 X0.191 Y-2.547
N1255 X0.959 Y-2.373
N1260 X1.247 Y-2.272
N1265 X1.519 Y-2.141
N1270 X2.195 Y-1.714
N1275 X2.624 Y-1.035
N1280 X2.755 Y-0.764
N1285 X2.855 Y-0.476
N1290 X3.03 Y0.293
N1295 X2.856 Y1.059
N1300 X2.755 Y1.347
N1305 X2.624 Y1.619
N1310 X2.197 Y2.296
N1315 X1.517 Y2.725
N1320 X1.247 Y2.855
N1325 X0.959 Y2.956
N1330 X0.191 Y3.131
N1335 X-0.577 Y2.956
N1340 X-0.865 Y2.855
N1345 X-1.136 Y2.725
N1350 X-1.814 Y2.297
N1355 X-2.242 Y1.618
N1360 X-2.373 Y1.348
N1365 X-2.473 Y1.059
N1370 X-2.648 Y0.291
N1375 X-2.474 Y-0.476
N1380 X-2.373 Y-0.764
N1385 X-2.242 Y-1.035
N1390 X-1.815 Y-1.713
N1395 X-1.135 Y-2.141
N1400 X-0.865 Y-2.272
N1405 X-0.577 Y-2.373
N1410 X-0.468 Y-2.397
N1415 G2 X-0.229 Y-2.649 I-0.069 J-0.305
N1420 G3 X0.01 Y-2.901 I0.308 J0.053
N1425 G1 X0.191 Y-2.942
N1430 X1.066 Y-2.743
N1435 X1.395 Y-2.628
N1440 X1.706 Y-2.478
N1445 X2.475 Y-1.993
N1450 X2.961 Y-1.222
N1455 X3.111 Y-0.912
N1460 X3.226 Y-0.583
N1465 X3.425 Y0.293
N1470 X3.227 Y1.166
N1475 X3.111 Y1.495
N1480 X2.961 Y1.806
N1485 X2.476 Y2.575
N1490 X1.705 Y3.062
N1495 X1.395 Y3.212
N1500 X1.065 Y3.327
N1505 X0.191 Y3.526
N1510 X-0.683 Y3.327
N1515 X-1.013 Y3.212
N1520 X-1.323 Y3.062
N1525 X-2.093 Y2.576
N1530 X-2.58 Y1.805
N1535 X-2.729 Y1.496
N1540 X-2.844 Y1.166
N1545 X-3.043 Y0.291
N1550 X-2.845 Y-0.582
N1555 X-2.729 Y-0.912
N1560 X-2.579 Y-1.222
N1565 X-2.094 Y-1.992
N1570 X-1.322 Y-2.479
N1575 X-1.013 Y-2.628
N1580 X-0.683 Y-2.743
N1585 X0.01 Y-2.901
N1590 G2 X0.228 Y-3.112 I-0.065 J-0.285
N1595 G3 X0.488 Y-3.27 I0.211 J0.055
N1600 G1 X1.172 Y-3.114
N1605 X1.543 Y-2.985
N1610 X1.893 Y-2.816
N1615 X2.754 Y-2.272
N1620 X3.299 Y-1.409
N1625 X3.467 Y-1.06
N1630 X3.597 Y-0.689
N1635 X3.82 Y0.293
N1640 X3.597 Y1.273
N1645 X3.468 Y1.643
N1650 X3.299 Y1.993
N1655 X2.755 Y2.854
N1660 X1.892 Y3.4
N1665 X1.543 Y3.568
N1670 X1.172 Y3.698
N1675 X0.191 Y3.921
N1680 X-0.79 Y3.698
N1685 X-1.161 Y3.568
N1690 X-1.51 Y3.399
N1695 X-2.372 Y2.855
N1700 X-2.917 Y1.992
N1705 X-3.085 Y1.643
N1710 X-3.215 Y1.273
N1715 X-3.438 Y0.291
N1720 X-3.215 Y-0.689
N1725 X-3.086 Y-1.06
N1730 X-2.917 Y-1.409
N1735 X-2.373 Y-2.271
N1740 X-1.51 Y-2.816
N1745 X-1.161 Y-2.984
N1750 X-0.79 Y-3.114
N1755 X0.191 Y-3.337
N1760 X0.488 Y-3.27
N1765 G2 X0.812 Y-3.394 I0.069 J-0.305
N1770 G3 X1.137 Y-3.517 I0.255 J0.181
N1775 G1 X1.279 Y-3.485
N1780 X1.691 Y-3.341
N1785 X2.08 Y-3.153
N1790 X3.033 Y-2.552
N1795 X3.636 Y-1.596
N1800 X3.824 Y-1.207
N1805 X3.968 Y-0.796
N1810 X4.215 Y0.293
N1815 X3.968 Y1.379
N1820 X3.824 Y1.791
N1825 X3.636 Y2.18
N1830 X3.034 Y3.134
N1835 X2.079 Y3.737
N1840 X1.69 Y3.924
N1845 X1.279 Y4.068
N1850 X0.191 Y4.316
N1855 X-0.897 Y4.068
N1860 X-1.308 Y3.924
N1865 X-1.697 Y3.737
N1870 X-2.651 Y3.135
N1875 X-3.254 Y2.179
N1880 X-3.442 Y1.791
N1885 X-3.586 Y1.379
N1890 X-3.833 Y0.291
N1895 X-3.586 Y-0.796
N1900 X-3.442 Y-1.207
N1905 X-3.254 Y-1.597
N1910 X-2.652 Y-2.55
N1915 X-1.697 Y-3.153
N1920 X-1.308 Y-3.341
N1925 X-0.897 Y-3.485
N1930 X0.191 Y-3.732
N1935 X1.137 Y-3.517
N1940 G2 X1.452 Y-3.628 I0.07 J-0.306
N1945 G3 X1.773 Y-3.72 I0.226 J0.18
N1950 G1 X1.838 Y-3.697
N1955 X2.267 Y-3.49
N1960 X3.312 Y-2.831
N1965 X3.973 Y-1.783
N1970 X4.18 Y-1.355
N1975 X4.338 Y-0.902
N1980 X4.61 Y0.293
N1985 X4.339 Y1.486
N1990 X4.18 Y1.938
N1995 X3.974 Y2.367
N2000 X3.314 Y3.413
N2005 X2.266 Y4.074
N2010 X1.838 Y4.281
N2015 X1.385 Y4.439
N2020 X0.191 Y4.711
N2025 X-1.003 Y4.439
N2030 X-1.456 Y4.281
N2035 X-1.884 Y4.074
N2040 X-2.931 Y3.414
N2045 X-3.592 Y2.366
N2050 X-3.798 Y1.939
N2055 X-3.956 Y1.486
N2060 X-4.228 Y0.291
N2065 X-3.957 Y-0.902
N2070 X-3.798 Y-1.355
N2075 X-3.592 Y-1.784
N2080 X-2.932 Y-2.829
N2085 X-1.884 Y-3.491
N2090 X-1.456 Y-3.697
N2095 X-1.003 Y-3.855
N2100 X0.191 Y-4.127
N2105 X1.385 Y-3.856
N2110 X1.773 Y-3.72
N2115 G2 X2.097 Y-3.79 I0.105 J-0.299
N2120 G3 X2.424 Y-3.842 I0.201 J0.21
N2125 G1 X2.454 Y-3.828
N2130 X3.535 Y-3.146
N2135 X3.592 Y-3.11
N2140 X3.629 Y-3.051
N2145 X4.311 Y-1.97
N2150 X4.536 Y-1.503
N2155 X4.709 Y-1.009
N2160 X4.994 Y0.242
N2165 X5.005 Y0.293
N2170 X4.994 Y0.342
N2175 X4.709 Y1.593
N2180 X4.537 Y2.086
N2185 X4.311 Y2.554
N2190 X3.628 Y3.636
N2195 X3.593 Y3.692
N2200 X3.534 Y3.729
N2205 X2.453 Y4.412
N2210 X1.986 Y4.637
N2215 X1.492 Y4.81
N2220 X0.241 Y5.094
N2225 X0.191 Y5.106
N2230 X0.141 Y5.094
N2235 X-1.11 Y4.81
N2240 X-1.604 Y4.637
N2245 X-2.071 Y4.411
N2250 X-3.152 Y3.729
N2255 X-3.21 Y3.693
N2260 X-3.247 Y3.634
N2265 X-3.929 Y2.553
N2270 X-4.154 Y2.086
N2275 X-4.327 Y1.593
N2280 X-4.612 Y0.341
N2285 X-4.623 Y0.291
N2290 X-4.612 Y0.242
N2295 X-4.327 Y-1.009
N2300 X-4.155 Y-1.503
N2305 X-3.929 Y-1.971
N2310 X-3.247 Y-3.052
N2315 X-3.211 Y-3.109
N2320 X-3.151 Y-3.146
N2325 X-2.071 Y-3.828
N2330 X-1.604 Y-4.054
N2335 X-1.11 Y-4.226
N2340 X0.141 Y-4.511
N2345 X0.191 Y-4.522
N2350 X0.241 Y-4.511
N2355 X1.492 Y-4.226
N2360 X1.986 Y-4.054
N2365 X2.424 Y-3.842
N2370 G2 X2.753 Y-3.874 I0.138 J-0.287
N2375 G3 X3.083 Y-3.886 I0.174 J0.234
N2380 G1 X3.741 Y-3.471
N2385 X3.871 Y-3.39
N2390 X3.954 Y-3.256
N2395 X4.648 Y-2.157
N2400 X4.892 Y-1.65
N2405 X5.079 Y-1.116
N2410 X5.369 Y0.156
N2415 X5.401 Y0.293
N2420 X5.369 Y0.427
N2425 X5.08 Y1.699
N2430 X4.893 Y2.234
N2435 X4.648 Y2.741
N2440 X3.954 Y3.841
N2445 X3.873 Y3.972
N2450 X3.739 Y4.055
N2455 X2.64 Y4.749
N2460 X2.133 Y4.993
N2465 X1.598 Y5.18
N2470 X0.326 Y5.47
N2475 X0.191 Y5.501
N2480 X0.056 Y5.47
N2485 X-1.216 Y5.18
N2490 X-1.751 Y4.993
N2495 X-2.258 Y4.749
N2500 X-3.358 Y4.055
N2505 X-3.489 Y3.973
N2510 X-3.572 Y3.839
N2515 X-4.266 Y2.74
N2520 X-4.51 Y2.234
N2525 X-4.697 Y1.699
N2530 X-4.987 Y0.427
N2535 X-5.019 Y0.291
N2540 X-4.987 Y0.156
N2545 X-4.698 Y-1.116
N2550 X-4.511 Y-1.651
N2555 X-4.266 Y-2.158
N2560 X-3.572 Y-3.257
N2565 X-3.491 Y-3.388
N2570 X-3.357 Y-3.472
N2575 X-2.258 Y-4.165
N2580 X-1.751 Y-4.41
N2585 X-1.216 Y-4.597
N2590 X0.056 Y-4.886
N2595 X0.191 Y-4.918
N2600 X0.327 Y-4.886
N2605 X1.599 Y-4.597
N2610 X2.134 Y-4.41
N2615 X2.641 Y-4.165
N2620 X3.083 Y-3.886
N2625 G2 X3.429 Y-3.895 I0.167 J-0.264
N2630 G3 X3.776 Y-3.904 I0.18 J0.256
N2635 G1 X3.946 Y-3.796
N2640 X4.151 Y-3.669
N2645 X4.279 Y-3.462
N2650 X4.985 Y-2.344
N2655 X5.248 Y-1.798
N2660 X5.45 Y-1.222
N2665 X5.744 Y0.071
N2670 X5.796 Y0.293
N2675 X5.744 Y0.512
N2680 X5.45 Y1.806
N2685 X5.249 Y2.381
N2690 X4.985 Y2.928
N2695 X4.279 Y4.046
N2700 X4.152 Y4.252
N2705 X3.944 Y4.38
N2710 X2.827 Y5.086
N2715 X2.281 Y5.349
N2720 X1.705 Y5.55
N2725 X0.411 Y5.845
N2730 X0.191 Y5.897
N2735 X-0.03 Y5.845
N2740 X-1.323 Y5.55
N2745 X-1.899 Y5.349
N2750 X-2.445 Y5.085
N2755 X-3.563 Y4.38
N2760 X-3.769 Y4.252
N2765 X-3.898 Y4.045
N2770 X-4.603 Y2.927
N2775 X-4.866 Y2.382
N2780 X-5.068 Y1.806
N2785 X-5.362 Y0.512
N2790 X-5.415 Y0.291
N2795 X-5.362 Y0.071
N2800 X-5.068 Y-1.222
N2805 X-4.867 Y-1.798
N2810 X-4.603 Y-2.344
N2815 X-3.897 Y-3.462
N2820 X-3.77 Y-3.668
N2825 X-3.562 Y-3.797
N2830 X-2.445 Y-4.502
N2835 X-1.899 Y-4.765
N2840 X-1.323 Y-4.967
N2845 X-0.029 Y-5.261
N2850 X0.191 Y-5.314
N2855 X0.412 Y-5.261
N2860 X1.705 Y-4.967
N2865 X2.281 Y-4.766
N2870 X2.828 Y-4.502
N2875 X3.776 Y-3.904
N2880 G2 X4.145 Y-3.908 I0.181 J-0.287
N2885 G3 X4.505 Y-3.827 I0.141 J0.214
N2890 G1 X4.604 Y-3.667
N2895 X5.321 Y-2.531
N2900 X5.604 Y-1.945
N2905 X5.819 Y-1.329
N2910 X6.119 Y-0.014
N2915 G2 X6.193 Y0.293 I11.943 J-2.718
N2920 X6.119 Y0.598 I11.87 J3.023
N2925 G1 X5.82 Y1.912
N2930 X5.604 Y2.529
N2935 X5.321 Y3.115
N2940 X4.604 Y4.251
N2945 G2 X4.432 Y4.532 I10.359 J6.536
N2950 X4.149 Y4.705 I6.254 J10.532
N2955 G1 X3.013 Y5.422
N2960 X2.428 Y5.704
N2965 X1.811 Y5.92
N2970 X0.497 Y6.219
N2975 G2 X0.191 Y6.293 I2.718 J11.943
N2980 X-0.115 Y6.219 I-3.024 J11.87
N2985 G1 X-1.429 Y5.92
N2990 X-2.046 Y5.705
N2995 X-2.632 Y5.422
N3000 X-3.768 Y4.705
N3005 G2 X-4.049 Y4.533 I-6.537 J10.358
N3010 X-4.223 Y4.25 I-10.531 J6.255
N3015 G1 X-4.94 Y3.114
N3020 X-5.222 Y2.529
N3025 X-5.438 Y1.912
N3030 X-5.737 Y0.597
N3035 G2 X-5.811 Y0.291 I-11.943 J2.718
N3040 X-5.737 Y-0.014 I-11.87 J-3.023
N3045 G1 X-5.438 Y-1.329
N3050 X-5.222 Y-1.946
N3055 X-4.94 Y-2.531
N3060 X-4.222 Y-3.667
N3065 G2 X-4.05 Y-3.948 I-10.359 J-6.537
N3070 X-3.767 Y-4.122 I-6.254 J-10.532
N3075 G1 X-2.631 Y-4.839
N3080 X-2.046 Y-5.121
N3085 X-1.429 Y-5.337
N3090 X-0.115 Y-5.636
N3095 G2 X0.191 Y-5.71 I-2.718 J-11.943
N3100 X0.497 Y-5.636 I3.024 J-11.869
N3105 G1 X1.812 Y-5.337
N3110 X2.429 Y-5.121
N3115 X3.014 Y-4.838
N3120 X4.151 Y-4.121
N3125 G2 X4.431 Y-3.95 I6.537 J-10.359
N3130 G1 X4.505 Y-3.827
N3135 G2 X4.821 Y-3.682 I0.266 J-0.162
N3140 G3 X5.139 Y-3.54 I0.051 J0.311
N3145 G1 X5.658 Y-2.717
N3150 X5.959 Y-2.093
N3155 X6.189 Y-1.435
N3160 X6.493 Y-0.1
N3165 G2 X6.589 Y0.293 I11.569 J-2.632
N3170 X6.493 Y0.683 I11.473 J3.023
N3175 G1 X6.189 Y2.018
N3180 X5.959 Y2.676
N3185 X5.658 Y3.301
N3190 X4.929 Y4.456
N3195 G2 X4.713 Y4.812 I10.034 J6.331
N3200 X4.354 Y5.03 I5.974 J10.251
N3205 G1 X3.2 Y5.758
N3210 X2.575 Y6.06
N3215 X1.918 Y6.29
N3220 X0.582 Y6.594
N3225 G2 X0.191 Y6.69 I2.633 J11.569
N3230 X-0.2 Y6.594 I-3.024 J11.473
N3235 G1 X-1.536 Y6.29
N3240 X-2.194 Y6.06
N3245 X-2.818 Y5.758
N3250 X-3.973 Y5.03
N3255 G2 X-4.33 Y4.813 I-6.332 J10.034
N3260 X-4.547 Y4.455 I-10.251 J5.974
N3265 G1 X-5.276 Y3.3
N3270 X-5.577 Y2.676
N3275 X-5.807 Y2.018
N3280 X-6.111 Y0.683
N3285 G2 X-6.207 Y0.291 I-11.569 J2.633
N3290 X-6.111 Y-0.099 I-11.473 J-3.023
N3295 G1 X-5.807 Y-1.435
N3300 X-5.577 Y-2.093
N3305 X-5.276 Y-2.717
N3310 X-4.547 Y-3.872
N3315 G2 X-4.331 Y-4.229 I-10.034 J-6.332
N3320 X-3.972 Y-4.446 I-5.974 J-10.251
N3325 G1 X-2.818 Y-5.175
N3330 X-2.194 Y-5.476
N3335 X-1.536 Y-5.706
N3340 X-0.2 Y-6.01
N3345 G2 X0.191 Y-6.106 I-2.633 J-11.569
N3350 X0.582 Y-6.01 I3.024 J-11.473
N3355 G1 X1.918 Y-5.706
N3360 X2.576 Y-5.476
N3365 X3.201 Y-5.175
N3370 X4.356 Y-4.446
N3375 G2 X4.712 Y-4.23 I6.332 J-10.034
N3380 X4.929 Y-3.872 I10.251 J-5.974
N3385 G1 X5.139 Y-3.54
N3390 G2 X5.454 Y-3.399 I0.263 J-0.166
N3395 G3 X5.77 Y-3.258 I0.052 J0.307
N3400 G1 X5.994 Y-2.903
N3405 X6.314 Y-2.24
N3410 X6.558 Y-1.541
N3415 X6.867 Y-0.185
N3420 G2 X6.986 Y0.293 I11.195 J-2.547
N3425 X6.867 Y0.768 I11.076 J3.023
N3430 G1 X6.558 Y2.124
N3435 X6.314 Y2.823
N3440 X5.994 Y3.487
N3445 X5.253 Y4.661
N3450 G2 X4.994 Y5.093 I9.71 J6.127
N3455 X4.559 Y5.354 I5.693 J9.97
N3460 G1 X3.386 Y6.094
N3465 X2.723 Y6.414
N3470 X2.024 Y6.659
N3475 X0.667 Y6.968
N3480 G2 X0.191 Y7.087 I2.548 J11.195
N3485 X-0.285 Y6.968 I-3.024 J11.076
N3490 G1 X-1.642 Y6.659
N3495 X-2.341 Y6.414
N3500 X-3.004 Y6.094
N3505 X-4.178 Y5.354
N3510 G2 X-4.611 Y5.094 I-6.128 J9.71
N3515 X-4.871 Y4.659 I-9.97 J5.694
N3520 G1 X-5.612 Y3.487
N3525 X-5.932 Y2.823
N3530 X-6.176 Y2.124
N3535 X-6.485 Y0.768
N3540 G2 X-6.604 Y0.291 I-11.195 J2.548
N3545 X-6.485 Y-0.184 I-11.076 J-3.023
N3550 G1 X-6.176 Y-1.541
N3555 X-5.932 Y-2.24
N3560 X-5.612 Y-2.904
N3565 X-4.871 Y-4.077
N3570 G2 X-4.612 Y-4.509 I-9.71 J-6.127
N3575 X-4.177 Y-4.771 I-5.693 J-9.97
N3580 G1 X-3.004 Y-5.511
N3585 X-2.341 Y-5.831
N3590 X-1.642 Y-6.075
N3595 X-0.285 Y-6.384
N3600 G2 X0.191 Y-6.503 I-2.548 J-11.195
N3605 X0.668 Y-6.384 I3.024 J-11.076
N3610 G1 X2.024 Y-6.075
N3615 X2.723 Y-5.831
N3620 X3.387 Y-5.511
N3625 X4.56 Y-4.77
N3630 G2 X4.992 Y-4.511 I6.127 J-9.71
N3635 X5.253 Y-4.076 I9.97 J-5.693
N3640 G1 X5.77 Y-3.258
N3645 G2 X6.082 Y-3.122 I0.256 J-0.161
N3650 G3 X6.387 Y-2.969 I0.053 J0.275
N3655 G1 X6.668 Y-2.387
N3660 X6.927 Y-1.647
N3665 X7.24 Y-0.27
N3670 G2 X7.384 Y0.293 I10.822 J-2.462
N3675 X7.241 Y0.853 I10.679 J3.023
N3680 G1 X6.927 Y2.231
N3685 X6.669 Y2.97
N3690 X6.329 Y3.673
N3695 X5.577 Y4.865
N3700 G2 X5.275 Y5.374 I9.386 J5.922
N3705 X4.763 Y5.678 I5.412 J9.689
N3710 G1 X3.572 Y6.43
N3715 X2.869 Y6.769
N3720 X2.13 Y7.027
N3725 X0.752 Y7.341
N3730 G2 X0.191 Y7.484 I2.463 J10.822
N3735 X-0.37 Y7.341 I-3.024 J10.678
N3740 G1 X-1.748 Y7.028
N3745 X-2.488 Y6.769
N3750 X-3.19 Y6.43
N3755 X-4.382 Y5.678
N3760 G2 X-4.892 Y5.375 I-5.923 J9.386
N3765 X-5.195 Y4.864 I-9.689 J5.413
N3770 G1 X-5.947 Y3.673
N3775 X-6.286 Y2.97
N3780 X-6.545 Y2.231
N3785 X-6.858 Y0.853
N3790 G2 X-7.002 Y0.291 I-10.822 J2.463
N3795 X-6.859 Y-0.269 I-10.679 J-3.023
N3800 G1 X-6.545 Y-1.647
N3805 X-6.286 Y-2.387
N3810 X-5.947 Y-3.09
N3815 X-5.195 Y-4.281
N3820 G2 X-4.893 Y-4.791 I-9.386 J-5.923
N3825 X-4.381 Y-5.095 I-5.412 J-9.689
N3830 G1 X-3.19 Y-5.846
N3835 X-2.488 Y-6.185
N3840 X-1.748 Y-6.444
N3845 X-0.37 Y-6.758
N3850 G2 X0.191 Y-6.901 I-2.463 J-10.822
N3855 X0.753 Y-6.758 I3.024 J-10.678
N3860 G1 X2.13 Y-6.444
N3865 X2.87 Y-6.185
N3870 X3.573 Y-5.846
N3875 X4.765 Y-5.094
N3880 G2 X5.273 Y-4.792 I5.923 J-9.386
N3885 X5.577 Y-4.281 I9.689 J-5.412
N3890 G1 X6.329 Y-3.089
N3895 X6.387 Y-2.969
N3900 G2 X6.684 Y-2.794 I0.28 J-0.135
N3905 G3 X6.981 Y-2.619 I0.017 J0.31
N3910 G1 X7.022 Y-2.533
N3915 X7.295 Y-1.753
N3920 X7.613 Y-0.355
N3925 G2 X7.782 Y0.293 I10.449 J-2.378
N3930 X7.614 Y0.938 I10.281 J3.023
N3935 G1 X7.295 Y2.336
N3940 X7.022 Y3.117
N3945 X6.664 Y3.859
N3950 X5.9 Y5.069
N3955 G2 X5.556 Y5.656 I9.063 J5.718
N3960 X4.967 Y6.001 I5.131 J9.408
N3965 G1 X3.758 Y6.765
N3970 X3.016 Y7.123
N3975 X2.236 Y7.396
N3980 X0.837 Y7.714
N3985 G2 X0.191 Y7.882 I2.378 J10.449
N3990 X-0.455 Y7.714 I-3.024 J10.28
N3995 G1 X-1.854 Y7.396
N4000 X-2.634 Y7.123
N4005 X-3.376 Y6.765
N4010 X-4.586 Y6.001
N4015 G2 X-5.173 Y5.656 I-5.719 J9.062
N4020 X-5.519 Y5.068 I-9.408 J5.131
N4025 G1 X-6.282 Y3.858
N4030 X-6.64 Y3.117
N4035 X-6.913 Y2.336
N4040 X-7.231 Y0.938
N4045 G2 X-7.4 Y0.291 I-10.449 J2.378
N4050 X-7.232 Y-0.354 I-10.28 J-3.024
N4055 G1 X-6.913 Y-1.753
N4060 X-6.64 Y-2.533
N4065 X-6.282 Y-3.276
N4070 X-5.519 Y-4.485
N4075 G2 X-5.174 Y-5.072 I-9.062 J-5.719
N4080 X-4.585 Y-5.418 I-5.131 J-9.408
N4085 G1 X-3.376 Y-6.181
N4090 X-2.634 Y-6.539
N4095 X-1.854 Y-6.812
N4100 X-0.455 Y-7.131
N4105 G2 X0.191 Y-7.299 I-2.378 J-10.449
N4110 X0.837 Y-7.131 I3.024 J-10.28
N4115 G1 X2.236 Y-6.812
N4120 X3.017 Y-6.539
N4125 X3.759 Y-6.181
N4130 X4.969 Y-5.418
N4135 G2 X5.555 Y-5.073 I5.719 J-9.062
N4140 X5.901 Y-4.485 I9.408 J-5.131
N4145 G1 X6.664 Y-3.275
N4150 X6.981 Y-2.619
N4155 G2 X7.259 Y-2.441 I0.282 J-0.136
N4160 G3 X7.526 Y-2.249 I-0.004 J0.288
N4165 G1 X7.663 Y-1.859
N4170 X7.986 Y-0.439
N4175 G2 X8.181 Y0.293 I10.076 J-2.293
N4180 X7.986 Y1.023 I9.882 J3.023
N4185 G1 X7.663 Y2.442
N4190 X7.376 Y3.263
N4195 X6.999 Y4.045
N4200 X6.223 Y5.273
N4205 G2 X5.838 Y5.938 I8.74 J5.515
N4210 X5.171 Y6.324 I4.849 J9.126
N4215 G1 X3.943 Y7.099
N4220 X3.163 Y7.476
N4225 X2.341 Y7.763
N4230 X0.922 Y8.086
N4235 G2 X0.191 Y8.281 I2.293 J10.076
N4240 X-0.54 Y8.086 I-3.024 J9.882
N4245 G1 X-1.959 Y7.763
N4250 X-2.781 Y7.476
N4255 X-3.562 Y7.099
N4260 X-4.79 Y6.324
N4265 G2 X-5.455 Y5.938 I-5.515 J8.739
N4270 X-5.842 Y5.272 I-9.126 J4.849
N4275 G1 X-6.617 Y4.044
N4280 X-6.993 Y3.263
N4285 X-7.281 Y2.442
N4290 X-7.604 Y1.022
N4295 G2 X-7.799 Y0.291 I-10.076 J2.293
N4300 X-7.604 Y-0.439 I-9.882 J-3.024
N4305 G1 X-7.281 Y-1.859
N4310 X-6.994 Y-2.68
N4315 X-6.617 Y-3.461
N4320 X-5.842 Y-4.689
N4325 G2 X-5.456 Y-5.354 I-8.739 J-5.515
N4330 X-4.789 Y-5.741 I-4.849 J-9.126
N4335 G1 X-3.561 Y-6.516
N4340 X-2.781 Y-6.893
N4345 X-1.959 Y-7.18
N4350 X-0.54 Y-7.503
N4355 G2 X0.191 Y-7.698 I-2.293 J-10.076
N4360 X0.922 Y-7.503 I3.024 J-9.882
N4365 G1 X2.342 Y-7.18
N4370 X3.163 Y-6.893
N4375 X3.944 Y-6.516
N4380 X5.173 Y-5.741
N4385 G2 X5.837 Y-5.355 I5.515 J-8.739
N4390 X6.224 Y-4.689 I9.126 J-4.849
N4395 G1 X6.999 Y-3.461
N4400 X7.375 Y-2.68
N4405 X7.526 Y-2.249
N4410 G2 X7.799 Y-2.047 I0.284 J-0.099
N4415 G3 X8.06 Y-1.831 I-0.011 J0.279
N4420 G1 X8.357 Y-0.524
N4425 G2 X8.58 Y0.293 I9.705 J-2.208
N4430 X8.358 Y1.107 I9.482 J3.023
N4435 G1 X8.03 Y2.548
N4440 X7.729 Y3.41
N4445 X7.333 Y4.23
N4450 X6.546 Y5.477
N4455 G2 X6.12 Y6.22 I8.417 J5.311
N4460 X5.375 Y6.647 I4.566 J8.843
N4465 G1 X4.128 Y7.433
N4470 X3.309 Y7.829
N4475 X2.447 Y8.13
N4480 X1.006 Y8.458
N4485 G2 X0.191 Y8.681 I2.209 J9.704
N4490 X-0.624 Y8.458 I-3.024 J9.482
N4495 G1 X-2.065 Y8.13
N4500 X-2.927 Y7.829
N4505 X-3.747 Y7.433
N4510 X-4.993 Y6.647
N4515 G2 X-5.738 Y6.221 I-5.312 J8.417
N4520 X-6.164 Y5.475 I-8.843 J4.567
N4525 G1 X-6.951 Y4.229
N4530 X-7.346 Y3.41
N4535 X-7.648 Y2.548
N4540 X-7.976 Y1.107
N4545 G2 X-8.198 Y0.291 I-9.704 J2.209
N4550 X-7.976 Y-0.524 I-9.482 J-3.024
N4555 G1 X-7.648 Y-1.964
N4560 X-7.347 Y-2.826
N4565 X-6.951 Y-3.646
N4570 X-6.164 Y-4.893
N4575 G2 X-5.738 Y-5.637 I-8.417 J-5.312
N4580 X-4.993 Y-6.063 I-4.566 J-8.843
N4585 G1 X-3.746 Y-6.85
N4590 X-2.927 Y-7.245
N4595 X-2.065 Y-7.547
N4600 X-0.624 Y-7.875
N4605 G2 X0.191 Y-8.097 I-2.209 J-9.704
N4610 X1.007 Y-7.875 I3.024 J-9.482
N4615 G1 X2.447 Y-7.547
N4620 X3.309 Y-7.245
N4625 X4.129 Y-6.85
N4630 X5.376 Y-6.063
N4635 G2 X6.119 Y-5.637 I5.311 J-8.417
N4640 X6.546 Y-4.892 I8.843 J-4.566
N4645 G1 X7.333 Y-3.646
N4650 X7.728 Y-2.826
N4655 X8.03 Y-1.964
N4660 X8.06 Y-1.831
N4665 G2 X8.309 Y-1.594 I0.302 J-0.069
N4670 G3 X8.558 Y-1.358 I-0.053 J0.305
N4675 G1 X8.728 Y-0.608
N4680 G2 X8.98 Y0.293 I9.333 J-2.124
N4685 X8.729 Y1.192 I9.082 J3.023
N4690 G1 X8.396 Y2.653
N4695 X8.081 Y3.556
N4700 X7.666 Y4.415
N4705 X6.868 Y5.68
N4710 G2 X6.403 Y6.503 I8.095 J5.108
N4715 X5.578 Y6.969 I4.283 J8.56
N4720 G1 X4.313 Y7.767
N4725 X3.455 Y8.181
N4730 X2.552 Y8.497
N4735 X1.091 Y8.829
N4740 G2 X0.191 Y9.081 I2.124 J9.333
N4745 X-0.709 Y8.829 I-3.024 J9.082
N4750 G1 X-2.17 Y8.497
N4755 X-3.073 Y8.181
N4760 X-3.932 Y7.767
N4765 X-5.196 Y6.969
N4770 G2 X-6.021 Y6.504 I-5.109 J8.095
N4775 X-6.486 Y5.678 I-8.56 J4.284
N4780 G1 X-7.284 Y4.414
N4785 X-7.698 Y3.556
N4790 X-8.014 Y2.653
N4795 X-8.347 Y1.191
N4800 G2 X-8.598 Y0.291 I-9.333 J2.124
N4805 X-8.347 Y-0.608 I-9.082 J-3.024
N4810 G1 X-8.014 Y-2.07
N4815 X-7.699 Y-2.972
N4820 X-7.284 Y-3.831
N4825 X-6.486 Y-5.096
N4830 G2 X-6.021 Y-5.92 I-8.095 J-5.108
N4835 X-5.196 Y-6.385 I-4.283 J-8.56
N4840 G1 X-3.931 Y-7.183
N4845 X-3.073 Y-7.598
N4850 X-2.17 Y-7.913
N4855 X-0.709 Y-8.246
N4860 G2 X0.191 Y-8.497 I-2.124 J-9.333
N4865 X1.091 Y-8.246 I3.024 J-9.082
N4870 G1 X2.553 Y-7.913
N4875 X3.455 Y-7.598
N4880 X4.314 Y-7.183
N4885 X5.579 Y-6.385
N4890 G2 X6.403 Y-5.921 I5.108 J-8.095
N4895 X6.868 Y-5.095 I8.56 J-4.283
N4900 G1 X7.666 Y-3.831
N4905 X8.08 Y-2.972
N4910 X8.396 Y-2.07
N4915 X8.558 Y-1.358
N4920 G2 X8.806 Y-1.123 I0.301 J-0.068
N4925 G3 X9.055 Y-0.887 I-0.053 J0.304
N4930 G1 X9.099 Y-0.693
N4935 G2 X9.382 Y0.292 I8.963 J-2.04
N4940 X9.099 Y1.276 I8.681 J3.023
N4945 G1 X8.762 Y2.758
N4950 X8.432 Y3.701
N4955 X7.999 Y4.599
N4960 X7.189 Y5.882
N4965 G2 X6.687 Y6.787 I7.774 J4.905
N4970 X5.781 Y7.29 I4. J8.277
N4975 G1 X4.498 Y8.1
N4980 X3.601 Y8.532
N4985 X2.657 Y8.862
N4990 X1.175 Y9.2
N4995 G2 X0.191 Y9.482 I2.04 J8.963
N5000 X-0.793 Y9.2 I-3.024 J8.681
N5005 G1 X-2.276 Y8.862
N5010 X-3.219 Y8.532
N5015 X-4.116 Y8.099
N5020 X-5.399 Y7.29
N5025 G2 X-6.304 Y6.787 I-4.906 J7.774
N5030 X-6.807 Y5.881 I-8.276 J4.
N5035 G1 X-7.617 Y4.598
N5040 X-8.05 Y3.701
N5045 X-8.38 Y2.758
N5050 X-8.717 Y1.276
N5055 G2 X-9. Y0.291 I-8.963 J2.04
N5060 X-8.717 Y-0.692 I-8.681 J-3.024
N5065 G1 X-8.38 Y-2.175
N5070 X-8.05 Y-3.118
N5075 X-7.617 Y-4.016
N5080 X-6.807 Y-5.299
N5085 G2 X-6.305 Y-6.203 I-7.774 J-4.906
N5090 X-5.399 Y-6.706 I-4. J-8.277
N5095 G1 X-4.116 Y-7.516
N5100 X-3.219 Y-7.949
N5105 X-2.276 Y-8.279
N5110 X-0.793 Y-8.616
N5115 G2 X0.191 Y-8.899 I-2.04 J-8.963
N5120 X1.176 Y-8.616 I3.024 J-8.681
N5125 G1 X2.658 Y-8.279
N5130 X3.601 Y-7.949
N5135 X4.499 Y-7.516
N5140 X5.782 Y-6.706
N5145 G2 X6.686 Y-6.204 I4.905 J-7.774
N5150 X7.189 Y-5.298 I8.276 J-4.
N5155 G1 X7.999 Y-4.015
N5160 X8.432 Y-3.118
N5165 X8.762 Y-2.175
N5170 X9.055 Y-0.887
N5175 G2 X9.304 Y-0.65 I0.303 J-0.069
N5180 G3 X9.558 Y-0.419 I-0.055 J0.316
N5185 G2 X9.784 Y0.292 I8.504 J-2.313
N5190 X9.469 Y1.36 I8.278 J3.023
N5195 G1 X9.127 Y2.863
N5200 X8.783 Y3.847
N5205 X8.331 Y4.783
N5210 X7.509 Y6.085
N5215 G2 X6.972 Y7.071 I7.454 J4.703
N5220 X5.983 Y7.61 I3.715 J7.992
N5225 G1 X4.682 Y8.431
N5230 X3.746 Y8.883
N5235 X2.762 Y9.227
N5240 X1.259 Y9.569
N5245 G2 X0.191 Y9.884 I1.956 J8.594
N5250 X-0.877 Y9.569 I-3.024 J8.278
N5255 G1 X-2.381 Y9.227
N5260 X-3.364 Y8.883
N5265 X-4.3 Y8.431
N5270 X-5.601 Y7.61
N5275 G2 X-6.589 Y7.072 I-4.704 J7.453
N5280 X-7.128 Y6.083 I-7.992 J3.716
N5285 G1 X-7.949 Y4.783
N5290 X-8.4 Y3.847
N5295 X-8.744 Y2.863
N5300 X-9.086 Y1.36
N5305 G2 X-9.402 Y0.291 I-8.594 J1.956
N5310 X-9.087 Y-0.777 I-8.278 J-3.024
N5315 G1 X-8.745 Y-2.28
N5320 X-8.401 Y-3.263
N5325 X-7.949 Y-4.2
N5330 X-7.128 Y-5.501
N5335 G2 X-6.59 Y-6.488 I-7.453 J-4.703
N5340 X-5.601 Y-7.027 I-3.715 J-7.992
N5345 G1 X-4.3 Y-7.848
N5350 X-3.364 Y-8.3
N5355 X-2.38 Y-8.643
N5360 X-0.877 Y-8.986
N5365 G2 X0.191 Y-9.301 I-1.956 J-8.594
N5370 X1.26 Y-8.986 I3.024 J-8.278
N5375 G1 X2.763 Y-8.644
N5380 X3.746 Y-8.3
N5385 X4.683 Y-7.848
N5390 X5.984 Y-7.027
N5395 G2 X6.971 Y-6.489 I4.703 J-7.453
N5400 X7.51 Y-5.5 I7.992 J-3.715
N5405 G1 X8.331 Y-4.199
N5410 X8.782 Y-3.263
N5415 X9.126 Y-2.28
N5420 X9.468 Y-0.777
N5425 G2 X9.558 Y-0.419 I8.594 J-1.955
N5430 X9.82 Y-0.193 I0.298 J-0.081
N5435 G3 X10.089 Y0.024 I-0.038 J0.323
N5440 G2 X10.187 Y0.292 I7.973 J-2.756
N5445 X9.837 Y1.444 I7.875 J3.023
N5450 G1 X9.49 Y2.968
N5455 X9.132 Y3.992
N5460 X8.662 Y4.967
N5465 X7.829 Y6.286
N5470 G2 X7.257 Y7.357 I7.134 J4.501
N5475 X6.185 Y7.93 I3.43 J7.707
N5480 G1 X4.865 Y8.762
N5485 X3.891 Y9.233
N5490 X2.867 Y9.591
N5495 X1.343 Y9.938
N5500 G2 X0.191 Y10.288 I1.872 J8.225
N5505 X-0.961 Y9.938 I-3.024 J7.875
N5510 G1 X-2.485 Y9.591
N5515 X-3.509 Y9.233
N5520 X-4.484 Y8.762
N5525 X-5.803 Y7.93
N5530 G2 X-6.874 Y7.357 I-4.502 J7.134
N5535 X-7.447 Y6.285 I-7.706 J3.43
N5540 G1 X-8.28 Y4.966
N5545 X-8.75 Y3.992
N5550 X-9.108 Y2.968
N5555 X-9.455 Y1.444
N5560 G2 X-9.805 Y0.291 I-8.225 J1.872
N5565 X-9.455 Y-0.86 I-7.875 J-3.024
N5570 G1 X-9.108 Y-2.384
N5575 X-8.75 Y-3.408
N5580 X-8.28 Y-4.383
N5585 X-7.447 Y-5.703
N5590 G2 X-6.875 Y-6.773 I-7.134 J-4.502
N5595 X-5.802 Y-7.346 I-3.43 J-7.707
N5600 G1 X-4.483 Y-8.179
N5605 X-3.509 Y-8.649
N5610 X-2.485 Y-9.007
N5615 X-0.961 Y-9.354
N5620 G2 X0.191 Y-9.705 I-1.872 J-8.225
N5625 X1.343 Y-9.354 I3.024 J-7.875
N5630 G1 X2.867 Y-9.007
N5635 X3.891 Y-8.649
N5640 X4.866 Y-8.179
N5645 X6.186 Y-7.346
N5650 G2 X7.256 Y-6.774 I4.502 J-7.134
N5655 X7.829 Y-5.702 I7.707 J-3.43
N5660 G1 X8.662 Y-4.383
N5665 X9.132 Y-3.408
N5670 X9.49 Y-2.384
N5675 X9.837 Y-0.861
N5680 G2 X10.089 Y0.024 I8.225 J-1.872
N5685 X10.35 Y0.187 I0.231 J-0.08
N5690 G3 X10.539 Y0.429 I0.021 J0.178
N5695 G2 X10.205 Y1.528 I7.524 J2.887
N5700 G1 X9.853 Y3.072
N5705 X9.481 Y4.136
N5710 X8.992 Y5.15
N5715 X8.148 Y6.487
N5720 G2 X7.543 Y7.643 I6.815 J4.3
N5725 X6.386 Y8.248 I3.143 J7.42
N5730 G1 X5.048 Y9.092
N5735 X4.035 Y9.581
N5740 X2.971 Y9.953
N5745 X1.426 Y10.305
N5750 G2 X0.191 Y10.693 I1.788 J7.858
N5755 X-1.045 Y10.305 I-3.024 J7.47
N5760 G1 X-2.589 Y9.953
N5765 X-3.654 Y9.581
N5770 X-4.667 Y9.092
N5775 X-6.004 Y8.248
N5780 G2 X-7.161 Y7.644 I-4.301 J6.815
N5785 X-7.766 Y6.486 I-7.42 J3.144
N5790 G1 X-8.61 Y5.149
N5795 X-9.099 Y4.136
N5800 X-9.471 Y3.072
N5805 X-9.822 Y1.527
N5810 G2 X-10.21 Y0.291 I-7.858 J1.788
N5815 X-9.823 Y-0.944 I-7.47 J-3.024
N5820 G1 X-9.471 Y-2.489
N5825 X-9.099 Y-3.553
N5830 X-8.61 Y-4.566
N5835 X-7.766 Y-5.904
N5840 G2 X-7.161 Y-7.06 I-6.815 J-4.301
N5845 X-6.004 Y-7.665 I-3.143 J-7.42
N5850 G1 X-4.666 Y-8.509
N5855 X-3.653 Y-8.998
N5860 X-2.589 Y-9.37
N5865 X-1.045 Y-9.721
N5870 G2 X0.191 Y-10.109 I-1.788 J-7.858
N5875 X1.427 Y-9.721 I3.024 J-7.47
N5880 G1 X2.972 Y-9.37
N5885 X4.036 Y-8.998
N5890 X5.049 Y-8.509
N5895 X6.387 Y-7.665
N5900 G2 X7.542 Y-7.06 I4.301 J-6.815
N5905 X8.148 Y-5.903 I7.42 J-3.144
N5910 G1 X8.992 Y-4.566
N5915 X9.481 Y-3.552
N5920 X9.853 Y-2.489
N5925 X10.204 Y-0.944
N5930 G2 X10.592 Y0.292 I7.858 J-1.788
N5935 G1 X10.539 Y0.429
N5940 G2 X10.617 Y0.764 I0.287 J0.11
N5945 G3 X10.707 Y1.096 I-0.221 J0.238
N5950 G2 X10.571 Y1.611 I7.356 J2.22
N5955 G1 X10.214 Y3.176
N5960 X9.828 Y4.28
N5965 X9.321 Y5.332
N5970 X8.465 Y6.688
N5975 G2 X7.831 Y7.931 I6.498 J4.1
N5980 X6.586 Y8.566 I2.856 J7.133
N5985 G1 X5.231 Y9.421
N5990 X4.179 Y9.929
N5995 X3.075 Y10.315
N6000 X1.51 Y10.671
N6005 G2 X0.191 Y11.1 I1.705 J7.492
N6010 X-1.128 Y10.671 I-3.024 J7.063
N6015 G1 X-2.693 Y10.315
N6020 X-3.798 Y9.929
N6025 X-4.849 Y9.421
N6030 X-6.205 Y8.566
N6035 G2 X-7.448 Y7.931 I-4.1 J6.498
N6040 X-8.083 Y6.687 I-7.133 J2.856
N6045 G1 X-8.939 Y5.331
N6050 X-9.446 Y4.28
N6055 X-9.832 Y3.176
N6060 X-10.188 Y1.611
N6065 G2 X-10.617 Y0.291 I-7.492 J1.705
N6070 X-10.189 Y-1.027 I-7.063 J-3.024
N6075 G1 X-9.832 Y-2.593
N6080 X-9.446 Y-3.697
N6085 X-8.939 Y-4.748
N6090 X-8.083 Y-6.104
N6095 G2 X-7.449 Y-7.347 I-6.498 J-4.1
N6100 X-6.204 Y-7.983 I-2.856 J-7.133
N6105 G1 X-4.849 Y-8.838
N6110 X-3.797 Y-9.345
N6115 X-2.693 Y-9.731
N6120 X-1.128 Y-10.088
N6125 G2 X0.191 Y-10.516 I-1.705 J-7.492
N6130 X1.51 Y-10.088 I3.024 J-7.063
N6135 G1 X3.076 Y-9.731
N6140 X4.18 Y-9.345
N6145 X5.232 Y-8.838
N6150 X6.587 Y-7.982
N6155 G2 X7.83 Y-7.348 I4.1 J-6.498
N6160 X8.465 Y-6.103 I7.133 J-2.856
N6165 G1 X9.32 Y-4.748
N6170 X9.828 Y-3.696
N6175 X10.214 Y-2.593
N6180 X10.57 Y-1.027
N6185 G2 X10.999 Y0.292 I7.492 J-1.705
N6190 X10.707 Y1.096 I7.063 J3.024
N6195 X10.809 Y1.423 I0.292 J0.088
N6200 G3 X10.923 Y1.746 I-0.2 J0.252
N6205 G1 X10.574 Y3.28
N6210 X10.174 Y4.423
N6215 X9.648 Y5.514
N6220 X8.781 Y6.887
N6225 G2 X8.12 Y8.22 I6.182 J3.901
N6230 X6.786 Y8.882 I2.567 J6.844
N6235 G1 X5.412 Y9.749
N6240 X4.323 Y10.275
N6245 X3.179 Y10.675
N6250 X1.593 Y11.036
N6255 G2 X0.191 Y11.508 I1.622 J7.127
N6260 X-1.211 Y11.036 I-3.024 J6.655
N6265 G1 X-2.797 Y10.675
N6270 X-3.941 Y10.275
N6275 X-5.031 Y9.749
N6280 X-6.404 Y8.882
N6285 G2 X-7.737 Y8.22 I-3.901 J6.181
N6290 X-8.4 Y6.886 I-6.844 J2.567
N6295 G1 X-9.266 Y5.513
N6300 X-9.792 Y4.424
N6305 X-10.192 Y3.28
N6310 X-10.553 Y1.693
N6315 G2 X-11.026 Y0.291 I-7.127 J1.622
N6320 X-10.553 Y-1.11 I-6.655 J-3.024
N6325 G1 X-10.192 Y-2.696
N6330 X-9.792 Y-3.84
N6335 X-9.266 Y-4.93
N6340 X-8.4 Y-6.303
N6345 G2 X-7.738 Y-7.636 I-6.181 J-3.901
N6350 X-6.403 Y-8.299 I-2.567 J-6.844
N6355 G1 X-5.03 Y-9.165
N6360 X-3.941 Y-9.691
N6365 X-2.797 Y-10.091
N6370 X-1.211 Y-10.452
N6375 G2 X0.191 Y-10.925 I-1.622 J-7.127
N6380 X1.593 Y-10.452 I3.024 J-6.654
N6385 G1 X3.179 Y-10.091
N6390 X4.323 Y-9.691
N6395 X5.413 Y-9.165
N6400 X6.787 Y-8.298
N6405 G2 X8.119 Y-7.637 I3.901 J-6.182
N6410 X8.781 Y-6.303 I6.844 J-2.567
N6415 G1 X9.648 Y-4.93
N6420 X10.174 Y-3.84
N6425 X10.574 Y-2.696
N6430 X10.935 Y-1.11
N6435 G2 X11.408 Y0.292 I7.127 J-1.622
N6440 X10.935 Y1.694 I6.655 J3.024
N6445 G1 X10.923 Y1.746
N6450 G2 X11.043 Y2.06 I0.295 J0.067
N6455 G3 X11.162 Y2.373 I-0.175 J0.246
N6460 G1 X10.932 Y3.383
N6465 X10.518 Y4.566
N6470 X9.974 Y5.694
N6475 X9.096 Y7.086
N6480 G2 X8.41 Y8.51 I5.867 J3.702
N6485 X6.984 Y9.197 I2.276 J6.553
N6490 G1 X5.593 Y10.075
N6495 X4.465 Y10.619
N6500 X3.282 Y11.033
N6505 X1.675 Y11.398
N6510 G2 X0.191 Y11.919 I1.54 J6.764
N6515 X-1.294 Y11.398 I-3.024 J6.244
N6520 G1 X-2.9 Y11.033
N6525 X-4.084 Y10.619
N6530 X-5.211 Y10.075
N6535 X-6.603 Y9.197
N6540 G2 X-8.028 Y8.511 I-3.702 J5.867
N6545 X-8.714 Y7.085 I-6.553 J2.277
N6550 G1 X-9.592 Y5.694
N6555 X-10.136 Y4.566
N6560 X-10.55 Y3.383
N6565 X-10.916 Y1.776
N6570 G2 X-11.437 Y0.291 I-6.764 J1.54
N6575 X-10.916 Y-1.193 I-6.244 J-3.024
N6580 G1 X-10.55 Y-2.799
N6585 X-10.136 Y-3.983
N6590 X-9.592 Y-5.111
N6595 X-8.714 Y-6.502
N6600 G2 X-8.028 Y-7.927 I-5.867 J-3.702
N6605 X-6.602 Y-8.613 I-2.276 J-6.553
N6610 G1 X-5.211 Y-9.491
N6615 X-4.084 Y-10.035
N6620 X-2.9 Y-10.449
N6625 X-1.293 Y-10.815
N6630 G2 X0.191 Y-11.336 I-1.54 J-6.764
N6635 X1.676 Y-10.815 I3.024 J-6.243
N6640 G1 X3.282 Y-10.449
N6645 X4.466 Y-10.035
N6650 X5.594 Y-9.491
N6655 X6.985 Y-8.613
N6660 G2 X8.41 Y-7.927 I3.702 J-5.867
N6665 X9.096 Y-6.501 I6.553 J-2.277
N6670 G1 X9.974 Y-5.11
N6675 X10.518 Y-3.983
N6680 X10.932 Y-2.799
N6685 X11.297 Y-1.193
N6690 G2 X11.819 Y0.292 I6.764 J-1.539
N6695 X11.298 Y1.776 I6.244 J3.024
N6700 G1 X11.162 Y2.373
N6705 G2 X11.281 Y2.685 I0.293 J0.067
N6710 G3 X11.4 Y2.996 I-0.174 J0.245
N6715 G1 X11.288 Y3.485
N6720 X10.861 Y4.708
N6725 X10.298 Y5.874
N6730 X9.409 Y7.283
N6735 G2 X8.703 Y8.803 I5.554 J3.505
N6740 X7.182 Y9.51 I1.984 J6.261
N6745 G1 X5.773 Y10.399
N6750 X4.607 Y10.961
N6755 X3.384 Y11.389
N6760 X1.757 Y11.759
N6765 G2 X0.191 Y12.333 I1.457 J6.404
N6770 X-1.376 Y11.759 I-3.024 J5.83
N6775 G1 X-3.002 Y11.389
N6780 X-4.226 Y10.961
N6785 X-5.391 Y10.399
N6790 X-6.8 Y9.51
N6795 G2 X-8.32 Y8.803 I-3.505 J5.554
N6800 X-9.027 Y7.282 I-6.26 J1.984
N6805 G1 X-9.916 Y5.873
N6810 X-10.478 Y4.708
N6815 X-10.906 Y3.485
N6820 X-11.276 Y1.858
N6825 G2 X-11.85 Y0.291 I-6.404 J1.457
N6830 X-11.277 Y-1.275 I-5.83 J-3.024
N6835 G1 X-10.906 Y-2.902
N6840 X-10.479 Y-4.125
N6845 X-9.916 Y-5.29
N6850 X-9.027 Y-6.699
N6855 G2 X-8.321 Y-8.219 I-5.554 J-3.505
N6860 X-6.799 Y-8.926 I-1.984 J-6.261
N6865 G1 X-5.391 Y-9.815
N6870 X-4.225 Y-10.378
N6875 X-3.002 Y-10.805
N6880 X-1.375 Y-11.176
N6885 G2 X0.191 Y-11.75 I-1.457 J-6.404
N6890 X1.758 Y-11.176 I3.024 J-5.83
N6895 G1 X3.385 Y-10.805
N6900 X4.608 Y-10.378
N6905 X5.774 Y-9.815
N6910 X7.183 Y-8.926
N6915 G2 X8.702 Y-8.22 I3.505 J-5.554
N6920 X9.409 Y-6.699 I6.26 J-1.984
N6925 G1 X10.298 Y-5.29
N6930 X10.86 Y-4.125
N6935 X11.288 Y-2.902
N6940 X11.658 Y-1.275
N6945 G2 X12.232 Y0.292 I6.404 J-1.457
N6950 X11.659 Y1.858 I5.83 J3.024
N6955 G1 X11.4 Y2.996
N6960 G2 X11.525 Y3.302 I0.28 J0.064
N6965 G3 X11.633 Y3.615 I-0.144 J0.224
N6970 G1 X11.201 Y4.849
N6975 X10.62 Y6.052
N6980 X9.72 Y7.479
N6985 G2 X8.998 Y9.098 I5.243 J3.308
N6990 X7.378 Y9.82 I1.689 J5.965
N6995 G1 X5.951 Y10.721
N7000 X4.748 Y11.301
N7005 X3.486 Y11.743
N7010 X1.839 Y12.117
N7015 G2 X0.191 Y12.75 I1.376 J6.045
N7020 X-1.457 Y12.117 I-3.024 J5.412
N7025 G1 X-3.104 Y11.743
N7030 X-4.367 Y11.301
N7035 X-5.57 Y10.721
N7040 X-6.996 Y9.82
N7045 G2 X-8.615 Y9.098 I-3.309 J5.243
N7050 X-9.338 Y7.478 I-5.965 J1.689
N7055 G1 X-10.238 Y6.052
N7060 X-10.818 Y4.849
N7065 X-11.26 Y3.587
N7070 X-11.635 Y1.94
N7075 G2 X-12.268 Y0.291 I-6.045 J1.376
N7080 X-11.635 Y-1.357 I-5.413 J-3.024
N7085 G1 X-11.26 Y-3.003
N7090 X-10.819 Y-4.266
N7095 X-10.238 Y-5.469
N7100 X-9.338 Y-6.896
N7105 G2 X-8.616 Y-8.514 I-5.243 J-3.309
N7110 X-6.996 Y-9.237 I-1.689 J-5.965
N7115 G1 X-5.569 Y-10.137
N7120 X-4.366 Y-10.718
N7125 X-3.104 Y-11.159
N7130 X-1.457 Y-11.534
N7135 G2 X0.191 Y-12.167 I-1.376 J-6.045
N7140 X1.84 Y-11.534 I3.024 J-5.412
N7145 G1 X3.486 Y-11.159
N7150 X4.749 Y-10.718
N7155 X5.952 Y-10.137
N7160 X7.379 Y-9.237
N7165 G2 X8.997 Y-8.515 I3.309 J-5.243
N7170 X9.72 Y-6.895 I5.965 J-1.689
N7175 G1 X10.62 Y-5.469
N7180 X11.2 Y-4.265
N7185 X11.642 Y-3.003
N7190 X12.017 Y-1.357
N7195 G2 X12.65 Y0.292 I6.045 J-1.376
N7200 X12.017 Y1.94 I5.413 J3.024
N7205 G1 X11.642 Y3.587
N7210 X11.633 Y3.615
N7215 G2 X11.714 Y3.933 I0.28 J0.098
N7220 G3 X11.796 Y4.251 I-0.198 J0.22
N7225 G1 X11.538 Y4.989
N7230 X10.939 Y6.229
N7235 X10.028 Y7.674
N7240 G2 X9.296 Y9.396 I4.935 J3.114
N7245 X7.572 Y10.129 I1.391 J5.667
N7250 G1 X6.128 Y11.04
N7255 X4.888 Y11.638
N7260 X3.587 Y12.093
N7265 X1.92 Y12.473
N7270 G2 X0.191 Y13.172 I1.295 J5.69
N7275 X-1.538 Y12.473 I-3.024 J4.991
N7280 G1 X-3.205 Y12.093
N7285 X-4.506 Y11.638
N7290 X-5.747 Y11.04
N7295 X-7.191 Y10.129
N7300 G2 X-8.914 Y9.396 I-3.114 J4.935
N7305 X-9.646 Y7.673 I-5.667 J1.391
N7310 G1 X-10.557 Y6.229
N7315 X-11.156 Y4.989
N7320 X-11.611 Y3.688
N7325 X-11.99 Y2.021
N7330 G2 X-12.689 Y0.291 I-5.69 J1.295
N7335 X-11.99 Y-1.437 I-4.991 J-3.024
N7340 G1 X-11.611 Y-3.104
N7345 X-11.156 Y-4.406
N7350 X-10.557 Y-5.646
N7355 X-9.646 Y-7.09
N7360 G2 X-8.914 Y-8.813 I-4.935 J-3.114
N7365 X-7.19 Y-9.545 I-1.391 J-5.667
N7370 G1 X-5.746 Y-10.456
N7375 X-4.506 Y-11.055
N7380 X-3.205 Y-11.51
N7385 X-1.538 Y-11.889
N7390 G2 X0.191 Y-12.589 I-1.295 J-5.69
N7395 X1.92 Y-11.889 I3.024 J-4.991
N7400 G1 X3.587 Y-11.51
N7405 X4.889 Y-11.055
N7410 X6.129 Y-10.456
N7415 X7.573 Y-9.545
N7420 G2 X9.295 Y-8.813 I3.114 J-4.935
N7425 X10.028 Y-7.09 I5.667 J-1.391
N7430 G1 X10.939 Y-5.646
N7435 X11.538 Y-4.405
N7440 X11.993 Y-3.104
N7445 X12.372 Y-1.437
N7450 G2 X13.071 Y0.292 I5.69 J-1.295
N7455 X12.372 Y2.021 I4.991 J3.024
N7460 G1 X11.993 Y3.688
N7465 X11.796 Y4.251
N7470 G2 X11.877 Y4.566 I0.277 J0.097
N7475 G3 X11.958 Y4.881 I-0.196 J0.218
N7480 G1 X11.872 Y5.127
N7485 X11.255 Y6.405
N7490 X10.333 Y7.866
N7495 G2 X9.598 Y9.698 I4.63 J2.921
N7500 X7.765 Y10.434 I1.089 J5.365
N7505 G1 X6.304 Y11.356
N7510 X5.027 Y11.972
N7515 X3.687 Y12.441
N7520 X2. Y12.825
N7525 G2 X0.191 Y13.599 I1.215 J5.338
N7530 X-1.618 Y12.825 I-3.024 J4.564
N7535 G1 X-3.305 Y12.441
N7540 X-4.645 Y11.972
N7545 X-5.922 Y11.356
N7550 X-7.383 Y10.434
N7555 G2 X-9.216 Y9.698 I-2.922 J4.63
N7560 X-9.951 Y7.865 I-5.365 J1.089
N7565 G1 X-10.873 Y6.404
N7570 X-11.49 Y5.127
N7575 X-11.958 Y3.788
N7580 X-12.342 Y2.101
N7585 G2 X-13.117 Y0.291 I-5.338 J1.215
N7590 X-12.342 Y-1.518 I-4.564 J-3.024
N7595 G1 X-11.958 Y-3.204
N7600 X-11.49 Y-4.544
N7605 X-10.873 Y-5.821
N7610 X-9.951 Y-7.283
N7615 G2 X-9.216 Y-9.115 I-4.63 J-2.922
N7620 X-7.383 Y-9.85 I-1.089 J-5.365
N7625 G1 X-5.922 Y-10.773
N7630 X-4.645 Y-11.389
N7635 X-3.305 Y-11.857
N7640 X-1.618 Y-12.241
N7645 G2 X0.191 Y-13.016 I-1.215 J-5.338
N7650 X2.001 Y-12.241 I3.024 J-4.563
N7655 G1 X3.687 Y-11.857
N7660 X5.027 Y-11.389
N7665 X6.304 Y-10.772
N7670 X7.766 Y-9.85
N7675 G2 X9.598 Y-9.115 I2.921 J-4.63
N7680 X10.333 Y-7.282 I5.365 J-1.089
N7685 G1 X11.255 Y-5.821
N7690 X11.872 Y-4.544
N7695 X12.34 Y-3.204
N7700 X12.724 Y-1.517
N7705 G2 X13.499 Y0.292 I5.338 J-1.215
N7710 X12.724 Y2.101 I4.564 J3.024
N7715 G1 X12.34 Y3.788
N7720 X11.958 Y4.881
N7725 G2 X12.033 Y5.185 I0.27 J0.094
N7730 G3 X12.091 Y5.492 I-0.179 J0.193
N7735 G1 X11.568 Y6.578
N7740 X10.635 Y8.057
N7745 G2 X9.905 Y10.005 I4.328 J2.731
N7750 X7.955 Y10.735 I0.782 J5.058
N7755 G1 X6.477 Y11.668
N7760 X5.163 Y12.302
N7765 X3.786 Y12.784
N7770 X2.079 Y13.172
N7775 G2 X0.191 Y14.034 I1.136 J4.99
N7780 X-1.697 Y13.172 I-3.024 J4.129
N7785 G1 X-3.404 Y12.784
N7790 X-4.781 Y12.302
N7795 X-6.095 Y11.668
N7800 X-7.574 Y10.735
N7805 G2 X-9.523 Y10.005 I-2.731 J4.328
N7810 X-10.253 Y8.056 I-5.058 J0.782
N7815 G1 X-11.186 Y6.577
N7820 X-11.819 Y5.264
N7825 X-12.301 Y3.886
N7830 X-12.69 Y2.18
N7835 G2 X-13.551 Y0.291 I-4.99 J1.136
N7840 X-12.69 Y-1.597 I-4.129 J-3.024
N7845 G1 X-12.301 Y-3.303
N7850 X-11.82 Y-4.681
N7855 X-11.186 Y-5.994
N7860 X-10.253 Y-7.473
N7865 G2 X-9.523 Y-9.422 I-4.328 J-2.731
N7870 X-7.573 Y-10.152 I-0.782 J-5.058
N7875 G1 X-6.095 Y-11.085
N7880 X-4.781 Y-11.719
N7885 X-3.404 Y-12.2
N7890 X-1.697 Y-12.589
N7895 G2 X0.191 Y-13.45 I-1.136 J-4.99
N7900 X2.08 Y-12.589 I3.024 J-4.129
N7905 G1 X3.786 Y-12.2
N7910 X5.164 Y-11.719
N7915 X6.477 Y-11.085
N7920 X7.956 Y-10.152
N7925 G2 X9.905 Y-9.422 I2.731 J-4.328
N7930 X10.634 Y-7.472 I5.058 J-0.782
N7935 G1 X11.567 Y-5.994
N7940 X12.201 Y-4.68
N7945 X12.683 Y-3.303
N7950 X13.071 Y-1.597
N7955 G2 X13.933 Y0.292 I4.991 J-1.136
N7960 X13.072 Y2.18 I4.129 J3.024
N7965 G1 X12.683 Y3.886
N7970 X12.202 Y5.264
N7975 X12.091 Y5.492
N7980 G2 X12.135 Y5.806 I0.257 J0.124
N7985 G3 X12.179 Y6.119 I-0.213 J0.189
N7990 G1 X11.875 Y6.748
N7995 X10.931 Y8.244
N8000 G2 X10.219 Y10.319 I4.032 J2.544
N8005 X8.142 Y11.032 I0.468 J4.744
N8010 G1 X6.647 Y11.976
N8015 X5.298 Y12.627
N8020 X3.883 Y13.122
N8025 X2.157 Y13.514
N8030 G2 X0.191 Y14.478 I1.058 J4.648
N8035 X-1.775 Y13.514 I-3.024 J3.685
N8040 G1 X-3.501 Y13.122
N8045 X-4.916 Y12.627
N8050 X-6.266 Y11.976
N8055 X-7.761 Y11.032
N8060 G2 X-9.837 Y10.319 I-2.544 J4.031
N8065 X-10.549 Y8.243 I-4.744 J0.468
N8070 G1 X-11.493 Y6.748
N8075 X-12.144 Y5.399
N8080 X-12.639 Y3.983
N8085 X-13.032 Y2.258
N8090 G2 X-13.995 Y0.291 I-4.648 J1.058
N8095 X-13.032 Y-1.675 I-3.685 J-3.024
N8100 G1 X-12.639 Y-3.4
N8105 X-12.144 Y-4.815
N8110 X-11.493 Y-6.165
N8115 X-10.55 Y-7.66
N8120 G2 X-9.837 Y-9.736 I-4.031 J-2.544
N8125 X-7.76 Y-10.449 I-0.468 J-4.744
N8130 G1 X-6.265 Y-11.392
N8135 X-4.916 Y-12.043
N8140 X-3.501 Y-12.538
N8145 X-1.775 Y-12.931
N8150 G2 X0.191 Y-13.894 I-1.058 J-4.648
N8155 X2.158 Y-12.931 I3.024 J-3.685
N8160 G1 X3.883 Y-12.538
N8165 X5.298 Y-12.043
N8170 X6.648 Y-11.392
N8175 X8.143 Y-10.448
N8180 G2 X10.219 Y-9.736 I2.544 J-4.032
N8185 X10.931 Y-7.66 I4.744 J-0.468
N8190 G1 X11.875 Y-6.164
N8195 X12.526 Y-4.815
N8200 X13.021 Y-3.4
N8205 X13.414 Y-1.674
N8210 G2 X14.377 Y0.292 I4.648 J-1.058
N8215 X13.414 Y2.258 I3.685 J3.024
N8220 G1 X13.021 Y3.984
N8225 X12.526 Y5.399
N8230 X12.179 Y6.119
N8235 G2 X12.222 Y6.426 I0.252 J0.122
N8240 G3 X12.264 Y6.733 I-0.209 J0.186
N8245 G1 X12.176 Y6.915
N8250 X11.222 Y8.428
N8255 G2 X10.542 Y10.643 I3.741 J2.36
N8260 X8.326 Y11.323 I0.144 J4.421
N8265 G1 X6.814 Y12.277
N8270 X5.43 Y12.945
N8275 X3.978 Y13.453
N8280 X2.233 Y13.85
N8285 G2 X0.191 Y14.935 I0.982 J4.313
N8290 X-1.852 Y13.85 I-3.024 J3.228
N8295 G1 X-3.596 Y13.453
N8300 X-5.048 Y12.945
N8305 X-6.433 Y12.277
N8310 X-7.944 Y11.323
N8315 G2 X-10.16 Y10.643 I-2.361 J3.74
N8320 X-10.84 Y8.427 I-4.421 J0.145
N8325 G1 X-11.794 Y6.915
N8330 X-12.462 Y5.531
N8335 X-12.97 Y4.079
N8340 X-13.367 Y2.334
N8345 G2 X-14.452 Y0.291 I-4.313 J0.982
N8350 X-13.368 Y-1.751 I-3.228 J-3.024
N8355 G1 X-12.97 Y-3.495
N8360 X-12.463 Y-4.947
N8365 X-11.795 Y-6.332
N8370 X-10.84 Y-7.844
N8375 G2 X-10.16 Y-10.059 I-3.741 J-2.36
N8380 X-7.944 Y-10.74 I-0.144 J-4.421
N8385 G1 X-6.432 Y-11.694
N8390 X-5.048 Y-12.362
N8395 X-3.596 Y-12.869
N8400 X-1.851 Y-13.266
N8405 G2 X0.191 Y-14.352 I-0.982 J-4.313
N8410 X2.234 Y-13.266 I3.024 J-3.228
N8415 G1 X3.978 Y-12.869
N8420 X5.43 Y-12.362
N8425 X6.815 Y-11.693
N8430 X8.327 Y-10.739
N8435 G2 X10.542 Y-10.059 I2.36 J-3.741
N8440 X11.222 Y-7.843 I4.421 J-0.145
N8445 G1 X12.176 Y-6.332
N8450 X12.844 Y-4.947
N8455 X13.352 Y-3.495
N8460 X13.749 Y-1.751
N8465 G2 X14.834 Y0.292 I4.313 J-0.981
N8470 X13.75 Y2.334 I3.228 J3.024
N8475 G1 X13.352 Y4.079
N8480 X12.845 Y5.531
N8485 X12.264 Y6.733
N8490 G2 X12.3 Y7.024 I0.243 J0.117
N8495 G3 X12.32 Y7.317 I-0.191 J0.16
N8500 G1 X11.506 Y8.606
N8505 G2 X10.88 Y10.98 I3.457 J2.181
N8510 X8.505 Y11.606 I-0.193 J4.083
N8515 G1 X6.977 Y12.571
N8520 X5.558 Y13.255
N8525 X4.071 Y13.776
N8530 X2.308 Y14.177
N8535 G2 X0.191 Y15.412 I0.907 J3.986
N8540 X-1.926 Y14.177 I-3.024 J2.751
N8545 G1 X-3.689 Y13.776
N8550 X-5.177 Y13.255
N8555 X-6.595 Y12.571
N8560 X-8.123 Y11.606
N8565 G2 X-10.497 Y10.98 I-2.182 J3.457
N8570 X-11.124 Y8.606 I-4.083 J-0.193
N8575 G1 X-12.088 Y7.078
N8580 X-12.773 Y5.659
N8585 X-13.293 Y4.172
N8590 X-13.694 Y2.408
N8595 G2 X-14.93 Y0.291 I-3.986 J0.907
N8600 X-13.694 Y-1.825 I-2.751 J-3.024
N8605 G1 X-13.293 Y-3.588
N8610 X-12.773 Y-5.076
N8615 X-12.088 Y-6.495
N8620 X-11.124 Y-8.023
N8625 G2 X-10.498 Y-10.397 I-3.457 J-2.182
N8630 X-8.123 Y-11.023 I0.193 J-4.083
N8635 G1 X-6.595 Y-11.987
N8640 X-5.177 Y-12.672
N8645 X-3.689 Y-13.192
N8650 X-1.926 Y-13.593
N8655 G2 X0.191 Y-14.829 I-0.907 J-3.986
N8660 X2.308 Y-13.593 I3.024 J-2.75
N8665 G1 X4.071 Y-13.192
N8670 X5.559 Y-12.672
N8675 X6.978 Y-11.987
N8680 X8.506 Y-11.023
N8685 G2 X10.879 Y-10.397 I2.181 J-3.457
N8690 X11.506 Y-8.022 I4.083 J0.193
N8695 G1 X12.47 Y-6.494
N8700 X13.155 Y-5.076
N8705 X13.675 Y-3.588
N8710 X14.076 Y-1.825
N8715 G2 X15.312 Y0.292 I3.986 J-0.907
N8720 X14.076 Y2.409 I2.751 J3.024
N8725 G1 X13.675 Y4.172
N8730 X13.155 Y5.659
N8735 X12.47 Y7.078
N8740 X12.32 Y7.317
N8745 G2 X12.327 Y7.608 I0.222 J0.14
N8750 G3 X12.334 Y7.9 I-0.215 J0.151
N8755 G1 X11.78 Y8.779
N8760 G2 X11.239 Y11.34 I3.183 J2.009
N8765 X8.678 Y11.88 I-0.553 J3.723
N8770 G1 X7.134 Y12.854
N8775 X5.683 Y13.555
N8780 X4.16 Y14.087
N8785 X2.379 Y14.492
N8790 G2 X0.191 Y15.921 I0.835 J3.67
N8795 X-1.998 Y14.492 I-3.024 J2.242
N8800 G1 X-3.779 Y14.087
N8805 X-5.301 Y13.555
N8810 X-6.753 Y12.854
N8815 X-8.296 Y11.88
N8820 G2 X-10.857 Y11.34 I-2.009 J3.183
N8825 X-11.397 Y8.778 I-3.723 J-0.552
N8830 G1 X-12.372 Y7.235
N8835 X-13.072 Y5.783
N8840 X-13.604 Y4.261
N8845 X-14.01 Y2.48
N8850 G2 X-15.439 Y0.291 I-3.67 J0.835
N8855 X-14.01 Y-1.897 I-2.242 J-3.024
N8860 G1 X-13.605 Y-3.678
N8865 X-13.072 Y-5.2
N8870 X-12.372 Y-6.652
N8875 X-11.398 Y-8.195
N8880 G2 X-10.857 Y-10.756 I-3.183 J-2.009
N8885 X-8.296 Y-11.297 I0.553 J-3.723
N8890 G1 X-6.752 Y-12.271
N8895 X-5.301 Y-12.971
N8900 X-3.778 Y-13.503
N8905 X-1.998 Y-13.909
N8910 G2 X0.191 Y-15.338 I-0.835 J-3.67
N8915 X2.38 Y-13.909 I3.024 J-2.241
N8920 G1 X4.161 Y-13.504
N8925 X5.683 Y-12.971
N8930 X7.135 Y-12.271
N8935 X8.679 Y-11.297
N8940 G2 X11.239 Y-10.756 I2.009 J-3.183
N8945 X11.779 Y-8.195 I3.723 J0.553
N8950 G1 X12.753 Y-6.652
N8955 X13.454 Y-5.2
N8960 X13.986 Y-3.678
N8965 X14.391 Y-1.897
N8970 G2 X15.82 Y0.292 I3.67 J-0.835
N8975 X14.392 Y2.481 I2.242 J3.024
N8980 G1 X13.987 Y4.261
N8985 X13.454 Y5.783
N8990 X12.754 Y7.235
N8995 X12.334 Y7.9
N9000 G2 X12.341 Y8.177 I0.211 J0.133
N9005 G3 X12.348 Y8.454 I-0.205 J0.144
N9010 G1 X12.04 Y8.943
N9015 G2 X11.641 Y11.741 I2.923 J1.845
N9020 X8.842 Y12.14 I-0.954 J3.322
N9025 G1 X7.284 Y13.124
N9030 X5.801 Y13.839
N9035 X4.246 Y14.383
N9040 X2.448 Y14.792
N9045 G2 X0.191 Y16.489 I0.767 J3.37
N9050 X-2.066 Y14.792 I-3.024 J1.674
N9055 G1 X-3.864 Y14.383
N9060 X-5.419 Y13.839
N9065 X-6.902 Y13.124
N9070 X-8.46 Y12.14
N9075 G2 X-11.258 Y11.741 I-1.845 J2.923
N9080 X-11.658 Y8.943 I-3.322 J-0.954
N9085 G1 X-12.641 Y7.384
N9090 X-13.357 Y5.901
N9095 X-13.901 Y4.346
N9100 X-14.31 Y2.549
N9105 G2 X-16.006 Y0.291 I-3.37 J0.767
N9110 X-14.31 Y-1.965 I-1.674 J-3.024
N9115 G1 X-13.901 Y-3.763
N9120 X-13.357 Y-5.318
N9125 X-12.641 Y-6.801
N9130 X-11.658 Y-8.36
N9135 G2 X-11.259 Y-11.158 I-2.923 J-1.845
N9140 X-8.46 Y-11.557 I0.954 J-3.322
N9145 G1 X-6.902 Y-12.54
N9150 X-5.419 Y-13.256
N9155 X-3.864 Y-13.8
N9160 X-2.066 Y-14.209
N9165 G2 X0.191 Y-15.905 I-0.767 J-3.37
N9170 X2.448 Y-14.209 I3.024 J-1.674
N9175 G1 X4.246 Y-13.8
N9180 X5.801 Y-13.256
N9185 X7.284 Y-12.54
N9190 X8.843 Y-11.557
N9195 G2 X11.64 Y-11.157 I1.845 J-2.923
N9200 X12.04 Y-8.359 I3.322 J0.954
N9205 G1 X13.023 Y-6.801
N9210 X13.739 Y-5.318
N9215 X14.283 Y-3.763
N9220 X14.692 Y-1.965
N9225 G2 X16.388 Y0.292 I3.37 J-0.767
N9230 X14.692 Y2.549 I1.674 J3.024
N9235 G1 X14.283 Y4.347
N9240 X13.739 Y5.901
N9245 X13.023 Y7.385
N9250 X12.348 Y8.454
N9255 G2 X12.355 Y8.711 I0.196 J0.124
N9260 G3 X12.361 Y8.968 I-0.189 J0.133
N9265 G1 X12.281 Y9.095
N9270 G2 X12.148 Y12.249 I2.682 J1.692
N9275 X8.994 Y12.381 I-1.462 J2.815
N9280 G1 X7.422 Y13.374
N9285 X5.91 Y14.103
N9290 X4.324 Y14.658
N9295 X2.511 Y15.07
N9300 G2 X0.191 Y17.207 I0.704 J3.092
N9305 X-2.129 Y15.07 I-3.024 J0.956
N9310 G1 X-3.943 Y14.658
N9315 X-5.528 Y14.103
N9320 X-7.041 Y13.373
N9325 X-8.612 Y12.381
N9330 G2 X-11.766 Y12.249 I-1.693 J2.682
N9335 X-11.899 Y9.095 I-2.815 J-1.461
N9340 G1 X-12.891 Y7.523
N9345 X-13.621 Y6.011
N9350 X-14.175 Y4.425
N9355 X-14.588 Y2.612
N9360 G2 X-16.725 Y0.292 I-3.092 J0.704
N9365 X-14.588 Y-2.029 I-0.956 J-3.024
N9370 G1 X-14.175 Y-3.842
N9375 X-13.621 Y-5.427
N9380 X-12.891 Y-6.94
N9385 X-11.899 Y-8.512
N9390 G2 X-11.766 Y-11.665 I-2.682 J-1.692
N9395 X-8.612 Y-11.798 I1.462 J-2.815
N9400 G1 X-7.04 Y-12.79
N9405 X-5.528 Y-13.52
N9410 X-3.943 Y-14.074
N9415 X-2.129 Y-14.487
N9420 G2 X0.191 Y-16.624 I-0.704 J-3.092
N9425 X2.512 Y-14.487 I3.024 J-0.955
N9430 G1 X4.325 Y-14.074
N9435 X5.91 Y-13.52
N9440 X7.423 Y-12.79
N9445 X8.995 Y-11.798
N9450 G2 X12.148 Y-11.665 I1.692 J-2.682
N9455 X12.281 Y-8.511 I2.815 J1.461
N9460 G1 X13.273 Y-6.94
N9465 X14.003 Y-5.427
N9470 X14.557 Y-3.842
N9475 X14.97 Y-2.028
N9480 G2 X17.107 Y0.292 I3.092 J-0.704
N9485 X14.97 Y2.612 I0.956 J3.024
N9490 G1 X14.557 Y4.425
N9495 X14.003 Y6.011
N9500 X13.273 Y7.523
N9505 X12.361 Y8.968
N9510 Z1.
N9515 X11.44 Y11.541
N9520 Z-3.175
N9525 X20.187 Y20.288
N9530 X20.899
N9535 G2 X20.79 Y20.89 I4.735 J1.17
N9540 X20.187 Y20.999 I0.568 J4.844
N9545 G1 Y20.288
N9550 X20.18 Y20.231
N9555 X20.158 Y20.177
N9560 X20.122 Y20.131
N9565 X20.102 Y20.102
N9570 X20.095 Y20.066
N9575 X20.102 Y20.031
N9580 X20.122 Y20.001
N9585 X20.152 Y19.981
N9590 X20.187 Y19.974
N9595 X21.318
N9600 G2 X21.079 Y21.179 I4.315 J1.484
N9605 X19.873 Y21.419 I0.279 J4.555
N9610 G1 Y19.974
N9615 X20.187
N9620 G2 X20.417 Y19.821 I0. J-0.249
N9625 G3 X20.647 Y19.668 I0.23 J0.096
N9630 G1 X21.772
N9635 G2 X21.377 Y21.477 I3.862 J1.791
N9640 X19.567 Y21.873 I-0.019 J4.257
N9645 G1 Y19.687
N9650 Y19.668
N9655 X19.586
N9660 X20.647
N9665 G2 X20.871 Y19.519 I0. J-0.242
N9670 G3 X21.095 Y19.369 I0.224 J0.093
N9675 G1 X22.272
N9680 G2 X21.689 Y21.79 I3.362 J2.089
N9685 X19.268 Y22.372 I-0.331 J3.944
N9690 G1 Y19.687
N9695 G2 X19.254 Y19.355 I-3.958 J0.
N9700 X19.586 Y19.369 I0.332 J-3.944
N9705 G1 X21.095
N9710 G2 X21.31 Y19.226 I0. J-0.233
N9715 G3 X21.526 Y19.082 I0.215 J0.09
N9720 G1 X22.835
N9725 G2 X22.023 Y22.124 I2.798 J2.376
N9730 X18.981 Y22.936 I-0.666 J3.61
N9735 G1 Y19.687
N9740 G2 X18.92 Y19.021 I-3.671 J0.
N9745 X19.586 Y19.082 I0.666 J-3.61
N9750 G1 X21.526
N9755 X21.577 Y19.076
N9760 X21.626 Y19.058
N9765 X21.669 Y19.029
N9770 X21.705 Y18.991
N9775 X21.73 Y18.946
N9780 X21.756 Y18.9
N9785 X21.791 Y18.862
N9790 X21.834 Y18.834
N9795 X21.883 Y18.816
N9800 X21.935 Y18.809
N9805 X23.505
N9810 G2 X22.398 Y22.499 I2.129 J2.649
N9815 X18.708 Y23.606 I-1.041 J3.235
N9820 G1 Y19.687
N9825 G2 X18.545 Y18.646 I-3.398 J0.
N9830 X19.586 Y18.809 I1.041 J-3.235
N9835 G1 X21.935
N9840 X21.983 Y18.804
N9845 X22.028 Y18.787
N9850 X22.068 Y18.76
N9855 X22.101 Y18.725
N9860 X22.125 Y18.683
N9865 X22.148 Y18.641
N9870 X22.181 Y18.605
N9875 X22.221 Y18.579
N9880 X22.267 Y18.562
N9885 X22.315 Y18.556
N9890 X24.422
N9895 G2 X22.883 Y22.983 I1.212 J2.902
N9900 X18.455 Y24.522 I-1.525 J2.751
N9905 G1 Y19.687
N9910 G2 X18.061 Y18.161 I-3.145 J0.
N9915 X19.586 Y18.556 I1.526 J-2.75
N9920 G1 X22.315
N9925 Z1.
N9930 X22.174 Y22.276
N9935 Z-3.175
N9940 X30.237 Y30.338
N9945 G2 X30.622 I0.193 J-4.083
N9950 Y30.723 I4.083 J0.192
N9955 X30.237 I-0.193 J4.083
N9960 Y30.338 I-4.083 J-0.192
N9965 G1 X30.23 Y30.293
N9970 X30.214 Y30.25
N9975 X30.19 Y30.211
N9980 X30.159 Y30.178
N9985 X30.136 Y30.147
N9990 X30.127 Y30.11
N9995 X30.134 Y30.072
N10000 X30.155 Y30.04
N10005 X30.188 Y30.019
N10010 X30.226 Y30.014
N10015 G2 X30.981 Y29.978 I0.204 J-3.759
N10020 X30.982 Y31.083 I3.724 J0.552
N10025 X29.877 I-0.553 J3.724
N10030 Y29.978 I-3.724 J-0.552
N10035 X30.226 Y30.014 I0.553 J-3.724
N10040 X30.47 Y29.865 I0.014 J-0.252
N10045 G3 X30.704 Y29.7 I0.256 J0.115
N10050 G2 X31.383 Y29.577 I-0.274 J-3.446
N10055 Y31.484 I3.323 J0.953
N10060 X29.476 I-0.954 J3.322
N10065 Y29.577 I-3.323 J-0.953
N10070 X30.704 Y29.7 I0.954 J-3.322
N10075 X30.91 Y29.534 I-0.019 J-0.234
N10080 G3 X31.104 Y29.354 I0.25 J0.074
N10085 G2 X31.89 Y29.07 I-0.675 J-3.099
N10090 X31.891 Y31.992 I2.815 J1.461
N10095 X28.968 Y31.991 I-1.462 J2.814
N10100 Y29.069 I-2.815 J-1.46
N10105 X31.104 Y29.354 I1.462 J-2.814
N10110 G1 Z1.
N10115 X31.184 Y31.285
N10120 Z-3.175
N10125 X38.39 Y38.491
N10130 X38.712
N10135 X39.094 Y38.49
N10140 G2 X38.987 Y39.085 I4.737 J1.163
N10145 X38.389 Y39.193 I0.565 J4.845
N10150 G1 X38.39 Y38.491
N10155 X38.382 Y38.434
N10160 X38.361 Y38.38
N10165 X38.326 Y38.334
N10170 X38.306 Y38.304
N10175 X38.299 Y38.269
N10180 X38.306 Y38.234
N10185 X38.326 Y38.204
N10190 X38.356 Y38.184
N10195 X38.391 Y38.177
N10200 X39.513 Y38.176
N10205 G2 X39.276 Y39.374 I4.318 J1.478
N10210 X38.074 Y39.612 I0.276 J4.555
N10215 G1 X38.076 Y38.178
N10220 X38.391 Y38.177
N10225 G2 X38.621 Y38.024 I0. J-0.249
N10230 G3 X38.851 Y37.87 I0.23 J0.096
N10235 G1 X39.967 Y37.868
N10240 G2 X39.574 Y39.673 I3.864 J1.785
N10245 X37.767 Y40.065 I-0.022 J4.257
N10250 G1 X37.77 Y37.897
N10255 Y37.871
N10260 X37.796 Y37.872
N10265 X38.851 Y37.87
N10270 G2 X39.074 Y37.721 I0. J-0.242
N10275 G3 X39.298 Y37.571 I0.224 J0.093
N10280 G1 X40.466 Y37.569
N10285 G2 X39.886 Y39.985 I3.365 J2.084
N10290 X37.468 Y40.564 I-0.334 J3.944
N10295 G1 X37.472 Y37.897
N10300 G2 X37.458 Y37.559 I-3.958 J-0.006
N10305 X37.795 Y37.573 I0.332 J-3.945
N10310 G1 X39.298 Y37.571
N10315 G2 X39.513 Y37.427 I0. J-0.233
N10320 G3 X39.728 Y37.283 I0.215 J0.089
N10325 G1 X41.029 Y37.281
N10330 G2 X40.221 Y40.32 I2.802 J2.372
N10335 X37.18 Y41.127 I-0.669 J3.61
N10340 G1 X37.185 Y37.896
N10345 G2 X37.124 Y37.225 I-3.671 J-0.005
N10350 X37.795 Y37.286 I0.666 J-3.61
N10355 G1 X39.728 Y37.283
N10360 X39.78 Y37.277
N10365 X39.829 Y37.259
N10370 X39.872 Y37.23
N10375 X39.907 Y37.192
N10380 X39.933 Y37.147
N10385 X39.958 Y37.101
N10390 X39.993 Y37.063
N10395 X40.037 Y37.034
N10400 X40.085 Y37.016
N10405 X40.137 Y37.01
N10410 X41.698 Y37.008
N10415 G2 X40.596 Y40.695 I2.133 J2.646
N10420 X36.906 Y41.797 I-1.044 J3.234
N10425 G1 X36.912 Y37.896
N10430 G2 X36.748 Y36.85 I-3.399 J-0.005
N10435 X37.794 Y37.013 I1.041 J-3.235
N10440 G1 X40.137 Y37.01
N10445 X40.185 Y37.004
N10450 X40.23 Y36.987
N10455 X40.27 Y36.961
N10460 X40.303 Y36.925
N10465 X40.327 Y36.883
N10470 X40.35 Y36.841
N10475 X40.383 Y36.805
N10480 X40.423 Y36.779
N10485 X40.469 Y36.762
N10490 X40.517 Y36.756
N10495 X42.614 Y36.753
N10500 G2 X41.082 Y41.181 I1.217 J2.9
N10505 X36.652 Y42.713 I-1.53 J2.748
N10510 G1 X36.658 Y37.896
N10515 G2 X36.263 Y36.365 I-3.145 J-0.005
N10520 X37.794 Y36.76 I1.526 J-2.75
N10525 G1 X40.517 Y36.756
N10530 Z1.
N10535 X40.37 Y40.472
N10540 Z-3.175
N10545 X50.426 Y50.527
N10550 X50.752
N10555 X51.137
N10560 G2 X51.027 Y51.129 I4.735 J1.17
N10565 X50.426 Y51.238 I0.569 J4.844
N10570 G1 Y50.527
N10575 X50.418 Y50.469
N10580 X50.396 Y50.416
N10585 X50.361 Y50.37
N10590 X50.341 Y50.34
N10595 X50.334 Y50.305
N10600 X50.341 Y50.27
N10605 X50.361 Y50.24
N10610 X50.39 Y50.22
N10615 X50.426 Y50.213
N10620 X51.556
N10625 G2 X51.317 Y51.418 I4.315 J1.484
N10630 X50.112 Y51.658 I0.279 J4.555
N10635 G1 Y50.213
N10640 X50.426
N10645 G2 X50.656 Y50.06 I0. J-0.249
N10650 G3 X50.886 Y49.906 I0.23 J0.096
N10655 G1 X52.01
N10660 G2 X51.615 Y51.716 I3.862 J1.791
N10665 X49.805 Y52.111 I-0.019 J4.257
N10670 G1 Y49.926
N10675 Y49.906
N10680 X49.824
N10685 X50.886
N10690 G2 X51.109 Y49.757 I0. J-0.242
N10695 G3 X51.333 Y49.608 I0.224 J0.093
N10700 G1 X52.509
N10705 G2 X51.927 Y52.028 I3.362 J2.089
N10710 X49.507 Y52.611 I-0.331 J3.944
N10715 G1 Y49.926
N10720 G2 X49.493 Y49.594 I-3.958 J0.
N10725 X49.824 Y49.608 I0.332 J-3.944
N10730 G1 X51.333
N10735 G2 X51.548 Y49.464 I0. J-0.233
N10740 G3 X51.764 Y49.321 I0.215 J0.09
N10745 G1 X53.073
N10750 G2 X52.261 Y52.363 I2.798 J2.376
N10755 X49.219 Y53.175 I-0.665 J3.61
N10760 G1 Y49.926
N10765 G2 X49.159 Y49.26 I-3.671 J0.
N10770 X49.824 Y49.321 I0.666 J-3.61
N10775 G1 X51.764
N10780 X51.815 Y49.315
N10785 X51.864 Y49.297
N10790 X51.908 Y49.268
N10795 X51.943 Y49.23
N10800 X51.968 Y49.184
N10805 X51.994 Y49.139
N10810 X52.029 Y49.101
N10815 X52.073 Y49.072
N10820 X52.121 Y49.054
N10825 X52.173 Y49.048
N10830 X53.743
N10835 G2 X52.636 Y52.738 I2.129 J2.649
N10840 X48.947 Y53.844 I-1.04 J3.235
N10845 G1 Y49.926
N10850 G2 X48.783 Y48.885 I-3.398 J0.
N10855 X49.824 Y49.048 I1.041 J-3.235
N10860 G1 X52.173
N10865 X52.221 Y49.042
N10870 X52.266 Y49.026
N10875 X52.306 Y48.999
N10880 X52.339 Y48.964
N10885 X52.363 Y48.921
N10890 X52.387 Y48.879
N10895 X52.419 Y48.844
N10900 X52.46 Y48.817
N10905 X52.505 Y48.801
N10910 X52.553 Y48.795
N10915 X54.66
N10920 G2 X53.121 Y53.222 I1.212 J2.902
N10925 X48.693 Y54.761 I-1.525 J2.751
N10930 G1 Y49.926
N10935 G2 X48.299 Y48.4 I-3.145 J0.
N10940 X49.824 Y48.795 I1.525 J-2.751
N10945 G1 X52.553
N10950 Z5.
N10955 X54.914 Y0.108
N10960 Z2.5 F666.67
N10965 Z-3.175
N10970 X55.053 Y0.292 F2000.
N10975 G2 X54.709 Y0.788 I3.828 J3.023
N10980 G1 X54.214 Y0.292
N10985 X54.431 Y0.074
N10990 X54.708 Y-0.204
N10995 G2 X54.914 Y0.108 I4.172 J-2.528
N11000 X55.188 Y0.185 I0.185 J-0.132
N11005 G3 X55.359 Y0.413 I0.057 J0.135
N11010 G2 X54.782 Y1.307 I3.522 J2.903
N11015 G1 X53.77 Y0.292
N11020 X54.782 Y-0.723
N11025 G2 X55.462 Y0.292 I4.098 J-2.009
N11030 G1 X55.359 Y0.413
N11035 G2 X55.333 Y0.695 I0.194 J0.16
N11040 G3 X55.322 Y0.978 I-0.239 J0.133
N11045 G2 X54.885 Y1.845 I3.558 J2.337
N11050 G1 X53.356 Y0.31
N11055 X53.337 Y0.292
N11060 X53.355 Y0.274
N11065 X54.885 Y-1.261
N11070 G2 X55.884 Y0.292 I3.995 J-1.471
N11075 X55.322 Y0.978 I2.997 J3.023
N11080 X55.327 Y1.254 I0.205 J0.134
N11085 G3 X55.348 Y1.529 I-0.218 J0.154
N11090 G2 X55.027 Y2.409 I3.533 J1.786
N11095 G1 X53.144 Y0.521
N11100 G2 X52.895 Y0.292 I-2.803 J2.795
N11105 X53.144 Y0.063 I-2.555 J-3.024
N11110 G1 X55.026 Y-1.825
N11115 G2 X56.325 Y0.292 I3.853 J-0.907
N11120 X55.348 Y1.529 I2.555 J3.024
N11125 X55.382 Y1.793 I0.21 J0.106
N11130 G3 X55.432 Y2.054 I-0.192 J0.172
N11135 G2 X55.221 Y3.011 I3.448 J1.262
N11140 G1 X52.941 Y0.724
N11145 G2 X52.423 Y0.292 I-2.6 J2.592
N11150 X52.941 Y-0.14 I-2.082 J-3.024
N11155 G1 X55.221 Y-2.427
N11160 G2 X56.798 Y0.292 I3.659 J-0.305
N11165 X55.432 Y2.054 I2.083 J3.024
N11170 X55.495 Y2.299 I0.21 J0.077
N11175 G3 X55.571 Y2.539 I-0.163 J0.185
N11180 G2 X55.501 Y3.678 I3.309 J0.776
N11185 G1 X52.748 Y0.916
N11190 G2 X51.892 Y0.292 I-2.407 J2.4
N11195 X52.747 Y-0.333 I-1.551 J-3.024
N11200 G1 X55.501 Y-3.094
N11205 G2 X57.328 Y0.292 I3.379 J0.362
N11210 X55.571 Y2.539 I1.552 J3.024
N11215 G1 X55.566 Y2.589
N11220 X55.572 Y2.638
N11225 X55.59 Y2.684
N11230 X55.619 Y2.725
N11235 X55.656 Y2.758
N11240 X55.693 Y2.79
N11245 X55.723 Y2.829
N11250 X55.743 Y2.874
N11255 X55.754 Y2.922
N11260 Y2.971
N11265 G2 X55.969 Y4.505 I3.126 J0.344
N11270 G1 X52.568 Y1.095
N11275 G2 X51.206 Y0.292 I-2.227 J2.221
N11280 X52.568 Y-0.511 I-0.865 J-3.024
N11285 G1 X55.968 Y-3.921
N11290 G2 X58.014 Y0.292 I2.912 J1.19
N11295 X55.754 Y2.971 I0.866 J3.024
N11300 G1 Z1.
N11305 X52.206 Y0.292
N11310 Z-3.175
N11315 X42.798
N11320 G2 X42.525 Y0.565 I2.751 J3.024
N11325 X42.251 Y0.292 I-3.024 J2.751
N11330 X42.524 Y0.019 I-2.751 J-3.024
N11335 X42.798 Y0.292 I3.024 J-2.751
N11340 G1 X42.834 Y0.319
N11345 X42.876 Y0.338
N11350 X42.92 Y0.349
N11355 X42.966 Y0.35
N11360 X43.004 Y0.356
N11365 X43.037 Y0.376
N11370 X43.059 Y0.407
N11375 X43.066 Y0.445
N11380 X43.058 Y0.483
N11385 X43.035 Y0.514
N11390 G2 X42.525 Y1.074 I2.514 J2.802
N11395 X41.742 Y0.292 I-3.024 J2.242
N11400 X42.524 Y-0.49 I-2.242 J-3.024
N11405 X43.307 Y0.292 I3.024 J-2.242
N11410 X43.035 Y0.514 I2.242 J3.024
N11415 X42.967 Y0.792 I0.169 J0.188
N11420 G3 X42.918 Y1.073 I-0.263 J0.099
N11425 G2 X42.525 Y1.641 I2.63 J2.243
N11430 X41.175 Y0.292 I-3.024 J1.675
N11435 X42.524 Y-1.058 I-1.674 J-3.024
N11440 X43.874 Y0.292 I3.024 J-1.674
N11445 X42.918 Y1.073 I1.674 J3.024
N11450 X42.89 Y1.337 I0.178 J0.152
N11455 G3 X42.88 Y1.601 I-0.229 J0.124
N11460 G2 X42.525 Y2.36 I2.668 J1.715
N11465 X40.456 Y0.292 I-3.024 J0.956
N11470 X42.524 Y-1.776 I-0.956 J-3.024
N11475 X44.593 Y0.292 I3.024 J-0.956
N11480 X42.88 Y1.601 I0.956 J3.024
N11485 G1 Z1.
N11490 X41.457 Y0.292
N11495 Z-3.175
N11500 X27.497
N11505 X27.485 Y0.31
N11510 X27.479 Y0.305
N11515 X27.466 Y0.292
N11520 X27.484 Y0.274
N11525 X27.497 Y0.292
N11530 X27.528 Y0.324
N11535 X27.567 Y0.345
N11540 X27.611 Y0.355
N11545 X27.655 Y0.351
N11550 X27.691 Y0.349
N11555 X27.725 Y0.362
N11560 X27.751 Y0.387
N11565 X27.765 Y0.421
N11570 X27.764 Y0.457
N11575 X27.75 Y0.49
N11580 G2 X27.538 Y0.814 I3.974 J2.826
N11585 G1 X27.012 Y0.292
N11590 X27.538 Y-0.23
N11595 G2 X27.898 Y0.292 I4.186 J-2.502
N11600 G1 X27.75 Y0.49
N11605 G2 X27.744 Y0.779 I0.21 J0.149
N11610 G3 X27.753 Y1.069 I-0.234 J0.152
N11615 G2 X27.615 Y1.332 I3.971 J2.247
N11620 G1 X26.566 Y0.292
N11625 X27.614 Y-0.748
N11630 G2 X28.307 Y0.292 I4.109 J-1.984
N11635 X27.753 Y1.069 I3.417 J3.024
N11640 X27.776 Y1.351 I0.219 J0.124
N11645 G3 X27.815 Y1.631 I-0.212 J0.172
N11650 G2 X27.721 Y1.87 I3.909 J1.684
N11655 G1 X26.134 Y0.295
N11660 X27.721 Y-1.286
N11665 G2 X28.729 Y0.292 I4.003 J-1.446
N11670 X27.815 Y1.631 I2.995 J3.024
N11675 X27.868 Y1.902 I0.225 J0.097
N11680 G3 X27.936 Y2.17 I-0.188 J0.19
N11685 G2 X27.866 Y2.433 I3.788 J1.146
N11690 G1 X25.924 Y0.507
N11695 G2 X25.69 Y0.292 I-2.788 J2.809
N11700 X25.924 Y0.077 I-2.554 J-3.024
N11705 G1 X27.865 Y-1.85
N11710 G2 X29.17 Y0.292 I3.858 J-0.883
N11715 X27.936 Y2.17 I2.554 J3.024
N11720 X28.015 Y2.423 I0.225 J0.068
N11725 G3 X28.11 Y2.671 I-0.16 J0.203
N11730 G2 X28.064 Y3.034 I3.614 J0.645
N11735 G1 X25.722 Y0.71
N11740 G2 X25.217 Y0.292 I-2.586 J2.605
N11745 X25.722 Y-0.127 I-2.081 J-3.024
N11750 G1 X28.063 Y-2.451
N11755 G2 X29.643 Y0.292 I3.66 J-0.281
N11760 X28.11 Y2.671 I2.081 J3.024
N11765 X28.214 Y2.901 I0.22 J0.039
N11770 G3 X28.331 Y3.125 I-0.128 J0.21
N11775 G2 X28.347 Y3.7 I3.393 J0.191
N11780 G1 X25.53 Y0.904
N11785 G2 X24.686 Y0.292 I-2.394 J2.412
N11790 X25.53 Y-0.32 I-1.55 J-3.024
N11795 G1 X28.347 Y-3.116
N11800 G2 X30.174 Y0.292 I3.376 J0.384
N11805 X28.331 Y3.125 I1.55 J3.024
N11810 G1 X28.334 Y3.175
N11815 X28.349 Y3.222
N11820 X28.375 Y3.265
N11825 X28.41 Y3.3
N11830 X28.452 Y3.326
N11835 X28.494 Y3.351
N11840 X28.53 Y3.384
N11845 X28.558 Y3.425
N11850 X28.577 Y3.47
N11855 X28.585 Y3.519
N11860 G2 X28.821 Y4.527 I3.138 J-0.203
N11865 G1 X25.352 Y1.084
N11870 G2 X24. Y0.292 I-2.215 J2.232
N11875 X25.351 Y-0.5 I-0.864 J-3.024
N11880 G1 X28.821 Y-3.943
N11885 G2 X30.86 Y0.292 I2.903 J1.211
N11890 X28.585 Y3.519 I0.864 J3.024
N11895 G1 Z5.
N11900 X11.441 Y-10.957
N11905 Z1. F666.67
N11910 Z-3.175 F2000.
N11915 X20.188 Y-19.705
N11920 Y-20.02
N11925 Y-20.416
N11930 G2 X20.789 Y-20.307 I1.17 J-4.735
N11935 X20.898 Y-19.705 I4.844 J-0.568
N11940 G1 X20.502
N11945 X20.188
N11950 X20.131 Y-19.697
N11955 X20.077 Y-19.675
N11960 X20.031 Y-19.64
N11965 X20.001 Y-19.62
N11970 X19.966 Y-19.613
N11975 X19.931 Y-19.62
N11980 X19.901 Y-19.64
N11985 X19.881 Y-19.669
N11990 X19.874 Y-19.705
N11995 Y-20.835
N12000 G2 X21.078 Y-20.596 I1.484 J-4.315
N12005 X21.318 Y-19.391 I4.555 J-0.279
N12010 G1 X19.874
N12015 Y-19.705
N12020 G2 X19.721 Y-19.935 I-0.249 J0.
N12025 G3 X19.567 Y-20.165 I0.096 J-0.23
N12030 G1 Y-21.289
N12035 G2 X21.377 Y-20.894 I1.791 J-3.862
N12040 X21.772 Y-19.084 I4.257 J0.019
N12045 G1 X19.586
N12050 X19.567
N12055 Y-19.103
N12060 Y-20.165
N12065 G2 X19.418 Y-20.388 I-0.242 J0.
N12070 G3 X19.269 Y-20.612 I0.093 J-0.224
N12075 G1 Y-21.789
N12080 G2 X21.689 Y-21.206 I2.089 J-3.362
N12085 X22.271 Y-18.786 I3.945 J0.331
N12090 G1 X19.586
N12095 G2 X19.255 Y-18.772 I0. J3.958
N12100 X19.269 Y-19.103 I-3.944 J-0.331
N12105 G1 Y-20.612
N12110 G2 X19.125 Y-20.827 I-0.233 J0.
N12115 G3 X18.982 Y-21.043 I0.09 J-0.215
N12120 G1 Y-22.352
N12125 G2 X22.023 Y-21.54 I2.376 J-2.798
N12130 X22.835 Y-18.498 I3.61 J0.665
N12135 G1 X19.586
N12140 G2 X18.921 Y-18.438 I0. J3.671
N12145 X18.982 Y-19.103 I-3.61 J-0.665
N12150 G1 Y-21.043
N12155 X18.976 Y-21.094
N12160 X18.958 Y-21.143
N12165 X18.929 Y-21.187
N12170 X18.891 Y-21.222
N12175 X18.845 Y-21.247
N12180 X18.8 Y-21.273
N12185 X18.762 Y-21.308
N12190 X18.733 Y-21.352
N12195 X18.715 Y-21.4
N12200 X18.709 Y-21.452
N12205 Y-23.022
N12210 G2 X22.398 Y-21.915 I2.649 J-2.129
N12215 X23.505 Y-18.226 I3.235 J1.04
N12220 G1 X19.586
N12225 G2 X18.546 Y-18.063 I0. J3.398
N12230 X18.709 Y-19.103 I-3.235 J-1.041
N12235 G1 Y-21.452
N12240 X18.703 Y-21.5
N12245 X18.687 Y-21.545
N12250 X18.66 Y-21.585
N12255 X18.625 Y-21.618
N12260 X18.582 Y-21.642
N12265 X18.54 Y-21.666
N12270 X18.505 Y-21.698
N12275 X18.478 Y-21.739
N12280 X18.462 Y-21.784
N12285 X18.456 Y-21.832
N12290 Y-23.939
N12295 G2 X22.882 Y-22.399 I2.902 J-1.212
N12300 X24.422 Y-17.972 I2.751 J1.524
N12305 G1 X19.586
N12310 G2 X18.061 Y-17.578 I0. J3.145
N12315 X18.456 Y-19.103 I-2.751 J-1.525
N12320 G1 Y-21.832
N12325 Z1.
N12330 X22.174 Y-21.691
N12335 Z-3.175
N12340 X30.238 Y-29.754
N12345 G2 Y-30.139 I-4.083 J-0.193
N12350 X30.623 I0.192 J-4.083
N12355 Y-29.754 I4.083 J0.193
N12360 X30.238 I-0.192 J4.083
N12365 G1 X30.193 Y-29.747
N12370 X30.15 Y-29.731
N12375 X30.111 Y-29.707
N12380 X30.078 Y-29.676
N12385 X30.047 Y-29.653
N12390 X30.01 Y-29.644
N12395 X29.972 Y-29.651
N12400 X29.94 Y-29.672
N12405 X29.919 Y-29.705
N12410 X29.913 Y-29.743
N12415 G2 X29.878 Y-30.498 I-3.759 J-0.204
N12420 X30.983 Y-30.499 I0.552 J-3.724
N12425 X30.982 Y-29.394 I3.724 J0.553
N12430 X29.878 I-0.552 J3.724
N12435 X29.913 Y-29.743 I-3.724 J-0.553
N12440 X29.764 Y-29.987 I-0.252 J-0.014
N12445 G3 X29.6 Y-30.221 I0.115 J-0.256
N12450 G2 X29.477 Y-30.9 I-3.446 J0.274
N12455 X31.384 I0.953 J-3.323
N12460 Y-28.993 I3.322 J0.954
N12465 X29.477 I-0.953 J3.323
N12470 X29.6 Y-30.221 I-3.322 J-0.954
N12475 X29.433 Y-30.427 I-0.234 J0.019
N12480 G3 X29.253 Y-30.621 I0.074 J-0.25
N12485 G2 X28.969 Y-31.407 I-3.099 J0.675
N12490 X31.892 Y-31.408 I1.461 J-2.815
N12495 X31.891 Y-28.485 I2.814 J1.462
N12500 X28.969 I-1.461 J2.815
N12505 X29.253 Y-30.621 I-2.814 J-1.462
N12510 G1 Z1.
N12515 X31.185 Y-30.701
N12520 Z-3.175
N12525 X38.391 Y-37.907
N12530 X38.39 Y-38.217
N12535 Y-38.608
N12540 G2 X38.988 Y-38.5 I1.163 J-4.737
N12545 X39.095 Y-37.906 I4.844 J-0.569
N12550 G1 X38.391 Y-37.907
N12555 X38.333 Y-37.899
N12560 X38.28 Y-37.878
N12565 X38.234 Y-37.843
N12570 X38.204 Y-37.823
N12575 X38.169 Y-37.816
N12580 X38.133 Y-37.823
N12585 X38.104 Y-37.843
N12590 X38.084 Y-37.873
N12595 X38.077 Y-37.908
N12600 X38.075 Y-39.027
N12605 G2 X39.277 Y-38.79 I1.478 J-4.318
N12610 X39.514 Y-37.591 I4.555 J-0.279
N12615 G1 X38.077 Y-37.593
N12620 Y-37.908
N12625 G2 X37.923 Y-38.138 I-0.249 J0.
N12630 G3 X37.77 Y-38.368 I0.096 J-0.23
N12635 G1 X37.768 Y-39.481
N12640 G2 X39.575 Y-39.088 I1.785 J-3.864
N12645 X39.968 Y-37.284 I4.257 J0.019
N12650 G1 X37.797 Y-37.287
N12655 X37.771
N12660 Y-37.313
N12665 X37.77 Y-38.368
N12670 G2 X37.62 Y-38.591 I-0.242 J0.
N12675 G3 X37.471 Y-38.815 I0.093 J-0.224
N12680 G1 X37.469 Y-39.98
N12685 G2 X39.887 Y-39.401 I2.084 J-3.365
N12690 X40.467 Y-36.985 I3.945 J0.332
N12695 G1 X37.796 Y-36.989
N12700 G2 X37.459 Y-36.975 I-0.006 J3.958
N12705 X37.473 Y-37.312 I-3.945 J-0.332
N12710 G1 X37.471 Y-38.815
N12715 G2 X37.327 Y-39.03 I-0.233 J0.
N12720 G3 X37.183 Y-39.245 I0.089 J-0.215
N12725 G1 X37.181 Y-40.543
N12730 G2 X40.222 Y-39.735 I2.372 J-2.802
N12735 X41.03 Y-36.697 I3.61 J0.666
N12740 G1 X37.796 Y-36.702
N12745 G2 X37.125 Y-36.641 I-0.005 J3.671
N12750 X37.186 Y-37.312 I-3.61 J-0.666
N12755 G1 X37.183 Y-39.245
N12760 X37.177 Y-39.297
N12765 X37.159 Y-39.346
N12770 X37.13 Y-39.389
N12775 X37.091 Y-39.424
N12780 X37.046 Y-39.45
N12785 X37.001 Y-39.475
N12790 X36.962 Y-39.51
N12795 X36.934 Y-39.554
N12800 X36.916 Y-39.602
N12805 X36.909 Y-39.654
N12810 X36.907 Y-41.212
N12815 G2 X40.597 Y-40.111 I2.646 J-2.133
N12820 X41.699 Y-36.423 I3.235 J1.042
N12825 G1 X37.795 Y-36.429
N12830 G2 X36.749 Y-36.265 I-0.005 J3.399
N12835 X36.913 Y-37.311 I-3.235 J-1.041
N12840 G1 X36.909 Y-39.654
N12845 X36.904 Y-39.702
N12850 X36.887 Y-39.747
N12855 X36.86 Y-39.787
N12860 X36.825 Y-39.82
N12865 X36.782 Y-39.844
N12870 X36.74 Y-39.867
N12875 X36.705 Y-39.9
N12880 X36.678 Y-39.94
N12885 X36.661 Y-39.986
N12890 X36.656 Y-40.034
N12895 X36.653 Y-42.128
N12900 G2 X41.083 Y-40.597 I2.9 J-1.217
N12905 X42.615 Y-36.169 I2.749 J1.528
N12910 G1 X37.795 Y-36.175
N12915 G2 X36.264 Y-35.78 I-0.005 J3.145
N12920 X36.659 Y-37.311 I-2.75 J-1.526
N12925 G1 X36.656 Y-40.034
N12930 Z1.
N12935 X40.371 Y-39.887
N12940 Z-3.175
N12945 X50.427 Y-49.942
N12950 Y-50.269
N12955 Y-50.654
N12960 G2 X51.028 Y-50.544 I1.17 J-4.735
N12965 X51.138 Y-49.942 I4.844 J-0.568
N12970 G1 X50.427
N12975 X50.369 Y-49.935
N12980 X50.316 Y-49.913
N12985 X50.27 Y-49.877
N12990 X50.24 Y-49.858
N12995 X50.205 Y-49.851
N13000 X50.169 Y-49.858
N13005 X50.14 Y-49.877
N13010 X50.12 Y-49.907
N13015 X50.113 Y-49.942
N13020 Y-51.073
N13025 G2 X51.318 Y-50.834 I1.484 J-4.315
N13030 X51.557 Y-49.629 I4.555 J-0.279
N13035 G1 X50.113
N13040 Y-49.942
N13045 G2 X49.959 Y-50.172 I-0.249 J0.
N13050 G3 X49.806 Y-50.403 I0.096 J-0.23
N13055 G1 Y-51.527
N13060 G2 X51.616 Y-51.132 I1.791 J-3.862
N13065 X52.011 Y-49.322 I4.257 J0.019
N13070 G1 X49.825
N13075 X49.806
N13080 Y-49.341
N13085 Y-50.403
N13090 G2 X49.657 Y-50.626 I-0.242 J0.
N13095 G3 X49.508 Y-50.85 I0.093 J-0.224
N13100 G1 Y-52.026
N13105 G2 X51.928 Y-51.444 I2.089 J-3.362
N13110 X52.51 Y-49.023 I3.944 J0.331
N13115 G1 X49.825
N13120 G2 X49.494 Y-49.01 I0. J3.958
N13125 X49.508 Y-49.341 I-3.944 J-0.332
N13130 G1 Y-50.85
N13135 G2 X49.364 Y-51.065 I-0.233 J0.
N13140 G3 X49.22 Y-51.281 I0.09 J-0.215
N13145 G1 Y-52.59
N13150 G2 X52.262 Y-51.778 I2.376 J-2.798
N13155 X53.074 Y-48.736 I3.61 J0.665
N13160 G1 X49.825
N13165 G2 X49.16 Y-48.676 I0. J3.671
N13170 X49.22 Y-49.341 I-3.61 J-0.666
N13175 G1 Y-51.281
N13180 X49.214 Y-51.332
N13185 X49.196 Y-51.381
N13190 X49.168 Y-51.424
N13195 X49.129 Y-51.46
N13200 X49.084 Y-51.485
N13205 X49.039 Y-51.511
N13210 X49.001 Y-51.546
N13215 X48.972 Y-51.589
N13220 X48.954 Y-51.638
N13225 X48.948 Y-51.69
N13230 Y-53.26
N13235 G2 X52.637 Y-52.153 I2.649 J-2.129
N13240 X53.744 Y-48.464 I3.235 J1.04
N13245 G1 X49.825
N13250 G2 X48.784 Y-48.3 I0. J3.398
N13255 X48.948 Y-49.341 I-3.235 J-1.041
N13260 G1 Y-51.69
N13265 X48.942 Y-51.738
N13270 X48.925 Y-51.783
N13275 X48.899 Y-51.823
N13280 X48.863 Y-51.856
N13285 X48.821 Y-51.88
N13290 X48.779 Y-51.903
N13295 X48.744 Y-51.936
N13300 X48.717 Y-51.976
N13305 X48.7 Y-52.022
N13310 X48.694 Y-52.07
N13315 Y-54.177
N13320 G2 X53.122 Y-52.637 I2.902 J-1.212
N13325 X54.661 Y-48.21 I2.751 J1.525
N13330 G1 X49.825
N13335 G2 X48.3 Y-47.816 I0. J3.145
N13340 X48.694 Y-49.341 I-2.751 J-1.525
N13345 G1 Y-52.07
N13350 Z5.
N13355 X0.414 Y-53.952
N13360 Z2.5 F666.67
N13365 Z-3.175
N13370 X0.191 Y-53.73 F2000.
N13375 X-0.027 Y-53.948
N13380 X-0.306 Y-54.226
N13385 G2 X0.191 Y-54.571 I-2.527 J-4.172
N13390 X0.688 Y-54.226 I3.024 J-3.827
N13395 G1 X0.414 Y-53.952
N13400 G2 X0.358 Y-53.675 I0.18 J0.181
N13405 G3 X0.302 Y-53.398 I-0.236 J0.097
N13410 G1 X0.191 Y-53.287
N13415 X-0.825 Y-54.3
N13420 G2 X0.191 Y-54.98 I-2.008 J-4.098
N13425 X1.207 Y-54.3 I3.024 J-3.418
N13430 G1 X0.302 Y-53.398
N13435 G2 X0.248 Y-53.127 I0.176 J0.176
N13440 G3 X0.193 Y-52.856 I-0.233 J0.094
N13445 G1 X0.191 Y-52.854
N13450 X0.172 Y-52.873
N13455 X-1.362 Y-54.403
N13460 G2 X0.191 Y-55.402 I-1.47 J-3.995
N13465 X1.745 Y-54.403 I3.024 J-2.996
N13470 G1 X0.21 Y-52.873
N13475 X0.193 Y-52.856
N13480 X0.167 Y-52.822
N13485 X0.15 Y-52.783
N13490 X0.143 Y-52.74
N13495 X0.147 Y-52.698
N13500 Y-52.662
N13505 X0.132 Y-52.628
N13510 X0.105 Y-52.605
N13515 X0.069 Y-52.594
N13520 X0.033 Y-52.6
N13525 X0.003 Y-52.62
N13530 X-0.038 Y-52.662
N13535 X-1.927 Y-54.544
N13540 G2 X0.191 Y-55.843 I-0.906 J-3.853
N13545 X2.309 Y-54.544 I3.024 J-2.554
N13550 G1 X0.421 Y-52.662
N13555 G2 X0.191 Y-52.412 I2.794 J2.803
N13560 X0.003 Y-52.62 I-3.024 J2.554
N13565 X-0.252 Y-52.673 I-0.167 J0.162
N13570 G3 X-0.508 Y-52.724 I-0.089 J-0.218
N13575 G1 X-2.529 Y-54.739
N13580 G2 X0.191 Y-56.316 I-0.304 J-3.659
N13585 X2.911 Y-54.739 I3.024 J-2.082
N13590 G1 X0.624 Y-52.459
N13595 G2 X0.191 Y-51.94 I2.592 J2.6
N13600 X-0.241 Y-52.459 I-3.024 J2.081
N13605 G1 X-0.508 Y-52.724
N13610 X-0.548 Y-52.756
N13615 X-0.596 Y-52.778
N13620 X-0.647 Y-52.788
N13625 X-0.699 Y-52.786
N13630 X-0.749 Y-52.772
N13635 X-0.799 Y-52.758
N13640 X-0.851 Y-52.756
N13645 X-0.902 Y-52.766
N13650 X-0.949 Y-52.788
N13655 X-0.99 Y-52.82
N13660 X-3.196 Y-55.019
N13665 G2 X0.191 Y-56.847 I0.363 J-3.379
N13670 X3.578 Y-55.019 I3.024 J-1.551
N13675 G1 X0.816 Y-52.265
N13680 G2 X0.191 Y-51.409 I2.399 J2.407
N13685 X-0.434 Y-52.265 I-3.024 J1.55
N13690 G1 X-0.99 Y-52.82
N13695 X-1.028 Y-52.85
N13700 X-1.072 Y-52.87
N13705 X-1.119 Y-52.879
N13710 X-1.167 Y-52.877
N13715 X-1.214 Y-52.864
N13720 X-1.26 Y-52.851
N13725 X-1.309 Y-52.849
N13730 X-1.356 Y-52.859
N13735 X-1.4 Y-52.879
N13740 X-1.438 Y-52.909
N13745 X-4.024 Y-55.487
N13750 G2 X0.191 Y-57.532 I1.192 J-2.911
N13755 X4.407 Y-55.487 I3.024 J-0.865
N13760 G1 X0.995 Y-52.086
N13765 G2 X0.191 Y-50.723 I2.22 J2.228
N13770 X-0.612 Y-52.086 I-3.024 J0.864
N13775 G1 X-1.438 Y-52.909
N13780 Z1.
N13785 X0.191 Y-51.723
N13790 Z-3.175
N13795 Y-42.315
N13800 G2 X0.465 Y-42.042 I3.024 J-2.75
N13805 X0.191 Y-41.768 I2.751 J3.024
N13810 X-0.082 Y-42.042 I-3.024 J2.75
N13815 X0.191 Y-42.315 I-2.751 J-3.024
N13820 G1 X0.218 Y-42.352
N13825 X0.238 Y-42.393
N13830 X0.248 Y-42.438
N13835 X0.249 Y-42.483
N13840 X0.253 Y-42.516
N13845 X0.268 Y-42.546
N13850 X0.292 Y-42.569
N13855 X0.322 Y-42.582
N13860 X0.355 Y-42.583
N13865 X0.387 Y-42.573
N13870 X0.413 Y-42.553
N13875 G2 X0.974 Y-42.042 I2.802 J-2.513
N13880 X0.191 Y-41.259 I2.242 J3.024
N13885 X-0.591 Y-42.042 I-3.024 J2.241
N13890 X0.191 Y-42.824 I-2.242 J-3.024
N13895 X0.413 Y-42.553 I3.024 J-2.241
N13900 X0.691 Y-42.485 I0.188 J-0.169
N13905 G3 X0.972 Y-42.436 I0.099 J0.263
N13910 G2 X1.541 Y-42.042 I2.243 J-2.63
N13915 X0.191 Y-40.692 I1.674 J3.024
N13920 X-1.158 Y-42.042 I-3.024 J1.674
N13925 X0.191 Y-43.392 I-1.674 J-3.024
N13930 X0.972 Y-42.436 I3.024 J-1.674
N13935 X1.236 Y-42.408 I0.152 J-0.178
N13940 G3 X1.5 Y-42.398 I0.124 J0.229
N13945 G2 X2.259 Y-42.042 I1.715 J-2.668
N13950 X0.191 Y-39.973 I0.956 J3.024
N13955 X-1.877 Y-42.042 I-3.024 J0.955
N13960 X0.191 Y-44.111 I-0.956 J-3.024
N13965 X1.5 Y-42.398 I3.024 J-0.955
N13970 G1 Z1.
N13975 X0.191 Y-40.973
N13980 Z-3.175
N13985 Y-27.41
N13990 G2 X0.709 Y-27.053 I3.024 J-3.827
N13995 G1 X0.43 Y-26.772
N14000 X0.191 Y-26.531
N14005 X-0.039 Y-26.763
N14010 X-0.043 Y-26.767
N14015 X-0.326 Y-27.053
N14020 G2 X0.191 Y-27.41 I-2.507 J-4.185
N14025 G1 X0.221 Y-27.444
N14030 X0.238 Y-27.486
N14035 X0.241 Y-27.531
N14040 X0.227 Y-27.574
N14045 X0.218 Y-27.606
N14050 X0.222 Y-27.639
N14055 X0.238 Y-27.668
N14060 X0.264 Y-27.688
N14065 X0.295 Y-27.698
N14070 X0.328 Y-27.695
N14075 X0.357 Y-27.679
N14080 G2 X1.227 Y-27.13 I2.858 J-3.558
N14085 G1 X0.191 Y-26.085
N14090 X-0.845 Y-27.13
N14095 G2 X0.191 Y-27.819 I-1.988 J-4.108
N14100 G1 X0.357 Y-27.679
N14105 G2 X0.64 Y-27.657 I0.158 J-0.196
N14110 G3 X0.923 Y-27.65 I0.136 J0.237
N14115 G2 X1.764 Y-27.235 I2.292 J-3.587
N14120 G1 X0.193 Y-25.651
N14125 X-1.382 Y-27.235
N14130 G2 X0.191 Y-28.241 I-1.451 J-4.002
N14135 X0.923 Y-27.65 I3.024 J-2.996
N14140 X1.199 Y-27.659 I0.132 J-0.206
N14145 G3 X1.474 Y-27.683 I0.157 J0.216
N14150 G2 X2.328 Y-27.38 I1.742 J-3.555
N14155 G1 X0.405 Y-25.441
N14160 G2 X0.191 Y-25.208 I2.811 J2.788
N14165 X-0.022 Y-25.441 I-3.024 J2.555
N14170 G1 X-1.945 Y-27.38
N14175 G2 X0.191 Y-28.683 I-0.888 J-3.858
N14180 X1.474 Y-27.683 I3.024 J-2.555
N14185 X1.737 Y-27.721 I0.104 J-0.212
N14190 G3 X1.997 Y-27.774 I0.175 J0.19
N14195 G2 X2.928 Y-27.577 I1.218 J-3.464
N14200 G1 X0.609 Y-25.239
N14205 G2 X0.191 Y-24.735 I2.607 J2.586
N14210 X-0.226 Y-25.239 I-3.024 J2.082
N14215 G1 X-2.546 Y-27.577
N14220 G2 X0.191 Y-29.156 I-0.287 J-3.66
N14225 X1.997 Y-27.774 I3.024 J-2.082
N14230 X2.241 Y-27.839 I0.074 J-0.211
N14235 G3 X2.481 Y-27.919 I0.187 J0.16
N14240 G2 X3.593 Y-27.86 I0.734 J-3.318
N14245 G1 X0.802 Y-25.047
N14250 G2 X0.191 Y-24.204 I2.413 J2.393
N14255 X-0.42 Y-25.047 I-3.024 J1.551
N14260 G1 X-3.21 Y-27.86
N14265 G2 X0.191 Y-29.687 I0.377 J-3.378
N14270 X2.481 Y-27.919 I3.024 J-1.551
N14275 G1 X2.531 Y-27.914
N14280 X2.58 Y-27.921
N14285 X2.626 Y-27.94
N14290 X2.666 Y-27.969
N14295 X2.699 Y-28.007
N14300 X2.73 Y-28.044
N14305 X2.769 Y-28.074
N14310 X2.814 Y-28.095
N14315 X2.862 Y-28.107
N14320 X2.911
N14325 G2 X4.416 Y-28.33 I0.305 J-3.131
N14330 G1 X0.982 Y-24.868
N14335 G2 X0.191 Y-23.518 I2.233 J2.215
N14340 X-0.6 Y-24.868 I-3.024 J0.865
N14345 G1 X-4.034 Y-28.33
N14350 G2 X0.191 Y-30.373 I1.201 J-2.907
N14355 X2.911 Y-28.107 I3.024 J-0.865
N14360 G1 Z5.
N14365 X-11.058 Y-10.958
N14370 Z1. F666.67
N14375 Z-3.175 F2000.
N14380 X-19.805 Y-19.705
N14385 X-20.121
N14390 X-20.517
N14395 G2 X-20.408 Y-20.306 I-4.735 J-1.17
N14400 X-19.805 Y-20.416 I-0.568 J-4.844
N14405 G1 Y-20.019
N14410 Y-19.705
N14415 X-19.798 Y-19.648
N14420 X-19.776 Y-19.594
N14425 X-19.74 Y-19.548
N14430 X-19.72 Y-19.518
N14435 X-19.713 Y-19.483
N14440 X-19.72 Y-19.448
N14445 X-19.74 Y-19.418
N14450 X-19.77 Y-19.398
N14455 X-19.805 Y-19.391
N14460 X-20.936
N14465 G2 X-20.697 Y-20.596 I-4.315 J-1.484
N14470 X-19.491 Y-20.835 I-0.279 J-4.555
N14475 G1 Y-19.391
N14480 X-19.805
N14485 G2 X-20.035 Y-19.238 I0. J0.249
N14490 G3 X-20.265 Y-19.084 I-0.23 J-0.096
N14495 G1 X-21.39
N14500 G2 X-20.995 Y-20.894 I-3.862 J-1.791
N14505 X-19.185 Y-21.289 I0.019 J-4.257
N14510 G1 Y-19.103
N14515 Y-19.084
N14520 X-19.204
N14525 X-20.265
N14530 G2 X-20.489 Y-18.935 I0. J0.242
N14535 G3 X-20.713 Y-18.786 I-0.224 J-0.093
N14540 G1 X-21.89
N14545 G2 X-21.307 Y-21.206 I-3.362 J-2.089
N14550 X-18.886 Y-21.789 I0.331 J-3.944
N14555 G1 Y-19.103
N14560 G2 X-18.872 Y-18.772 I3.958 J0.
N14565 X-19.204 Y-18.786 I-0.332 J3.944
N14570 G1 X-20.713
N14575 G2 X-20.928 Y-18.642 I0. J0.233
N14580 G3 X-21.144 Y-18.499 I-0.215 J-0.09
N14585 G1 X-22.453
N14590 G2 X-21.641 Y-21.54 I-2.798 J-2.376
N14595 X-18.599 Y-22.352 I0.665 J-3.61
N14600 G1 Y-19.103
N14605 G2 X-18.538 Y-18.438 I3.671 J0.
N14610 X-19.204 Y-18.499 I-0.666 J3.61
N14615 G1 X-21.144
N14620 X-21.195 Y-18.493
N14625 X-21.244 Y-18.475
N14630 X-21.287 Y-18.446
N14635 X-21.323 Y-18.408
N14640 X-21.348 Y-18.362
N14645 X-21.374 Y-18.317
N14650 X-21.409 Y-18.279
N14655 X-21.452 Y-18.25
N14660 X-21.501 Y-18.232
N14665 X-21.553 Y-18.226
N14670 X-23.123
N14675 G2 X-22.016 Y-21.915 I-2.129 J-2.649
N14680 X-18.326 Y-23.022 I1.041 J-3.235
N14685 G1 Y-19.103
N14690 G2 X-18.163 Y-18.063 I3.398 J0.
N14695 X-19.204 Y-18.226 I-1.041 J3.235
N14700 G1 X-21.553
N14705 X-21.601 Y-18.22
N14710 X-21.646 Y-18.204
N14715 X-21.686 Y-18.177
N14720 X-21.719 Y-18.142
N14725 X-21.743 Y-18.099
N14730 X-21.766 Y-18.057
N14735 X-21.799 Y-18.022
N14740 X-21.839 Y-17.995
N14745 X-21.885 Y-17.979
N14750 X-21.933 Y-17.973
N14755 X-24.04
N14760 G2 X-22.501 Y-22.4 I-1.212 J-2.902
N14765 X-18.073 Y-23.939 I1.525 J-2.751
N14770 G1 Y-19.103
N14775 G2 X-17.679 Y-17.578 I3.145 J0.
N14780 X-19.204 Y-17.973 I-1.526 J2.75
N14785 G1 X-21.933
N14790 Z1.
N14795 X-21.792 Y-21.692
N14800 Z-3.175
N14805 X-29.855 Y-29.755
N14810 G2 X-30.24 I-0.193 J4.084
N14815 Y-30.139 I-4.084 J-0.192
N14820 X-29.855 I0.193 J-4.084
N14825 Y-29.755 I4.084 J0.192
N14830 G1 X-29.848 Y-29.71
N14835 X-29.832 Y-29.667
N14840 X-29.808 Y-29.628
N14845 X-29.777 Y-29.595
N14850 X-29.754 Y-29.564
N14855 X-29.745 Y-29.527
N14860 X-29.752 Y-29.489
N14865 X-29.773 Y-29.457
N14870 X-29.806 Y-29.436
N14875 X-29.844 Y-29.43
N14880 G2 X-30.599 Y-29.395 I-0.204 J3.759
N14885 Y-30.499 I-3.724 J-0.552
N14890 X-29.495 Y-30.498 I0.553 J-3.724
N14895 Y-29.395 I3.724 J0.552
N14900 X-29.844 Y-29.43 I-0.553 J3.724
N14905 X-30.088 Y-29.282 I-0.014 J0.252
N14910 G3 X-30.322 Y-29.117 I-0.256 J-0.115
N14915 G2 X-31.001 Y-28.994 I0.274 J3.446
N14920 Y-30.9 I-3.323 J-0.953
N14925 X-29.094 Y-30.899 I0.954 J-3.322
N14930 Y-28.994 I3.323 J0.953
N14935 X-30.322 Y-29.117 I-0.954 J3.322
N14940 X-30.528 Y-28.95 I0.019 J0.234
N14945 G3 X-30.722 Y-28.77 I-0.25 J-0.074
N14950 G2 X-31.508 Y-28.486 I0.675 J3.099
N14955 Y-31.408 I-2.815 J-1.46
N14960 X-28.586 Y-31.407 I1.462 J-2.815
N14965 Y-28.486 I2.815 J1.46
N14970 X-30.722 Y-28.77 I-1.462 J2.815
N14975 G1 Z1.
N14980 X-30.799 Y-30.699
N14985 Z-3.175
N14990 X-38.008 Y-37.908
N14995 X-38.318 Y-37.907
N15000 X-38.329
N15005 X-38.712
N15010 G2 X-38.605 Y-38.5 I-4.737 J-1.163
N15015 X-38.007 Y-38.608 I-0.565 J-4.845
N15020 G1 X-38.008 Y-37.908
N15025 X-38. Y-37.85
N15030 X-37.978 Y-37.797
N15035 X-37.943 Y-37.751
N15040 X-37.924 Y-37.721
N15045 X-37.917 Y-37.686
N15050 X-37.924 Y-37.65
N15055 X-37.944 Y-37.621
N15060 X-37.974 Y-37.601
N15065 X-38.009 Y-37.594
N15070 X-39.131 Y-37.592
N15075 G2 X-38.894 Y-38.79 I-4.318 J-1.478
N15080 X-37.692 Y-39.027 I-0.276 J-4.555
N15085 G1 X-37.694 Y-37.594
N15090 X-38.009
N15095 G2 X-38.239 Y-37.44 I0. J0.249
N15100 G3 X-38.469 Y-37.287 I-0.23 J-0.096
N15105 G1 X-39.585 Y-37.285
N15110 G2 X-39.192 Y-39.088 I-3.864 J-1.785
N15115 X-37.385 Y-39.481 I0.023 J-4.257
N15120 G1 X-37.388 Y-37.313
N15125 Y-37.288
N15130 X-37.414
N15135 X-38.469 Y-37.287
N15140 G2 X-38.692 Y-37.137 I0. J0.242
N15145 G3 X-38.916 Y-36.988 I-0.224 J-0.093
N15150 G1 X-40.084 Y-36.986
N15155 G2 X-39.504 Y-39.401 I-3.365 J-2.084
N15160 X-37.086 Y-39.98 I0.335 J-3.944
N15165 G1 X-37.089 Y-37.312
N15170 G2 X-37.076 Y-36.976 I3.958 J0.006
N15175 X-37.413 Y-36.99 I-0.332 J3.945
N15180 G1 X-38.916 Y-36.988
N15185 G2 X-39.131 Y-36.844 I0. J0.233
N15190 G3 X-39.346 Y-36.7 I-0.216 J-0.089
N15195 G1 X-40.647 Y-36.698
N15200 G2 X-39.839 Y-39.735 I-2.802 J-2.372
N15205 X-36.798 Y-40.543 I0.669 J-3.61
N15210 G1 X-36.802 Y-37.312
N15215 G2 X-36.742 Y-36.642 I3.671 J0.005
N15220 X-37.413 Y-36.703 I-0.666 J3.61
N15225 G1 X-39.346 Y-36.7
N15230 X-39.398 Y-36.694
N15235 X-39.446 Y-36.676
N15240 X-39.49 Y-36.647
N15245 X-39.525 Y-36.608
N15250 X-39.55 Y-36.563
N15255 X-39.576 Y-36.518
N15260 X-39.611 Y-36.479
N15265 X-39.654 Y-36.451
N15270 X-39.703 Y-36.433
N15275 X-39.755 Y-36.426
N15280 X-41.316 Y-36.424
N15285 G2 X-40.214 Y-40.111 I-2.133 J-2.646
N15290 X-36.524 Y-41.212 I1.044 J-3.234
N15295 G1 X-36.53 Y-37.311
N15300 G2 X-36.366 Y-36.266 I3.399 J0.005
N15305 X-37.412 Y-36.43 I-1.041 J3.235
N15310 G1 X-39.755 Y-36.426
N15315 X-39.803 Y-36.421
N15320 X-39.848 Y-36.404
N15325 X-39.888 Y-36.377
N15330 X-39.921 Y-36.342
N15335 X-39.945 Y-36.299
N15340 X-39.968 Y-36.257
N15345 X-40.001 Y-36.222
N15350 X-40.041 Y-36.195
N15355 X-40.086 Y-36.178
N15360 X-40.134 Y-36.173
N15365 X-42.232 Y-36.17
N15370 G2 X-40.699 Y-40.597 I-1.217 J-2.9
N15375 X-36.269 Y-42.128 I1.529 J-2.748
N15380 G1 X-36.276 Y-37.311
N15385 G2 X-35.882 Y-35.782 I3.145 J0.005
N15390 X-37.412 Y-36.176 I-1.526 J2.75
N15395 G1 X-40.134 Y-36.173
N15400 Z1.
N15405 X-39.986 Y-39.886
N15410 Z-3.175
N15415 X-50.043 Y-49.943
N15420 X-50.362
N15425 X-50.37
N15430 X-50.754
N15435 G2 X-50.645 Y-50.544 I-4.735 J-1.17
N15440 X-50.043 Y-50.654 I-0.568 J-4.844
N15445 G1 Y-49.943
N15450 X-50.036 Y-49.886
N15455 X-50.014 Y-49.832
N15460 X-49.978 Y-49.786
N15465 X-49.958 Y-49.757
N15470 X-49.951 Y-49.721
N15475 X-49.958 Y-49.686
N15480 X-49.978 Y-49.656
N15485 X-50.008 Y-49.637
N15490 X-50.043 Y-49.63
N15495 X-51.174
N15500 G2 X-50.934 Y-50.834 I-4.315 J-1.484
N15505 X-49.729 Y-51.073 I-0.279 J-4.555
N15510 G1 Y-49.63
N15515 X-50.043
N15520 G2 X-50.273 Y-49.476 I0. J0.249
N15525 G3 X-50.503 Y-49.323 I-0.23 J-0.096
N15530 G1 X-51.628
N15535 G2 X-51.233 Y-51.132 I-3.862 J-1.791
N15540 X-49.423 Y-51.527 I0.019 J-4.257
N15545 G1 Y-49.341
N15550 Y-49.323
N15555 X-49.442
N15560 X-50.503
N15565 G2 X-50.727 Y-49.174 I0. J0.242
N15570 G3 X-50.951 Y-49.024 I-0.224 J-0.093
N15575 G1 X-52.127
N15580 G2 X-51.545 Y-51.444 I-3.362 J-2.089
N15585 X-49.124 Y-52.026 I0.331 J-3.945
N15590 G1 Y-49.341
N15595 G2 X-49.11 Y-49.011 I3.958 J0.
N15600 X-49.442 Y-49.024 I-0.332 J3.944
N15605 G1 X-50.951
N15610 G2 X-51.166 Y-48.881 I0. J0.233
N15615 G3 X-51.382 Y-48.737 I-0.215 J-0.09
N15620 G1 X-52.691
N15625 G2 X-51.879 Y-51.778 I-2.798 J-2.376
N15630 X-48.837 Y-52.59 I0.665 J-3.61
N15635 G1 Y-49.341
N15640 G2 X-48.776 Y-48.676 I3.671 J0.
N15645 X-49.442 Y-48.737 I-0.666 J3.61
N15650 G1 X-51.382
N15655 X-51.433 Y-48.731
N15660 X-51.482 Y-48.713
N15665 X-51.525 Y-48.684
N15670 X-51.561 Y-48.646
N15675 X-51.586 Y-48.601
N15680 X-51.612 Y-48.556
N15685 X-51.647 Y-48.517
N15690 X-51.69 Y-48.489
N15695 X-51.739 Y-48.471
N15700 X-51.791 Y-48.465
N15705 X-53.361
N15710 G2 X-52.254 Y-52.153 I-2.129 J-2.649
N15715 X-48.564 Y-53.26 I1.04 J-3.235
N15720 G1 Y-49.341
N15725 G2 X-48.401 Y-48.301 I3.398 J0.
N15730 X-49.442 Y-48.465 I-1.041 J3.235
N15735 G1 X-51.791
N15740 X-51.839 Y-48.459
N15745 X-51.884 Y-48.442
N15750 X-51.924 Y-48.415
N15755 X-51.957 Y-48.38
N15760 X-51.981 Y-48.338
N15765 X-52.004 Y-48.296
N15770 X-52.037 Y-48.26
N15775 X-52.077 Y-48.234
N15780 X-52.123 Y-48.217
N15785 X-52.171 Y-48.211
N15790 X-54.278
N15795 G2 X-52.738 Y-52.637 I-1.212 J-2.902
N15800 X-48.311 Y-54.177 I1.524 J-2.751
N15805 G1 Y-49.341
N15810 G2 X-47.917 Y-47.817 I3.145 J0.
N15815 X-49.442 Y-48.211 I-1.525 J2.751
N15820 G1 X-52.171
N15825 Z5.
N15830 X-54.053 Y0.514
N15835 Z2.5 F666.67
N15840 Z-3.175
N15845 X-54.326 Y0.788 F2000.
N15850 G2 X-54.671 Y0.291 I-4.172 J2.527
N15855 X-54.327 Y-0.205 I-3.827 J-3.024
N15860 G1 X-53.832 Y0.292
N15865 X-54.049 Y0.509
N15870 X-54.053 Y0.513
N15875 Y0.514
N15880 G2 X-54.108 Y0.792 I0.181 J0.18
N15885 G3 X-54.164 Y1.069 I-0.236 J0.097
N15890 G1 X-54.4 Y1.307
N15895 G2 X-55.08 Y0.291 I-4.098 J2.009
N15900 X-54.4 Y-0.723 I-3.418 J-3.024
N15905 G1 X-53.388 Y0.292
N15910 X-54.164 Y1.069
N15915 G2 X-54.217 Y1.341 I0.176 J0.176
N15920 G3 X-54.271 Y1.612 I-0.23 J0.095
N15925 G1 X-54.503 Y1.844
N15930 G2 X-55.502 Y0.291 I-3.995 J1.471
N15935 X-54.504 Y-1.261 I-2.997 J-3.024
N15940 G1 X-52.974 Y0.273
N15945 X-52.955 Y0.292
N15950 X-52.973 Y0.31
N15955 X-54.271 Y1.612
N15960 G2 X-54.324 Y1.875 I0.172 J0.171
N15965 G3 X-54.376 Y2.139 I-0.224 J0.093
N15970 G1 X-54.645 Y2.409
N15975 G2 X-55.943 Y0.291 I-3.853 J0.907
N15980 X-54.645 Y-1.826 I-2.555 J-3.024
N15985 G1 X-52.762 Y0.063
N15990 G2 X-52.513 Y0.292 I2.803 J-2.795
N15995 X-52.762 Y0.521 I2.555 J3.024
N16000 G1 X-54.376 Y2.139
N16005 G2 X-54.426 Y2.393 I0.165 J0.165
N16010 G3 X-54.477 Y2.647 I-0.216 J0.089
N16015 G1 X-54.839 Y3.011
N16020 G2 X-56.416 Y0.291 I-3.659 J0.305
N16025 X-54.839 Y-2.427 I-2.083 J-3.024
N16030 G1 X-52.559 Y-0.14
N16035 G2 X-52.041 Y0.292 I2.6 J-2.592
N16040 X-52.559 Y0.723 I2.082 J3.024
N16045 G1 X-54.477 Y2.647
N16050 X-54.509 Y2.688
N16055 X-54.531 Y2.735
N16060 X-54.541 Y2.786
N16065 X-54.539 Y2.838
N16070 X-54.525 Y2.888
N16075 X-54.51 Y2.938
N16080 X-54.508 Y2.99
N16085 X-54.519 Y3.041
N16090 X-54.54 Y3.089
N16095 X-54.572 Y3.129
N16100 X-55.119 Y3.677
N16105 G2 X-56.946 Y0.292 I-3.379 J-0.362
N16110 X-55.119 Y-3.094 I-1.552 J-3.024
N16115 G1 X-52.366 Y-0.333
N16120 G2 X-51.51 Y0.292 I2.407 J-2.4
N16125 X-52.365 Y0.916 I1.551 J3.024
N16130 G1 X-54.572 Y3.129
N16135 X-54.602 Y3.167
N16140 X-54.622 Y3.211
N16145 X-54.632 Y3.259
N16150 X-54.63 Y3.307
N16155 X-54.617 Y3.353
N16160 X-54.604 Y3.4
N16165 X-54.602 Y3.448
N16170 X-54.611 Y3.495
N16175 X-54.631 Y3.539
N16180 X-54.661 Y3.577
N16185 X-55.586 Y4.505
N16190 G2 X-57.632 Y0.292 I-2.912 J-1.19
N16195 X-55.587 Y-3.922 I-0.866 J-3.024
N16200 G1 X-52.186 Y-0.512
N16205 G2 X-50.824 Y0.292 I2.227 J-2.221
N16210 X-52.186 Y1.095 I0.865 J3.024
N16215 G1 X-54.661 Y3.577
N16220 Z1.
N16225 X-51.824 Y0.292
N16230 Z-3.175
N16235 X-42.416 Y0.291
N16240 G2 X-42.143 Y0.018 I-2.751 J-3.024
N16245 X-41.869 Y0.292 I3.024 J-2.751
N16250 X-42.142 Y0.565 I2.751 J3.024
N16255 X-42.416 Y0.291 I-3.024 J2.751
N16260 G1 X-42.452 Y0.264
N16265 X-42.494 Y0.245
N16270 X-42.538 Y0.235
N16275 X-42.584 Y0.233
N16280 X-42.622 Y0.228
N16285 X-42.655 Y0.208
N16290 X-42.677 Y0.176
N16295 X-42.684 Y0.138
N16300 X-42.676 Y0.101
N16305 X-42.653 Y0.07
N16310 G2 X-42.143 Y-0.49 I-2.514 J-2.802
N16315 X-41.36 Y0.292 I3.024 J-2.242
N16320 X-42.142 Y1.074 I2.242 J3.024
N16325 X-42.925 Y0.291 I-3.024 J2.242
N16330 X-42.653 Y0.07 I-2.242 J-3.024
N16335 X-42.585 Y-0.208 I-0.169 J-0.188
N16340 G3 X-42.536 Y-0.49 I0.263 J-0.099
N16345 G2 X-42.143 Y-1.058 I-2.63 J-2.243
N16350 X-40.793 Y0.292 I3.024 J-1.675
N16355 X-42.142 Y1.641 I1.674 J3.024
N16360 X-43.492 Y0.291 I-3.024 J1.675
N16365 X-42.536 Y-0.49 I-1.674 J-3.024
N16370 X-42.509 Y-0.753 I-0.178 J-0.152
N16375 G3 X-42.499 Y-1.018 I0.229 J-0.124
N16380 G2 X-42.143 Y-1.776 I-2.668 J-1.715
N16385 X-40.074 Y0.292 I3.024 J-0.956
N16390 X-42.142 Y2.359 I0.956 J3.024
N16395 X-44.211 Y0.292 I-3.024 J0.956
N16400 X-42.499 Y-1.018 I-0.956 J-3.024
N16405 G1 Z1.
N16410 X-41.075 Y0.291
N16415 Z-3.175
N16420 X-27.115
N16425 X-27.103 Y0.274
N16430 X-27.098 Y0.278
N16435 X-27.084 Y0.292
N16440 X-27.089 Y0.297
N16445 X-27.102 Y0.31
N16450 X-27.115 Y0.291
N16455 X-27.146 Y0.259
N16460 X-27.185 Y0.238
N16465 X-27.229 Y0.229
N16470 X-27.273 Y0.233
N16475 X-27.309 Y0.234
N16480 X-27.343 Y0.221
N16485 X-27.369 Y0.196
N16490 X-27.383 Y0.163
N16495 X-27.382 Y0.127
N16500 X-27.368 Y0.094
N16505 G2 X-27.156 Y-0.23 I-3.974 J-2.826
N16510 G1 X-26.63 Y0.292
N16515 X-27.156 Y0.813
N16520 G2 X-27.516 Y0.291 I-4.186 J2.502
N16525 G1 X-27.368 Y0.094
N16530 G2 X-27.362 Y-0.196 I-0.21 J-0.149
N16535 G3 X-27.371 Y-0.485 I0.234 J-0.152
N16540 G2 X-27.233 Y-0.749 I-3.971 J-2.247
N16545 G1 X-26.184 Y0.292
N16550 X-27.232 Y1.332
N16555 G2 X-27.925 Y0.291 I-4.109 J1.984
N16560 X-27.371 Y-0.485 I-3.417 J-3.024
N16565 X-27.394 Y-0.767 I-0.219 J-0.124
N16570 G3 X-27.433 Y-1.048 I0.212 J-0.172
N16575 G2 X-27.339 Y-1.286 I-3.909 J-1.684
N16580 G1 X-25.753 Y0.288
N16585 X-27.339 Y1.869
N16590 G2 X-28.347 Y0.291 I-4.003 J1.446
N16595 X-27.433 Y-1.048 I-2.995 J-3.024
N16600 X-27.486 Y-1.319 I-0.225 J-0.097
N16605 G3 X-27.554 Y-1.586 I0.188 J-0.19
N16610 G2 X-27.484 Y-1.85 I-3.788 J-1.146
N16615 G1 X-25.542 Y0.077
N16620 G2 X-25.308 Y0.292 I2.788 J-2.809
N16625 X-25.542 Y0.506 I2.554 J3.024
N16630 G1 X-27.483 Y2.433
N16635 G2 X-28.788 Y0.291 I-3.858 J0.883
N16640 X-27.554 Y-1.586 I-2.554 J-3.024
N16645 X-27.633 Y-1.839 I-0.225 J-0.068
N16650 G3 X-27.728 Y-2.088 I0.16 J-0.203
N16655 G2 X-27.682 Y-2.451 I-3.614 J-0.645
N16660 G1 X-25.34 Y-0.127
N16665 G2 X-24.835 Y0.292 I2.586 J-2.605
N16670 X-25.34 Y0.71 I2.081 J3.024
N16675 G1 X-27.681 Y3.034
N16680 G2 X-29.261 Y0.291 I-3.66 J0.282
N16685 X-27.728 Y-2.088 I-2.081 J-3.024
N16690 X-27.832 Y-2.318 I-0.22 J-0.039
N16695 G3 X-27.949 Y-2.542 I0.128 J-0.21
N16700 G2 X-27.965 Y-3.117 I-3.393 J-0.191
N16705 G1 X-25.148 Y-0.321
N16710 G2 X-24.304 Y0.292 I2.394 J-2.412
N16715 X-25.148 Y0.904 I1.55 J3.024
N16720 G1 X-27.965 Y3.7
N16725 G2 X-29.792 Y0.292 I-3.376 J-0.384
N16730 X-27.949 Y-2.542 I-1.55 J-3.024
N16735 G1 X-27.952 Y-2.591
N16740 X-27.967 Y-2.639
N16745 X-27.993 Y-2.681
N16750 X-28.028 Y-2.716
N16755 X-28.07 Y-2.742
N16760 X-28.112 Y-2.767
N16765 X-28.148 Y-2.801
N16770 X-28.176 Y-2.841
N16775 X-28.195 Y-2.887
N16780 X-28.203 Y-2.935
N16785 G2 X-28.439 Y-3.943 I-3.138 J0.203
N16790 G1 X-24.97 Y-0.5
N16795 G2 X-23.618 Y0.292 I2.215 J-2.232
N16800 X-24.969 Y1.083 I0.864 J3.024
N16805 G1 X-28.439 Y4.526
N16810 G2 X-30.478 Y0.292 I-2.903 J-1.211
N16815 X-28.203 Y-2.935 I-0.864 J-3.024
N16820 G1 Z5.
N16825 X-11.059 Y11.541
N16830 Z1. F666.67
N16835 Z-3.175 F2000.
N16840 X-19.806 Y20.288
N16845 Y20.604
N16850 Y20.999
N16855 G2 X-20.407 Y20.89 I-1.17 J4.735
N16860 X-20.517 Y20.288 I-4.844 J0.568
N16865 G1 X-20.121
N16870 X-19.806
N16875 X-19.748 Y20.28
N16880 X-19.695 Y20.258
N16885 X-19.649 Y20.223
N16890 X-19.619 Y20.203
N16895 X-19.584 Y20.196
N16900 X-19.548 Y20.203
N16905 X-19.519 Y20.223
N16910 X-19.499 Y20.253
N16915 X-19.492 Y20.288
N16920 Y21.419
N16925 G2 X-20.697 Y21.179 I-1.484 J4.315
N16930 X-20.936 Y19.974 I-4.555 J0.279
N16935 G1 X-19.492
N16940 Y20.288
N16945 G2 X-19.338 Y20.518 I0.249 J0.
N16950 G3 X-19.185 Y20.748 I-0.096 J0.23
N16955 G1 Y21.873
N16960 G2 X-20.995 Y21.477 I-1.791 J3.862
N16965 X-21.39 Y19.667 I-4.257 J-0.019
N16970 G1 X-19.204
N16975 X-19.185
N16980 Y19.687
N16985 Y20.748
N16990 G2 X-19.036 Y20.972 I0.242 J0.
N16995 G3 X-18.887 Y21.196 I-0.093 J0.224
N17000 G1 Y22.372
N17005 G2 X-21.307 Y21.79 I-2.089 J3.362
N17010 X-21.889 Y19.369 I-3.944 J-0.331
N17015 G1 X-19.204
N17020 G2 X-18.873 Y19.355 I0. J-3.958
N17025 X-18.887 Y19.687 I3.944 J0.332
N17030 G1 Y21.196
N17035 G2 X-18.743 Y21.411 I0.233 J0.
N17040 G3 X-18.6 Y21.626 I-0.09 J0.215
N17045 G1 Y22.936
N17050 G2 X-21.641 Y22.124 I-2.376 J2.798
N17055 X-22.453 Y19.082 I-3.61 J-0.665
N17060 G1 X-19.204
N17065 G2 X-18.539 Y19.021 I0. J-3.671
N17070 X-18.6 Y19.687 I3.61 J0.666
N17075 G1 Y21.626
N17080 X-18.593 Y21.678
N17085 X-18.575 Y21.727
N17090 X-18.547 Y21.77
N17095 X-18.508 Y21.805
N17100 X-18.463 Y21.831
N17105 X-18.418 Y21.856
N17110 X-18.38 Y21.892
N17115 X-18.351 Y21.935
N17120 X-18.333 Y21.984
N17125 X-18.327 Y22.036
N17130 Y23.606
N17135 G2 X-22.016 Y22.499 I-2.649 J2.129
N17140 X-23.123 Y18.809 I-3.235 J-1.04
N17145 G1 X-19.204
N17150 G2 X-18.163 Y18.646 I0. J-3.398
N17155 X-18.327 Y19.687 I3.235 J1.041
N17160 G1 Y22.036
N17165 X-18.321 Y22.083
N17170 X-18.304 Y22.129
N17175 X-18.278 Y22.169
N17180 X-18.242 Y22.202
N17185 X-18.2 Y22.225
N17190 X-18.158 Y22.249
N17195 X-18.123 Y22.282
N17200 X-18.096 Y22.322
N17205 X-18.079 Y22.367
N17210 X-18.074 Y22.415
N17215 Y24.522
N17220 G2 X-22.5 Y22.983 I-2.902 J1.212
N17225 X-24.04 Y18.556 I-2.751 J-1.525
N17230 G1 X-19.204
N17235 G2 X-17.679 Y18.161 I0. J-3.145
N17240 X-18.074 Y19.687 I2.751 J1.525
N17245 G1 Y22.415
N17250 Z1.
N17255 X-21.793 Y22.275
N17260 Z-3.175
N17265 X-29.856 Y30.337
N17270 G2 Y30.722 I4.084 J0.193
N17275 X-30.239 I-0.192 J4.084
N17280 Y30.337 I-4.084 J-0.193
N17285 X-29.856 I0.192 J-4.084
N17290 G1 X-29.81 Y30.331
N17295 X-29.768 Y30.315
N17300 X-29.729 Y30.291
N17305 X-29.696 Y30.26
N17310 X-29.665 Y30.237
N17315 X-29.627 Y30.228
N17320 X-29.589 Y30.235
N17325 X-29.557 Y30.256
N17330 X-29.537 Y30.289
N17335 X-29.531 Y30.327
N17340 G2 X-29.496 Y31.082 I3.759 J0.203
N17345 X-30.599 I-0.552 J3.724
N17350 Y29.978 I-3.724 J-0.552
N17355 X-29.496 I0.552 J-3.724
N17360 X-29.531 Y30.327 I3.724 J0.552
N17365 X-29.382 Y30.571 I0.253 J0.014
N17370 G3 X-29.218 Y30.805 I-0.115 J0.256
N17375 G2 X-29.095 Y31.483 I3.446 J-0.275
N17380 X-31. I-0.953 J3.323
N17385 Y29.577 I-3.323 J-0.954
N17390 X-29.095 I0.953 J-3.323
N17395 X-29.218 Y30.805 I3.323 J0.953
N17400 X-29.051 Y31.011 I0.234 J-0.019
N17405 G3 X-28.871 Y31.205 I-0.074 J0.25
N17410 G2 X-28.587 Y31.99 I3.099 J-0.675
N17415 X-31.508 I-1.46 J2.815
N17420 X-31.507 Y29.069 I-2.815 J-1.461
N17425 X-28.587 I1.46 J-2.815
N17430 X-28.871 Y31.205 I2.815 J1.461
N17435 G1 Z1.
N17440 X-30.8 Y31.283
N17445 Z-3.175
N17450 X-38.009 Y38.49
N17455 X-38.008 Y38.801
N17460 Y39.192
N17465 G2 X-38.604 Y39.084 I-1.163 J4.737
N17470 X-38.712 Y38.489 I-4.844 J0.569
N17475 G1 X-38.009 Y38.49
N17480 X-37.951 Y38.483
N17485 X-37.898 Y38.461
N17490 X-37.851 Y38.426
N17495 X-37.821 Y38.406
N17500 X-37.786 Y38.4
N17505 X-37.751 Y38.407
N17510 X-37.722 Y38.427
N17515 X-37.702 Y38.457
N17520 X-37.695 Y38.492
N17525 X-37.693 Y39.611
N17530 G2 X-38.894 Y39.373 I-1.478 J4.318
N17535 X-39.131 Y38.175 I-4.555 J0.279
N17540 G1 X-37.695 Y38.177
N17545 Y38.492
N17550 G2 X-37.541 Y38.722 I0.249 J0.
N17555 G3 X-37.387 Y38.951 I-0.096 J0.23
N17560 G1 X-37.386 Y40.064
N17565 G2 X-39.192 Y39.672 I-1.785 J3.864
N17570 X-39.584 Y37.867 I-4.257 J-0.019
N17575 G1 X-37.413 Y37.871
N17580 X-37.389 Y37.87
N17585 Y37.896
N17590 X-37.387 Y38.951
N17595 G2 X-37.238 Y39.175 I0.242 J0.
N17600 G3 X-37.088 Y39.398 I-0.093 J0.224
N17605 G1 X-37.087 Y40.563
N17610 G2 X-39.504 Y39.984 I-2.084 J3.365
N17615 X-40.083 Y37.568 I-3.945 J-0.332
N17620 G1 X-37.413 Y37.572
N17625 G2 X-37.077 Y37.558 I0.006 J-3.958
N17630 X-37.09 Y37.896 I3.945 J0.332
N17635 G1 X-37.088 Y39.398
N17640 G2 X-36.944 Y39.614 I0.233 J0.
N17645 G3 X-36.801 Y39.829 I-0.089 J0.215
N17650 G1 X-36.799 Y41.126
N17655 G2 X-39.838 Y40.318 I-2.372 J2.802
N17660 X-40.647 Y37.28 I-3.61 J-0.666
N17665 G1 X-37.413 Y37.285
N17670 G2 X-36.742 Y37.224 I0.005 J-3.671
N17675 X-36.803 Y37.895 I3.61 J0.666
N17680 G1 X-36.801 Y39.829
N17685 X-36.794 Y39.88
N17690 X-36.776 Y39.929
N17695 X-36.747 Y39.972
N17700 X-36.709 Y40.008
N17705 X-36.664 Y40.033
N17710 X-36.618 Y40.059
N17715 X-36.58 Y40.094
N17720 X-36.551 Y40.137
N17725 X-36.533 Y40.186
N17730 X-36.527 Y40.238
