%
(SPOONTOPPARALLEL3175)
(T3  D=3.175 CR=1.587 - ZMIN=-14.643 - BALL END MILL)
N10 G90 G94 G17 G91.1
N15 G21
(WHEN USING FUSION 360 FOR PERSONAL USE, THE FEEDRATE OF)
(RAPID MOVES IS REDUCED TO MATCH THE FEEDRATE OF CUTTING)
(MOVES, WHICH CAN INCREASE MACHINING TIME. UNRESTRICTED RAPID)
(MOVES ARE AVAILABLE WITH A FUSION 360 SUBSCRIPTION.)
N20 G53 G0 Z0.
(PARALLEL1)
N25 T3 M6
N30 S10000 M3
N35 G54
N40 G0 X64.621 Y-26.859
N45 G43 Z15. H3
N50 G1 Z-0.465 F3000.
N55 Z-2.154
N60 G18 G3 X64.304 Z-2.472 I-0.317 K0.
N65 G1 X62.401 Z-2.477
N70 G3 X62.083 Z-2.159 I-0.001 K0.317
N75 G1 Z5.
N80 X75.381 Y-25.272
N85 Z-0.294
N90 Z-1.989
N95 G3 X75.082 Z-2.306 I-0.318 K0.
N100 G1 X74.027 Z-2.368
N105 X72.857 Z-2.463
N110 X69.84 Z-2.726
N115 X68.011 Z-2.859
N120 X66.428 Z-2.945
N125 X64.749 Z-3.008
N130 X63.091 Z-3.037
N135 X61.59 Z-3.036
N140 X59.737 Z-3.005
N145 X57.814 Z-2.937
N150 X55.441 Z-2.816
N155 X49.729 Z-2.449
N160 X48.084 Z-2.363
N165 X47.317 Z-2.331
N170 X39.212 Z-1.858
N175 X39.171 Y-25.27 Z-1.856
N180 X39.13 Y-25.265 Z-1.855
N185 X39.089 Y-25.256 Z-1.854
N190 X39.049 Y-25.244 Z-1.853
N195 X39.011 Y-25.228 Z-1.854
N200 X38.974 Y-25.209 Z-1.855
N205 X38.939 Y-25.187 Z-1.856
N210 X38.905 Y-25.162 Z-1.859
N215 X38.875 Y-25.134 Z-1.861
N220 X38.846 Y-25.104 Z-1.865
N225 X38.821 Y-25.072 Z-1.869
N230 X38.798 Y-25.037 Z-1.873
N235 X38.779 Y-25.001 Z-1.878
N240 X38.762 Y-24.963 Z-1.883
N245 X38.75 Y-24.924 Z-1.889
N250 X38.74 Y-24.884 Z-1.895
N255 X38.734 Y-24.843 Z-1.901
N260 X38.732 Y-24.802 Z-1.908
N265 X38.726 Y-24.155 Z-2.015
N270 X38.727 Y-24.114 Z-2.022
N275 X38.732 Y-24.073 Z-2.029
N280 X38.741 Y-24.033 Z-2.036
N285 X38.753 Y-23.994 Z-2.043
N290 X38.769 Y-23.956 Z-2.05
N295 X38.787 Y-23.92 Z-2.058
N300 X38.809 Y-23.885 Z-2.065
N305 X38.834 Y-23.853 Z-2.071
N310 X38.862 Y-23.823 Z-2.078
N315 X38.892 Y-23.795 Z-2.084
N320 X38.925 Y-23.77 Z-2.09
N325 X38.96 Y-23.748 Z-2.096
N330 X38.996 Y-23.729 Z-2.101
N335 X39.035 Y-23.713 Z-2.106
N340 X39.074 Y-23.701 Z-2.111
N345 X39.114 Y-23.692 Z-2.114
N350 X39.155 Y-23.687 Z-2.118
N355 X39.197 Y-23.685 Z-2.12
N360 X39.937 Z-2.164
N365 X41.062 Z-2.244
N370 X42.831 Z-2.406
N375 X44.712 Z-2.614
N380 X48.696 Z-3.096
N385 X51.318 Z-3.392
N390 X53.372 Z-3.592
N395 X55.049 Z-3.728
N400 X56.728 Z-3.837
N405 X58.533 Z-3.921
N410 X60.188 Z-3.962
N415 X61.728 Z-3.971
N420 X63.094 Z-3.955
N425 X64.638 Z-3.905
N430 X65.969 Z-3.837
N435 X67.455 Z-3.73
N440 X68.939 Z-3.59
N445 X70.249 Z-3.441
N450 X71.517 Z-3.271
N455 X73.14 Z-3.021
N460 X75.266 Z-2.652
N465 X76.617 Z-2.423
N470 X77.528 Z-2.291
N475 X78.297 Z-2.208
N480 X78.92 Z-2.166
N485 X78.95 Z-2.161
N490 X78.979 Z-2.15
N495 X79.013 Z-2.138
N500 X79.049 Z-2.134
N505 X81.877
N510 X81.918 Y-23.683
N515 X81.96 Y-23.678 Z-2.133
N520 X82. Y-23.669 Z-2.132
N525 X82.04 Y-23.656 Z-2.131
N530 X82.078 Y-23.64 Z-2.13
N535 X82.115 Y-23.621 Z-2.128
N540 X82.15 Y-23.599 Z-2.126
N545 X82.183 Y-23.574 Z-2.124
N550 X82.214 Y-23.546 Z-2.122
N555 X82.242 Y-23.515 Z-2.119
N560 X82.267 Y-23.483 Z-2.116
N565 X82.289 Y-23.448 Z-2.113
N570 X82.309 Y-23.411 Z-2.11
N575 X82.324 Y-23.373 Z-2.107
N580 X82.337 Y-23.333 Z-2.103
N585 X82.346 Y-23.293 Z-2.1
N590 X82.351 Y-23.252 Z-2.096
N595 X82.353 Y-23.21 Z-2.093
N600 Y-22.572 Z-2.037
N605 X82.351 Y-22.531 Z-2.034
N610 X82.346 Y-22.49 Z-2.03
N615 X82.337 Y-22.45 Z-2.027
N620 X82.324 Y-22.41 Z-2.023
N625 X82.309 Y-22.372 Z-2.02
N630 X82.289 Y-22.335 Z-2.017
N635 X82.267 Y-22.3 Z-2.014
N640 X82.242 Y-22.267 Z-2.011
N645 X82.214 Y-22.237 Z-2.008
N650 X82.183 Y-22.209 Z-2.006
N655 X82.15 Y-22.184 Z-2.004
N660 X82.115 Y-22.161 Z-2.002
N665 X82.078 Y-22.142 Z-2.
N670 X82.04 Y-22.127 Z-1.999
N675 X82. Y-22.114 Z-1.998
N680 X81.96 Y-22.105 Z-1.997
N685 X81.918 Y-22.1
N690 X81.877 Y-22.098 Z-1.996
N695 X81.841 Z-2.
N700 X81.807 Z-2.013
N705 X81.778 Z-2.023
N710 X81.748 Z-2.028
N715 X81.124 Z-2.069
N720 X80.55 Z-2.137
N725 X79.895 Z-2.244
N730 X79.473 Z-2.326
N735 X78.722 Z-2.489
N740 X77.723 Z-2.728
N745 X76.695 Z-2.986
N750 X75.052 Z-3.388
N755 X73.785 Z-3.671
N760 X72.513 Z-3.929
N765 X71.045 Z-4.188
N770 X69.571 Z-4.406
N775 X68.282 Z-4.566
N780 X66.99 Z-4.703
N785 X65.485 Z-4.825
N790 X63.954 Z-4.915
N795 X62.695 Z-4.965
N800 X61.134 Z-4.994
N805 X59.647
N810 X58.001 Z-4.957
N815 X56.373 Z-4.889
N820 X54.67 Z-4.784
N825 X52.823 Z-4.633
N830 X50.959 Z-4.441
N835 X49.1 Z-4.216
N840 X47.055 Z-3.934
N845 X44.825 Z-3.593
N850 X39.546 Z-2.727
N855 X38.054 Z-2.496
N860 X36.748 Z-2.31
N865 X35.25 Z-2.123
N870 X33.653 Z-1.961
N875 X32.624 Z-1.88
N880 X32.173 Z-1.85
N885 X25.901 Z-1.434
N890 X25.86 Y-22.096 Z-1.432
N895 X25.819 Y-22.091 Z-1.43
N900 X25.778 Y-22.082 Z-1.428
N905 X25.739 Y-22.069 Z-1.426
N910 X25.7 Y-22.053 Z-1.425
N915 X25.663 Y-22.034 Z-1.424
N920 X25.628 Y-22.012
N925 X25.595 Y-21.987
N930 X25.564 Y-21.959
N935 X25.536 Y-21.928 Z-1.425
N940 X25.511 Y-21.896 Z-1.426
N945 X25.488 Y-21.861 Z-1.427
N950 X25.469 Y-21.824 Z-1.429
N955 X25.453 Y-21.786 Z-1.431
N960 X25.44 Y-21.746 Z-1.434
N965 X25.431 Y-21.706 Z-1.437
N970 X25.425 Y-21.665 Z-1.44
N975 X25.423 Y-21.623 Z-1.443
N980 X25.42 Y-20.985 Z-1.498
N985 X25.421 Y-20.944 Z-1.501
N990 X25.427 Y-20.903 Z-1.505
N995 X25.435 Y-20.863 Z-1.509
N1000 X25.448 Y-20.823 Z-1.513
N1005 X25.463 Y-20.785 Z-1.518
N1010 X25.482 Y-20.748 Z-1.522
N1015 X25.504 Y-20.713 Z-1.526
N1020 X25.529 Y-20.68 Z-1.531
N1025 X25.557 Y-20.65 Z-1.535
N1030 X25.588 Y-20.622 Z-1.54
N1035 X25.62 Y-20.597 Z-1.544
N1040 X25.655 Y-20.574 Z-1.548
N1045 X25.692 Y-20.555 Z-1.552
N1050 X25.73 Y-20.539 Z-1.556
N1055 X25.769 Y-20.527 Z-1.56
N1060 X25.81 Y-20.518 Z-1.563
N1065 X25.851 Y-20.513 Z-1.566
N1070 X25.892 Y-20.511 Z-1.569
N1075 X26.396 Z-1.603
N1080 X27.348 Z-1.683
N1085 X28.395 Z-1.786
N1090 X29.818 Z-1.962
N1095 X31.264 Z-2.175
N1100 X32.678 Z-2.41
N1105 X33.929 Z-2.638
N1110 X35.58 Z-2.955
N1115 X39.964 Z-3.838
N1120 X42.684 Z-4.361
N1125 X44.887 Z-4.749
N1130 X46.737 Z-5.042
N1135 X48.572 Z-5.301
N1140 X50.432 Z-5.527
N1145 X51.744 Z-5.664
N1150 X53.419 Z-5.809
N1155 X55.081 Z-5.921
N1160 X56.61 Z-5.99
N1165 X58.253 Z-6.035
N1170 X59.906 Z-6.046
N1175 X61.467 Z-6.019
N1180 X62.984 Z-5.961
N1185 X64.499 Z-5.873
N1190 X65.87 Z-5.76
N1195 X67.257 Z-5.619
N1200 X68.546 Z-5.459
N1205 X69.87 Z-5.265
N1210 X71.151 Z-5.047
N1215 X72.426 Z-4.797
N1220 X73.526 Z-4.555
N1225 X74.602 Z-4.289
N1230 X75.488 Z-4.052
N1235 X76.698 Z-3.707
N1240 X79.145 Z-2.955
N1245 X80.004 Z-2.694
N1250 X80.849 Z-2.453
N1255 X81.682 Z-2.239
N1260 X82.204 Z-2.123
N1265 X82.731 Z-2.026
N1270 X83.199 Z-1.959
N1275 X83.755 Z-1.906
N1280 X84.137 Z-1.891
N1285 X84.17 Z-1.887
N1290 X84.201 Z-1.875
N1295 X84.235 Z-1.863
N1300 X84.271 Z-1.859
N1305 X86.431
N1310 X86.473 Y-20.509
N1315 X86.514 Y-20.504 Z-1.858
N1320 X86.554 Y-20.495
N1325 X86.594 Y-20.482 Z-1.857
N1330 X86.632 Y-20.466 Z-1.855
N1335 X86.669 Y-20.447 Z-1.853
N1340 X86.704 Y-20.425 Z-1.851
N1345 X86.737 Y-20.4 Z-1.849
N1350 X86.768 Y-20.372 Z-1.847
N1355 X86.796 Y-20.341 Z-1.844
N1360 X86.821 Y-20.309 Z-1.841
N1365 X86.844 Y-20.274 Z-1.838
N1370 X86.863 Y-20.237 Z-1.835
N1375 X86.879 Y-20.199 Z-1.831
N1380 X86.891 Y-20.159 Z-1.828
N1385 X86.9 Y-20.119 Z-1.824
N1390 X86.906 Y-20.078 Z-1.82
N1395 X86.907 Y-20.037 Z-1.817
N1400 Y-19.398 Z-1.76
N1405 X86.906 Y-19.357 Z-1.756
N1410 X86.9 Y-19.316 Z-1.753
N1415 X86.891 Y-19.275 Z-1.749
N1420 X86.879 Y-19.236 Z-1.745
N1425 X86.863 Y-19.198 Z-1.742
N1430 X86.844 Y-19.161 Z-1.739
N1435 X86.821 Y-19.126 Z-1.736
N1440 X86.796 Y-19.093 Z-1.733
N1445 X86.768 Y-19.063 Z-1.73
N1450 X86.737 Y-19.035 Z-1.728
N1455 X86.704 Y-19.01 Z-1.725
N1460 X86.669 Y-18.987 Z-1.723
N1465 X86.632 Y-18.968 Z-1.722
N1470 X86.594 Y-18.952 Z-1.72
N1475 X86.554 Y-18.94 Z-1.719
N1480 X86.514 Y-18.931 Z-1.718
N1485 X86.473 Y-18.926
N1490 X86.431 Y-18.924
N1495 X86.395 Z-1.722
N1500 X86.361 Z-1.734
N1505 X86.33 Z-1.745
N1510 X86.296 Z-1.75
N1515 X85.778 Z-1.766
N1520 X85.306 Z-1.81
N1525 X84.69 Z-1.902
N1530 X84.354 Z-1.966
N1535 X83.851 Z-2.079
N1540 X83.332 Z-2.213
N1545 X82.489 Z-2.461
N1550 X81.635 Z-2.74
N1555 X80.75 Z-3.047
N1560 X77.98 Z-4.036
N1565 X76.606 Z-4.5
N1570 X75.548 Z-4.829
N1575 X74.299 Z-5.187
N1580 X73.188 Z-5.469
N1585 X72.109 Z-5.719
N1590 X70.835 Z-5.979
N1595 X69.538 Z-6.211
N1600 X68.254 Z-6.412
N1605 X66.947 Z-6.585
N1610 X65.656 Z-6.732
N1615 X64.172 Z-6.865
N1620 X62.684 Z-6.967
N1625 X61.079 Z-7.044
N1630 X59.528 Z-7.08
N1635 X57.96 Z-7.086
N1640 X56.399 Z-7.06
N1645 X54.969 Z-7.007
N1650 X53.448 Z-6.925
N1655 X51.98 Z-6.815
N1660 X50.286 Z-6.66
N1665 X48.445 Z-6.448
N1670 X46.967 Z-6.251
N1675 X45.115 Z-5.97
N1680 X43.288 Z-5.656
N1685 X41.279 Z-5.274
N1690 X39.09 Z-4.818
N1695 X36.386 Z-4.212
N1700 X31.968 Z-3.185
N1705 X30.39 Z-2.833
N1710 X28.913 Z-2.52
N1715 X27.6 Z-2.26
N1720 X26.236 Z-2.014
N1725 X24.962 Z-1.81
N1730 X23.542 Z-1.618
N1735 X22.231 Z-1.477
N1740 X21.087 Z-1.385
N1745 X20.312 Z-1.339
N1750 X15.206 Z-1.037
N1755 X15.164 Y-18.922 Z-1.035
N1760 X15.123 Y-18.917 Z-1.033
N1765 X15.083 Y-18.908 Z-1.031
N1770 X15.043 Y-18.895 Z-1.03
N1775 X15.005 Y-18.879
N1780 X14.968 Y-18.86 Z-1.029
N1785 X14.933 Y-18.838
N1790 X14.9 Y-18.813 Z-1.03
N1795 X14.869 Y-18.785 Z-1.031
N1800 X14.841 Y-18.755 Z-1.032
N1805 X14.815 Y-18.722 Z-1.034
N1810 X14.793 Y-18.687 Z-1.036
N1815 X14.773 Y-18.65 Z-1.039
N1820 X14.757 Y-18.612 Z-1.041
N1825 X14.745 Y-18.573 Z-1.045
N1830 X14.735 Y-18.532 Z-1.048
N1835 X14.73 Y-18.491 Z-1.052
N1840 X14.728 Y-18.45 Z-1.056
N1845 X14.724 Y-17.811 Z-1.119
N1850 X14.725 Y-17.769 Z-1.123
N1855 X14.731 Y-17.728 Z-1.128
N1860 X14.739 Y-17.688 Z-1.132
N1865 X14.752 Y-17.649 Z-1.137
N1870 X14.767 Y-17.61 Z-1.142
N1875 X14.786 Y-17.574 Z-1.146
N1880 X14.808 Y-17.539 Z-1.151
N1885 X14.833 Y-17.506 Z-1.156
N1890 X14.861 Y-17.476 Z-1.161
N1895 X14.892 Y-17.448 Z-1.165
N1900 X14.924 Y-17.423 Z-1.17
N1905 X14.959 Y-17.4 Z-1.174
N1910 X14.996 Y-17.381 Z-1.178
N1915 X15.034 Y-17.365 Z-1.182
N1920 X15.074 Y-17.353 Z-1.185
N1925 X15.114 Y-17.344 Z-1.189
N1930 X15.155 Y-17.339 Z-1.192
N1935 X15.197 Y-17.337 Z-1.194
N1940 X16.012 Z-1.223
N1945 X16.78 Z-1.266
N1950 X17.733 Z-1.337
N1955 X18.684 Z-1.431
N1960 X19.443 Z-1.522
N1965 X20.296 Z-1.636
N1970 X21.598 Z-1.843
N1975 X22.867 Z-2.077
N1980 X24.213 Z-2.353
N1985 X25.624 Z-2.668
N1990 X27.092 Z-3.018
N1995 X28.372 Z-3.336
N2000 X30.391 Z-3.852
N2005 X34.758 Z-4.978
N2010 X37.097 Z-5.55
N2015 X39.072 Z-6.002
N2020 X41.073 Z-6.422
N2025 X42.894 Z-6.768
N2030 X44.533 Z-7.047
N2035 X46.366 Z-7.323
N2040 X48.036 Z-7.538
N2045 X49.726 Z-7.723
N2050 X51.401 Z-7.871
N2055 X53.1 Z-7.985
N2060 X54.712 Z-8.059
N2065 X56.17 Z-8.097
N2070 X57.625 Z-8.11
N2075 X59.088 Z-8.092
N2080 X60.725 Z-8.038
N2085 X62.246 Z-7.957
N2090 X63.712 Z-7.844
N2095 X64.835 Z-7.739
N2100 X66.296 Z-7.571
N2105 X67.602 Z-7.396
N2110 X69.074 Z-7.161
N2115 X70.371 Z-6.922
N2120 X71.569 Z-6.675
N2125 X72.907 Z-6.359
N2130 X74.162 Z-6.027
N2135 X75.242 Z-5.71
N2140 X76.277 Z-5.374
N2145 X77.484 Z-4.953
N2150 X78.879 Z-4.427
N2155 X81.176 Z-3.513
N2160 X82.108 Z-3.143
N2165 X82.785 Z-2.883
N2170 X83.282 Z-2.699
N2175 X84.134 Z-2.402
N2180 X84.663 Z-2.231
N2185 X85.176 Z-2.08
N2190 X85.527 Z-1.985
N2195 X85.88 Z-1.898
N2200 X86.235 Z-1.82
N2205 X86.827 Z-1.715
N2210 X87.381 Z-1.643
N2215 X87.815 Z-1.611
N2220 X88.352 Z-1.606
N2225 X88.387 Z-1.601
N2230 X88.42 Z-1.589
N2235 X88.454 Z-1.577
N2240 X88.49 Z-1.573
N2245 X90.535
N2250 X90.576 Y-17.335
N2255 X90.617 Y-17.33
N2260 X90.658 Y-17.321 Z-1.572
N2265 X90.698 Y-17.308 Z-1.571
N2270 X90.736 Y-17.292 Z-1.569
N2275 X90.773 Y-17.273 Z-1.567
N2280 X90.808 Y-17.251 Z-1.565
N2285 X90.841 Y-17.226 Z-1.563
N2290 X90.871 Y-17.198 Z-1.56
N2295 X90.899 Y-17.167 Z-1.557
N2300 X90.925 Y-17.135 Z-1.554
N2305 X90.947 Y-17.1 Z-1.551
N2310 X90.966 Y-17.063 Z-1.547
N2315 X90.982 Y-17.025 Z-1.544
N2320 X90.995 Y-16.985 Z-1.54
N2325 X91.004 Y-16.945 Z-1.536
N2330 X91.009 Y-16.904 Z-1.532
N2335 X91.011 Y-16.863 Z-1.528
N2340 Y-16.224 Z-1.468
N2345 X91.009 Y-16.183 Z-1.464
N2350 X91.004 Y-16.142 Z-1.46
N2355 X90.995 Y-16.101 Z-1.456
N2360 X90.982 Y-16.062 Z-1.452
N2365 X90.966 Y-16.024 Z-1.449
N2370 X90.947 Y-15.987 Z-1.445
N2375 X90.925 Y-15.952 Z-1.442
N2380 X90.899 Y-15.919 Z-1.439
N2385 X90.871 Y-15.889 Z-1.436
N2390 X90.841 Y-15.861 Z-1.433
N2395 X90.808 Y-15.836 Z-1.431
N2400 X90.773 Y-15.813 Z-1.429
N2405 X90.736 Y-15.794 Z-1.427
N2410 X90.698 Y-15.778 Z-1.426
N2415 X90.658 Y-15.766 Z-1.424
N2420 X90.617 Y-15.757 Z-1.423
N2425 X90.576 Y-15.752
N2430 X90.535 Y-15.75
N2435 X90.499 Z-1.427
N2440 X90.465 Z-1.439
N2445 X90.43 Z-1.451
N2450 X90.394 Z-1.455
N2455 X89.845 Z-1.45
N2460 X89.358 Z-1.476
N2465 X88.93 Z-1.518
N2470 X88.57 Z-1.568
N2475 X88.212 Z-1.63
N2480 X87.856 Z-1.701
N2485 X87.501 Z-1.78
N2490 X86.963 Z-1.918
N2495 X86.613 Z-2.017
N2500 X85.921 Z-2.233
N2505 X85.413 Z-2.406
N2510 X85.071 Z-2.529
N2515 X84.393 Z-2.787
N2520 X83.223 Z-3.264
N2525 X82.554 Z-3.548
N2530 X79.679 Z-4.793
N2535 X78.319 Z-5.355
N2540 X77.143 Z-5.807
N2545 X76.084 Z-6.189
N2550 X75.215 Z-6.477
N2555 X74.138 Z-6.808
N2560 X73.072 Z-7.105
N2565 X71.812 Z-7.422
N2570 X70.545 Z-7.705
N2575 X69.271 Z-7.96
N2580 X67.765 Z-8.223
N2585 X66.082 Z-8.472
N2590 X64.583 Z-8.654
N2595 X63.1 Z-8.804
N2600 X61.595 Z-8.925
N2605 X60.083 Z-9.01
N2610 X58.545 Z-9.068
N2615 X57.18 Z-9.091
N2620 X55.623
N2625 X54.062 Z-9.058
N2630 X52.541 Z-8.994
N2635 X51.03 Z-8.903
N2640 X49.354 Z-8.768
N2645 X47.661 Z-8.595
N2650 X45.992 Z-8.389
N2655 X44.346 Z-8.152
N2660 X42.686 Z-7.88
N2665 X41.032 Z-7.574
N2670 X39.403 Z-7.242
N2675 X37.594 Z-6.838
N2680 X35.644 Z-6.365
N2685 X33.665 Z-5.851
N2690 X31.12 Z-5.157
N2695 X26.023 Z-3.724
N2700 X24.751 Z-3.375
N2705 X23.643 Z-3.078
N2710 X22.255 Z-2.721
N2715 X20.791 Z-2.369
N2720 X19.741 Z-2.136
N2725 X19.18 Z-2.019
N2730 X18.148 Z-1.819
N2735 X17.489 Z-1.704
N2740 X16.659 Z-1.57
N2745 X15.997 Z-1.476
N2750 X15.163 Z-1.371
N2755 X14.497 Z-1.301
N2760 X13.66 Z-1.228
N2765 X12.991 Z-1.185
N2770 X12.284 Z-1.153
N2775 X11.516 Z-1.14
N2780 X11.481 Z-1.135
N2785 X11.449 Z-1.123
N2790 X11.415 Z-1.111
N2795 X11.379 Z-1.107
N2800 X9.598
N2805 X9.557 Y-15.748
N2810 X9.516 Y-15.743
N2815 X9.475 Y-15.734
N2820 X9.436 Y-15.721
N2825 X9.397 Y-15.705 Z-1.106
N2830 X9.36 Y-15.686
N2835 X9.325 Y-15.664 Z-1.105
N2840 X9.292 Y-15.638
N2845 X9.262 Y-15.61 Z-1.104
N2850 X9.234 Y-15.58
N2855 X9.208 Y-15.547 Z-1.103
N2860 X9.186 Y-15.512 Z-1.102
N2865 X9.167 Y-15.475
N2870 X9.151 Y-15.437 Z-1.101
N2875 X9.138 Y-15.397 Z-1.1
N2880 X9.129 Y-15.356 Z-1.099
N2885 X9.124 Y-15.315 Z-1.098
N2890 X9.122 Y-15.274 Z-1.097
N2895 Y-14.639 Z-1.085
N2900 X9.124 Y-14.597 Z-1.084
N2905 X9.129 Y-14.556 Z-1.083
N2910 X9.138 Y-14.516 Z-1.082
N2915 X9.151 Y-14.476 Z-1.081
N2920 X9.167 Y-14.438 Z-1.08
N2925 X9.186 Y-14.401
N2930 X9.208 Y-14.366 Z-1.079
N2935 X9.234 Y-14.333 Z-1.078
N2940 X9.262 Y-14.302
N2945 X9.292 Y-14.274 Z-1.077
N2950 X9.325 Y-14.249
N2955 X9.36 Y-14.227 Z-1.076
N2960 X9.397 Y-14.207
N2965 X9.436 Y-14.192 Z-1.075
N2970 X9.475 Y-14.179
N2975 X9.516 Y-14.17
N2980 X9.557 Y-14.165
N2985 X9.598 Y-14.163
N2990 X9.634 Z-1.079
N2995 X9.668 Z-1.091
N3000 X9.699 Z-1.102
N3005 X9.731 Z-1.107
N3010 X10.104 Z-1.123
N3015 X10.773 Z-1.166
N3020 X11.419 Z-1.223
N3025 X11.989 Z-1.285
N3030 X12.748 Z-1.383
N3035 X13.504 Z-1.497
N3040 X14.313 Z-1.636
N3045 X15.158 Z-1.796
N3050 X16.242 Z-2.026
N3055 X16.895 Z-2.172
N3060 X17.712 Z-2.369
N3065 X18.662 Z-2.608
N3070 X20.188 Z-3.021
N3075 X21.731 Z-3.463
N3080 X23.381 Z-3.951
N3085 X26.801 Z-4.989
N3090 X30.226 Z-6.014
N3095 X32.413 Z-6.64
N3100 X34.405 Z-7.18
N3105 X36.202 Z-7.637
N3110 X37.969 Z-8.051
N3115 X39.801 Z-8.443
N3120 X41.433 Z-8.755
N3125 X43.072 Z-9.036
N3130 X44.736 Z-9.284
N3135 X46.385 Z-9.497
N3140 X48.057 Z-9.675
N3145 X49.562 Z-9.805
N3150 X51.032 Z-9.906
N3155 X52.658 Z-9.982
N3160 X54.203 Z-10.025
N3165 X55.764 Z-10.037
N3170 X57.284 Z-10.017
N3175 X58.827 Z-9.967
N3180 X60.359 Z-9.884
N3185 X61.907 Z-9.771
N3190 X63.391 Z-9.628
N3195 X64.871 Z-9.456
N3200 X66.347 Z-9.253
N3205 X68.007 Z-8.982
N3210 X69.471 Z-8.704
N3215 X70.74 Z-8.431
N3220 X72.004 Z-8.131
N3225 X73.259 Z-7.798
N3230 X74.157 Z-7.537
N3235 X75.239 Z-7.19
N3240 X76.259 Z-6.84
N3245 X77.296 Z-6.448
N3250 X78.482 Z-5.971
N3255 X79.848 Z-5.378
N3260 X81.819 Z-4.474
N3265 X83.179 Z-3.843
N3270 X83.858 Z-3.534
N3275 X84.347 Z-3.317
N3280 X85.189 Z-2.954
N3285 X85.704 Z-2.745
N3290 X86.221 Z-2.545
N3295 X86.804 Z-2.33
N3300 X87.411 Z-2.123
N3305 X88.003 Z-1.937
N3310 X88.745 Z-1.732
N3315 X89.307 Z-1.597
N3320 X89.981 Z-1.464
N3325 X90.491 Z-1.384
N3330 X91.003 Z-1.325
N3335 X91.356 Z-1.298
N3340 X91.939 Z-1.28
N3345 X92.495 Z-1.298
N3350 X92.534 Z-1.294
N3355 X92.57 Z-1.282
N3360 X92.604 Z-1.27
N3365 X92.64 Z-1.265
N3370 X94.923
N3375 X94.964 Y-14.161
N3380 X95.005 Y-14.156
N3385 X95.046 Y-14.147 Z-1.264
N3390 X95.086 Y-14.134 Z-1.262
N3395 X95.124 Y-14.118 Z-1.261
N3400 X95.161 Y-14.099 Z-1.259
N3405 X95.196 Y-14.077 Z-1.256
N3410 X95.229 Y-14.052 Z-1.254
N3415 X95.26 Y-14.024 Z-1.251
N3420 X95.288 Y-13.994 Z-1.247
N3425 X95.313 Y-13.961 Z-1.244
N3430 X95.335 Y-13.926 Z-1.24
N3435 X95.354 Y-13.889 Z-1.236
N3440 X95.37 Y-13.851 Z-1.232
N3445 X95.383 Y-13.812 Z-1.228
N3450 X95.392 Y-13.771 Z-1.224
N3455 X95.397 Y-13.731 Z-1.219
N3460 X95.399 Y-13.689 Z-1.215
N3465 Y-13.049 Z-1.146
N3470 X95.397 Y-13.008 Z-1.142
N3475 X95.392 Y-12.967 Z-1.137
N3480 X95.383 Y-12.927 Z-1.133
N3485 X95.37 Y-12.887 Z-1.129
N3490 X95.354 Y-12.849 Z-1.125
N3495 X95.335 Y-12.813 Z-1.121
N3500 X95.313 Y-12.778 Z-1.117
N3505 X95.288 Y-12.745 Z-1.114
N3510 X95.26 Y-12.714 Z-1.11
N3515 X95.229 Y-12.687 Z-1.107
N3520 X95.196 Y-12.661 Z-1.105
N3525 X95.161 Y-12.639 Z-1.102
N3530 X95.124 Y-12.62 Z-1.1
N3535 X95.086 Y-12.604 Z-1.099
N3540 X95.046 Y-12.592 Z-1.097
N3545 X95.005 Y-12.583 Z-1.096
N3550 X94.964 Y-12.578
N3555 X94.923 Y-12.576
N3560 X94.887 Z-1.1
N3565 X94.853 Z-1.112
N3570 X94.815 Z-1.125
N3575 X94.775 Z-1.128
N3580 X94.211 Z-1.1
N3585 X93.593 Z-1.103
N3590 X93.251 Z-1.118
N3595 X92.76 Z-1.157
N3600 X92.035 Z-1.244
N3605 X91.507 Z-1.329
N3610 X90.918 Z-1.444
N3615 X90.144 Z-1.624
N3620 X89.608 Z-1.767
N3625 X89.095 Z-1.918
N3630 X88.403 Z-2.141
N3635 X87.879 Z-2.325
N3640 X87.2 Z-2.581
N3645 X86.684 Z-2.785
N3650 X85.857 Z-3.137
N3655 X85.176 Z-3.44
N3660 X84.517 Z-3.747
N3665 X83.672 Z-4.151
N3670 X82.675 Z-4.637
N3675 X80.528 Z-5.682
N3680 X79.159 Z-6.315
N3685 X78.125 Z-6.763
N3690 X77.1 Z-7.183
N3695 X76.064 Z-7.576
N3700 X75. Z-7.947
N3705 X73.945 Z-8.284
N3710 X72.883 Z-8.597
N3715 X71.592 Z-8.941
N3720 X70.31 Z-9.248
N3725 X69.02 Z-9.527
N3730 X67.557 Z-9.806
N3735 X66.088 Z-10.053
N3740 X64.633 Z-10.266
N3745 X63.154 Z-10.449
N3750 X61.671 Z-10.602
N3755 X60.167 Z-10.728
N3760 X58.638 Z-10.82
N3765 X56.932 Z-10.888
N3770 X55.444 Z-10.918
N3775 X53.888
N3780 X52.229 Z-10.885
N3785 X50.613 Z-10.815
N3790 X48.929 Z-10.709
N3795 X47.424 Z-10.584
N3800 X45.751 Z-10.408
N3805 X44.082 Z-10.198
N3810 X42.607 Z-9.981
N3815 X40.948 Z-9.702
N3820 X39.502 Z-9.431
N3825 X37.688 Z-9.049
N3830 X36.068 Z-8.673
N3835 X34.271 Z-8.221
N3840 X32.463 Z-7.731
N3845 X30.845 Z-7.269
N3850 X29.069 Z-6.738
N3855 X26.187 Z-5.835
N3860 X19.914 Z-3.803
N3865 X18.291 Z-3.294
N3870 X17.376 Z-3.016
N3875 X16.643 Z-2.8
N3880 X15.547 Z-2.489
N3885 X14.562 Z-2.226
N3890 X13.747 Z-2.02
N3895 X13.023 Z-1.847
N3900 X12.182 Z-1.662
N3905 X11.527 Z-1.53
N3910 X10.794 Z-1.396
N3915 X10.246 Z-1.308
N3920 X9.717 Z-1.233
N3925 X9.167 Z-1.166
N3930 X8.426 Z-1.099
N3935 X8.265 Z-1.088
N3940 X8.234 Z-1.083
N3945 X8.205 Z-1.072
N3950 X8.195 Z-1.067
N3955 X8.161 Z-1.055
N3960 X8.126 Z-1.051
N3965 X6.843
N3970 G17 G2 X6.367 Y-12.1 I0. J0.476
N3975 G1 Y-11.465
N3980 G2 X6.843 Y-10.989 I0.476 J0.
N3985 G1 X6.879 Z-1.055
N3990 X6.913 Z-1.067
N3995 X6.939 Z-1.078
N4000 X6.967 Z-1.083
N4005 X7.47 Z-1.134
N4010 X8.208 Z-1.236
N4015 X9.016 Z-1.379
N4020 X9.54 Z-1.487
N4025 X10.247 Z-1.646
N4030 X10.966 Z-1.822
N4035 X11.875 Z-2.065
N4040 X12.775 Z-2.321
N4045 X13.873 Z-2.652
N4050 X15.13 Z-3.051
N4055 X16.189 Z-3.399
N4060 X17.811 Z-3.95
N4065 X22.432 Z-5.557
N4070 X25.274 Z-6.523
N4075 X27.619 Z-7.287
N4080 X29.389 Z-7.838
N4085 X31.184 Z-8.372
N4090 X32.804 Z-8.827
N4095 X34.597 Z-9.299
N4100 X36.398 Z-9.737
N4105 X38.003 Z-10.091
N4110 X39.633 Z-10.418
N4115 X41.082 Z-10.676
N4120 X42.743 Z-10.937
N4125 X44.221 Z-11.139
N4130 X45.892 Z-11.329
N4135 X47.566 Z-11.485
N4140 X49.053 Z-11.593
N4145 X50.654 Z-11.674
N4150 X52.103 Z-11.72
N4155 X53.796 Z-11.741
N4160 X55.246 Z-11.73
N4165 X56.886 Z-11.682
N4170 X58.408 Z-11.608
N4175 X59.895 Z-11.504
N4180 X61.399 Z-11.372
N4185 X62.88 Z-11.209
N4190 X64.377 Z-11.014
N4195 X65.851 Z-10.792
N4200 X67.507 Z-10.502
N4205 X68.968 Z-10.208
N4210 X70.235 Z-9.924
N4215 X71.496 Z-9.614
N4220 X72.749 Z-9.272
N4225 X73.994 Z-8.899
N4230 X75.083 Z-8.543
N4235 X76.125 Z-8.165
N4240 X77.176 Z-7.758
N4245 X78.215 Z-7.323
N4250 X79.381 Z-6.798
N4255 X80.588 Z-6.222
N4260 X82.548 Z-5.233
N4265 X84.352 Z-4.314
N4270 X85.175 Z-3.905
N4275 X86.004 Z-3.511
N4280 X86.824 Z-3.14
N4285 X87.668 Z-2.78
N4290 X88.325 Z-2.519
N4295 X88.826 Z-2.33
N4300 X89.513 Z-2.09
N4305 X90.205 Z-1.869
N4310 X90.7 Z-1.724
N4315 X91.572 Z-1.494
N4320 X92.452 Z-1.298
N4325 X93.297 Z-1.144
N4330 X94.158 Z-1.023
N4335 X94.765 Z-0.961
N4340 X95.32 Z-0.921
N4345 X95.776 Z-0.901
N4350 X96.536 Z-0.897
N4355 X97.04 Z-0.916
N4360 X97.421 Z-0.943
N4365 X97.463 Z-0.94
N4370 X97.502 Z-0.927
N4375 X97.536 Z-0.915
N4380 X97.572 Z-0.911
N4385 X101.037
N4390 X101.079 Y-10.987 Z-0.91
N4395 X101.12 Y-10.982
N4400 X101.16 Y-10.973 Z-0.908
N4405 X101.2 Y-10.96 Z-0.907
N4410 X101.238 Y-10.945 Z-0.905
N4415 X101.275 Y-10.926 Z-0.902
N4420 X101.31 Y-10.903 Z-0.899
N4425 X101.343 Y-10.878 Z-0.896
N4430 X101.374 Y-10.85 Z-0.892
N4435 X101.402 Y-10.82 Z-0.888
N4440 X101.427 Y-10.787 Z-0.884
N4445 X101.449 Y-10.753 Z-0.879
N4450 X101.469 Y-10.716 Z-0.874
N4455 X101.485 Y-10.678 Z-0.869
N4460 X101.497 Y-10.639 Z-0.864
N4465 X101.506 Y-10.599 Z-0.858
N4470 X101.511 Y-10.558 Z-0.853
N4475 X101.513 Y-10.517 Z-0.847
N4480 Y-9.874 Z-0.761
N4485 X101.511 Y-9.833 Z-0.756
N4490 X101.506 Y-9.792 Z-0.75
N4495 X101.497 Y-9.752 Z-0.745
N4500 X101.485 Y-9.712 Z-0.739
N4505 X101.469 Y-9.674 Z-0.734
N4510 X101.449 Y-9.638 Z-0.729
N4515 X101.427 Y-9.603 Z-0.725
N4520 X101.402 Y-9.57 Z-0.72
N4525 X101.374 Y-9.54 Z-0.716
N4530 X101.343 Y-9.512 Z-0.713
N4535 X101.31 Y-9.487 Z-0.709
N4540 X101.275 Y-9.465 Z-0.706
N4545 X101.238 Y-9.446 Z-0.704
N4550 X101.2 Y-9.43 Z-0.702
N4555 X101.16 Y-9.418 Z-0.7
N4560 X101.12 Y-9.409 Z-0.699
N4565 X101.079 Y-9.404 Z-0.698
N4570 X101.037 Y-9.402
N4575 X101.001 Z-0.702
N4580 X100.967 Z-0.714
N4585 X100.929 Z-0.727
N4590 X100.889 Z-0.73
N4595 X100.142 Z-0.689
N4600 X99.264 Z-0.668
N4605 X98.338 Z-0.678
N4610 X97.693 Z-0.703
N4615 X96.964 Z-0.751
N4620 X96.412 Z-0.8
N4625 X95.709 Z-0.879
N4630 X95.179 Z-0.95
N4635 X94.482 Z-1.06
N4640 X93.936 Z-1.159
N4645 X93.286 Z-1.292
N4650 X92.722 Z-1.421
N4655 X92.203 Z-1.55
N4660 X91.668 Z-1.695
N4665 X90.971 Z-1.901
N4670 X89.974 Z-2.231
N4675 X89.291 Z-2.48
N4680 X88.633 Z-2.738
N4685 X87.962 Z-3.019
N4690 X87.454 Z-3.243
N4695 X86.638 Z-3.619
N4700 X85.984 Z-3.935
N4705 X84.824 Z-4.522
N4710 X83.353 Z-5.297
N4715 X81.24 Z-6.408
N4720 X79.736 Z-7.158
N4725 X78.559 Z-7.706
N4730 X77.456 Z-8.188
N4735 X76.518 Z-8.567
N4740 X75.643 Z-8.897
N4745 X74.598 Z-9.266
N4750 X73.526 Z-9.611
N4755 X72.466 Z-9.93
N4760 X71.176 Z-10.282
N4765 X69.897 Z-10.6
N4770 X68.507 Z-10.913
N4775 X67.111 Z-11.193
N4780 X65.645 Z-11.456
N4785 X64.134 Z-11.695
N4790 X62.619 Z-11.9
N4795 X61.099 Z-12.072
N4800 X59.596 Z-12.215
N4805 X58.11 Z-12.323
N4810 X56.497 Z-12.411
N4815 X55.05 Z-12.459
N4820 X53.489 Z-12.484
N4825 X51.944 Z-12.476
N4830 X50.303 Z-12.433
N4835 X48.967 Z-12.371
N4840 X47.285 Z-12.262
N4845 X45.59 Z-12.116
N4850 X43.938 Z-11.933
N4855 X42.271 Z-11.712
N4860 X40.608 Z-11.453
N4865 X39.179 Z-11.198
N4870 X37.549 Z-10.873
N4875 X35.925 Z-10.514
N4880 X34.31 Z-10.121
N4885 X32.866 Z-9.748
N4890 X31.062 Z-9.245
N4895 X29.612 Z-8.819
N4900 X27.805 Z-8.257
N4905 X26.042 Z-7.683
N4910 X23.726 Z-6.894
N4915 X21.259 Z-6.014
N4920 X16.884 Z-4.4
N4925 X14.947 Z-3.688
N4930 X13.525 Z-3.18
N4935 X12.478 Z-2.818
N4940 X11.427 Z-2.467
N4945 X10.535 Z-2.183
N4950 X9.711 Z-1.935
N4955 X9.087 Z-1.758
N4960 X8.533 Z-1.611
N4965 X7.883 Z-1.452
N4970 X7.136 Z-1.292
N4975 X6.383 Z-1.161
N4980 X5.91 Z-1.099
N4985 X5.791 Z-1.088
N4990 X4.781 Z-0.945
N4995 X4.74 Y-9.4 Z-0.939
N5000 X4.699 Y-9.395 Z-0.934
N5005 X4.658 Y-9.386 Z-0.929
N5010 X4.619 Y-9.373 Z-0.925
N5015 X4.581 Y-9.357 Z-0.921
N5020 X4.544 Y-9.338 Z-0.918
N5025 X4.509 Y-9.316 Z-0.915
N5030 X4.476 Y-9.291 Z-0.913
N5035 X4.445 Y-9.263 Z-0.911
N5040 X4.417 Y-9.232 Z-0.91
N5045 X4.392 Y-9.2
N5050 X4.369 Y-9.165
N5055 X4.349 Y-9.128 Z-0.911
N5060 X4.333 Y-9.09 Z-0.913
N5065 X4.32 Y-9.05 Z-0.915
N5070 X4.311 Y-9.01 Z-0.918
N5075 X4.305 Y-8.969 Z-0.921
N5080 X4.303 Y-8.928 Z-0.925
N5085 X4.294 Y-8.289 Z-0.988
N5090 X4.295 Y-8.247 Z-0.992
N5095 X4.3 Y-8.206 Z-0.997
N5100 X4.308 Y-8.166 Z-1.003
N5105 X4.32 Y-8.127 Z-1.008
N5110 X4.335 Y-8.088 Z-1.014
N5115 X4.353 Y-8.052 Z-1.021
N5120 X4.375 Y-8.017 Z-1.027
N5125 X4.4 Y-7.984 Z-1.034
N5130 X4.427 Y-7.954 Z-1.041
N5135 X4.457 Y-7.926 Z-1.048
N5140 X4.489 Y-7.9 Z-1.055
N5145 X4.524 Y-7.878 Z-1.062
N5150 X4.56 Y-7.859 Z-1.069
N5155 X4.598 Y-7.843 Z-1.076
N5160 X4.637 Y-7.831 Z-1.083
N5165 X4.677 Y-7.822 Z-1.089
N5170 X4.717 Y-7.817 Z-1.096
N5175 X4.758 Y-7.815 Z-1.102
N5180 X5.244 Z-1.171
N5185 X5.789 Z-1.271
N5190 X6.143 Z-1.347
N5195 X6.496 Z-1.43
N5200 X7.05 Z-1.572
N5205 X7.565 Z-1.717
N5210 X8.278 Z-1.93
N5215 X9.15 Z-2.211
N5220 X9.972 Z-2.492
N5225 X11.061 Z-2.88
N5230 X12.297 Z-3.338
N5235 X13.868 Z-3.938
N5240 X17.375 Z-5.307
N5245 X20.496 Z-6.509
N5250 X22.612 Z-7.291
N5255 X24.576 Z-7.988
N5260 X25.987 Z-8.469
N5265 X27.786 Z-9.057
N5270 X29.374 Z-9.55
N5275 X31.172 Z-10.078
N5280 X32.794 Z-10.522
N5285 X34.591 Z-10.979
N5290 X36.211 Z-11.359
N5295 X37.838 Z-11.702
N5300 X39.452 Z-12.007
N5305 X40.903 Z-12.251
N5310 X42.378 Z-12.466
N5315 X43.858 Z-12.65
N5320 X45.36 Z-12.807
N5325 X46.845 Z-12.933
N5330 X48.143 Z-13.017
N5335 X49.659 Z-13.088
N5340 X51.171 Z-13.127
N5345 X52.78 Z-13.139
N5350 X54.416 Z-13.115
N5355 X55.964 Z-13.062
N5360 X57.501 Z-12.978
N5365 X59.178 Z-12.849
N5370 X60.681 Z-12.705
N5375 X62.161 Z-12.531
N5380 X63.638 Z-12.329
N5385 X65.13 Z-12.095
N5390 X66.596 Z-11.831
N5395 X68.057 Z-11.538
N5400 X69.53 Z-11.208
N5405 X70.976 Z-10.846
N5410 X72.393 Z-10.453
N5415 X73.634 Z-10.075
N5420 X74.884 Z-9.659
N5425 X76.121 Z-9.205
N5430 X77.148 Z-8.792
N5435 X78.182 Z-8.349
N5440 X79.187 Z-7.886
N5445 X80.199 Z-7.393
N5450 X81.675 Z-6.63
N5455 X84.526 Z-5.083
N5460 X85.56 Z-4.533
N5465 X86.376 Z-4.112
N5470 X86.855 Z-3.874
N5475 X87.839 Z-3.405
N5480 X88.484 Z-3.117
N5485 X89.135 Z-2.842
N5490 X89.81 Z-2.573
N5495 X90.472 Z-2.328
N5500 X91.304 Z-2.044
N5505 X92.071 Z-1.806
N5510 X92.844 Z-1.59
N5515 X93.695 Z-1.376
N5520 X94.469 Z-1.205
N5525 X95.266 Z-1.05
N5530 X95.793 Z-0.959
N5535 X96.515 Z-0.846
N5540 X97.401 Z-0.729
N5545 X98.274 Z-0.635
N5550 X99.168 Z-0.558
N5555 X100.064 Z-0.499
N5560 X100.965 Z-0.456
N5565 X102.124 Z-0.424
N5570 X103.49 Z-0.416
N5575 X104.953 Z-0.439
N5580 X106.595 Z-0.496
N5585 G18 G2 X106.923 Z-0.179 I0.011 K0.317
N5590 G1 Z5.
N5595 X173.609
N5600 Z0.108
N5605 Z-1.685
N5610 G2 X173.914 Z-2.002 I0.318 K0.
N5615 G1 X179.334 Z-2.223
N5620 X189.154 Z-2.616
N5625 X194.604 Z-2.811
N5630 X199.082 Z-2.951
N5635 X204.837 Z-3.095
N5640 X210.69 Z-3.212
N5645 X217.616 Z-3.31
N5650 X225.615 Z-3.386
N5655 X235.565 Z-3.436
N5660 X245.418 Z-3.449
N5665 X257.2 Z-3.434
N5670 X268.906 Z-3.411
N5675 X273.783 Z-3.428
N5680 X277.295 Z-3.468
N5685 X280.124 Z-3.53
N5690 X282.384 Z-3.608
N5695 X283.723 Z-3.672
N5700 X284.869 Z-3.743
N5705 X285.803 Z-3.813
N5710 X285.845 Z-3.811
N5715 X285.885 Z-3.798
N5720 X285.919 Z-3.786
N5725 X285.955 Z-3.781
N5730 X287.11
N5735 X287.152 Y-7.813
N5740 X287.193 Y-7.807
N5745 X287.233 Y-7.798
N5750 X287.273 Y-7.786 Z-3.78
N5755 X287.311 Y-7.77
N5760 X287.348 Y-7.751 Z-3.779
N5765 X287.383 Y-7.729 Z-3.778
N5770 X287.416 Y-7.703 Z-3.777
N5775 X287.447 Y-7.675 Z-3.776
N5780 X287.475 Y-7.645 Z-3.774
N5785 X287.5 Y-7.612 Z-3.773
N5790 X287.523 Y-7.577 Z-3.772
N5795 X287.542 Y-7.54 Z-3.77
N5800 X287.558 Y-7.502 Z-3.769
N5805 X287.57 Y-7.462 Z-3.767
N5810 X287.579 Y-7.421 Z-3.765
N5815 X287.585 Y-7.38 Z-3.764
N5820 X287.586 Y-7.339 Z-3.762
N5825 Y-6.704 Z-3.736
N5830 X287.585 Y-6.662 Z-3.734
N5835 X287.579 Y-6.621 Z-3.733
N5840 X287.57 Y-6.58 Z-3.731
N5845 X287.558 Y-6.541 Z-3.729
N5850 X287.542 Y-6.502 Z-3.728
N5855 X287.523 Y-6.466 Z-3.726
N5860 X287.5 Y-6.431 Z-3.725
N5865 X287.475 Y-6.398 Z-3.723
N5870 X287.447 Y-6.367 Z-3.722
N5875 X287.416 Y-6.339 Z-3.721
N5880 X287.383 Y-6.314 Z-3.72
N5885 X287.348 Y-6.291 Z-3.719
N5890 X287.311 Y-6.272 Z-3.718
N5895 X287.273 Y-6.256
N5900 X287.233 Y-6.244 Z-3.717
N5905 X287.193 Y-6.235
N5910 X287.152 Y-6.229
N5915 X287.11 Y-6.228 Z-3.716
N5920 X287.074 Z-3.721
N5925 X287.04 Z-3.733
N5930 X286.999 Z-3.746
N5935 X286.956 Z-3.748
N5940 X286.214 Z-3.679
N5945 X285.28 Z-3.607
N5950 X284.231 Z-3.54
N5955 X282.883 Z-3.471
N5960 X281.159 Z-3.404
N5965 X279.412 Z-3.353
N5970 X276.291 Z-3.292
N5975 X272.291 Z-3.251
N5980 X266.633 Z-3.235
N5985 X247.376 Z-3.247
N5990 X236.45 Z-3.224
N5995 X226.598 Z-3.164
N6000 X218.794 Z-3.083
N6005 X212.16 Z-2.98
N6010 X205.82 Z-2.846
N6015 X202.015 Z-2.746
N6020 X197.542 Z-2.607
N6025 X193.264 Z-2.451
N6030 X187.735 Z-2.222
N6035 X171.655 Z-1.484
N6040 X165.899 Z-1.243
N6045 X161.997 Z-1.097
N6050 X157.803 Z-0.959
N6055 X152.73 Z-0.815
N6060 X146.292 Z-0.665
N6065 X138.488 Z-0.521
N6070 X128.855 Z-0.38
N6075 X112.247 Z-0.175
N6080 X109.077 Z-0.162
N6085 X106.687 Z-0.183
N6090 X104.736 Z-0.229
N6095 X103.33 Z-0.284
N6100 X102.405 Z-0.332
N6105 X101.319 Z-0.403
N6110 X100.405 Z-0.476
N6115 X99.511 Z-0.56
N6120 X98.363 Z-0.69
N6125 X97.578 Z-0.794
N6130 X96.671 Z-0.933
N6135 X95.703 Z-1.106
N6140 X94.907 Z-1.268
N6145 X94.219 Z-1.425
N6150 X93.514 Z-1.602
N6155 X92.998 Z-1.743
N6160 X92.301 Z-1.947
N6165 X91.609 Z-2.169
N6170 X91.103 Z-2.341
N6175 X90.42 Z-2.591
N6180 X89.762 Z-2.85
N6185 X89.092 Z-3.13
N6190 X88.445 Z-3.417
N6195 X87.769 Z-3.733
N6200 X87.136 Z-4.047
N6205 X86.47 Z-4.384
N6210 X85.66 Z-4.815
N6215 X84.668 Z-5.354
N6220 X81.911 Z-6.883
N6225 X80.577 Z-7.589
N6230 X79.416 Z-8.17
N6235 X78.398 Z-8.651
N6240 X77.366 Z-9.105
N6245 X76.304 Z-9.538
N6250 X75.269 Z-9.931
N6255 X74.224 Z-10.297
N6260 X72.969 Z-10.701
N6265 X71.723 Z-11.07
N6270 X70.47 Z-11.411
N6275 X69.042 Z-11.763
N6280 X67.569 Z-12.091
N6285 X66.108 Z-12.383
N6290 X64.641 Z-12.645
N6295 X63.149 Z-12.878
N6300 X61.673 Z-13.081
N6305 X60.002 Z-13.274
N6310 X58.499 Z-13.415
N6315 X57.013 Z-13.528
N6320 X55.399 Z-13.616
N6325 X53.866 Z-13.671
N6330 X52.305 Z-13.694
N6335 X50.905 Z-13.69
N6340 X49.355 Z-13.651
N6345 X48.014 Z-13.593
N6350 X46.33 Z-13.487
N6355 X44.825 Z-13.361
N6360 X43.342 Z-13.207
N6365 X41.883 Z-13.023
N6370 X40.258 Z-12.78
N6375 X38.619 Z-12.498
N6380 X37.006 Z-12.183
N6385 X35.549 Z-11.869
N6390 X34.118 Z-11.527
N6395 X32.673 Z-11.161
N6400 X31.049 Z-10.721
N6405 X29.434 Z-10.251
N6410 X27.644 Z-9.696
N6415 X26.045 Z-9.175
N6420 X24.255 Z-8.559
N6425 X22.493 Z-7.926
N6430 X20.917 Z-7.337
N6435 X18.814 Z-6.521
N6440 X15.517 Z-5.19
N6445 X12.72 Z-4.051
N6450 X11.337 Z-3.495
N6455 X10.11 Z-3.014
N6460 X9.055 Z-2.615
N6465 X8.157 Z-2.289
N6470 X7.435 Z-2.039
N6475 X6.708 Z-1.802
N6480 X6.16 Z-1.635
N6485 X5.423 Z-1.432
N6490 X4.905 Z-1.307
N6495 X4.551 Z-1.231
N6500 X4.175 Z-1.162
N6505 X3.91 Z-1.122
N6510 X3.275 Z-1.013
N6515 X3.234 Y-6.226 Z-1.006
N6520 X3.193 Y-6.22 Z-1.
N6525 X3.153 Y-6.212 Z-0.993
N6530 X3.114 Y-6.199 Z-0.988
N6535 X3.076 Y-6.183 Z-0.983
N6540 X3.039 Y-6.164 Z-0.978
N6545 X3.005 Y-6.142 Z-0.974
N6550 X2.972 Y-6.117 Z-0.97
N6555 X2.941 Y-6.089 Z-0.967
N6560 X2.913 Y-6.058 Z-0.965
N6565 X2.888 Y-6.025 Z-0.964
N6570 X2.865 Y-5.99 Z-0.963
N6575 X2.846 Y-5.954
N6580 X2.829 Y-5.915
N6585 X2.817 Y-5.876 Z-0.964
N6590 X2.807 Y-5.836 Z-0.966
N6595 X2.801 Y-5.794 Z-0.968
N6600 X2.799 Y-5.753 Z-0.972
N6605 X2.79 Y-5.115 Z-1.024
N6610 X2.791 Y-5.074 Z-1.028
N6615 X2.796 Y-5.033 Z-1.032
N6620 X2.804 Y-4.992 Z-1.037
N6625 X2.816 Y-4.953 Z-1.043
N6630 X2.831 Y-4.915 Z-1.048
N6635 X2.849 Y-4.878 Z-1.055
N6640 X2.871 Y-4.843 Z-1.061
N6645 X2.895 Y-4.81 Z-1.068
N6650 X2.923 Y-4.78 Z-1.076
N6655 X2.952 Y-4.752 Z-1.083
N6660 X2.984 Y-4.726 Z-1.091
N6665 X3.019 Y-4.704 Z-1.099
N6670 X3.055 Y-4.685 Z-1.106
N6675 X3.092 Y-4.669 Z-1.114
N6680 X3.131 Y-4.657 Z-1.122
N6685 X3.171 Y-4.648 Z-1.13
N6690 X3.212 Y-4.642 Z-1.137
N6695 X3.252 Y-4.641 Z-1.144
N6700 X3.551 Z-1.195
N6705 X3.906 Z-1.269
N6710 X4.259 Z-1.352
N6715 X4.61 Z-1.443
N6720 X5.141 Z-1.593
N6725 X5.488 Z-1.7
N6730 X5.996 Z-1.864
N6735 X6.862 Z-2.165
N6740 X7.74 Z-2.489
N6745 X8.595 Z-2.82
N6750 X9.624 Z-3.231
N6755 X11.162 Z-3.863
N6760 X16.359 Z-6.049
N6765 X18.942 Z-7.106
N6770 X20.864 Z-7.86
N6775 X22.636 Z-8.527
N6780 X24.219 Z-9.096
N6785 X25.991 Z-9.705
N6790 X27.59 Z-10.227
N6795 X29.399 Z-10.785
N6800 X31.18 Z-11.297
N6805 X33.177 Z-11.827
N6810 X35.184 Z-12.311
N6815 X36.641 Z-12.628
N6820 X38.273 Z-12.948
N6825 X39.891 Z-13.228
N6830 X41.517 Z-13.469
N6835 X43.015 Z-13.658
N6840 X44.498 Z-13.814
N6845 X45.964 Z-13.937
N6850 X47.473 Z-14.03
N6855 X48.896 Z-14.093
N6860 X50.457 Z-14.129
N6865 X51.887 Z-14.136
N6870 X53.448 Z-14.111
N6875 X54.896 Z-14.062
N6880 X56.508 Z-13.974
N6885 X57.994 Z-13.866
N6890 X59.497 Z-13.724
N6895 X60.998 Z-13.556
N6900 X62.514 Z-13.354
N6905 X64.025 Z-13.122
N6910 X65.512 Z-12.863
N6915 X67.2 Z-12.529
N6920 X68.488 Z-12.244
N6925 X69.974 Z-11.884
N6930 X71.044 Z-11.601
N6935 X72.33 Z-11.231
N6940 X73.589 Z-10.839
N6945 X74.836 Z-10.414
N6950 X75.954 Z-9.997
N6955 X77.061 Z-9.552
N6960 X78.252 Z-9.033
N6965 X79.426 Z-8.479
N6970 X80.603 Z-7.886
N6975 X81.933 Z-7.174
N6980 X84.68 Z-5.63
N6985 X85.632 Z-5.1
N6990 X86.608 Z-4.574
N6995 X87.593 Z-4.066
N7000 X88.228 Z-3.755
N7005 X88.791 Z-3.492
N7010 X89.437 Z-3.205
N7015 X90.205 Z-2.884
N7020 X90.864 Z-2.627
N7025 X91.566 Z-2.373
N7030 X92.255 Z-2.142
N7035 X92.602 Z-2.034
N7040 X93.114 Z-1.88
N7045 X93.795 Z-1.69
N7050 X94.499 Z-1.51
N7055 X95.333 Z-1.319
N7060 X96.274 Z-1.128
N7065 X96.989 Z-1.
N7070 X98.045 Z-0.833
N7075 X98.934 Z-0.711
N7080 X99.845 Z-0.602
N7085 X100.738 Z-0.509
N7090 X101.651 Z-0.425
N7095 X102.736 Z-0.339
N7100 X103.651 Z-0.278
N7105 X104.934 Z-0.206
N7110 X106.639 Z-0.134
N7115 X108.041 Z-0.089
N7120 X110.48 Z-0.041
N7125 X113.455 Z-0.019
N7130 X117.016 Z-0.028
N7135 X121.741 Z-0.08
N7140 X146.574 Z-0.503
N7145 X153.5 Z-0.646
N7150 X158.67 Z-0.781
N7155 X163.45 Z-0.931
N7160 X168.913 Z-1.143
N7165 X174.57 Z-1.393
N7170 X183.776 Z-1.831
N7175 X191.356 Z-2.175
N7180 X197.16 Z-2.404
N7185 X201.628 Z-2.552
N7190 X206.796 Z-2.695
N7195 X212.844 Z-2.826
N7200 X219.672 Z-2.938
N7205 X227.574 Z-3.028
N7210 X237.134 Z-3.095
N7215 X246.206 Z-3.125
N7220 X260.985 Z-3.137
N7225 X269.276 Z-3.146
N7230 X274.056 Z-3.179
N7235 X277.666 Z-3.233
N7240 X280.592 Z-3.307
N7245 X282.319 Z-3.369
N7250 X283.735 Z-3.435
N7255 X284.862 Z-3.5
N7260 X285.816 Z-3.567
N7265 X286.769 Z-3.647
N7270 X287.53 Z-3.723
N7275 X287.573 Z-3.721
N7280 X287.615 Z-3.707
N7285 X287.623 Z-3.703
N7290 X287.657 Z-3.691
N7295 X287.693 Z-3.687
N7300 X287.942
N7305 G17 G3 X288.418 Y-4.164 I0. J0.476
N7310 G1 Y-3.53
N7315 G3 X287.942 Y-3.054 I-0.476 J0.
N7320 G1 X287.906 Z-3.691
N7325 X287.872 Z-3.703
N7330 X287.83 Z-3.717
N7335 X287.785 Z-3.719
N7340 X287.215 Z-3.658
N7345 X286.215 Z-3.568
N7350 X285.119 Z-3.487
N7355 X283.993 Z-3.419
N7360 X282.584 Z-3.35
N7365 X280.861 Z-3.283
N7370 X279.017 Z-3.229
N7375 X275.798 Z-3.164
N7380 X271.604 Z-3.117
N7385 X265.751 Z-3.093
N7390 X247.119 Z-3.065
N7395 X236.486 Z-3.018
N7400 X226.731 Z-2.936
N7405 X218.927 Z-2.836
N7410 X212.391 Z-2.719
N7415 X205.952 Z-2.569
N7420 X201.175 Z-2.43
N7425 X195.643 Z-2.238
N7430 X190.687 Z-2.033
N7435 X181.768 Z-1.622
N7440 X175.055 Z-1.309
N7445 X170.681 Z-1.119
N7450 X166.779 Z-0.965
N7455 X163.072 Z-0.837
N7460 X158.878 Z-0.718
N7465 X153.805 Z-0.601
N7470 X146.294 Z-0.469
N7475 X131.856 Z-0.241
N7480 X122.004 Z-0.063
N7485 X118.004 Z-0.017
N7490 X114.98 Z-0.005
N7495 X112.054 Z-0.023
N7500 X109.518 Z-0.069
N7505 X108.059 Z-0.112
N7510 X106.377 Z-0.178
N7515 X105.276 Z-0.233
N7520 X104.168 Z-0.299
N7525 X103.082 Z-0.376
N7530 X102.168 Z-0.45
N7535 X101.236 Z-0.536
N7540 X100.324 Z-0.632
N7545 X99.413 Z-0.741
N7550 X98.504 Z-0.863
N7555 X97.513 Z-1.017
N7560 X96.694 Z-1.159
N7565 X95.813 Z-1.333
N7570 X95.104 Z-1.488
N7575 X94.231 Z-1.702
N7580 X93.365 Z-1.94
N7585 X92.67 Z-2.15
N7590 X91.979 Z-2.376
N7595 X91.294 Z-2.619
N7600 X90.576 Z-2.894
N7605 X89.961 Z-3.144
N7610 X89.294 Z-3.434
N7615 X88.807 Z-3.655
N7620 X88.151 Z-3.969
N7625 X87.501 Z-4.295
N7630 X86.368 Z-4.893
N7635 X85.231 Z-5.523
N7640 X82.323 Z-7.174
N7645 X80.864 Z-7.97
N7650 X79.726 Z-8.556
N7655 X78.696 Z-9.054
N7660 X77.652 Z-9.529
N7665 X76.595 Z-9.973
N7670 X75.527 Z-10.392
N7675 X74.286 Z-10.838
N7680 X73.053 Z-11.244
N7685 X71.811 Z-11.622
N7690 X70.56 Z-11.973
N7695 X68.932 Z-12.388
N7700 X67.292 Z-12.761
N7705 X65.663 Z-13.092
N7710 X64.178 Z-13.359
N7715 X62.517 Z-13.622
N7720 X61.041 Z-13.826
N7725 X59.542 Z-14.002
N7730 X57.868 Z-14.165
N7735 X56.363 Z-14.28
N7740 X54.674 Z-14.375
N7745 X53.114 Z-14.431
N7750 X51.558 Z-14.453
N7755 X50.04 Z-14.447
N7760 X48.492 Z-14.406
N7765 X46.961 Z-14.336
N7770 X45.472 Z-14.236
N7775 X43.987 Z-14.107
N7780 X42.485 Z-13.946
N7785 X40.856 Z-13.733
N7790 X39.402 Z-13.508
N7795 X37.784 Z-13.223
N7800 X36.173 Z-12.901
N7805 X34.717 Z-12.581
N7810 X32.896 Z-12.138
N7815 X31.105 Z-11.662
N7820 X29.304 Z-11.145
N7825 X27.513 Z-10.594
N7830 X25.914 Z-10.074
N7835 X24.124 Z-9.458
N7840 X22.344 Z-8.812
N7845 X20.593 Z-8.147
N7850 X18.851 Z-7.457
N7855 X16.449 Z-6.464
N7860 X12.847 Z-4.922
N7865 X10.248 Z-3.804
N7870 X8.839 Z-3.212
N7875 X7.813 Z-2.792
N7880 X6.924 Z-2.442
N7885 X6.228 Z-2.178
N7890 X5.527 Z-1.925
N7895 X4.984 Z-1.741
N7900 X4.621 Z-1.624
N7905 X4.273 Z-1.519
N7910 X3.906 Z-1.416
N7915 X3.537 Z-1.321
N7920 X3.072 Z-1.216
N7925 X2.793 Z-1.164
N7930 X2.556 Z-1.117
N7935 X2.516 Y-3.052 Z-1.109
N7940 X2.475 Y-3.046 Z-1.101
N7945 X2.435 Y-3.037 Z-1.094
N7950 X2.396 Y-3.025 Z-1.087
N7955 X2.358 Y-3.009 Z-1.08
N7960 X2.322 Y-2.99 Z-1.073
N7965 X2.288 Y-2.968 Z-1.067
N7970 X2.255 Y-2.942 Z-1.062
N7975 X2.225 Y-2.914 Z-1.057
N7980 X2.197 Y-2.884 Z-1.053
N7985 X2.172 Y-2.851 Z-1.049
N7990 X2.15 Y-2.816 Z-1.046
N7995 X2.131 Y-2.779 Z-1.044
N8000 X2.115 Y-2.741 Z-1.042
N8005 X2.102 Y-2.701 Z-1.041
N8010 X2.093 Y-2.66
N8015 X2.088 Y-2.619 Z-1.042
N8020 X2.086 Y-2.578 Z-1.043
N8025 X2.081 Y-1.943 Z-1.067
N8030 X2.082 Y-1.901 Z-1.068
N8035 X2.087 Y-1.86 Z-1.071
N8040 X2.096 Y-1.819 Z-1.074
N8045 X2.108 Y-1.78 Z-1.078
N8050 X2.123 Y-1.741 Z-1.083
N8055 X2.142 Y-1.705 Z-1.088
N8060 X2.163 Y-1.67 Z-1.093
N8065 X2.188 Y-1.637 Z-1.1
N8070 X2.215 Y-1.606 Z-1.106
N8075 X2.245 Y-1.578 Z-1.113
N8080 X2.277 Y-1.553 Z-1.121
N8085 X2.311 Y-1.53 Z-1.128
N8090 X2.347 Y-1.511 Z-1.136
N8095 X2.385 Y-1.495 Z-1.144
N8100 X2.424 Y-1.483 Z-1.152
N8105 X2.463 Y-1.474 Z-1.16
N8110 X2.504 Y-1.468 Z-1.168
N8115 X2.545 Y-1.467 Z-1.177
N8120 X2.863 Z-1.239
N8125 X3.049 Z-1.283
N8130 X3.696 Z-1.45
N8135 X4.135 Z-1.58
N8140 X4.662 Z-1.75
N8145 X5.185 Z-1.93
N8150 X5.866 Z-2.18
N8155 X6.562 Z-2.447
N8160 X7.431 Z-2.795
N8165 X8.436 Z-3.212
N8170 X9.982 Z-3.872
N8175 X13.398 Z-5.361
N8180 X16.645 Z-6.759
N8185 X18.87 Z-7.681
N8190 X20.611 Z-8.372
N8195 X22.362 Z-9.038
N8200 X24.123 Z-9.676
N8205 X25.714 Z-10.224
N8210 X27.494 Z-10.806
N8215 X29.286 Z-11.356
N8220 X31.106 Z-11.877
N8225 X32.751 Z-12.311
N8230 X34.2 Z-12.664
N8235 X35.466 Z-12.955
N8240 X37.094 Z-13.293
N8245 X38.71 Z-13.591
N8250 X40.332 Z-13.853
N8255 X41.79 Z-14.054
N8260 X43.442 Z-14.244
N8265 X45.116 Z-14.397
N8270 X46.623 Z-14.499
N8275 X48.232 Z-14.575
N8280 X49.687 Z-14.614
N8285 X51.285 Z-14.625
N8290 X52.748 Z-14.606
N8295 X54.494 Z-14.547
N8300 X56.184 Z-14.454
N8305 X57.86 Z-14.322
N8310 X59.533 Z-14.156
N8315 X61.033 Z-13.979
N8320 X62.509 Z-13.771
N8325 X64. Z-13.534
N8330 X65.467 Z-13.271
N8335 X66.927 Z-12.977
N8340 X68.401 Z-12.649
N8345 X69.848 Z-12.294
N8350 X71.286 Z-11.904
N8355 X72.714 Z-11.48
N8360 X73.949 Z-11.079
N8365 X75.173 Z-10.648
N8370 X76.403 Z-10.175
N8375 X77.425 Z-9.749
N8380 X78.453 Z-9.291
N8385 X79.624 Z-8.729
N8390 X80.78 Z-8.136
N8395 X82.071 Z-7.436
N8400 X85.16 Z-5.677
N8405 X86.37 Z-5.001
N8410 X87.273 Z-4.52
N8415 X88.055 Z-4.118
N8420 X88.553 Z-3.875
N8425 X89.194 Z-3.576
N8430 X89.919 Z-3.255
N8435 X90.671 Z-2.946
N8440 X91.332 Z-2.693
N8445 X92.016 Z-2.448
N8450 X92.706 Z-2.221
N8455 X93.278 Z-2.046
N8460 X94.1 Z-1.814
N8465 X94.991 Z-1.59
N8470 X95.698 Z-1.429
N8475 X96.598 Z-1.247
N8480 X97.312 Z-1.119
N8485 X98.218 Z-0.972
N8490 X99.126 Z-0.842
N8495 X100.055 Z-0.724
N8500 X100.967 Z-0.622
N8505 X101.899 Z-0.53
N8510 X102.984 Z-0.436
N8515 X103.918 Z-0.366
N8520 X105.196 Z-0.284
N8525 X106.584 Z-0.212
N8530 X108.028 Z-0.153
N8535 X109.564 Z-0.105
N8540 X112.003 Z-0.057
N8545 X114.93 Z-0.036
N8550 X117.856 Z-0.046
N8555 X121.661 Z-0.089
N8560 X133.172 Z-0.298
N8565 X145.609 Z-0.48
N8570 X153.852 Z-0.608
N8575 X159.12 Z-0.718
N8580 X163.217 Z-0.827
N8585 X166.826 Z-0.944
N8590 X170.241 Z-1.072
N8595 X174.923 Z-1.267
N8600 X190.191 Z-1.962
N8605 X196.205 Z-2.21
N8610 X201.561 Z-2.393
N8615 X206.826 Z-2.544
N8620 X213.069 Z-2.687
N8625 X220.19 Z-2.812
N8630 X228.482 Z-2.917
N8635 X237.749 Z-2.994
N8640 X247.601 Z-3.042
N8645 X265.355 Z-3.078
N8650 X271.404 Z-3.104
N8655 X275.696 Z-3.152
N8660 X279.012 Z-3.219
N8665 X280.853 Z-3.275
N8670 X282.575 Z-3.342
N8675 X283.984 Z-3.412
N8680 X285.11 Z-3.48
N8685 X286.024 Z-3.547
N8690 X286.957 Z-3.626
N8695 X287.869 Z-3.722
N8700 X287.876 Z-3.723
N8705 X287.92 Z-3.721
N8710 X287.962 Z-3.707
N8715 X287.996 Z-3.695
N8720 X288.032 Z-3.691
N8725 X288.033
N8730 G3 X288.509 Y-0.99 I0. J0.476
N8735 G1 Y-0.356
N8740 G3 X288.033 Y0.12 I-0.476 J0.
N8745 G1 X287.997 Z-3.695
N8750 X287.963 Z-3.707
N8755 X287.921 Z-3.721
N8760 X287.876 Z-3.723
N8765 X287.306 Z-3.661
N8770 X286.544 Z-3.589
N8775 X285.592 Z-3.513
N8780 X284.447 Z-3.438
N8785 X283.296 Z-3.375
N8790 X281.642 Z-3.303
N8795 X279.008 Z-3.219
N8800 X275.789 Z-3.153
N8805 X271.594 Z-3.105
N8810 X265.741 Z-3.078
N8815 X247.694 Z-3.041
N8820 X236.671 Z-2.985
N8825 X226.819 Z-2.896
N8830 X219.307 Z-2.796
N8835 X212.575 Z-2.673
N8840 X206.041 Z-2.519
N8845 X200.876 Z-2.367
N8850 X195.156 Z-2.164
N8855 X189.648 Z-1.934
N8860 X175.316 Z-1.282
N8865 X170.666 Z-1.087
N8870 X167.065 Z-0.951
N8875 X163.26 Z-0.828
N8880 X159.065 Z-0.718
N8885 X153.895 Z-0.611
N8890 X145.604 Z-0.484
N8895 X133.312 Z-0.306
N8900 X121.704 Z-0.094
N8905 X117.802 Z-0.05
N8910 X114.875 Z-0.04
N8915 X112.046 Z-0.061
N8920 X109.608 Z-0.109
N8925 X107.963 Z-0.161
N8930 X106.52 Z-0.221
N8935 X105.093 Z-0.295
N8940 X103.967 Z-0.368
N8945 X102.862 Z-0.452
N8950 X101.929 Z-0.533
N8955 X100.997 Z-0.625
N8960 X100.066 Z-0.729
N8965 X99.137 Z-0.847
N8970 X98.21 Z-0.98
N8975 X97.474 Z-1.098
N8980 X96.467 Z-1.28
N8985 X95.652 Z-1.447
N8990 X94.842 Z-1.633
N8995 X94.036 Z-1.839
N9000 X93.318 Z-2.041
N9005 X92.605 Z-2.261
N9010 X91.898 Z-2.498
N9015 X91.197 Z-2.752
N9020 X90.68 Z-2.951
N9025 X89.91 Z-3.268
N9030 X89.323 Z-3.526
N9035 X88.646 Z-3.84
N9040 X87.994 Z-4.158
N9045 X87.499 Z-4.41
N9050 X86.503 Z-4.938
N9055 X85.199 Z-5.665
N9060 X82.077 Z-7.444
N9065 X80.734 Z-8.172
N9070 X79.544 Z-8.781
N9075 X78.51 Z-9.277
N9080 X77.464 Z-9.745
N9085 X76.407 Z-10.187
N9090 X75.158 Z-10.667
N9095 X73.897 Z-11.11
N9100 X72.624 Z-11.521
N9105 X71.342 Z-11.903
N9110 X69.866 Z-12.303
N9115 X68.381 Z-12.668
N9120 X66.889 Z-12.999
N9125 X65.39 Z-13.3
N9130 X63.884 Z-13.57
N9135 X62.374 Z-13.807
N9140 X60.669 Z-14.039
N9145 X59.15 Z-14.215
N9150 X57.628 Z-14.359
N9155 X56.103 Z-14.476
N9160 X54.566 Z-14.561
N9165 X52.91 Z-14.621
N9170 X51.349 Z-14.643
N9175 X49.691 Z-14.633
N9180 X48.235 Z-14.594
N9185 X46.635 Z-14.518
N9190 X45.148 Z-14.417
N9195 X43.492 Z-14.267
N9200 X42.049 Z-14.104
N9205 X40.572 Z-13.906
N9210 X39.079 Z-13.674
N9215 X37.424 Z-13.376
N9220 X35.962 Z-13.08
N9225 X34.507 Z-12.755
N9230 X32.854 Z-12.355
N9235 X31.024 Z-11.871
N9240 X29.388 Z-11.405
N9245 X27.577 Z-10.851
N9250 X25.777 Z-10.264
N9255 X23.988 Z-9.647
N9260 X22.388 Z-9.066
N9265 X20.618 Z-8.394
N9270 X18.859 Z-7.696
N9275 X16.756 Z-6.826
N9280 X13.823 Z-5.565
N9285 X9.828 Z-3.822
N9290 X8.422 Z-3.221
N9295 X7.363 Z-2.782
N9300 X6.476 Z-2.427
N9305 X5.583 Z-2.086
N9310 X5.044 Z-1.892
N9315 X4.501 Z-1.707
N9320 X3.932 Z-1.527
N9325 X3.172 Z-1.318
N9330 X2.556 Z-1.184
N9335 X2.521 Z-1.177
N9340 X2.48 Y0.122 Z-1.169
N9345 X2.44 Y0.128 Z-1.162
N9350 X2.4 Y0.137 Z-1.154
N9355 X2.361 Y0.149 Z-1.146
N9360 X2.324 Y0.165 Z-1.138
N9365 X2.287 Y0.184 Z-1.131
N9370 X2.253 Y0.206 Z-1.124
N9375 X2.221 Y0.232 Z-1.117
N9380 X2.191 Y0.26 Z-1.11
N9385 X2.164 Y0.29 Z-1.104
N9390 X2.139 Y0.323 Z-1.099
N9395 X2.117 Y0.358 Z-1.093
N9400 X2.099 Y0.395 Z-1.089
N9405 X2.083 Y0.434 Z-1.085
N9410 X2.071 Y0.473 Z-1.081
N9415 X2.062 Y0.514 Z-1.078
N9420 X2.057 Y0.555 Z-1.076
N9425 X2.056 Y0.596 Z-1.074
N9430 X2.059 Y1.231 Z-1.055
N9435 X2.061 Y1.273 Z-1.054
N9440 X2.067 Y1.314
N9445 X2.076 Y1.355
N9450 X2.089 Y1.394 Z-1.055
N9455 X2.104 Y1.433 Z-1.057
N9460 X2.124 Y1.469 Z-1.06
N9465 X2.146 Y1.504 Z-1.063
N9470 X2.171 Y1.537 Z-1.067
N9475 X2.198 Y1.568 Z-1.071
N9480 X2.229 Y1.596 Z-1.076
N9485 X2.261 Y1.621 Z-1.081
N9490 X2.296 Y1.644 Z-1.087
N9495 X2.332 Y1.663 Z-1.093
N9500 X2.37 Y1.679 Z-1.1
N9505 X2.409 Y1.691 Z-1.107
N9510 X2.449 Y1.7 Z-1.114
N9515 X2.489 Y1.706 Z-1.122
N9520 X2.53 Y1.707 Z-1.129
N9525 X2.728 Z-1.167
N9530 X2.807 Z-1.181
N9535 X3.405 Z-1.308
N9540 X4.16 Z-1.511
N9545 X4.73 Z-1.687
N9550 X5.274 Z-1.869
N9555 X5.993 Z-2.125
N9560 X6.798 Z-2.429
N9565 X7.775 Z-2.816
N9570 X8.836 Z-3.252
N9575 X10.42 Z-3.923
N9580 X14.385 Z-5.637
N9585 X16.812 Z-6.67
N9590 X18.898 Z-7.53
N9595 X20.836 Z-8.295
N9600 X22.428 Z-8.898
N9605 X24.207 Z-9.542
N9610 X25.816 Z-10.096
N9615 X27.615 Z-10.683
N9620 X29.426 Z-11.237
N9625 X31.062 Z-11.703
N9630 X32.872 Z-12.184
N9635 X33.988 Z-12.456
N9640 X35.272 Z-12.757
N9645 X36.918 Z-13.105
N9650 X38.57 Z-13.418
N9655 X40.041 Z-13.663
N9660 X41.497 Z-13.872
N9665 X42.997 Z-14.054
N9670 X44.632 Z-14.216
N9675 X46.27 Z-14.34
N9680 X47.729 Z-14.42
N9685 X49.366 Z-14.475
N9690 X50.871 Z-14.496
N9695 X52.529 Z-14.483
N9700 X54.09 Z-14.441
N9705 X55.732 Z-14.359
N9710 X57.259 Z-14.255
N9715 X58.972 Z-14.101
N9720 X60.682 Z-13.909
N9725 X62.387 Z-13.679
N9730 X63.898 Z-13.444
N9735 X65.591 Z-13.142
N9740 X67.278 Z-12.8
N9745 X68.769 Z-12.461
N9750 X70.252 Z-12.088
N9755 X71.541 Z-11.734
N9760 X72.823 Z-11.351
N9765 X74.094 Z-10.935
N9770 X75.354 Z-10.487
N9775 X76.423 Z-10.074
N9780 X77.482 Z-9.632
N9785 X78.528 Z-9.163
N9790 X79.561 Z-8.668
N9795 X80.752 Z-8.06
N9800 X82.096 Z-7.333
N9805 X85.203 Z-5.567
N9810 X86.526 Z-4.835
N9815 X87.524 Z-4.309
N9820 X88.019 Z-4.06
N9825 X88.673 Z-3.744
N9830 X89.351 Z-3.432
N9835 X89.86 Z-3.211
N9840 X90.611 Z-2.902
N9845 X91.389 Z-2.605
N9850 X92.094 Z-2.358
N9855 X92.804 Z-2.128
N9860 X93.417 Z-1.944
N9865 X94.219 Z-1.724
N9870 X94.942 Z-1.545
N9875 X95.838 Z-1.344
N9880 X96.758 Z-1.164
N9885 X97.492 Z-1.036
N9890 X98.398 Z-0.895
N9895 X99.326 Z-0.767
N9900 X100.256 Z-0.654
N9905 X101.168 Z-0.556
N9910 X102.1 Z-0.468
N9915 X103.205 Z-0.378
N9920 X103.968 Z-0.324
N9925 X105.074 Z-0.254
N9930 X106.019 Z-0.204
N9935 X107.539 Z-0.138
N9940 X109.661 Z-0.072
N9945 X112.1 Z-0.028
N9950 X115.027 Z-0.01
N9955 X118.051 Z-0.022
N9960 X121.953 Z-0.067
N9965 X132. Z-0.249
N9970 X146.145 Z-0.469
N9975 X153.851 Z-0.601
N9980 X159.022 Z-0.718
N9985 X163.216 Z-0.836
N9990 X167.205 Z-0.972
N9995 X170.993 Z-1.122
N10000 X175.071 Z-1.299
N10005 X181.379 Z-1.592
N10010 X190.728 Z-2.021
N10015 X196.911 Z-2.271
N10020 X201.681 Z-2.433
N10025 X206.946 Z-2.583
N10030 X213.092 Z-2.721
N10035 X220.213 Z-2.843
N10040 X228.505 Z-2.944
N10045 X237.089 Z-3.013
N10050 X247.679 Z-3.06
N10055 X261.964 Z-3.083
N10060 X269.671 Z-3.102
N10065 X274.353 Z-3.141
N10070 X277.865 Z-3.199
N10075 X280.694 Z-3.274
N10080 X283.046 Z-3.368
N10085 X284.379 Z-3.438
N10090 X285.524 Z-3.513
N10095 X286.477 Z-3.587
N10100 X287.238 Z-3.658
N10105 X287.808 Z-3.719
N10110 X287.826 Z-3.721
N10115 X287.87 Z-3.719
N10120 X287.912 Z-3.705
N10125 X287.913
N10130 X287.947 Z-3.693
N10135 X287.983 Z-3.689
N10140 G3 X288.459 Y2.184 I0. J0.476
N10145 G1 Y2.818
N10150 G3 X287.983 Y3.294 I-0.476 J0.
N10155 G1 X287.753
N10160 X287.716 Z-3.693
N10165 X287.682 Z-3.705
N10170 X287.64 Z-3.719
N10175 X287.596 Z-3.721
N10180 X286.835 Z-3.644
N10185 X285.883 Z-3.563
N10190 X284.929 Z-3.496
N10195 X283.783 Z-3.429
N10200 X282.426 Z-3.365
N10205 X280.085 Z-3.282
N10210 X277.159 Z-3.213
N10215 X273.452 Z-3.162
N10220 X268.477 Z-3.132
N10225 X246.625 Z-3.11
N10230 X236.383 Z-3.073
N10235 X227.701 Z-3.009
N10240 X220.58 Z-2.929
N10245 X214.336 Z-2.832
N10250 X208.483 Z-2.711
N10255 X202.827 Z-2.563
N10260 X198.155 Z-2.413
N10265 X194.089 Z-2.26
N10270 X189.035 Z-2.046
N10275 X174.376 Z-1.358
N10280 X169.146 Z-1.127
N10285 X165.049 Z-0.966
N10290 X163.014 Z-0.894
N10295 X158.922 Z-0.767
N10300 X153.752 Z-0.634
N10305 X146.729 Z-0.493
N10310 X127.414 Z-0.162
N10315 X121.073 Z-0.059
N10320 X116.781 Z-0.015
N10325 X113.464 Z-0.01
N10330 X110.635 Z-0.034
N10335 X108.294 Z-0.082
N10340 X106.195 Z-0.154
N10345 X104.683 Z-0.226
N10350 X103.575 Z-0.292
N10355 X102.451 Z-0.372
N10360 X101.537 Z-0.448
N10365 X100.604 Z-0.537
N10370 X99.654 Z-0.641
N10375 X98.763 Z-0.753
N10380 X97.836 Z-0.885
N10385 X96.95 Z-1.029
N10390 X96.216 Z-1.162
N10395 X95.337 Z-1.342
N10400 X94.423 Z-1.555
N10405 X93.74 Z-1.732
N10410 X93.022 Z-1.936
N10415 X92.327 Z-2.15
N10420 X91.982 Z-2.264
N10425 X91.439 Z-2.45
N10430 X90.758 Z-2.701
N10435 X90.065 Z-2.975
N10440 X89.378 Z-3.267
N10445 X88.714 Z-3.565
N10450 X88.212 Z-3.8
N10455 X87.524 Z-4.141
N10460 X86.559 Z-4.64
N10465 X85.232 Z-5.366
N10470 X83.601 Z-6.287
N10475 X81.783 Z-7.304
N10480 X80.434 Z-8.022
N10485 X79.238 Z-8.62
N10490 X78.201 Z-9.107
N10495 X77.327 Z-9.491
N10500 X76.268 Z-9.927
N10505 X75.197 Z-10.333
N10510 X73.934 Z-10.775
N10515 X72.66 Z-11.183
N10520 X71.377 Z-11.56
N10525 X69.9 Z-11.955
N10530 X68.413 Z-12.315
N10535 X66.919 Z-12.641
N10540 X65.419 Z-12.935
N10545 X63.723 Z-13.228
N10550 X62.211 Z-13.454
N10555 X60.505 Z-13.674
N10560 X58.984 Z-13.839
N10565 X57.46 Z-13.971
N10570 X55.743 Z-14.086
N10575 X54.098 Z-14.162
N10580 X52.537 Z-14.2
N10585 X50.969 Z-14.208
N10590 X49.392 Z-14.179
N10595 X47.767 Z-14.119
N10600 X46.104 Z-14.019
N10605 X44.466 Z-13.884
N10610 X43.022 Z-13.734
N10615 X41.562 Z-13.554
N10620 X40.087 Z-13.339
N10625 X38.636 Z-13.094
N10630 X36.984 Z-12.779
N10635 X35.339 Z-12.427
N10640 X34.241 Z-12.169
N10645 X32.774 Z-11.807
N10650 X31.13 Z-11.369
N10655 X29.475 Z-10.893
N10660 X27.684 Z-10.342
N10665 X25.9 Z-9.76
N10670 X24.276 Z-9.203
N10675 X22.675 Z-8.626
N10680 X20.903 Z-7.959
N10685 X19.141 Z-7.269
N10690 X16.875 Z-6.345
N10695 X13.053 Z-4.733
N10700 X10.64 Z-3.717
N10705 X9.244 Z-3.142
N10710 X8.179 Z-2.718
N10715 X7.287 Z-2.376
N10720 X6.479 Z-2.081
N10725 X5.847 Z-1.862
N10730 X5.302 Z-1.685
N10735 X4.754 Z-1.52
N10740 X4.386 Z-1.418
N10745 X4.015 Z-1.324
N10750 X3.829 Z-1.28
N10755 X3.456 Z-1.202
N10760 X3.15 Z-1.148
N10765 X3.109 Y3.296 Z-1.141
N10770 X3.069 Y3.302 Z-1.133
N10775 X3.029 Y3.311 Z-1.125
N10780 X2.99 Y3.323 Z-1.117
N10785 X2.953 Y3.339 Z-1.109
N10790 X2.917 Y3.358 Z-1.101
N10795 X2.883 Y3.38 Z-1.093
N10800 X2.85 Y3.405 Z-1.086
N10805 X2.821 Y3.433 Z-1.078
N10810 X2.794 Y3.464 Z-1.071
N10815 X2.769 Y3.497 Z-1.064
N10820 X2.748 Y3.532 Z-1.057
N10825 X2.729 Y3.569 Z-1.051
N10830 X2.714 Y3.607 Z-1.045
N10835 X2.702 Y3.646 Z-1.039
N10840 X2.694 Y3.687 Z-1.035
N10845 X2.689 Y3.728 Z-1.03
N10850 X2.688 Y3.769 Z-1.027
N10855 X2.697 Y4.407 Z-0.975
N10860 X2.7 Y4.448 Z-0.972
N10865 X2.706 Y4.489 Z-0.97
N10870 X2.715 Y4.53 Z-0.968
N10875 X2.728 Y4.569 Z-0.967
N10880 X2.744 Y4.607
N10885 X2.763 Y4.644
N10890 X2.786 Y4.679 Z-0.968
N10895 X2.811 Y4.712 Z-0.97
N10900 X2.839 Y4.742 Z-0.973
N10905 X2.87 Y4.77 Z-0.976
N10910 X2.903 Y4.796 Z-0.979
N10915 X2.938 Y4.818 Z-0.984
N10920 X2.974 Y4.837 Z-0.989
N10925 X3.012 Y4.853 Z-0.994
N10930 X3.051 Y4.865 Z-1.
N10935 X3.091 Y4.874 Z-1.006
N10940 X3.132 Y4.88 Z-1.013
N10945 X3.173 Y4.881 Z-1.02
N10950 X3.773 Z-1.126
N10955 X3.984 Z-1.159
N10960 X4.36 Z-1.227
N10965 X4.733 Z-1.307
N10970 X5.104 Z-1.396
N10975 X5.657 Z-1.543
N10980 X6.207 Z-1.705
N10985 X6.754 Z-1.877
N10990 X7.478 Z-2.12
N10995 X8.378 Z-2.441
N11000 X9.274 Z-2.775
N11005 X10.521 Z-3.259
N11010 X12.02 Z-3.86
N11015 X17.158 Z-5.964
N11020 X19.252 Z-6.803
N11025 X21.196 Z-7.554
N11030 X22.79 Z-8.148
N11035 X24.393 Z-8.721
N11040 X26.002 Z-9.273
N11045 X27.801 Z-9.862
N11050 X29.428 Z-10.361
N11055 X31.228 Z-10.883
N11060 X32.871 Z-11.327
N11065 X34.522 Z-11.736
N11070 X35.788 Z-12.03
N11075 X37.434 Z-12.379
N11080 X38.879 Z-12.654
N11085 X40.369 Z-12.903
N11090 X42.014 Z-13.142
N11095 X43.645 Z-13.341
N11100 X45.28 Z-13.503
N11105 X46.746 Z-13.618
N11110 X48.246 Z-13.702
N11115 X49.755 Z-13.759
N11120 X51.316 Z-13.784
N11125 X52.86 Z-13.78
N11130 X54.518 Z-13.74
N11135 X56.167 Z-13.667
N11140 X57.693 Z-13.567
N11145 X59.217 Z-13.437
N11150 X60.738 Z-13.278
N11155 X62.255 Z-13.086
N11160 X63.768 Z-12.865
N11165 X65.277 Z-12.613
N11170 X66.779 Z-12.329
N11175 X68.275 Z-12.012
N11180 X69.764 Z-11.662
N11185 X71.243 Z-11.277
N11190 X72.529 Z-10.907
N11195 X73.786 Z-10.513
N11200 X75.05 Z-10.079
N11205 X76.125 Z-9.677
N11210 X77.187 Z-9.247
N11215 X78.238 Z-8.789
N11220 X79.276 Z-8.304
N11225 X80.473 Z-7.708
N11230 X81.824 Z-6.993
N11235 X83.629 Z-5.994
N11240 X85.249 Z-5.093
N11245 X86.583 Z-4.38
N11250 X87.763 Z-3.787
N11255 X88.246 Z-3.558
N11260 X88.925 Z-3.249
N11265 X89.575 Z-2.971
N11270 X90.267 Z-2.693
N11275 X90.946 Z-2.438
N11280 X91.632 Z-2.199
N11285 X92.526 Z-1.915
N11290 X93.184 Z-1.724
N11295 X94.093 Z-1.487
N11300 X94.818 Z-1.316
N11305 X95.632 Z-1.146
N11310 X96.62 Z-0.964
N11315 X97.421 Z-0.837
N11320 X98.31 Z-0.714
N11325 X99.306 Z-0.595
N11330 X100.238 Z-0.501
N11335 X101.323 Z-0.408
N11340 X102.238 Z-0.344
N11345 X103.327 Z-0.281
N11350 X104.694 Z-0.22
N11355 X106.331 Z-0.17
N11360 X108.648 Z-0.132
N11365 X111.404 Z-0.123
N11370 X115.403 Z-0.15
N11375 X126.329 Z-0.288
N11380 X138.815 Z-0.479
N11385 X146.814 Z-0.629
N11390 X153.35 Z-0.78
N11395 X158.617 Z-0.931
N11400 X163.095 Z-1.08
N11405 X167.65 Z-1.257
N11410 X173.514 Z-1.514
N11415 X182.865 Z-1.951
N11420 X189.944 Z-2.27
N11425 X194.413 Z-2.451
N11430 X198.983 Z-2.613
N11435 X204.438 Z-2.772
N11440 X209.023 Z-2.88
N11445 X214.388 Z-2.982
N11450 X221.217 Z-3.077
N11455 X228.728 Z-3.148
N11460 X237.41 Z-3.197
N11465 X247.458 Z-3.22
N11470 X262.89 Z-3.213
N11475 X270.109 Z-3.219
N11480 X274.596 Z-3.25
N11485 X278.01 Z-3.301
N11490 X280.742 Z-3.371
N11495 X282.985 Z-3.456
N11500 X284.236 Z-3.521
N11505 X285.333 Z-3.591
N11510 X286.334 Z-3.669
N11515 X287.095 Z-3.741
N11520 X287.139 Z-3.739
N11525 X287.18 Z-3.726
N11530 X287.214 Z-3.713
N11535 X287.25 Z-3.709
N11540 X287.291 Y4.883
N11545 X287.333 Y4.889 Z-3.71
N11550 X287.373 Y4.898
N11555 X287.413 Y4.91
N11560 X287.451 Y4.926 Z-3.711
N11565 X287.488 Y4.945 Z-3.712
N11570 X287.523 Y4.968
N11575 X287.556 Y4.993 Z-3.713
N11580 X287.587 Y5.021 Z-3.714
N11585 X287.615 Y5.051 Z-3.715
N11590 X287.64 Y5.084 Z-3.716
N11595 X287.662 Y5.119 Z-3.718
N11600 X287.682 Y5.156 Z-3.719
N11605 X287.697 Y5.195 Z-3.72
N11610 X287.71 Y5.234 Z-3.722
N11615 X287.719 Y5.275 Z-3.723
N11620 X287.724 Y5.316 Z-3.725
N11625 X287.726 Y5.357 Z-3.726
N11630 Y5.993 Z-3.748
N11635 X287.724 Y6.034 Z-3.75
N11640 X287.719 Y6.075 Z-3.751
N11645 X287.71 Y6.116 Z-3.753
N11650 X287.697 Y6.155 Z-3.754
N11655 X287.682 Y6.194 Z-3.755
N11660 X287.662 Y6.231 Z-3.757
N11665 X287.64 Y6.266 Z-3.758
N11670 X287.615 Y6.298 Z-3.759
N11675 X287.587 Y6.329 Z-3.76
N11680 X287.556 Y6.357 Z-3.761
N11685 X287.523 Y6.382 Z-3.762
N11690 X287.488 Y6.405 Z-3.763
N11695 X287.451 Y6.424
N11700 X287.413 Y6.44 Z-3.764
N11705 X287.373 Y6.452
N11710 X287.333 Y6.461 Z-3.765
N11715 X287.291 Y6.467
N11720 X287.25 Y6.468
N11725 X286.248
N11730 X286.212 Z-3.769
N11735 X286.178 Z-3.781
N11740 X286.138 Z-3.795
N11745 X286.096 Z-3.797
N11750 X285.143 Z-3.722
N11755 X283.998 Z-3.649
N11760 X282.744 Z-3.586
N11765 X280.501 Z-3.503
N11770 X277.769 Z-3.438
N11775 X274.355 Z-3.394
N11780 X269.77 Z-3.371
N11785 X261.673 Z-3.38
N11790 X247.581 Z-3.404
N11795 X237.338 Z-3.393
N11800 X228.364 Z-3.353
N11805 X220.755 Z-3.291
N11810 X214.024 Z-3.208
N11815 X208.854 Z-3.119
N11820 X203.001 Z-2.992
N11825 X197.833 Z-2.847
N11830 X194.137 Z-2.726
N11835 X189.079 Z-2.538
N11840 X179.554 Z-2.143
N11845 X169.232 Z-1.713
N11850 X162.569 Z-1.463
N11855 G18 G3 X162.263 Z-1.146 I0.012 K0.317
N11860 G1 Z5.
N11865 X108.604
N11870 Z1.63
N11875 Z-0.137
N11880 G3 X108.276 Z-0.454 I-0.318 K0.
N11885 G1 X106.252 Z-0.391
N11890 X104.496 Z-0.367
N11895 X103.033 Z-0.375
N11900 X102.061 Z-0.398
N11905 X100.856 Z-0.446
N11910 X99.957 Z-0.499
N11915 X99.01 Z-0.572
N11920 X98.074 Z-0.664
N11925 X97.183 Z-0.771
N11930 X96.232 Z-0.908
N11935 X95.409 Z-1.049
N11940 X94.509 Z-1.227
N11945 X93.572 Z-1.44
N11950 X92.744 Z-1.655
N11955 X92.047 Z-1.855
N11960 X91.171 Z-2.133
N11965 X90.485 Z-2.371
N11970 X89.765 Z-2.642
N11975 X88.973 Z-2.964
N11980 X88.307 Z-3.253
N11985 X87.742 Z-3.51
N11990 X86.667 Z-4.031
N11995 X85.511 Z-4.627
N12000 X84.047 Z-5.416
N12005 X81.562 Z-6.767
N12010 X80.375 Z-7.383
N12015 X79.175 Z-7.972
N12020 X77.958 Z-8.529
N12025 X76.903 Z-8.977
N12030 X75.836 Z-9.395
N12035 X74.758 Z-9.785
N12040 X73.489 Z-10.206
N12045 X72.209 Z-10.593
N12050 X70.92 Z-10.948
N12055 X69.436 Z-11.32
N12060 X67.944 Z-11.655
N12065 X66.445 Z-11.955
N12070 X64.939 Z-12.222
N12075 X63.428 Z-12.458
N12080 X61.723 Z-12.686
N12085 X60.203 Z-12.855
N12090 X58.489 Z-13.009
N12095 X56.773 Z-13.127
N12100 X55.127 Z-13.202
N12105 X53.469 Z-13.244
N12110 X51.812 Z-13.252
N12115 X50.251 Z-13.222
N12120 X48.628 Z-13.161
N12125 X46.966 Z-13.06
N12130 X45.328 Z-12.926
N12135 X43.694 Z-12.757
N12140 X42.064 Z-12.548
N12145 X40.609 Z-12.332
N12150 X38.951 Z-12.048
N12155 X37.487 Z-11.763
N12160 X35.843 Z-11.408
N12165 X34.392 Z-11.064
N12170 X32.927 Z-10.694
N12175 X31.285 Z-10.246
N12180 X29.65 Z-9.773
N12185 X27.861 Z-9.218
N12190 X26.243 Z-8.693
N12195 X24.651 Z-8.151
N12200 X22.867 Z-7.519
N12205 X21.27 Z-6.931
N12210 X19.321 Z-6.194
N12215 X13.022 Z-3.721
N12220 X11.469 Z-3.129
N12225 X10.25 Z-2.681
N12230 X9.367 Z-2.37
N12235 X8.643 Z-2.125
N12240 X7.87 Z-1.877
N12245 X7.184 Z-1.672
N12250 X6.631 Z-1.52
N12255 X6.075 Z-1.381
N12260 X5.703 Z-1.297
N12265 X5.188 Z-1.195
N12270 X4.764 Z-1.127
N12275 X4.587 Z-1.105
N12280 X4.546 Y6.47 Z-1.099
N12285 X4.505 Y6.476 Z-1.094
N12290 X4.465 Y6.485 Z-1.088
N12295 X4.425 Y6.497 Z-1.082
N12300 X4.388 Y6.513 Z-1.075
N12305 X4.351 Y6.532 Z-1.069
N12310 X4.317 Y6.554 Z-1.062
N12315 X4.284 Y6.579 Z-1.056
N12320 X4.254 Y6.607 Z-1.05
N12325 X4.227 Y6.638 Z-1.043
N12330 X4.202 Y6.671 Z-1.037
N12335 X4.18 Y6.706 Z-1.031
N12340 X4.162 Y6.742 Z-1.026
N12345 X4.146 Y6.781 Z-1.02
N12350 X4.134 Y6.82 Z-1.015
N12355 X4.126 Y6.86 Z-1.01
N12360 X4.121 Y6.902 Z-1.006
N12365 X4.12 Y6.943 Z-1.002
N12370 X4.127 Y7.581 Z-0.946
N12375 X4.129 Y7.623 Z-0.942
N12380 X4.135 Y7.664 Z-0.939
N12385 X4.144 Y7.704 Z-0.937
N12390 X4.157 Y7.743 Z-0.935
N12395 X4.173 Y7.782 Z-0.933
N12400 X4.193 Y7.818
N12405 X4.215 Y7.853 Z-0.932
N12410 X4.241 Y7.886 Z-0.933
N12415 X4.269 Y7.917
N12420 X4.3 Y7.945 Z-0.935
N12425 X4.333 Y7.97 Z-0.937
N12430 X4.368 Y7.992 Z-0.939
N12435 X4.405 Y8.011 Z-0.942
N12440 X4.443 Y8.027 Z-0.946
N12445 X4.482 Y8.039 Z-0.95
N12450 X4.523 Y8.048 Z-0.954
N12455 X4.564 Y8.054 Z-0.959
N12460 X4.605 Y8.056 Z-0.964
N12465 X5.585 Z-1.09
N12470 X5.94 Z-1.131
N12475 X6.318 Z-1.188
N12480 X6.694 Z-1.254
N12485 X7.068 Z-1.328
N12490 X7.628 Z-1.453
N12495 X8.19 Z-1.591
N12500 X8.922 Z-1.789
N12505 X9.655 Z-2.004
N12510 X10.568 Z-2.288
N12515 X11.476 Z-2.586
N12520 X12.524 Z-2.944
N12525 X13.838 Z-3.411
N12530 X15.685 Z-4.09
N12535 X19.731 Z-5.605
N12540 X22.55 Z-6.634
N12545 X24.877 Z-7.449
N12550 X26.31 Z-7.93
N12555 X27.909 Z-8.45
N12560 X29.535 Z-8.953
N12565 X31.148 Z-9.429
N12570 X32.787 Z-9.883
N12575 X34.23 Z-10.259
N12580 X35.41 Z-10.548
N12585 X37.134 Z-10.939
N12590 X38.595 Z-11.238
N12595 X40.249 Z-11.54
N12600 X41.872 Z-11.801
N12605 X43.329 Z-12.002
N12610 X44.961 Z-12.193
N12615 X46.577 Z-12.347
N12620 X48.044 Z-12.456
N12625 X49.621 Z-12.541
N12630 X51.256 Z-12.594
N12635 X52.978 Z-12.614
N12640 X54.636 Z-12.598
N12645 X56.295 Z-12.545
N12650 X58.021 Z-12.452
N12655 X59.546 Z-12.338
N12660 X61.259 Z-12.172
N12665 X62.967 Z-11.968
N12670 X64.67 Z-11.724
N12675 X66.179 Z-11.473
N12680 X67.681 Z-11.189
N12685 X69.176 Z-10.87
N12690 X70.664 Z-10.515
N12695 X71.957 Z-10.173
N12700 X73.241 Z-9.8
N12705 X74.516 Z-9.393
N12710 X75.597 Z-9.012
N12715 X76.669 Z-8.604
N12720 X77.729 Z-8.167
N12725 X78.777 Z-7.704
N12730 X79.985 Z-7.13
N12735 X81.349 Z-6.442
N12740 X84. Z-5.037
N12745 X85.304 Z-4.354
N12750 X86.048 Z-3.98
N12755 X86.795 Z-3.616
N12760 X87.884 Z-3.118
N12765 X88.629 Z-2.801
N12770 X89.465 Z-2.472
N12775 X90.166 Z-2.217
N12780 X90.857 Z-1.986
N12785 X91.696 Z-1.731
N12790 X92.415 Z-1.535
N12795 X93.163 Z-1.353
N12800 X93.999 Z-1.175
N12805 X94.525 Z-1.077
N12810 X95.241 Z-0.958
N12815 X95.96 Z-0.858
N12820 X96.662 Z-0.779
N12825 X97.194 Z-0.728
N12830 X98.07 Z-0.667
N12835 X98.914 Z-0.633
N12840 X99.797 Z-0.623
N12845 X100.773 Z-0.64
N12850 X101.718 Z-0.688
N12855 X101.758 Z-0.685
N12860 X101.796 Z-0.672
N12865 X101.83 Z-0.66
N12870 X101.866 Z-0.656
N12875 X101.907 Y8.057
N12880 X101.948 Y8.063 Z-0.657
N12885 X101.989 Y8.072 Z-0.658
N12890 X102.028 Y8.084 Z-0.66
N12895 X102.067 Y8.1 Z-0.662
N12900 X102.104 Y8.119 Z-0.665
N12905 X102.139 Y8.141 Z-0.668
N12910 X102.172 Y8.166 Z-0.671
N12915 X102.202 Y8.194 Z-0.675
N12920 X102.23 Y8.224 Z-0.679
N12925 X102.256 Y8.257 Z-0.684
N12930 X102.278 Y8.291 Z-0.688
N12935 X102.297 Y8.328 Z-0.693
N12940 X102.313 Y8.366 Z-0.698
N12945 X102.326 Y8.405 Z-0.704
N12950 X102.335 Y8.445 Z-0.709
N12955 X102.34 Y8.486 Z-0.715
N12960 X102.342 Y8.527 Z-0.72
N12965 Y9.171 Z-0.808
N12970 X102.34 Y9.212 Z-0.814
N12975 X102.335 Y9.253 Z-0.819
N12980 X102.326 Y9.293 Z-0.825
N12985 X102.313 Y9.332 Z-0.83
N12990 X102.297 Y9.37 Z-0.835
N12995 X102.278 Y9.407 Z-0.84
N13000 X102.256 Y9.441 Z-0.845
N13005 X102.23 Y9.474 Z-0.849
N13010 X102.202 Y9.504 Z-0.854
N13015 X102.172 Y9.532 Z-0.857
N13020 X102.139 Y9.557 Z-0.861
N13025 X102.104 Y9.579 Z-0.864
N13030 X102.067 Y9.598 Z-0.866
N13035 X102.028 Y9.614 Z-0.868
N13040 X101.989 Y9.626 Z-0.87
N13045 X101.948 Y9.635 Z-0.871
N13050 X101.907 Y9.641 Z-0.872
N13055 X101.866 Y9.643
N13060 X98.139
N13065 X98.103 Z-0.876
N13070 X98.069 Z-0.889
N13075 X98.031 Z-0.902
N13080 X97.991 Z-0.905
N13085 X97.247 Z-0.863
N13090 X96.637 Z-0.855
N13095 X96.247 Z-0.86
N13100 X95.702 Z-0.884
N13105 X94.998 Z-0.937
N13110 X94.21 Z-1.026
N13115 X93.7 Z-1.1
N13120 X93.088 Z-1.203
N13125 X92.207 Z-1.383
N13130 X91.521 Z-1.549
N13135 X91.004 Z-1.687
N13140 X90.389 Z-1.865
N13145 X89.778 Z-2.059
N13150 X89.092 Z-2.297
N13155 X88.429 Z-2.545
N13160 X87.932 Z-2.744
N13165 X86.911 Z-3.177
N13170 X86.232 Z-3.487
N13175 X85.385 Z-3.89
N13180 X84.393 Z-4.383
N13185 X82.761 Z-5.221
N13190 X80.734 Z-6.251
N13195 X79.357 Z-6.915
N13200 X78.138 Z-7.462
N13205 X77.08 Z-7.904
N13210 X76.189 Z-8.251
N13215 X75.111 Z-8.642
N13220 X74.023 Z-9.002
N13225 X72.742 Z-9.388
N13230 X71.452 Z-9.741
N13235 X70.172 Z-10.058
N13240 X68.867 Z-10.349
N13245 X67.367 Z-10.65
N13250 X65.861 Z-10.915
N13255 X64.35 Z-11.146
N13260 X62.834 Z-11.345
N13265 X61.314 Z-11.514
N13270 X59.599 Z-11.664
N13275 X58.073 Z-11.765
N13280 X56.428 Z-11.84
N13285 X54.769 Z-11.88
N13290 X53.112 Z-11.885
N13295 X51.551 Z-11.859
N13300 X49.844 Z-11.79
N13305 X48.199 Z-11.69
N13310 X46.542 Z-11.554
N13315 X45.079 Z-11.403
N13320 X43.448 Z-11.201
N13325 X41.822 Z-10.965
N13330 X40.202 Z-10.691
N13335 X38.569 Z-10.38
N13340 X37.091 Z-10.067
N13345 X35.285 Z-9.646
N13350 X34.191 Z-9.37
N13355 X32.732 Z-8.983
N13360 X31.112 Z-8.528
N13365 X29.481 Z-8.045
N13370 X28.057 Z-7.603
N13375 X26.637 Z-7.149
N13380 X24.498 Z-6.436
N13385 X22.003 Z-5.576
N13390 X17.749 Z-4.078
N13395 X16.16 Z-3.529
N13400 X14.838 Z-3.084
N13405 X13.511 Z-2.657
N13410 X12.452 Z-2.333
N13415 X11.553 Z-2.072
N13420 X10.484 Z-1.783
N13425 X9.761 Z-1.604
N13430 X9.202 Z-1.477
N13435 X8.64 Z-1.361
N13440 X8.076 Z-1.258
N13445 X7.51 Z-1.17
N13450 X7.131 Z-1.122
N13455 X6.738 Z-1.083
N13460 X6.71 Z-1.078
N13465 X6.683 Z-1.068
N13470 X6.649 Z-1.055
N13475 X6.614 Z-1.051
N13480 G17 G2 X6.137 Y10.119 I0. J0.476
N13485 G1 Y10.753
N13490 G2 X6.614 Y11.23 I0.476 J0.
N13495 G1 X7.875
N13500 X7.91 Z-1.055
N13505 X7.944 Z-1.068
N13510 X7.95 Z-1.07
N13515 X7.979 Z-1.081
N13520 X8.009 Z-1.086
N13525 X8.176 Z-1.098
N13530 X9.008 Z-1.18
N13535 X9.648 Z-1.265
N13540 X10.195 Z-1.351
N13545 X10.74 Z-1.447
N13550 X11.444 Z-1.585
N13555 X12.237 Z-1.757
N13560 X13.148 Z-1.972
N13565 X14.036 Z-2.199
N13570 X14.921 Z-2.438
N13575 X15.748 Z-2.673
N13580 X17.013 Z-3.047
N13585 X18.325 Z-3.456
N13590 X19.581 Z-3.859
N13595 X21.542 Z-4.502
N13600 X22.958 Z-4.969
N13605 X24.188 Z-5.375
N13610 X25.464 Z-5.792
N13615 X27.977 Z-6.593
N13620 X29.603 Z-7.094
N13625 X31.032 Z-7.518
N13630 X32.669 Z-7.984
N13635 X34.478 Z-8.468
N13640 X35.944 Z-8.835
N13645 X37.75 Z-9.253
N13650 X39.377 Z-9.593
N13655 X40.992 Z-9.896
N13660 X42.613 Z-10.165
N13665 X44.239 Z-10.399
N13670 X45.7 Z-10.58
N13675 X47.334 Z-10.749
N13680 X48.991 Z-10.885
N13685 X50.658 Z-10.986
N13690 X52.258 Z-11.049
N13695 X53.916 Z-11.079
N13700 X55.605 Z-11.075
N13705 X57.166 Z-11.037
N13710 X58.907 Z-10.957
N13715 X60.624 Z-10.838
N13720 X62.337 Z-10.681
N13725 X63.857 Z-10.507
N13730 X65.372 Z-10.3
N13735 X66.882 Z-10.06
N13740 X68.386 Z-9.785
N13745 X69.883 Z-9.474
N13750 X71.185 Z-9.169
N13755 X72.481 Z-8.833
N13760 X73.766 Z-8.463
N13765 X74.859 Z-8.117
N13770 X75.941 Z-7.741
N13775 X77.014 Z-7.336
N13780 X78.074 Z-6.903
N13785 X79.298 Z-6.366
N13790 X80.683 Z-5.718
N13795 X83.53 Z-4.319
N13800 X84.647 Z-3.779
N13805 X85.479 Z-3.393
N13810 X86.161 Z-3.09
N13815 X86.989 Z-2.74
N13820 X87.505 Z-2.538
N13825 X88.025 Z-2.344
N13830 X88.674 Z-2.114
N13835 X89.385 Z-1.886
N13840 X90.083 Z-1.687
N13845 X90.769 Z-1.515
N13850 X91.124 Z-1.435
N13855 X91.648 Z-1.331
N13860 X92.176 Z-1.24
N13865 X92.876 Z-1.147
N13870 X93.494 Z-1.092
N13875 X94.038 Z-1.065
N13880 X94.665 Z-1.064
N13885 X95.241 Z-1.096
N13890 X95.281 Z-1.093
N13895 X95.319 Z-1.08
N13900 X95.353 Z-1.068
N13905 X95.389 Z-1.063
N13910 X95.431 Y11.231 Z-1.064
N13915 X95.472 Y11.237
N13920 X95.513 Y11.246 Z-1.065
N13925 X95.552 Y11.258 Z-1.067
N13930 X95.591 Y11.274 Z-1.068
N13935 X95.627 Y11.293 Z-1.07
N13940 X95.662 Y11.315 Z-1.073
N13945 X95.695 Y11.34 Z-1.075
N13950 X95.726 Y11.368 Z-1.078
N13955 X95.754 Y11.399 Z-1.082
N13960 X95.779 Y11.431 Z-1.085
N13965 X95.802 Y11.466 Z-1.089
N13970 X95.821 Y11.503 Z-1.093
N13975 X95.837 Y11.541 Z-1.097
N13980 X95.849 Y11.581 Z-1.101
N13985 X95.858 Y11.621 Z-1.106
N13990 X95.864 Y11.662 Z-1.11
N13995 X95.866 Y11.703 Z-1.114
N14000 Y12.343 Z-1.183
N14005 X95.864 Y12.384 Z-1.188
N14010 X95.858 Y12.425 Z-1.192
N14015 X95.849 Y12.466 Z-1.196
N14020 X95.837 Y12.505 Z-1.201
N14025 X95.821 Y12.543 Z-1.205
N14030 X95.802 Y12.58 Z-1.209
N14035 X95.779 Y12.615 Z-1.212
N14040 X95.754 Y12.647 Z-1.216
N14045 X95.726 Y12.678 Z-1.219
N14050 X95.695 Y12.706 Z-1.222
N14055 X95.662 Y12.731 Z-1.225
N14060 X95.627 Y12.753 Z-1.227
N14065 X95.591 Y12.772 Z-1.229
N14070 X95.552 Y12.788 Z-1.231
N14075 X95.513 Y12.8 Z-1.232
N14080 X95.472 Y12.809 Z-1.233
N14085 X95.431 Y12.815 Z-1.234
N14090 X95.389 Y12.817
N14095 X93.051
N14100 X93.015 Z-1.238
N14105 X92.981 Z-1.25
N14110 X92.944 Z-1.263
N14115 X92.906 Z-1.266
N14120 X92.338 Z-1.247
N14125 X91.772 Z-1.263
N14130 X91.355 Z-1.293
N14135 X90.886 Z-1.344
N14140 X90.376 Z-1.422
N14145 X89.85 Z-1.519
N14150 X89.347 Z-1.63
N14155 X88.994 Z-1.717
N14160 X88.642 Z-1.812
N14165 X88.129 Z-1.962
N14170 X87.456 Z-2.177
N14175 X87.112 Z-2.296
N14180 X86.591 Z-2.486
N14185 X85.914 Z-2.748
N14190 X85.4 Z-2.958
N14195 X84.575 Z-3.313
N14200 X83.739 Z-3.689
N14205 X82.422 Z-4.302
N14210 X80.049 Z-5.407
N14215 X78.668 Z-6.015
N14220 X77.61 Z-6.453
N14225 X76.54 Z-6.865
N14230 X75.461 Z-7.249
N14235 X74.37 Z-7.603
N14240 X73.271 Z-7.928
N14245 X71.979 Z-8.275
N14250 X70.678 Z-8.586
N14255 X69.389 Z-8.862
N14260 X68.075 Z-9.114
N14265 X66.567 Z-9.366
N14270 X65.053 Z-9.584
N14275 X63.535 Z-9.769
N14280 X62.013 Z-9.919
N14285 X60.488 Z-10.038
N14290 X58.859 Z-10.13
N14295 X57.2 Z-10.187
N14300 X55.542 Z-10.208
N14305 X53.835 Z-10.193
N14310 X52.285 Z-10.147
N14315 X50.526 Z-10.056
N14320 X48.868 Z-9.935
N14325 X47.403 Z-9.798
N14330 X45.581 Z-9.59
N14335 X43.972 Z-9.37
N14340 X42.16 Z-9.083
N14345 X40.563 Z-8.794
N14350 X38.784 Z-8.435
N14355 X36.956 Z-8.024
N14360 X35.175 Z-7.587
N14365 X32.994 Z-7.01
N14370 X31.192 Z-6.5
N14375 X29.212 Z-5.917
N14380 X25.974 Z-4.931
N14385 X24.55 Z-4.492
N14390 X23.29 Z-4.104
N14395 X21.863 Z-3.672
N14400 X20.089 Z-3.15
N14405 X18.981 Z-2.84
N14410 X18.243 Z-2.639
N14415 X17.151 Z-2.358
N14420 X16.074 Z-2.099
N14425 X14.974 Z-1.857
N14430 X14.131 Z-1.688
N14435 X13.304 Z-1.537
N14440 X12.474 Z-1.404
N14445 X11.717 Z-1.299
N14450 X11.072 Z-1.224
N14455 X10.33 Z-1.156
N14460 X9.758 Z-1.118
N14465 X9.438 Z-1.102
N14470 X9.406 Z-1.098
N14475 X9.376 Z-1.086
N14480 X9.342 Z-1.074
N14485 X9.306 Z-1.07
N14490 X9.264 Y12.818
N14495 X9.223 Y12.824
N14500 X9.183 Y12.833 Z-1.071
N14505 X9.143 Y12.845
N14510 X9.105 Y12.861
N14515 X9.068 Y12.88
N14520 X9.033 Y12.903 Z-1.072
N14525 X9. Y12.928
N14530 X8.969 Y12.956 Z-1.073
N14535 X8.941 Y12.987
N14540 X8.916 Y13.02 Z-1.074
N14545 X8.893 Y13.055 Z-1.075
N14550 X8.874 Y13.092
N14555 X8.858 Y13.13 Z-1.076
N14560 X8.846 Y13.17 Z-1.077
N14565 X8.837 Y13.21 Z-1.078
N14570 X8.832 Y13.251
N14575 X8.83 Y13.293 Z-1.079
N14580 Y13.927 Z-1.091
N14585 X8.832 Y13.969 Z-1.092
N14590 X8.837 Y14.01 Z-1.093
N14595 X8.846 Y14.051 Z-1.094
N14600 X8.858 Y14.09
N14605 X8.874 Y14.129 Z-1.095
N14610 X8.893 Y14.166 Z-1.096
N14615 X8.916 Y14.201
N14620 X8.941 Y14.234 Z-1.097
N14625 X8.969 Y14.264 Z-1.098
N14630 X9. Y14.292
N14635 X9.033 Y14.317 Z-1.099
N14640 X9.068 Y14.34
N14645 X9.105 Y14.359
N14650 X9.143 Y14.375 Z-1.1
N14655 X9.183 Y14.387
N14660 X9.223 Y14.396
N14665 X9.264 Y14.402
N14670 X9.306 Y14.404
N14675 X11.004
N14680 X11.04 Z-1.104
N14685 X11.074 Z-1.116
N14690 X11.107 Z-1.128
N14695 X11.141 Z-1.133
N14700 X11.547 Z-1.139
N14705 X12.325 Z-1.169
N14710 X12.993 Z-1.211
N14715 X13.746 Z-1.274
N14720 X14.401 Z-1.342
N14725 X15.236 Z-1.444
N14730 X16.238 Z-1.589
N14735 X17.161 Z-1.744
N14740 X17.893 Z-1.879
N14745 X18.605 Z-2.021
N14750 X19.334 Z-2.176
N14755 X20.228 Z-2.38
N14760 X21.119 Z-2.594
N14765 X22.027 Z-2.823
N14770 X23.469 Z-3.202
N14775 X24.74 Z-3.552
N14780 X26.175 Z-3.955
N14785 X29.757 Z-4.982
N14790 X32.297 Z-5.694
N14795 X34.474 Z-6.282
N14800 X36.624 Z-6.824
N14805 X38.448 Z-7.249
N14810 X40.055 Z-7.593
N14815 X41.856 Z-7.942
N14820 X43.644 Z-8.25
N14825 X45.249 Z-8.492
N14830 X47.068 Z-8.728
N14835 X48.55 Z-8.889
N14840 X50.187 Z-9.035
N14845 X51.826 Z-9.148
N14850 X53.419 Z-9.222
N14855 X55.165 Z-9.268
N14860 X56.905 Z-9.276
N14865 X58.564 Z-9.244
N14870 X60.216 Z-9.176
N14875 X61.743 Z-9.081
N14880 X63.267 Z-8.954
N14885 X64.788 Z-8.793
N14890 X66.305 Z-8.599
N14895 X67.817 Z-8.369
N14900 X69.322 Z-8.101
N14905 X70.633 Z-7.835
N14910 X71.938 Z-7.537
N14915 X73.049 Z-7.255
N14920 X74.336 Z-6.891
N14925 X75.592 Z-6.493
N14930 X76.675 Z-6.116
N14935 X77.926 Z-5.642
N14940 X79.341 Z-5.063
N14945 X81.427 Z-4.156
N14950 X82.967 Z-3.48
N14955 X83.793 Z-3.129
N14960 X84.466 Z-2.854
N14965 X84.982 Z-2.653
N14970 X85.645 Z-2.408
N14975 X85.989 Z-2.288
N14980 X86.68 Z-2.065
N14985 X87.287 Z-1.888
N14990 X87.899 Z-1.735
N14995 X88.422 Z-1.625
N15000 X88.865 Z-1.548
N15005 X89.302 Z-1.487
N15010 X89.78 Z-1.44
N15015 X90.294 Z-1.418
N15020 X90.781 Z-1.426
N15025 X90.819 Z-1.423
N15030 X90.854 Z-1.41
N15035 X90.888 Z-1.398
N15040 X90.924 Z-1.394
N15045 X90.965 Y14.405
N15050 X91.007 Y14.411 Z-1.395
N15055 X91.047 Y14.42 Z-1.396
N15060 X91.087 Y14.432 Z-1.397
N15065 X91.125 Y14.448 Z-1.398
N15070 X91.162 Y14.467 Z-1.4
N15075 X91.197 Y14.489 Z-1.402
N15080 X91.23 Y14.515 Z-1.405
N15085 X91.261 Y14.542 Z-1.407
N15090 X91.289 Y14.573 Z-1.41
N15095 X91.314 Y14.606 Z-1.413
N15100 X91.336 Y14.641 Z-1.417
N15105 X91.355 Y14.677 Z-1.42
N15110 X91.371 Y14.716 Z-1.424
N15115 X91.384 Y14.755 Z-1.428
N15120 X91.393 Y14.795 Z-1.432
N15125 X91.398 Y14.836 Z-1.436
N15130 X91.4 Y14.878 Z-1.44
N15135 Y15.517 Z-1.501
N15140 X91.398 Y15.558 Z-1.505
N15145 X91.393 Y15.599 Z-1.509
N15150 X91.384 Y15.639 Z-1.513
N15155 X91.371 Y15.679 Z-1.517
N15160 X91.355 Y15.717 Z-1.52
N15165 X91.336 Y15.754 Z-1.524
N15170 X91.314 Y15.788 Z-1.527
N15175 X91.289 Y15.821 Z-1.53
N15180 X91.261 Y15.852 Z-1.533
N15185 X91.23 Y15.88 Z-1.536
N15190 X91.197 Y15.905 Z-1.539
N15195 X91.162 Y15.927 Z-1.541
N15200 X91.125 Y15.946 Z-1.543
N15205 X91.087 Y15.962 Z-1.544
N15210 X91.047 Y15.974 Z-1.545
N15215 X91.007 Y15.983 Z-1.546
N15220 X90.965 Y15.989 Z-1.547
N15225 X90.924 Y15.991
N15230 X88.874
N15235 X88.838 Z-1.551
N15240 X88.804 Z-1.563
N15245 X88.77 Z-1.575
N15250 X88.734 Z-1.579
N15255 X88.343 Z-1.578
N15260 X87.97 Z-1.595
N15265 X87.449 Z-1.648
N15270 X86.994 Z-1.715
N15275 X86.571 Z-1.795
N15280 X86.049 Z-1.914
N15285 X85.633 Z-2.02
N15290 X85.037 Z-2.193
N15295 X84.284 Z-2.437
N15300 X83.678 Z-2.651
N15305 X82.998 Z-2.906
N15310 X81.926 Z-3.327
N15315 X79.044 Z-4.495
N15320 X77.654 Z-5.029
N15325 X76.412 Z-5.472
N15330 X75.16 Z-5.881
N15335 X74.059 Z-6.205
N15340 X72.785 Z-6.541
N15345 X71.483 Z-6.847
N15350 X70.173 Z-7.119
N15355 X68.857 Z-7.359
N15360 X67.346 Z-7.597
N15365 X66.02 Z-7.775
N15370 X64.691 Z-7.925
N15375 X63.168 Z-8.065
N15380 X61.642 Z-8.172
N15385 X59.999 Z-8.249
N15390 X58.34 Z-8.291
N15395 X56.637 Z-8.296
N15400 X55.076 Z-8.266
N15405 X53.458 Z-8.203
N15410 X51.814 Z-8.104
N15415 X50.156 Z-7.97
N15420 X48.502 Z-7.803
N15425 X46.872 Z-7.604
N15430 X45.075 Z-7.349
N15435 X43.246 Z-7.049
N15440 X41.461 Z-6.72
N15445 X39.683 Z-6.356
N15450 X37.52 Z-5.871
N15455 X35.18 Z-5.303
N15460 X32.109 Z-4.508
N15465 X28.69 Z-3.608
N15470 X27.246 Z-3.237
N15475 X26.153 Z-2.963
N15480 X25.076 Z-2.703
N15485 X23.79 Z-2.409
N15490 X22.5 Z-2.136
N15495 X21.562 Z-1.954
N15500 X20.64 Z-1.79
N15505 X19.791 Z-1.655
N15510 X18.958 Z-1.536
N15515 X18.105 Z-1.432
N15520 X17.459 Z-1.364
N15525 X16.259 Z-1.264
N15530 X15.371 Z-1.213
N15535 X14.322 Z-1.179
N15540 X14.281 Y15.992 Z-1.177
N15545 X14.24 Y15.998 Z-1.174
N15550 X14.199 Y16.007 Z-1.172
N15555 X14.16 Y16.019 Z-1.169
N15560 X14.122 Y16.035 Z-1.166
N15565 X14.085 Y16.054 Z-1.162
N15570 X14.05 Y16.077 Z-1.159
N15575 X14.017 Y16.102 Z-1.156
N15580 X13.987 Y16.13 Z-1.152
N15585 X13.959 Y16.16 Z-1.148
N15590 X13.934 Y16.193 Z-1.145
N15595 X13.911 Y16.228 Z-1.141
N15600 X13.892 Y16.265 Z-1.137
N15605 X13.877 Y16.303 Z-1.134
N15610 X13.864 Y16.343 Z-1.13
N15615 X13.855 Y16.383 Z-1.126
N15620 X13.85 Y16.424 Z-1.123
N15625 X13.848 Y16.466 Z-1.12
N15630 X13.851 Y17.103 Z-1.072
N15635 X13.853 Y17.144 Z-1.069
N15640 X13.858 Y17.185 Z-1.066
N15645 X13.867 Y17.226 Z-1.064
N15650 X13.88 Y17.265 Z-1.061
N15655 X13.896 Y17.303 Z-1.059
N15660 X13.915 Y17.34 Z-1.057
N15665 X13.938 Y17.375 Z-1.056
N15670 X13.963 Y17.408 Z-1.055
N15675 X13.991 Y17.439 Z-1.054
N15680 X14.022 Y17.467 Z-1.053
N15685 X14.055 Y17.492
N15690 X14.09 Y17.514
N15695 X14.127 Y17.533
N15700 X14.165 Y17.549 Z-1.054
N15705 X14.205 Y17.561 Z-1.055
N15710 X14.246 Y17.57 Z-1.056
N15715 X14.287 Y17.576 Z-1.058
N15720 X14.328 Y17.578 Z-1.06
N15725 X19.317 Z-1.305
N15730 X19.457 Z-1.311
N15735 X20.222 Z-1.357
N15740 X21.156 Z-1.429
N15745 X22.202 Z-1.534
N15750 X23.056 Z-1.637
N15755 X24.191 Z-1.797
N15760 X25.304 Z-1.976
N15765 X26.508 Z-2.193
N15770 X27.708 Z-2.429
N15775 X28.998 Z-2.701
N15780 X30.098 Z-2.947
N15785 X31.756 Z-3.329
N15790 X35.586 Z-4.241
N15795 X38.324 Z-4.872
N15800 X40.491 Z-5.338
N15805 X42.478 Z-5.731
N15810 X44.414 Z-6.077
N15815 X46.207 Z-6.361
N15820 X48.023 Z-6.612
N15825 X49.845 Z-6.826
N15830 X51.5 Z-6.986
N15835 X53.157 Z-7.112
N15840 X54.907 Z-7.208
N15845 X56.542 Z-7.263
N15850 X58.211 Z-7.283
N15855 X59.869 Z-7.266
N15860 X61.527 Z-7.212
N15865 X63.063 Z-7.128
N15870 X64.588 Z-7.01
N15875 X66.11 Z-6.858
N15880 X67.438 Z-6.696
N15885 X68.762 Z-6.504
N15890 X70.082 Z-6.283
N15895 X71.396 Z-6.03
N15900 X72.516 Z-5.785
N15905 X73.612 Z-5.521
N15910 X74.719 Z-5.221
N15915 X75.434 Z-5.012
N15920 X76.691 Z-4.617
N15925 X78.119 Z-4.126
N15930 X80.327 Z-3.32
N15935 X81.478 Z-2.903
N15940 X82.163 Z-2.664
N15945 X82.854 Z-2.438
N15950 X83.55 Z-2.23
N15955 X84.15 Z-2.07
N15960 X84.569 Z-1.972
N15965 X85.094 Z-1.869
N15970 X85.614 Z-1.79
N15975 X86.214 Z-1.735
N15980 X86.687 Z-1.723
N15985 X86.721 Z-1.719
N15990 X86.753 Z-1.707
N15995 X86.787 Z-1.695
N16000 X86.823 Z-1.691
N16005 X86.865 Y17.579
N16010 X86.906 Y17.585
N16015 X86.946 Y17.594 Z-1.692
N16020 X86.986 Y17.606 Z-1.693
N16025 X87.025 Y17.622 Z-1.695
N16030 X87.061 Y17.641 Z-1.697
N16035 X87.096 Y17.663 Z-1.699
N16040 X87.129 Y17.689 Z-1.701
N16045 X87.16 Y17.717 Z-1.703
N16050 X87.188 Y17.747 Z-1.706
N16055 X87.213 Y17.78 Z-1.709
N16060 X87.236 Y17.815 Z-1.712
N16065 X87.255 Y17.852 Z-1.715
N16070 X87.271 Y17.89 Z-1.719
N16075 X87.283 Y17.929 Z-1.723
N16080 X87.292 Y17.97 Z-1.726
N16085 X87.298 Y18.011 Z-1.73
N16090 X87.299 Y18.052 Z-1.734
N16095 Y18.69 Z-1.791
N16100 X87.298 Y18.732 Z-1.795
N16105 X87.292 Y18.773 Z-1.799
N16110 X87.283 Y18.813 Z-1.802
N16115 X87.271 Y18.853 Z-1.806
N16120 X87.255 Y18.891 Z-1.809
N16125 X87.236 Y18.928 Z-1.813
N16130 X87.213 Y18.962 Z-1.816
N16135 X87.188 Y18.995 Z-1.819
N16140 X87.16 Y19.026 Z-1.821
N16145 X87.129 Y19.054 Z-1.824
N16150 X87.096 Y19.079 Z-1.826
N16155 X87.061 Y19.101 Z-1.828
N16160 X87.025 Y19.12 Z-1.83
N16165 X86.986 Y19.136 Z-1.831
N16170 X86.946 Y19.149 Z-1.833
N16175 X86.906 Y19.157
N16180 X86.865 Y19.163 Z-1.834
N16185 X86.823 Y19.165
N16190 X84.687
N16195 X84.652 Z-1.838
N16200 X84.618 Z-1.85
N16205 X84.587 Z-1.862
N16210 X84.554 Z-1.866
N16215 X84.144 Z-1.882
N16220 X83.652 Z-1.927
N16225 X83.12 Z-2.003
N16230 X82.636 Z-2.093
N16235 X81.947 Z-2.25
N16240 X81.245 Z-2.435
N16245 X80.547 Z-2.639
N16250 X79.69 Z-2.904
N16255 X79.161 Z-3.071
N16260 X76.893 Z-3.789
N16265 X75.602 Z-4.17
N16270 X74.514 Z-4.466
N16275 X73.606 Z-4.693
N16280 X72.487 Z-4.945
N16285 X71.194 Z-5.205
N16290 X69.876 Z-5.434
N16295 X68.553 Z-5.631
N16300 X67.225 Z-5.801
N16305 X65.894 Z-5.939
N16310 X64.37 Z-6.066
N16315 X63.244 Z-6.136
N16320 X61.693 Z-6.204
N16325 X60.132 Z-6.239
N16330 X58.411 Z-6.238
N16335 X56.852 Z-6.204
N16340 X55.325 Z-6.141
N16345 X53.68 Z-6.04
N16350 X52.023 Z-5.905
N16355 X50.389 Z-5.74
N16360 X48.568 Z-5.52
N16365 X46.704 Z-5.258
N16370 X44.751 Z-4.948
N16375 X42.607 Z-4.567
N16380 X40.056 Z-4.071
N16385 X34.76 Z-2.976
N16390 X33.111 Z-2.647
N16395 X31.65 Z-2.376
N16400 X30.326 Z-2.152
N16405 X29.212 Z-1.982
N16410 X28.075 Z-1.83
N16415 X27.031 Z-1.707
N16420 X25.718 Z-1.585
N16425 X24.811 Z-1.521
N16430 X24.794 Z-1.52
N16435 X24.753 Y19.166 Z-1.518
N16440 X24.712 Y19.172 Z-1.514
N16445 X24.671 Y19.181 Z-1.511
N16450 X24.632 Y19.193 Z-1.507
N16455 X24.594 Y19.209 Z-1.503
N16460 X24.557 Y19.228 Z-1.499
N16465 X24.522 Y19.25 Z-1.495
N16470 X24.49 Y19.276 Z-1.49
N16475 X24.459 Y19.304 Z-1.486
N16480 X24.431 Y19.334 Z-1.481
N16485 X24.406 Y19.367 Z-1.476
N16490 X24.384 Y19.402 Z-1.472
N16495 X24.365 Y19.439 Z-1.467
N16500 X24.35 Y19.477 Z-1.463
N16505 X24.337 Y19.516 Z-1.459
N16510 X24.329 Y19.557 Z-1.454
N16515 X24.324 Y19.598 Z-1.45
N16520 X24.322 Y19.639 Z-1.447
N16525 X24.326 Y20.277 Z-1.391
N16530 X24.328 Y20.319 Z-1.387
N16535 X24.333 Y20.36 Z-1.384
N16540 X24.343 Y20.4 Z-1.381
N16545 X24.355 Y20.44 Z-1.378
N16550 X24.371 Y20.478 Z-1.376
N16555 X24.391 Y20.514 Z-1.374
N16560 X24.413 Y20.549 Z-1.373
N16565 X24.439 Y20.582 Z-1.372
N16570 X24.467 Y20.613 Z-1.371
N16575 X24.498 Y20.641 Z-1.37
N16580 X24.531 Y20.666
N16585 X24.566 Y20.688 Z-1.371
N16590 X24.603 Y20.707 Z-1.372
N16595 X24.641 Y20.723 Z-1.373
N16600 X24.681 Y20.736 Z-1.374
N16605 X24.721 Y20.744 Z-1.376
N16610 X24.762 Y20.75 Z-1.379
N16615 X24.804 Y20.752 Z-1.381
N16620 X30.937 Z-1.796
N16625 X31.528 Z-1.836
N16630 X32.48 Z-1.915
N16635 X33.906 Z-2.061
N16640 X35.404 Z-2.25
N16645 X36.828 Z-2.456
N16650 X38.578 Z-2.736
N16655 X43.72 Z-3.618
N16660 X46.058 Z-3.997
N16665 X48.252 Z-4.317
N16670 X50.071 Z-4.552
N16675 X51.913 Z-4.756
N16680 X53.568 Z-4.908
N16685 X55.378 Z-5.04
N16690 X57.039 Z-5.126
N16695 X58.683 Z-5.178
N16700 X60.342 Z-5.195
N16705 X62.036 Z-5.174
N16710 X63.694 Z-5.116
N16715 X65.225 Z-5.027
N16720 X66.75 Z-4.903
N16725 X68.27 Z-4.744
N16730 X69.598 Z-4.573
N16735 X70.882 Z-4.378
N16740 X72.2 Z-4.147
N16745 X73.119 Z-3.966
N16750 X74.407 Z-3.684
N16755 X75.483 Z-3.424
N16760 X77.833 Z-2.817
N16765 X78.795 Z-2.569
N16770 X79.762 Z-2.345
N16775 X80.413 Z-2.213
N16780 X81.068 Z-2.106
N16785 X81.685 Z-2.034
N16790 X82.224 Z-2.003
N16795 X82.255 Z-1.998
N16800 X82.285 Z-1.987
N16805 X82.319 Z-1.975
N16810 X82.354 Z-1.971
N16815 X82.396 Y20.753
N16820 X82.437 Y20.759
N16825 X82.478 Y20.768 Z-1.972
N16830 X82.517 Y20.78 Z-1.973
N16835 X82.556 Y20.796 Z-1.975
N16840 X82.593 Y20.815 Z-1.976
N16845 X82.628 Y20.837 Z-1.978
N16850 X82.661 Y20.863 Z-1.98
N16855 X82.691 Y20.891 Z-1.983
N16860 X82.719 Y20.921 Z-1.985
N16865 X82.745 Y20.954 Z-1.988
N16870 X82.767 Y20.989 Z-1.991
N16875 X82.786 Y21.026 Z-1.994
N16880 X82.802 Y21.064 Z-1.998
N16885 X82.814 Y21.103 Z-2.001
N16890 X82.823 Y21.144 Z-2.005
N16895 X82.829 Y21.185 Z-2.008
N16900 X82.831 Y21.226 Z-2.012
N16905 Y21.864 Z-2.067
N16910 X82.829 Y21.906 Z-2.07
N16915 X82.823 Y21.947 Z-2.074
N16920 X82.814 Y21.987 Z-2.077
N16925 X82.802 Y22.027 Z-2.081
N16930 X82.786 Y22.065 Z-2.084
N16935 X82.767 Y22.101 Z-2.087
N16940 X82.745 Y22.136 Z-2.09
N16945 X82.719 Y22.169 Z-2.093
N16950 X82.691 Y22.2 Z-2.096
N16955 X82.661 Y22.228 Z-2.098
N16960 X82.628 Y22.253 Z-2.1
N16965 X82.593 Y22.275 Z-2.102
N16970 X82.556 Y22.294 Z-2.104
N16975 X82.517 Y22.31 Z-2.105
N16980 X82.478 Y22.323 Z-2.106
N16985 X82.437 Y22.331 Z-2.107
N16990 X82.396 Y22.337 Z-2.108
N16995 X82.354 Y22.339
N17000 X79.634
N17005 X79.598 Z-2.112
N17010 X79.564 Z-2.124
N17015 X79.535 Z-2.135
N17020 X79.505 Z-2.14
N17025 X78.967 Z-2.176
N17030 X78.435 Z-2.229
N17035 X77.735 Z-2.324
N17040 X77.092 Z-2.427
N17045 X76.135 Z-2.602
N17050 X73.582 Z-3.082
N17055 X72.302 Z-3.301
N17060 X70.809 Z-3.525
N17065 X69.33 Z-3.713
N17070 X67.809 Z-3.87
N17075 X66.284 Z-3.992
N17080 X64.655 Z-4.085
N17085 X62.996 Z-4.142
N17090 X61.392 Z-4.162
N17095 X59.636 Z-4.145
N17100 X57.956 Z-4.092
N17105 X56.23 Z-4.006
N17110 X54.4 Z-3.877
N17115 X52.554 Z-3.714
N17120 X50.388 Z-3.484
N17125 X47.638 Z-3.148
N17130 X44.152 Z-2.694
N17135 X42.653 Z-2.509
N17140 X41.248 Z-2.351
N17145 X39.745 Z-2.208
N17150 X38.267 Z-2.099
N17155 X37.817 Z-2.074
N17160 X37.776 Y22.341 Z-2.071
N17165 X37.735 Y22.346 Z-2.068
N17170 X37.694 Y22.355 Z-2.064
N17175 X37.655 Y22.367 Z-2.06
N17180 X37.617 Y22.383 Z-2.056
N17185 X37.58 Y22.402 Z-2.051
N17190 X37.545 Y22.424 Z-2.046
N17195 X37.512 Y22.449 Z-2.041
N17200 X37.482 Y22.477 Z-2.035
N17205 X37.454 Y22.507 Z-2.029
N17210 X37.429 Y22.54 Z-2.023
N17215 X37.407 Y22.574 Z-2.017
N17220 X37.388 Y22.611 Z-2.01
N17225 X37.373 Y22.649 Z-2.004
N17230 X37.361 Y22.688 Z-1.998
N17235 X37.352 Y22.728 Z-1.992
N17240 X37.347 Y22.769 Z-1.986
N17245 X37.345 Y22.81 Z-1.98
N17250 X37.351 Y23.454 Z-1.888
N17255 X37.353 Y23.495 Z-1.883
N17260 X37.359 Y23.536 Z-1.877
N17265 X37.368 Y23.576 Z-1.872
N17270 X37.381 Y23.615 Z-1.867
N17275 X37.397 Y23.653 Z-1.863
N17280 X37.416 Y23.69 Z-1.859
N17285 X37.439 Y23.725 Z-1.855
N17290 X37.464 Y23.757 Z-1.852
N17295 X37.493 Y23.788 Z-1.849
N17300 X37.523 Y23.815 Z-1.847
N17305 X37.557 Y23.84 Z-1.845
N17310 X37.592 Y23.863 Z-1.844
N17315 X37.629 Y23.882
N17320 X37.667 Y23.897
N17325 X37.707 Y23.91
N17330 X37.747 Y23.919 Z-1.845
N17335 X37.789 Y23.924 Z-1.847
N17340 X37.83 Y23.926 Z-1.849
N17345 X45.64 Z-2.296
N17350 X45.839 Z-2.304
N17355 X47.408 Z-2.385
N17360 X49.066 Z-2.498
N17365 X54.039 Z-2.874
N17370 X56.422 Z-3.029
N17375 X58.4 Z-3.125
N17380 X60.234 Z-3.181
N17385 X61.795 Z-3.199
N17390 X63.365 Z-3.193
N17395 X65.023 Z-3.154
N17400 X66.68 Z-3.081
N17405 X68.483 Z-2.966
N17410 X70.329 Z-2.807
N17415 X74.054 Z-2.423
N17420 X75.062 Z-2.334
N17425 X75.943 Z-2.279
N17430 X75.985 Y23.928 Z-2.276
N17435 X76.026 Y23.933 Z-2.272
N17440 X76.066 Y23.942 Z-2.268
N17445 X76.106 Y23.954 Z-2.264
N17450 X76.144 Y23.97 Z-2.259
N17455 X76.18 Y23.989 Z-2.253
N17460 X76.215 Y24.011 Z-2.247
N17465 X76.248 Y24.035 Z-2.24
N17470 X76.278 Y24.063 Z-2.233
N17475 X76.306 Y24.093 Z-2.226
N17480 X76.331 Y24.126 Z-2.219
N17485 X76.353 Y24.16 Z-2.212
N17490 X76.371 Y24.196 Z-2.204
N17495 X76.387 Y24.234 Z-2.196
N17500 X76.399 Y24.273 Z-2.188
N17505 X76.407 Y24.313 Z-2.181
N17510 X76.412 Y24.354 Z-2.173
N17515 X76.414 Y24.395 Z-2.166
N17520 X76.406 Y25.044 Z-2.051
N17525 X76.404 Y25.085 Z-2.044
N17530 X76.398 Y25.125 Z-2.037
N17535 X76.389 Y25.165 Z-2.03
N17540 X76.376 Y25.204 Z-2.024
N17545 X76.36 Y25.242 Z-2.018
N17550 X76.34 Y25.278 Z-2.013
N17555 X76.317 Y25.313 Z-2.008
N17560 X76.292 Y25.345 Z-2.004
N17565 X76.263 Y25.375 Z-2.001
N17570 X76.233 Y25.403 Z-1.998
N17575 X76.199 Y25.428 Z-1.995
N17580 X76.164 Y25.45 Z-1.993
N17585 X76.127 Y25.469 Z-1.992
N17590 X76.089 Y25.484
N17595 X76.049 Y25.497
N17600 X76.008 Y25.506 Z-1.993
N17605 X75.967 Y25.511 Z-1.995
N17610 X75.926 Y25.513 Z-1.997
N17615 X68.986 Z-2.432
N17620 X65.669 Z-2.501
N17625 X63.09 Z-2.525
N17630 X60.554 Z-2.514
N17635 X56.889 Z-2.46
N17640 G18 G3 X56.577 Z-2.143 I0.005 K0.317
N17645 G1 Z15.
N17650 G17
N17655 G53 G0 Z0.
N17660 M30
%
