%
(SPOOL)
(T3  D=6.39 CR=0. - ZMIN=-12.35 - FLAT END MILL)
N10 G90 G94 G17 G91.1
N15 G21
(WHEN USING FUSION 360 FOR PERSONAL USE, THE FEEDRATE OF)
(RAPID MOVES IS REDUCED TO MATCH THE FEEDRATE OF CUTTING)
(MOVES, WHICH CAN INCREASE MACHINING TIME. UNRESTRICTED RAPID)
(MOVES ARE AVAILABLE WITH A FUSION 360 SUBSCRIPTION.)
N20 G53 G0 Z0.
(2D CONTOUR1)
N25 T3 M6
N30 S5000 M3
N35 G54
N40 M8
N45 G0 X5.888 Y-0.639
N50 G43 Z10. H3
N55 G1 Z5. F1000.
N60 Z-5.361 F333.33
N65 G18 G2 X6.527 Z-6. I0.639 K0. F1000.
N70 G1 X7.166
N75 G17 G3 X7.805 Y0. I0. J0.639
N80 X-7.805 I-7.805 J0.
N85 X7.805 I7.805 J0.
N90 X7.166 Y0.639 I-0.639 J0.
N95 G1 X6.527
N100 G18 G3 X5.888 Z-5.361 I0. K0.639
N105 G1 Z5.
N110 Y-0.639
N115 Z-1. F333.33
N120 Z-8.536
N125 G2 X6.527 Z-9.175 I0.639 K0. F1000.
N130 G1 X7.166
N135 G17 G3 X7.805 Y0. I0. J0.639
N140 X-7.805 I-7.805 J0.
N145 X7.805 I7.805 J0.
N150 X7.166 Y0.639 I-0.639 J0.
N155 G1 X6.527
N160 G18 G3 X5.888 Z-8.536 I0. K0.639
N165 G1 Z5.
N170 Y-0.639
N175 Z-4.175 F333.33
N180 Z-11.711
N185 G2 X6.527 Z-12.35 I0.639 K0. F1000.
N190 G1 X7.166
N195 G17 G3 X7.805 Y0. I0. J0.639
N200 X6.66 Y4.069 I-7.805 J0.
N205 G1 Z-10.752
N210 G3 X-6.094 Y4.876 I-6.66 J-4.069
N215 G1 Z-12.35 F333.33
N220 G3 X-5.556 Y-5.481 I6.094 J-4.876 F1000.
N225 G1 Z-10.752
N230 G3 X7.046 Y-3.357 I5.556 J5.481
N235 G1 Z-12.35 F333.33
N240 G3 X7.805 Y0. I-7.046 J3.357 F1000.
N245 X7.166 Y0.639 I-0.639 J0.
N250 G1 X6.527
N255 G18 G3 X5.888 Z-11.711 I0. K0.639
N260 G1 Z5.
N265 X105.125
N270 Z-5.361 F333.33
N275 G3 X104.486 Z-6. I-0.639 K0. F1000.
N280 G1 X103.847
N285 G17 G3 X103.208 Y0. I0. J-0.639
N290 G2 X-103.208 I-103.208 J0.
N295 X103.208 I103.208 J0.
N300 G3 X103.847 Y-0.639 I0.639 J0.
N305 G1 X104.486
N310 G18 G2 X105.125 Z-5.361 I0. K0.639
N315 G1 Z5.
N320 Y0.639
N325 Z-1. F333.33
N330 Z-8.536
N335 G3 X104.486 Z-9.175 I-0.639 K0. F1000.
N340 G1 X103.847
N345 G17 G3 X103.208 Y0. I0. J-0.639
N350 G2 X-103.208 I-103.208 J0.
N355 X103.208 I103.208 J0.
N360 G3 X103.847 Y-0.639 I0.639 J0.
N365 G1 X104.486
N370 G18 G2 X105.125 Z-8.536 I0. K0.639
N375 G1 Z5.
N380 Y0.639
N385 Z-4.175 F333.33
N390 Z-11.711
N395 G3 X104.486 Z-12.35 I-0.639 K0. F1000.
N400 G1 X103.847
N405 G17 G3 X103.208 Y0. I0. J-0.639
N410 G2 X63.968 Y-80.993 I-103.208 J0.
N415 G1 Z-10.752
N420 G2 X53.468 Y-88.278 I-63.968 J80.993
N425 G1 Z-12.35 F333.33
N430 G2 X-73.816 Y-72.133 I-53.468 J88.278 F1000.
N435 G1 Z-10.752
N440 G2 X-82.165 Y-62.457 I73.816 J72.133
N445 G1 Z-12.35 F333.33
N450 G2 X-75.169 Y70.722 I82.165 J62.457 F1000.
N455 G1 Z-10.752
N460 G2 X-65.852 Y79.47 I75.169 J-70.722
N465 G1 Z-12.35 F333.33
N470 G2 X70.395 Y75.475 I65.852 J-79.47 F1000.
N475 G1 Z-10.752
N480 G2 X79.183 Y66.196 I-70.395 J-75.475
N485 G1 Z-12.35 F333.33
N490 G2 X103.208 Y0. I-79.183 J-66.196 F1000.
N495 G3 X103.847 Y-0.639 I0.639 J0.
N500 G1 X104.486
N505 G18 G2 X105.125 Z-11.711 I0. K0.639
N510 G1 Z10.
N515 G17
N520 M9
N525 G53 G0 Z0.
N530 M30
%
