%
(SPOONTOPADAPTIVE_25FLAT)
(T1  D=6.35 CR=0. - ZMIN=-19.583 - FLAT END MILL)
N10 G90 G94 G17 G91.1
N15 G21
(WHEN USING FUSION 360 FOR PERSONAL USE, THE FEEDRATE OF)
(RAPID MOVES IS REDUCED TO MATCH THE FEEDRATE OF CUTTING)
(MOVES, WHICH CAN INCREASE MACHINING TIME. UNRESTRICTED RAPID)
(MOVES ARE AVAILABLE WITH A FUSION 360 SUBSCRIPTION.)
N20 G53 G0 Z0.
(ADAPTIVE2)
N25 T1 M6
N30 S10000 M3
N35 G54
N40 G0 X199.432 Y-40.955
N45 G43 Z18. H1
N50 G1 Z8. F2500.
N55 Z-4.73
N60 Z-5.365
N65 X199.426 Y-40.95 Z-5.464
N70 X199.408 Y-40.934 Z-5.561
N75 X199.38 Y-40.909 Z-5.653
N80 X199.341 Y-40.874 Z-5.738
N85 X199.293 Y-40.831 Z-5.814
N90 X199.236 Y-40.781 Z-5.879
N95 X199.173 Y-40.724 Z-5.931
N100 X199.104 Y-40.663 Z-5.969
N105 X199.032 Y-40.599 Z-5.992
N110 X198.958 Y-40.533 Z-6.
N115 G3 X196.116 Y-38.502 I-10.79 J-12.099
N120 G1 X196.007 Y-38.446
N125 X195.784 Y-38.293
N130 X195.561 Y-38.123
N135 X195.338 Y-37.909
N140 X195.27 Y-37.841
N145 X195.141 Y-37.723
N150 X194.917 Y-37.549
N155 X194.628 Y-37.361
N160 X194.258 Y-37.159
N165 X193.778 Y-36.946
N170 X193.14 Y-36.722
N175 X192.255 Y-36.489
N180 X191.289 Y-36.316
N185 X190.314 Y-36.199
N190 X189.336 Y-36.12
N195 X188.356 Y-36.066
N200 X187.375 Y-36.03
N205 X186.394 Y-36.005
N210 X185.413 Y-35.987
N215 X184.431 Y-35.976
N220 X183.45 Y-35.968
N225 X182.468 Y-35.962
N230 X181.487 Y-35.959
N235 X179.524 Y-35.954
N240 X176.579 Y-35.952
N245 X166.764 Y-35.95
N250 X145.171 Y-35.949
N255 X95.113 Y-35.948
N260 X45.056 Y-35.947
N265 X2.851 Y-35.945
N270 X2.378 Y-35.813
N275 X1.534 Y-35.313
N280 X0.904 Y-34.56
N285 X0.449 Y-33.69
N290 X0.126 Y-32.763
N295 X-0.101 Y-31.809
N300 X-0.259 Y-30.84
N305 X-0.369 Y-29.865
N310 X-0.444 Y-28.886
N315 X-0.497 Y-27.906
N320 X-0.533 Y-26.925
N325 X-0.557 Y-25.944
N330 X-0.574 Y-24.962
N335 X-0.586 Y-23.981
N340 X-0.594 Y-22.999
N345 X-0.6 Y-22.018
N350 X-0.604 Y-21.036
N355 X-0.608 Y-19.073
N360 X-0.611 Y-16.129
N365 X-0.613 Y-11.007
N370 X-0.639 Y-10.735
N375 X-0.713 Y-10.472
N380 X-0.835 Y-10.228
N385 X-1.113 Y-9.776
N390 X-1.16 Y-9.697
N395 X-1.497 Y-9.028
N400 X-1.71 Y-8.582
N405 X-2.134 Y-7.691
N410 X-2.237 Y-7.468
N415 X-2.33 Y-7.245
N420 X-2.451 Y-6.897
N425 X-2.559 Y-6.576
N430 X-2.971 Y-5.339
N435 G3 X-3.102 Y-5.114 I-0.603 J-0.2
N440 G2 X-3.242 Y-4.859 I0.472 J0.425
N445 G1 X-3.304 Y-4.638
N450 X-4.531 Y-0.217
N455 G2 X-4.478 Y0.254 I0.612 J0.17
N460 G3 X-3.162 Y3.489 I-14.272 J7.689
N465 G1 X-2.894 Y4.57
N470 X-2.824 Y4.793
N475 X-2.669 Y5.239
N480 X-2.587 Y5.462
N485 X-2.066 Y6.799
N490 X-1.782 Y7.424
N495 X-1.498 Y8.142
N500 X-1.269 Y8.891
N505 X-1.059 Y9.85
N510 X-0.918 Y10.821
N515 X-0.822 Y11.798
N520 X-0.758 Y12.777
N525 X-0.713 Y13.758
N530 X-0.683 Y14.739
N535 X-0.663 Y15.72
N540 X-0.649 Y16.702
N545 X-0.64 Y17.683
N550 X-0.633 Y18.665
N555 X-0.629 Y19.646
N560 X-0.624 Y21.609
N565 X-0.622 Y24.554
N570 Y32.406
N575 X-0.513 Y32.885
N580 X-0.276 Y33.314
N585 X0.352 Y34.069
N590 X1.163 Y34.622
N595 X2.06 Y35.019
N600 X3.001 Y35.3
N605 X3.963 Y35.496
N610 X4.935 Y35.632
N615 X5.911 Y35.727
N620 X6.891 Y35.792
N625 X7.871 Y35.837
N630 X8.852 Y35.868
N635 X9.834 Y35.889
N640 X10.815 Y35.903
N645 X11.797 Y35.913
N650 X12.778 Y35.92
N655 X13.759 Y35.925
N660 X14.741 Y35.928
N665 X16.704 Y35.932
N670 X20.63 Y35.934
N675 X23.575 Y35.935
N680 X73.632 Y35.937
N685 X123.689 Y35.938
N690 X173.746 Y35.94
N695 X193.234 Y35.941
N700 X193.522 Y35.969
N705 X193.799 Y36.053
N710 X194.055 Y36.189
N715 X194.279 Y36.372
N720 X194.463 Y36.595
N725 X194.601 Y36.85
N730 G3 X194.414 Y37.562 I-0.594 J0.225
N735 G1 X194.337 Y37.626 Z-5.992
N740 X194.263 Y37.688 Z-5.969
N745 X194.192 Y37.747 Z-5.931
N750 X194.127 Y37.801 Z-5.879
N755 X194.069 Y37.85 Z-5.814
N760 X194.019 Y37.892 Z-5.738
N765 X193.979 Y37.925 Z-5.653
N770 X193.95 Y37.949 Z-5.561
N775 X193.932 Y37.964 Z-5.464
N780 X193.926 Y37.969 Z-5.365
N785 Z8.
N790 X195.798 Y-39.148
N795 Z-4.73
N800 Z-5.365
N805 X195.796 Y-39.14 Z-5.464
N810 X195.79 Y-39.118 Z-5.561
N815 X195.781 Y-39.081 Z-5.653
N820 X195.768 Y-39.03 Z-5.738
N825 X195.753 Y-38.968 Z-5.814
N830 X195.734 Y-38.894 Z-5.879
N835 X195.714 Y-38.812 Z-5.931
N840 X195.692 Y-38.722 Z-5.969
N845 X195.668 Y-38.628 Z-5.992
N850 X195.644 Y-38.532 Z-6.
N855 G3 X195.27 Y-37.841 I-1.535 J-0.384
N860 G1 X195.215 Y-37.785
N865 X195.032 Y-37.562
N870 X194.892 Y-37.367
N875 X194.874 Y-37.339
N880 X194.736 Y-37.116
N885 X194.619 Y-36.893
N890 X194.525 Y-36.671
N895 X194.467 Y-36.532
N900 X194.362 Y-36.351
N905 X194.232 Y-36.162
N910 X194.071 Y-35.966
N915 X193.859 Y-35.746
N920 X193.603 Y-35.519
N925 X193.288 Y-35.282
N930 X192.891 Y-35.031
N935 X192.404 Y-34.776
N940 X191.787 Y-34.513
N945 X190.98 Y-34.243
N950 X190.028 Y-34.008
N955 X189.061 Y-33.838
N960 X188.087 Y-33.717
N965 X187.109 Y-33.63
N970 X186.13 Y-33.567
N975 X185.149 Y-33.522
N980 X184.168 Y-33.49
N985 X183.187 Y-33.467
N990 X182.206 Y-33.451
N995 X181.224 Y-33.439
N1000 X180.243 Y-33.431
N1005 X179.261 Y-33.425
N1010 X178.28 Y-33.42
N1015 X176.317 Y-33.415
N1020 X173.372 Y-33.412
N1025 X166.502 Y-33.41
N1030 X144.908 Y-33.409
N1035 X94.851 Y-33.408
N1040 X44.794 Y-33.407
N1045 X6.515 Y-33.405
N1050 X6.025 Y-33.375
N1055 X5.552 Y-33.243
N1060 X4.671 Y-32.81
N1065 X3.963 Y-32.131
N1070 X3.418 Y-31.314
N1075 X3.009 Y-30.422
N1080 X2.707 Y-29.488
N1085 X2.487 Y-28.531
N1090 X2.327 Y-27.563
N1095 X2.213 Y-26.588
N1100 X2.13 Y-25.61
N1105 X2.072 Y-24.63
N1110 X2.03 Y-23.65
N1115 X2. Y-22.669
N1120 X1.979 Y-21.687
N1125 X1.964 Y-20.706
N1130 X1.953 Y-19.724
N1135 X1.945 Y-18.743
N1140 X1.94 Y-17.761
N1145 X1.936 Y-16.78
N1150 X1.931 Y-14.608
N1155 X1.907 Y-14.346
N1160 X1.837 Y-14.092
N1165 X1.723 Y-13.854
N1170 X1.569 Y-13.64
N1175 X1.339 Y-13.374
N1180 X1.253 Y-13.264
N1185 X0.579 Y-12.372
N1190 X0.225 Y-11.901
N1195 X0.002 Y-11.566
N1200 X-0.055 Y-11.48
N1205 X-0.198 Y-11.258
N1210 X-0.835 Y-10.228
N1215 G3 X-1.523 Y-9.966 I-0.528 J-0.352
N1220 G1 X-1.619 Y-9.991 Z-5.992
N1225 X-1.713 Y-10.015 Z-5.969
N1230 X-1.802 Y-10.039 Z-5.931
N1235 X-1.884 Y-10.06 Z-5.879
N1240 X-1.957 Y-10.079 Z-5.814
N1245 X-2.02 Y-10.095 Z-5.738
N1250 X-2.07 Y-10.108 Z-5.653
N1255 X-2.107 Y-10.118 Z-5.561
N1260 X-2.13 Y-10.124 Z-5.464
N1265 X-2.137 Y-10.126 Z-5.365
N1270 Z8.
N1275 X-2.817 Y6.466
N1280 Z-4.73
N1285 Z-5.365
N1290 X-2.811 Y6.471 Z-5.464
N1295 X-2.791 Y6.484 Z-5.561
N1300 X-2.76 Y6.506 Z-5.653
N1305 X-2.717 Y6.536 Z-5.738
N1310 X-2.664 Y6.573 Z-5.814
N1315 X-2.602 Y6.616 Z-5.879
N1320 X-2.532 Y6.664 Z-5.931
N1325 X-2.457 Y6.717 Z-5.969
N1330 X-2.377 Y6.772 Z-5.992
N1335 X-2.296 Y6.829 Z-6.
N1340 G3 X-1.782 Y7.424 I-0.904 J1.299
N1345 G1 X-1.762 Y7.468
N1350 X-1.65 Y7.691
N1355 X-1.303 Y8.36
N1360 X-1.069 Y8.805
N1365 X-0.948 Y9.028
N1370 X-0.89 Y9.123
N1375 X-0.104 Y10.366
N1380 X0.002 Y10.52
N1385 X0.208 Y10.812
N1390 X0.445 Y11.184
N1395 X0.666 Y11.602
N1400 X0.899 Y12.146
N1405 X1.142 Y12.865
N1410 X1.38 Y13.817
N1415 X1.544 Y14.785
N1420 X1.658 Y15.76
N1425 X1.737 Y16.738
N1430 X1.793 Y17.718
N1435 X1.831 Y18.699
N1440 X1.858 Y19.68
N1445 X1.877 Y20.661
N1450 X1.89 Y21.643
N1455 X1.899 Y22.624
N1460 X1.905 Y23.606
N1465 X1.91 Y24.587
N1470 X1.915 Y26.55
N1475 X1.917 Y29.004
N1480 X1.994 Y29.489
N1485 X2.334 Y30.409
N1490 X2.958 Y31.167
N1495 X3.743 Y31.757
N1500 X4.617 Y32.203
N1505 X5.541 Y32.533
N1510 X6.492 Y32.776
N1515 X7.458 Y32.952
N1520 X8.431 Y33.079
N1525 X9.408 Y33.17
N1530 X10.388 Y33.236
N1535 X11.368 Y33.282
N1540 X12.349 Y33.315
N1545 X13.33 Y33.339
N1550 X14.312 Y33.355
N1555 X15.293 Y33.367
N1560 X16.275 Y33.375
N1565 X17.256 Y33.381
N1570 X18.238 Y33.385
N1575 X20.201 Y33.39
N1580 X23.145 Y33.393
N1585 X30.016 Y33.395
N1590 X31.979
N1595 X82.036 Y33.397
N1600 X132.093 Y33.399
N1605 X182.151 Y33.4
N1610 X190.984 Y33.401
N1615 X191.868 Y33.424
N1620 X192.479 Y33.49
N1625 X192.975 Y33.584
N1630 X193.175 Y33.639
N1635 X193.473 Y33.757
N1640 X193.739 Y33.937
N1645 X193.961 Y34.169
N1650 X194.127 Y34.444
N1655 X194.229 Y34.748
N1660 X194.264 Y35.068
N1665 Y35.11
N1670 X194.271 Y35.333
N1675 X194.28 Y35.456
N1680 G3 X193.878 Y36.072 I-0.634 J0.026
N1685 G1 X193.785 Y36.109 Z-5.992
N1690 X193.695 Y36.144 Z-5.969
N1695 X193.609 Y36.178 Z-5.931
N1700 X193.53 Y36.209 Z-5.879
N1705 X193.46 Y36.236 Z-5.814
N1710 X193.399 Y36.26 Z-5.738
N1715 X193.351 Y36.279 Z-5.653
N1720 X193.315 Y36.293 Z-5.561
N1725 X193.294 Y36.302 Z-5.464
N1730 X193.286 Y36.304 Z-5.365
N1735 Z8.
N1740 X194.457 Y-38.078
N1745 Z-4.73
N1750 Z-5.365
N1755 X194.458 Y-38.071 Z-5.464
N1760 X194.462 Y-38.048 Z-5.561
N1765 X194.469 Y-38.01 Z-5.653
N1770 X194.479 Y-37.959 Z-5.738
N1775 X194.491 Y-37.896 Z-5.814
N1780 X194.505 Y-37.821 Z-5.879
N1785 X194.521 Y-37.738 Z-5.931
N1790 X194.538 Y-37.647 Z-5.969
N1795 X194.556 Y-37.552 Z-5.992
N1800 X194.575 Y-37.454 Z-6.
N1805 G3 X194.525 Y-36.671 I-1.555 J0.295
N1810 G1 X194.445 Y-36.448
N1815 X194.378 Y-36.225
N1820 X194.331 Y-36.002
N1825 X194.304 Y-35.779
N1830 X194.287 Y-35.556
N1835 X194.259 Y-35.332
N1840 X194.225 Y-35.169
N1845 X194.172 Y-34.988
N1850 X194.099 Y-34.798
N1855 X193.994 Y-34.578
N1860 X193.866 Y-34.358
N1865 X193.696 Y-34.114
N1870 X193.477 Y-33.847
N1875 X193.227 Y-33.588
N1880 X192.895 Y-33.295
N1885 X192.517 Y-33.013
N1890 X192.032 Y-32.707
N1895 X191.465 Y-32.411
N1900 X190.739 Y-32.104
N1905 X189.809 Y-31.795
N1910 X188.855 Y-31.561
N1915 X187.89 Y-31.385
N1920 X186.917 Y-31.253
N1925 X185.941 Y-31.154
N1930 X184.962 Y-31.08
N1935 X183.982 Y-31.025
N1940 X183.001 Y-30.984
N1945 X182.02 Y-30.954
N1950 X181.039 Y-30.932
N1955 X180.058 Y-30.915
N1960 X179.076 Y-30.903
N1965 X178.095 Y-30.894
N1970 X177.113 Y-30.888
N1975 X176.132 Y-30.883
N1980 X174.169 Y-30.877
N1985 X171.224 Y-30.873
N1990 X165.335 Y-30.87
N1995 X145.705 Y-30.869
N2000 X95.647 Y-30.868
N2005 X77.473 Y-30.867
N2010 X77.327 Y-30.875
N2015 X77.183 Y-30.896
N2020 X77.042 Y-30.931
N2025 X76.486 Y-31.1
N2030 X76.04 Y-31.228
N2035 X75.714 Y-31.32
N2040 X74.256 Y-31.665
N2045 X74.033 Y-31.712
N2050 X73.587 Y-31.799
N2055 X73.364 Y-31.84
N2060 X72.249 Y-32.038
N2065 X72.026 Y-32.077
N2070 X71.357 Y-32.165
N2075 X70.688 Y-32.25
N2080 X70.019 Y-32.331
N2085 X69.796 Y-32.353
N2090 X66.229 Y-32.574
N2095 X66.006 Y-32.581
N2100 X65.56 Y-32.592
N2105 X65.337 Y-32.593
N2110 X61.769 Y-32.561
N2115 X61.1 Y-32.526
N2120 X60.208 Y-32.469
N2125 X57.755 Y-32.31
N2130 X57.532 Y-32.295
N2135 X57.309 Y-32.279
N2140 X55.971 Y-32.135
N2145 X53.741 Y-31.892
N2150 X53.072 Y-31.816
N2155 X52.849 Y-31.788
N2160 X49.282 Y-31.279
N2165 X48.305 Y-31.18
N2170 X47.329 Y-31.08
N2175 X46.35 Y-31.012
N2180 X45.369 Y-30.966
N2185 X44.388 Y-30.935
N2190 X43.407 Y-30.913
N2195 X42.425 Y-30.898
N2200 X41.444 Y-30.888
N2205 X40.462 Y-30.881
N2210 X39.481 Y-30.877
N2215 X38.499 Y-30.873
N2220 X36.536 Y-30.87
N2225 X32.61 Y-30.867
N2230 X9.054 Y-30.866
N2235 X8.092 Y-30.669
N2240 X7.249 Y-30.166
N2245 X6.565 Y-29.463
N2250 X6.029 Y-28.64
N2255 X5.621 Y-27.748
N2260 X5.313 Y-26.816
N2265 X5.085 Y-25.861
N2270 X4.917 Y-24.894
N2275 X4.793 Y-23.92
N2280 X4.703 Y-22.943
N2285 X4.638 Y-21.964
N2290 X4.59 Y-20.983
N2295 X4.556 Y-20.002
N2300 X4.531 Y-19.021
N2305 X4.513 Y-18.04
N2310 X4.503 Y-17.305
N2315 X4.471 Y-17.016
N2320 X4.382 Y-16.738
N2325 X4.241 Y-16.483
N2330 X4.053 Y-16.261
N2335 X2.822 Y-15.047
N2340 X2.677 Y-14.897
N2345 X2.61 Y-14.824
N2350 X2.413 Y-14.601
N2355 X1.596 Y-13.671
N2360 X1.569 Y-13.64
N2365 G3 X0.848 Y-13.491 I-0.465 J-0.432
N2370 G1 X0.757 Y-13.531 Z-5.992
N2375 X0.669 Y-13.57 Z-5.969
N2380 X0.584 Y-13.608 Z-5.931
N2385 X0.507 Y-13.642 Z-5.879
N2390 X0.437 Y-13.672 Z-5.814
N2395 X0.378 Y-13.698 Z-5.738
N2400 X0.33 Y-13.719 Z-5.653
N2405 X0.296 Y-13.735 Z-5.561
N2410 X0.274 Y-13.744 Z-5.464
N2415 X0.267 Y-13.747 Z-5.365
N2420 Z8.
N2425 X-0.989 Y10.067
N2430 Z-4.73
N2435 Z-5.365
N2440 X-0.981 Y10.07 Z-5.464
N2445 X-0.96 Y10.08 Z-5.561
N2450 X-0.925 Y10.095 Z-5.653
N2455 X-0.878 Y10.116 Z-5.738
N2460 X-0.819 Y10.142 Z-5.814
N2465 X-0.749 Y10.173 Z-5.879
N2470 X-0.672 Y10.208 Z-5.931
N2475 X-0.588 Y10.245 Z-5.969
N2480 X-0.499 Y10.284 Z-5.992
N2485 X-0.408 Y10.325 Z-6.
N2490 G3 X0.208 Y10.812 I-0.642 J1.446
N2495 G1 X0.448 Y11.149
N2500 X1.116 Y12.036
N2505 X1.202 Y12.149
N2510 X1.339 Y12.326
N2515 X1.571 Y12.595
N2520 X2.231 Y13.346
N2525 X2.357 Y13.487
N2530 X2.584 Y13.767
N2535 X2.81 Y14.099
N2540 X3.041 Y14.504
N2545 X3.286 Y15.028
N2550 X3.539 Y15.705
N2555 X3.799 Y16.617
N2560 X3.991 Y17.58
N2565 X4.127 Y18.552
N2570 X4.223 Y19.529
N2575 X4.292 Y20.508
N2580 X4.34 Y21.488
N2585 X4.375 Y22.469
N2590 X4.399 Y23.45
N2595 X4.417 Y24.432
N2600 X4.429 Y25.413
N2605 X4.438 Y26.395
N2610 X4.68 Y27.346
N2615 X5.216 Y28.168
N2620 X5.937 Y28.834
N2625 X6.771 Y29.352
N2630 X7.67 Y29.746
N2635 X8.606 Y30.042
N2640 X9.562 Y30.261
N2645 X10.53 Y30.423
N2650 X11.505 Y30.542
N2655 X12.482 Y30.629
N2660 X13.462 Y30.692
N2665 X14.442 Y30.737
N2670 X15.423 Y30.77
N2675 X16.405 Y30.794
N2680 X17.386 Y30.811
N2685 X18.367 Y30.824
N2690 X19.349 Y30.833
N2695 X20.33 Y30.839
N2700 X21.312 Y30.844
N2705 X23.275 Y30.849
N2710 X26.219 Y30.853
N2715 X32.109 Y30.855
N2720 X39.961 Y30.856
N2725 X53.77
N2730 X53.823 Y30.857
N2735 X53.876 Y30.86
N2740 X53.93 Y30.865
N2745 X56.863 Y31.183
N2750 X57.309 Y31.231
N2755 X57.532 Y31.247
N2760 X59.985 Y31.407
N2765 X60.877 Y31.464
N2770 X61.1 Y31.478
N2775 X61.769 Y31.513
N2780 X65.337 Y31.545
N2785 X65.587 Y31.543
N2790 X66.006 Y31.533
N2795 X66.229 Y31.526
N2800 X69.796 Y31.305
N2805 X70.019 Y31.283
N2810 X70.688 Y31.201
N2815 X71.667 Y31.127
N2820 X72.645 Y31.041
N2825 X73.625 Y30.983
N2830 X74.605 Y30.943
N2835 X75.586 Y30.916
N2840 X76.568 Y30.897
N2845 X77.549 Y30.884
N2850 X78.531 Y30.876
N2855 X79.512 Y30.87
N2860 X80.494 Y30.866
N2865 X82.457 Y30.861
N2870 X85.401 Y30.858
N2875 X94.235 Y30.857
N2880 X120.736 Y30.858
N2885 X170.793 Y30.86
N2890 X188.46 Y30.861
N2895 X189.442 Y30.865
N2900 X190.423 Y30.889
N2905 X191.402 Y30.955
N2910 X192.086 Y31.055
N2915 X192.632 Y31.181
N2920 X193.064 Y31.317
N2925 X193.341 Y31.43
N2930 X193.599 Y31.566
N2935 X193.826 Y31.75
N2940 X194.012 Y31.975
N2945 X194.15 Y32.232
N2950 X194.235 Y32.512
N2955 X194.264 Y32.802
N2960 Y35.068
N2965 G3 X193.817 Y35.652 I-0.635 J-0.022
N2970 G1 X193.722 Y35.682 Z-5.992
N2975 X193.629 Y35.71 Z-5.969
N2980 X193.541 Y35.737 Z-5.931
N2985 X193.46 Y35.762 Z-5.879
N2990 X193.388 Y35.785 Z-5.814
N2995 X193.326 Y35.804 Z-5.738
N3000 X193.276 Y35.819 Z-5.653
N3005 X193.24 Y35.83 Z-5.561
N3010 X193.217 Y35.837 Z-5.464
N3015 X193.21 Y35.839 Z-5.365
N3020 Z8.
N3025 X69.468 Y31.906
N3030 Z-4.73
N3035 Z-5.365
N3040 X69.474 Y31.902 Z-5.464
N3045 X69.492 Y31.887 Z-5.561
N3050 X69.523 Y31.864 Z-5.653
N3055 X69.564 Y31.832 Z-5.738
N3060 X69.615 Y31.792 Z-5.814
N3065 X69.674 Y31.745 Z-5.879
N3070 X69.741 Y31.693 Z-5.931
N3075 X69.814 Y31.636 Z-5.969
N3080 X69.89 Y31.577 Z-5.992
N3085 X69.969 Y31.516 Z-6.
N3090 G3 X70.688 Y31.201 I0.973 J1.248
N3095 G1 X71.357 Y31.117
N3100 X72.026 Y31.028
N3105 X72.249 Y30.99
N3110 X73.364 Y30.792
N3115 X73.587 Y30.751
N3120 X74.256 Y30.617
N3125 X75.594 Y30.301
N3130 X75.817 Y30.247
N3135 X75.978 Y30.206
N3140 X77.155 Y29.849
N3145 X77.824 Y29.64
N3150 X78.047 Y29.56
N3155 X78.493 Y29.387
N3160 X79.425 Y29.079
N3165 X79.9 Y28.956
N3170 X80.86 Y28.751
N3175 X81.832 Y28.613
N3180 X82.809 Y28.519
N3185 X83.788 Y28.455
N3190 X84.769 Y28.412
N3195 X85.75 Y28.382
N3200 X86.731 Y28.362
N3205 X87.712 Y28.348
N3210 X88.694 Y28.338
N3215 X89.675 Y28.332
N3220 X90.657 Y28.327
N3225 X92.62 Y28.322
N3230 X95.564 Y28.319
N3235 X103.416 Y28.318
N3240 X128.936 Y28.319
N3245 X178.993 Y28.32
N3250 X185.864
N3255 X186.845 Y28.321
N3260 X187.827 Y28.326
N3265 X188.808 Y28.342
N3270 X189.789 Y28.379
N3275 X190.767 Y28.457
N3280 X191.701 Y28.589
N3285 X192.387 Y28.743
N3290 X192.916 Y28.907
N3295 X193.343 Y29.078
N3300 X193.442 Y29.127
N3305 X193.718 Y29.305
N3310 X193.948 Y29.539
N3315 X194.121 Y29.818
N3320 X194.228 Y30.128
N3325 X194.264 Y30.454
N3330 Y32.802
N3335 G3 X193.817 Y33.387 I-0.635 J-0.022
N3340 G1 X193.722 Y33.416 Z-5.992
N3345 X193.629 Y33.445 Z-5.969
N3350 X193.541 Y33.472 Z-5.931
N3355 X193.46 Y33.497 Z-5.879
N3360 X193.388 Y33.519 Z-5.814
N3365 X193.326 Y33.538 Z-5.738
N3370 X193.276 Y33.553 Z-5.653
N3375 X193.24 Y33.565 Z-5.561
N3380 X193.217 Y33.572 Z-5.464
N3385 X193.21 Y33.574 Z-5.365
N3390 Z8.
N3395 X77.479 Y30.366
N3400 Z-4.73
N3405 Z-5.365
N3410 X77.484 Y30.36 Z-5.464
N3415 X77.498 Y30.341 Z-5.561
N3420 X77.521 Y30.311 Z-5.653
N3425 X77.554 Y30.27 Z-5.738
N3430 X77.593 Y30.219 Z-5.814
N3435 X77.64 Y30.16 Z-5.879
N3440 X77.693 Y30.093 Z-5.931
N3445 X77.749 Y30.02 Z-5.969
N3450 X77.809 Y29.944 Z-5.992
N3455 X77.87 Y29.866 Z-6.
N3460 G3 X78.493 Y29.387 I1.246 J0.976
N3465 G1 X79.385 Y29.041
N3470 X80.054 Y28.774
N3475 X80.328 Y28.645
N3480 X81.615 Y28.028
N3485 X82.153 Y27.754
N3490 X82.284 Y27.686
N3495 X82.947 Y27.308
N3500 X83.641 Y26.958
N3505 X84.205 Y26.728
N3510 X84.96 Y26.489
N3515 X85.916 Y26.268
N3520 X86.886 Y26.117
N3525 X87.862 Y26.013
N3530 X88.841 Y25.941
N3535 X89.821 Y25.891
N3540 X90.802 Y25.856
N3545 X91.784 Y25.832
N3550 X92.765 Y25.816
N3555 X93.746 Y25.804
N3560 X94.728 Y25.796
N3565 X95.709 Y25.79
N3570 X96.691 Y25.786
N3575 X98.654 Y25.782
N3580 X101.598 Y25.779
N3585 X110.432 Y25.778
N3590 X133.007 Y25.779
N3595 X183.064 Y25.78
N3600 X185.027 Y25.781
N3605 X186.009 Y25.784
N3610 X186.99 Y25.793
N3615 X187.971 Y25.813
N3620 X188.952 Y25.851
N3625 X189.931 Y25.921
N3630 X190.906 Y26.034
N3635 X191.859 Y26.203
N3640 X192.533 Y26.38
N3645 X193.033 Y26.555
N3650 X193.489 Y26.757
N3655 X193.751 Y26.938
N3660 X193.967 Y27.17
N3665 X194.13 Y27.443
N3670 X194.23 Y27.744
N3675 X194.264 Y28.059
N3680 Y30.454
N3685 G3 X193.817 Y31.039 I-0.635 J-0.022
N3690 G1 X193.722 Y31.068 Z-5.992
N3695 X193.629 Y31.096 Z-5.969
N3700 X193.541 Y31.124 Z-5.931
N3705 X193.46 Y31.149 Z-5.879
N3710 X193.388 Y31.171 Z-5.814
N3715 X193.326 Y31.19 Z-5.738
N3720 X193.276 Y31.205 Z-5.653
N3725 X193.24 Y31.217 Z-5.561
N3730 X193.217 Y31.223 Z-5.464
N3735 X193.21 Y31.226 Z-5.365
N3740 Z8.
N3745 X82.088 Y28.425
N3750 Z-4.73
N3755 Z-5.365
N3760 X82.092 Y28.418 Z-5.464
N3765 X82.103 Y28.398 Z-5.561
N3770 X82.122 Y28.365 Z-5.653
N3775 X82.148 Y28.32 Z-5.738
N3780 X82.18 Y28.263 Z-5.814
N3785 X82.217 Y28.197 Z-5.879
N3790 X82.259 Y28.124 Z-5.931
N3795 X82.305 Y28.044 Z-5.969
N3800 X82.353 Y27.959 Z-5.992
N3805 X82.402 Y27.873 Z-6.
N3810 G3 X82.947 Y27.308 I1.376 J0.782
N3815 G1 X83.73 Y26.862
N3820 X84.096 Y26.639
N3825 X84.291 Y26.517
N3830 X85.183 Y25.934
N3835 X85.466 Y25.747
N3840 X85.852 Y25.489
N3845 X86.115 Y25.302
N3850 X86.298 Y25.169
N3855 X86.42 Y25.079
N3860 X86.772 Y24.838
N3865 X87.169 Y24.612
N3870 X87.667 Y24.379
N3875 X88.321 Y24.134
N3880 X89.207 Y23.882
N3885 X90.169 Y23.69
N3890 X91.141 Y23.556
N3895 X92.118 Y23.462
N3900 X93.098 Y23.396
N3905 X94.078 Y23.349
N3910 X95.059 Y23.316
N3915 X96.04 Y23.293
N3920 X97.022 Y23.277
N3925 X98.003 Y23.265
N3930 X98.985 Y23.257
N3935 X99.966 Y23.251
N3940 X100.948 Y23.247
N3945 X102.911 Y23.242
N3950 X105.855 Y23.239
N3955 X113.707 Y23.238
N3960 X136.282 Y23.239
N3965 X182.413 Y23.24
N3970 X183.395 Y23.241
N3975 X184.376 Y23.244
N3980 X185.358 Y23.249
N3985 X186.339 Y23.262
N3990 X187.321 Y23.287
N3995 X188.301 Y23.329
N4000 X189.28 Y23.395
N4005 X190.257 Y23.495
N4010 X191.227 Y23.642
N4015 X192.127 Y23.84
N4020 X192.757 Y24.032
N4025 X193.236 Y24.221
N4030 X193.436 Y24.32
N4035 X193.714 Y24.497
N4040 X193.945 Y24.731
N4045 X194.12 Y25.011
N4050 X194.228 Y25.322
N4055 X194.264 Y25.65
N4060 Y28.059
N4065 G3 X193.817 Y28.644 I-0.635 J-0.022
N4070 G1 X193.722 Y28.673 Z-5.992
N4075 X193.629 Y28.702 Z-5.969
N4080 X193.541 Y28.729 Z-5.931
N4085 X193.46 Y28.754 Z-5.879
N4090 X193.388 Y28.776 Z-5.814
N4095 X193.326 Y28.795 Z-5.738
N4100 X193.276 Y28.811 Z-5.653
N4105 X193.24 Y28.822 Z-5.561
N4110 X193.217 Y28.829 Z-5.464
N4115 X193.21 Y28.831 Z-5.365
N4120 Z8.
N4125 X85.714 Y26.299
N4130 Z-4.73
N4135 Z-5.365
N4140 X85.717 Y26.291 Z-5.464
N4145 X85.726 Y26.27 Z-5.561
N4150 X85.74 Y26.234 Z-5.653
N4155 X85.76 Y26.186 Z-5.738
N4160 X85.784 Y26.126 Z-5.814
N4165 X85.812 Y26.056 Z-5.879
N4170 X85.844 Y25.977 Z-5.931
N4175 X85.879 Y25.892 Z-5.969
N4180 X85.916 Y25.802 Z-5.992
N4185 X85.953 Y25.71 Z-6.
N4190 G3 X86.42 Y25.079 I1.466 J0.595
N4195 G1 X89.196 Y22.966
N4200 X89.419 Y22.795
N4205 X89.635 Y22.627
N4210 X89.782 Y22.513
N4215 X90.126 Y22.289
N4220 X90.564 Y22.052
N4225 X91.123 Y21.805
N4230 X91.852 Y21.551
N4235 X92.801 Y21.303
N4240 X93.767 Y21.128
N4245 X94.741 Y21.004
N4250 X95.718 Y20.916
N4255 X96.698 Y20.853
N4260 X97.678 Y20.809
N4265 X98.659 Y20.777
N4270 X99.641 Y20.754
N4275 X100.622 Y20.738
N4280 X101.603 Y20.726
N4285 X102.585 Y20.718
N4290 X103.566 Y20.712
N4295 X104.548 Y20.708
N4300 X106.511 Y20.703
N4305 X109.456 Y20.7
N4310 X116.326 Y20.698
N4315 X139.882 Y20.699
N4320 X181.106 Y20.701
N4325 X182.088
N4330 X183.069 Y20.704
N4335 X184.051 Y20.709
N4340 X185.032 Y20.719
N4345 X186.013 Y20.738
N4350 X186.994 Y20.77
N4355 X187.975 Y20.819
N4360 X188.954 Y20.891
N4365 X189.93 Y20.994
N4370 X190.901 Y21.137
N4375 X191.862 Y21.334
N4380 X192.574 Y21.536
N4385 X193.088 Y21.728
N4390 X193.41 Y21.878
N4395 X193.696 Y22.054
N4400 X193.935 Y22.289
N4405 X194.115 Y22.572
N4410 X194.226 Y22.888
N4415 X194.264 Y23.221
N4420 Y25.65
N4425 G3 X193.817 Y26.234 I-0.635 J-0.022
N4430 G1 X193.722 Y26.264 Z-5.992
N4435 X193.629 Y26.292 Z-5.969
N4440 X193.541 Y26.319 Z-5.931
N4445 X193.46 Y26.344 Z-5.879
N4450 X193.388 Y26.367 Z-5.814
N4455 X193.326 Y26.386 Z-5.738
N4460 X193.276 Y26.401 Z-5.653
N4465 X193.24 Y26.412 Z-5.561
N4470 X193.217 Y26.419 Z-5.464
N4475 X193.21 Y26.421 Z-5.365
N4480 Z8.
N4485 X89.002 Y23.886
N4490 Z-4.73
N4495 Z-5.365
N4500 X89.004 Y23.878 Z-5.464
N4505 X89.012 Y23.856 Z-5.561
N4510 X89.024 Y23.82 Z-5.653
N4515 X89.041 Y23.771 Z-5.738
N4520 X89.062 Y23.709 Z-5.814
N4525 X89.086 Y23.638 Z-5.879
N4530 X89.113 Y23.557 Z-5.931
N4535 X89.143 Y23.47 Z-5.969
N4540 X89.174 Y23.378 Z-5.992
N4545 X89.206 Y23.284 Z-6.
N4550 G3 X89.635 Y22.627 I1.499 J0.509
N4555 G1 X90.157 Y22.181
N4560 X92.318 Y20.316
N4565 X92.674 Y20.039
N4570 X93.032 Y19.803
N4575 X93.47 Y19.564
N4580 X94.038 Y19.31
N4585 X94.778 Y19.048
N4590 X95.726 Y18.795
N4595 X96.691 Y18.615
N4600 X97.664 Y18.487
N4605 X98.641 Y18.394
N4610 X99.62 Y18.328
N4615 X100.601 Y18.28
N4620 X101.582 Y18.246
N4625 X102.563 Y18.221
N4630 X103.544 Y18.203
N4635 X104.526 Y18.191
N4640 X105.507 Y18.181
N4645 X106.489 Y18.175
N4650 X107.47 Y18.17
N4655 X109.433 Y18.164
N4660 X112.378 Y18.16
N4665 X118.267 Y18.159
N4670 X142.805
N4675 X180.102 Y18.161
N4680 X181.084 Y18.162
N4685 X182.065 Y18.164
N4690 X183.047 Y18.17
N4695 X184.028 Y18.18
N4700 X185.01 Y18.197
N4705 X185.991 Y18.224
N4710 X186.971 Y18.265
N4715 X187.951 Y18.325
N4720 X188.929 Y18.409
N4725 X189.904 Y18.523
N4730 X190.874 Y18.675
N4735 X191.834 Y18.878
N4740 X192.569 Y19.09
N4745 X193.095 Y19.288
N4750 X193.544 Y19.501
N4755 X193.788 Y19.677
N4760 X193.99 Y19.9
N4765 X194.14 Y20.161
N4770 X194.233 Y20.447
N4775 X194.264 Y20.746
N4780 Y23.221
N4785 G3 X193.817 Y23.805 I-0.635 J-0.022
N4790 G1 X193.722 Y23.835 Z-5.992
N4795 X193.629 Y23.863 Z-5.969
N4800 X193.541 Y23.89 Z-5.931
N4805 X193.46 Y23.915 Z-5.879
N4810 X193.388 Y23.938 Z-5.814
N4815 X193.326 Y23.957 Z-5.738
N4820 X193.276 Y23.972 Z-5.653
N4825 X193.24 Y23.983 Z-5.561
N4830 X193.217 Y23.99 Z-5.464
N4835 X193.21 Y23.992 Z-5.365
N4840 Z8.
N4845 X91.691 Y21.578
N4850 Z-4.73
N4855 Z-5.365
N4860 X91.693 Y21.571 Z-5.464
N4865 X91.701 Y21.549 Z-5.561
N4870 X91.713 Y21.513 Z-5.653
N4875 X91.729 Y21.463 Z-5.738
N4880 X91.75 Y21.402 Z-5.814
N4885 X91.774 Y21.33 Z-5.879
N4890 X91.801 Y21.25 Z-5.931
N4895 X91.83 Y21.162 Z-5.969
N4900 X91.861 Y21.07 Z-5.992
N4905 X91.892 Y20.976 Z-6.
N4910 G3 X92.318 Y20.316 I1.501 J0.502
N4915 G1 X92.541 Y20.124
N4920 X92.764 Y19.928
N4925 X94.994 Y17.925
N4930 X95.411 Y17.586
N4935 X95.751 Y17.353
N4940 X96.176 Y17.109
N4945 X96.72 Y16.852
N4950 X97.414 Y16.59
N4955 X98.354 Y16.32
N4960 X99.316 Y16.125
N4965 X100.288 Y15.984
N4970 X101.264 Y15.883
N4975 X102.243 Y15.81
N4980 X103.223 Y15.757
N4985 X104.204 Y15.719
N4990 X105.185 Y15.691
N4995 X106.166 Y15.671
N5000 X107.147 Y15.656
N5005 X108.129 Y15.646
N5010 X109.11 Y15.638
N5015 X110.092 Y15.632
N5020 X111.073 Y15.628
N5025 X113.036 Y15.624
N5030 X115.981 Y15.62
N5035 X122.852 Y15.619
N5040 X145.426
N5045 X177.816 Y15.62
N5050 X179.779 Y15.622
N5055 X180.761 Y15.624
N5060 X181.742 Y15.628
N5065 X182.724 Y15.636
N5070 X183.705 Y15.65
N5075 X184.687 Y15.671
N5080 X185.668 Y15.702
N5085 X186.648 Y15.748
N5090 X187.628 Y15.81
N5095 X188.605 Y15.895
N5100 X189.581 Y16.007
N5105 X190.551 Y16.152
N5110 X191.514 Y16.343
N5115 X192.373 Y16.571
N5120 X192.974 Y16.783
N5125 X193.446 Y16.994
N5130 X193.83 Y17.204
N5135 X194.186 Y17.438
N5140 X194.475 Y17.663
N5145 X194.751 Y17.916
N5150 X194.974 Y18.156
N5155 X194.998 Y18.207
N5160 X194.999 Y18.264
N5165 X194.976 Y18.315
N5170 X194.919 Y18.391
N5175 X194.892 Y18.43
N5180 X194.778 Y18.614
N5185 X194.657 Y18.837
N5190 X194.551 Y19.06
N5195 X194.468 Y19.283
N5200 X194.446 Y19.349
N5205 X194.397 Y19.506
N5210 X194.344 Y19.729
N5215 X194.315 Y19.951
N5220 X194.27 Y20.397
N5225 X194.264 Y20.62
N5230 Y20.746
N5235 G3 X193.817 Y21.33 I-0.635 J-0.022
N5240 G1 X193.722 Y21.359 Z-5.992
N5245 X193.629 Y21.388 Z-5.969
N5250 X193.541 Y21.415 Z-5.931
N5255 X193.46 Y21.44 Z-5.879
N5260 X193.387 Y21.462 Z-5.814
N5265 X193.326 Y21.481 Z-5.738
N5270 X193.276 Y21.497 Z-5.653
N5275 X193.239 Y21.508 Z-5.561
N5280 X193.217 Y21.515 Z-5.464
N5285 X193.21 Y21.517 Z-5.365
N5290 Z8.
N5295 X94.392 Y19.199
N5300 Z-4.73
N5305 Z-5.365
N5310 X94.395 Y19.192 Z-5.464
N5315 X94.401 Y19.169 Z-5.561
N5320 X94.413 Y19.133 Z-5.653
N5325 X94.428 Y19.083 Z-5.738
N5330 X94.448 Y19.022 Z-5.814
N5335 X94.47 Y18.949 Z-5.879
N5340 X94.496 Y18.868 Z-5.931
N5345 X94.523 Y18.78 Z-5.969
N5350 X94.552 Y18.688 Z-5.992
N5355 X94.581 Y18.593 Z-6.
N5360 G3 X94.994 Y17.925 I1.511 J0.471
N5365 G1 X95.468 Y17.499
N5370 X95.726 Y17.276
N5375 X97.804 Y15.493
N5380 X97.893 Y15.421
N5385 X98.116 Y15.242
N5390 X98.614 Y14.882
N5395 X99.004 Y14.645
N5400 X99.508 Y14.392
N5405 X100.149 Y14.132
N5410 X101.001 Y13.864
N5415 X101.958 Y13.646
N5420 X102.927 Y13.489
N5425 X103.902 Y13.376
N5430 X104.88 Y13.294
N5435 X105.859 Y13.235
N5440 X106.84 Y13.192
N5445 X107.821 Y13.161
N5450 X108.802 Y13.138
N5455 X109.784 Y13.122
N5460 X110.765 Y13.11
N5465 X111.747 Y13.101
N5470 X112.728 Y13.095
N5475 X113.71 Y13.09
N5480 X115.673 Y13.085
N5485 X118.617 Y13.081
N5490 X124.506 Y13.079
N5495 X148.063
N5500 X156.783 Y13.08
N5505 X156.827 Y13.081
N5510 X157.207 Y13.099
N5515 X157.653 Y13.124
N5520 X159.214 Y13.213
N5525 X160.106 Y13.26
N5530 X160.552 Y13.282
N5535 X161.221 Y13.319
N5540 X161.444 Y13.333
N5545 X162.782 Y13.421
N5550 X164.789 Y13.54
N5555 X165.012 Y13.554
N5560 X165.235 Y13.569
N5565 X166.127 Y13.634
N5570 X166.573 Y13.665
N5575 X168.803 Y13.812
N5580 X169.249 Y13.844
N5585 X170.587 Y13.947
N5590 X171.033 Y13.98
N5595 X177.276 Y14.42
N5600 X177.945 Y14.467
N5605 X180.621 Y14.649
N5610 X185.081 Y14.947
N5615 X185.973 Y15.
N5620 X192.662 Y15.364
N5625 X193.108 Y15.386
N5630 X193.484 Y15.424
N5635 X193.831 Y15.487
N5640 X194.181 Y15.58
N5645 X194.516 Y15.699
N5650 X194.795 Y15.824
N5655 X195.041 Y15.959
N5660 X195.077 Y15.983
N5665 X195.294 Y16.163
N5670 X195.465 Y16.386
N5675 X195.584 Y16.642
N5680 X195.643 Y16.917
N5685 X195.64 Y17.198
N5690 X195.576 Y17.472
N5695 X195.452 Y17.725
N5700 X195.276 Y17.945
N5705 G3 X194.391 Y17.994 I-0.468 J-0.43
N5710 G1 X192.681 Y16.499
N5715 G3 X193.108 Y15.386 I0.418 J-0.478
N5720 G1 X193.777 Y15.418
N5725 X194.669 Y15.459
N5730 X194.892 Y15.468
N5735 X195.238 Y15.48
N5740 X195.387 Y15.493
N5745 X195.534 Y15.525
N5750 X195.54 Y15.527
N5755 X195.785 Y15.647
N5760 X195.993 Y15.824
N5765 X196.152 Y16.046
N5770 X196.252 Y16.3
N5775 X196.286 Y16.571
N5780 X196.254 Y16.842
N5785 X196.156 Y17.097
N5790 X195.999 Y17.321
N5795 X195.792 Y17.499
N5800 G3 X195.141 Y17.672 I-0.564 J-0.809
N5805 X195.238 Y15.48 I0.097 J-1.094
N5810 G1 X196.075 Y15.509
N5815 X196.224 Y15.521
N5820 X196.439 Y15.618
N5825 X196.62 Y15.767
N5830 X196.756 Y15.959
N5835 X196.837 Y16.181
N5840 X196.856 Y16.415
N5845 X196.813 Y16.646
N5850 X196.71 Y16.858
N5855 X196.555 Y17.035
N5860 X196.359 Y17.166
N5865 G3 X196.004 Y17.226 I-0.295 J-0.664
N5870 X196.075 Y15.509 I0.072 J-0.857
N5875 G1 X196.676 Y15.529
N5880 X196.826 Y15.542
N5885 X196.969 Y15.584
N5890 X197.149 Y15.711
N5895 X197.283 Y15.884
N5900 X197.362 Y16.089
N5905 X197.379 Y16.308
N5910 X197.331 Y16.523
N5915 X197.223 Y16.714
N5920 X197.065 Y16.866
N5925 X196.869 Y16.966
N5930 X196.8 Y16.982
N5935 X196.73 Y16.992
N5940 X196.659 Y16.994
N5945 G3 X196.676 Y15.529 I0.018 J-0.732
N5950 G1 X197.245 Y15.549
N5955 X197.394 Y15.561
N5960 X197.536 Y15.611
N5965 X197.692 Y15.739
N5970 X197.804 Y15.909
N5975 X197.861 Y16.103
N5980 X197.857 Y16.306
N5985 X197.793 Y16.498
N5990 X197.676 Y16.663
N5995 X197.514 Y16.786
N6000 X197.324 Y16.855
N6005 X197.271 Y16.861
N6010 X197.217 Y16.862
N6015 G3 X197.245 Y15.549 I0.028 J-0.656
N6020 G1 X197.345 Y15.552
N6025 X197.456 Y15.559
N6030 X197.512 Y15.569
N6035 X197.568 Y15.584
N6040 X197.624 Y15.604
N6045 X197.679 Y15.632
N6050 X197.735 Y15.666
N6055 X197.791 Y15.709
N6060 X197.799 Y15.716
N6065 X197.853 Y15.772
N6070 X197.897 Y15.827
N6075 X197.933 Y15.883
N6080 X197.962 Y15.939
N6085 X197.995 Y16.028
N6090 X198.014 Y16.118
N6095 X198.018 Y16.162
N6100 X198.019 Y16.225
N6105 X198.014 Y16.288
N6110 X197.993 Y16.385
N6115 X197.974 Y16.44
N6120 X197.948 Y16.496
N6125 X197.915 Y16.552
N6130 X197.874 Y16.608
N6135 X197.836 Y16.649
N6140 X197.791 Y16.691
N6145 X197.735 Y16.732
N6150 X197.679 Y16.765
N6155 X197.624 Y16.791
N6160 X197.568 Y16.811
N6165 X197.481 Y16.831
N6170 X197.406 Y16.842
N6175 G3 X196.762 Y16.485 I-0.072 J-0.631
N6180 G1 X196.719 Y16.396 Z-5.992
N6185 X196.677 Y16.309 Z-5.969
N6190 X196.637 Y16.226 Z-5.931
N6195 X196.6 Y16.149 Z-5.879
N6200 X196.567 Y16.081 Z-5.814
N6205 X196.539 Y16.022 Z-5.738
N6210 X196.517 Y15.975 Z-5.653
N6215 X196.5 Y15.941 Z-5.561
N6220 X196.49 Y15.92 Z-5.464
N6225 X196.487 Y15.913 Z-5.365
N6230 Z8.
N6235 X97.444 Y16.481
N6240 Z-4.73
N6245 Z-5.365
N6250 X97.446 Y16.473 Z-5.464
N6255 X97.455 Y16.451 Z-5.561
N6260 X97.468 Y16.416 Z-5.653
N6265 X97.486 Y16.367 Z-5.738
N6270 X97.509 Y16.306 Z-5.814
N6275 X97.536 Y16.235 Z-5.879
N6280 X97.565 Y16.156 Z-5.931
N6285 X97.598 Y16.07 Z-5.969
N6290 X97.632 Y15.979 Z-5.992
N6295 X97.666 Y15.886 Z-6.
N6300 G3 X98.116 Y15.242 I1.482 J0.555
N6305 G1 X98.358 Y15.047
N6310 X98.562 Y14.886
N6315 X99.9 Y13.89
N6320 X100.144 Y13.71
N6325 X100.756 Y13.264
N6330 X100.792 Y13.239
N6335 X101.461 Y12.818
N6340 X101.684 Y12.687
N6345 X102.13 Y12.443
N6350 X102.353 Y12.324
N6355 X103.022 Y11.977
N6360 X103.823 Y11.63
N6365 X104.57 Y11.376
N6370 X105.521 Y11.135
N6375 X106.488 Y10.965
N6380 X107.462 Y10.844
N6385 X108.44 Y10.757
N6390 X109.419 Y10.696
N6395 X110.4 Y10.651
N6400 X111.381 Y10.62
N6405 X112.362 Y10.597
N6410 X113.343 Y10.58
N6415 X114.325 Y10.569
N6420 X115.306 Y10.56
N6425 X116.288 Y10.554
N6430 X117.269 Y10.55
N6435 X119.232 Y10.544
N6440 X122.177 Y10.541
N6445 X126.369 Y10.539
N6450 X126.434 Y10.54
N6455 X126.499 Y10.545
N6460 X126.564 Y10.552
N6465 X130.895 Y11.125
N6470 X131.564 Y11.208
N6475 X132.01 Y11.26
N6480 X134.686 Y11.568
N6485 X135.132 Y11.617
N6490 X136.916 Y11.785
N6495 X138.253 Y11.91
N6500 X138.476 Y11.93
N6505 X139.145 Y11.986
N6510 X145.612 Y12.473
N6515 X145.835 Y12.489
N6520 X146.504 Y12.532
N6525 X148.288 Y12.634
N6530 X151.856 Y12.832
N6535 X152.525 Y12.867
N6540 X153.194 Y12.898
N6545 X154.309 Y12.955
N6550 X156.092 Y13.048
N6555 X156.827 Y13.081
N6560 G3 X157.391 Y13.555 I-0.051 J0.633
N6565 G1 X157.416 Y13.651 Z-5.992
N6570 X157.44 Y13.745 Z-5.969
N6575 X157.463 Y13.834 Z-5.931
N6580 X157.485 Y13.916 Z-5.879
N6585 X157.504 Y13.989 Z-5.814
N6590 X157.52 Y14.052 Z-5.738
N6595 X157.533 Y14.102 Z-5.653
N6600 X157.543 Y14.139 Z-5.561
N6605 X157.548 Y14.162 Z-5.464
N6610 X157.55 Y14.169 Z-5.365
N6615 Z8.
N6620 X102.26 Y12.924
N6625 Z-4.73
N6630 Z-5.365
N6635 X102.264 Y12.917 Z-5.464
N6640 X102.277 Y12.897 Z-5.561
N6645 X102.297 Y12.865 Z-5.653
N6650 X102.324 Y12.821 Z-5.738
N6655 X102.359 Y12.766 Z-5.814
N6660 X102.399 Y12.701 Z-5.879
N6665 X102.443 Y12.629 Z-5.931
N6670 X102.492 Y12.551 Z-5.969
N6675 X102.543 Y12.469 Z-5.992
N6680 X102.596 Y12.385 Z-6.
N6685 G3 X103.022 Y11.977 I1.008 J0.627
N6690 G1 X103.125 Y11.926
N6695 X103.69 Y11.68
N6700 X103.913 Y11.586
N6705 X104.582 Y11.335
N6710 X104.805 Y11.256
N6715 X105.251 Y11.1
N6720 X105.444 Y11.035
N6725 X105.92 Y10.897
N6730 X106.232 Y10.812
N6735 X106.812 Y10.658
N6740 X107.035 Y10.604
N6745 X107.704 Y10.462
N6750 X108.373 Y10.331
N6755 X108.596 Y10.295
N6760 X111.337 Y9.92
N6765 X111.495 Y9.899
N6770 X112.164 Y9.843
N6775 X112.387 Y9.828
N6780 X113.725 Y9.752
N6785 X115.063 Y9.681
N6790 X115.286 Y9.671
N6795 X115.955 Y9.66
N6800 X116.178 Y9.663
N6805 X116.624 Y9.672
N6810 X116.847 Y9.678
N6815 X118.854 Y9.738
N6820 X119.077 Y9.746
N6825 X119.746 Y9.774
N6830 X120.192 Y9.817
N6835 X120.86 Y9.883
N6840 X123.419 Y10.143
N6845 X123.536 Y10.156
N6850 X124.205 Y10.24
N6855 X126.564 Y10.552
N6860 G3 X127.085 Y11.072 I-0.105 J0.626
N6865 G1 X127.101 Y11.17 Z-5.992
N6870 X127.117 Y11.266 Z-5.969
N6875 X127.133 Y11.357 Z-5.931
N6880 X127.147 Y11.44 Z-5.879
N6885 X127.159 Y11.515 Z-5.814
N6890 X127.17 Y11.579 Z-5.738
N6895 X127.179 Y11.63 Z-5.653
N6900 X127.185 Y11.668 Z-5.561
N6905 X127.189 Y11.691 Z-5.464
N6910 X127.19 Y11.698 Z-5.365
N6915 Z8.
N6920 X193.841 Y-36.893
N6925 Z-4.73
N6930 Z-5.365
N6935 X193.844 Y-36.886 Z-5.464
N6940 X193.855 Y-36.865 Z-5.561
N6945 X193.872 Y-36.831 Z-5.653
N6950 X193.895 Y-36.784 Z-5.738
N6955 X193.924 Y-36.726 Z-5.814
N6960 X193.957 Y-36.658 Z-5.879
N6965 X193.995 Y-36.582 Z-5.931
N6970 X194.036 Y-36.5 Z-5.969
N6975 X194.079 Y-36.413 Z-5.992
N6980 X194.123 Y-36.324 Z-6.
N6985 G3 X194.287 Y-35.556 I-1.417 J0.704
N6990 G1 X194.271 Y-35.333
N6995 X194.264 Y-35.11
N7000 Y-33.873
N7005 X194.255 Y-33.683
N7010 X194.23 Y-33.496
N7015 X194.187 Y-33.296
N7020 X194.118 Y-33.065
N7025 X194.028 Y-32.833
N7030 X193.898 Y-32.566
N7035 X193.742 Y-32.301
N7040 X193.534 Y-32.004
N7045 X193.283 Y-31.703
N7050 X192.972 Y-31.383
N7055 X192.586 Y-31.047
N7060 X192.136 Y-30.714
N7065 X191.586 Y-30.371
N7070 X190.904 Y-30.019
N7075 X190.073 Y-29.672
N7080 X189.14 Y-29.367
N7085 X188.187 Y-29.129
N7090 X187.224 Y-28.944
N7095 X186.253 Y-28.8
N7100 X185.277 Y-28.689
N7105 X184.3 Y-28.603
N7110 X183.32 Y-28.537
N7115 X182.34 Y-28.486
N7120 X181.359 Y-28.448
N7125 X180.378 Y-28.419
N7130 X179.397 Y-28.397
N7135 X178.416 Y-28.38
N7140 X177.434 Y-28.367
N7145 X176.453 Y-28.358
N7150 X175.471 Y-28.351
N7155 X174.49 Y-28.345
N7160 X173.508 Y-28.341
N7165 X171.545 Y-28.336
N7170 X168.601 Y-28.332
N7175 X162.712 Y-28.33
N7180 X146.026 Y-28.329
N7185 X95.969 Y-28.328
N7190 X83.389
N7195 X83.135 Y-28.35
N7200 X82.888 Y-28.415
N7205 X82.656 Y-28.522
N7210 X82.284 Y-28.734
N7215 X82.061 Y-28.85
N7220 X81.58 Y-29.091
N7225 X81.169 Y-29.29
N7230 X80.188 Y-29.76
N7235 X80.054 Y-29.823
N7240 X79.385 Y-30.089
N7245 X78.27 Y-30.521
N7250 X77.932 Y-30.652
N7255 X77.824 Y-30.688
N7260 X77.155 Y-30.897
N7265 X77.042 Y-30.931
N7270 G3 X76.612 Y-31.53 I0.206 J-0.601
N7275 G1 Y-31.629 Z-5.992
N7280 Y-31.726 Z-5.969
N7285 X76.611 Y-31.818 Z-5.931
N7290 Y-31.903 Z-5.879
N7295 Y-31.979 Z-5.814
N7300 X76.61 Y-32.043 Z-5.738
N7305 Y-32.096 Z-5.653
N7310 Y-32.134 Z-5.561
N7315 Y-32.157 Z-5.464
N7320 Y-32.165 Z-5.365
N7325 Z8.
N7330 X193.718 Y-35.172
N7335 Z-4.73
N7340 Z-5.365
N7345 X193.722 Y-35.166 Z-5.464
N7350 X193.734 Y-35.146 Z-5.561
N7355 X193.754 Y-35.113 Z-5.653
N7360 X193.78 Y-35.068 Z-5.738
N7365 X193.813 Y-35.012 Z-5.814
N7370 X193.852 Y-34.947 Z-5.879
N7375 X193.896 Y-34.874 Z-5.931
N7380 X193.943 Y-34.795 Z-5.969
N7385 X193.992 Y-34.712 Z-5.992
N7390 X194.043 Y-34.626 Z-6.
N7395 G3 X194.264 Y-33.873 I-1.36 J0.809
N7400 G1 Y-31.867
N7405 X194.254 Y-31.665
N7410 X194.228 Y-31.465
N7415 X194.178 Y-31.232
N7420 X194.107 Y-30.996
N7425 X194.001 Y-30.721
N7430 X193.867 Y-30.447
N7435 X193.685 Y-30.138
N7440 X193.463 Y-29.821
N7445 X193.182 Y-29.482
N7450 X192.837 Y-29.129
N7455 X192.421 Y-28.766
N7460 X191.921 Y-28.396
N7465 X191.3 Y-28.01
N7470 X190.576 Y-27.636
N7475 X189.67 Y-27.258
N7480 X188.737 Y-26.953
N7485 X187.787 Y-26.708
N7490 X186.825 Y-26.512
N7495 X185.856 Y-26.356
N7500 X184.882 Y-26.232
N7505 X183.906 Y-26.134
N7510 X182.927 Y-26.057
N7515 X181.948 Y-25.996
N7520 X180.967 Y-25.949
N7525 X179.987 Y-25.912
N7530 X179.005 Y-25.884
N7535 X178.024 Y-25.861
N7540 X177.043 Y-25.844
N7545 X176.061 Y-25.831
N7550 X175.08 Y-25.821
N7555 X174.098 Y-25.814
N7560 X173.117 Y-25.808
N7565 X172.135 Y-25.803
N7570 X170.172 Y-25.798
N7575 X167.228 Y-25.793
N7580 X162.32 Y-25.791
N7585 X146.616 Y-25.789
N7590 X96.559 Y-25.788
N7595 X87.361
N7600 X87.049 Y-25.821
N7605 X86.751 Y-25.919
N7610 X86.481 Y-26.077
N7615 X86.022 Y-26.416
N7620 X85.852 Y-26.54
N7625 X85.706 Y-26.639
N7630 X84.96 Y-27.128
N7635 X84.514 Y-27.419
N7640 X84.291 Y-27.56
N7645 X83.845 Y-27.838
N7650 X83.614 Y-27.977
N7655 X82.656 Y-28.522
N7660 G3 X82.369 Y-29.2 I0.333 J-0.541
N7665 G1 X82.391 Y-29.297 Z-5.992
N7670 X82.412 Y-29.391 Z-5.969
N7675 X82.432 Y-29.481 Z-5.931
N7680 X82.45 Y-29.564 Z-5.879
N7685 X82.467 Y-29.638 Z-5.814
N7690 X82.481 Y-29.701 Z-5.738
N7695 X82.492 Y-29.752 Z-5.653
N7700 X82.5 Y-29.789 Z-5.561
N7705 X82.505 Y-29.812 Z-5.464
N7710 X82.507 Y-29.82 Z-5.365
N7715 Z8.
N7720 X193.718 Y-33.166
N7725 Z-4.73
N7730 Z-5.365
N7735 X193.722 Y-33.159 Z-5.464
N7740 X193.734 Y-33.139 Z-5.561
N7745 X193.754 Y-33.106 Z-5.653
N7750 X193.78 Y-33.062 Z-5.738
N7755 X193.813 Y-33.006 Z-5.814
N7760 X193.852 Y-32.941 Z-5.879
N7765 X193.896 Y-32.868 Z-5.931
N7770 X193.943 Y-32.789 Z-5.969
N7775 X193.992 Y-32.706 Z-5.992
N7780 X194.043 Y-32.62 Z-6.
N7785 G3 X194.264 Y-31.867 I-1.36 J0.809
N7790 G1 Y-29.76
N7795 X194.252 Y-29.514
N7800 X194.224 Y-29.304
N7805 X194.173 Y-29.065
N7810 X194.095 Y-28.805
N7815 X193.988 Y-28.529
N7820 X193.837 Y-28.217
N7825 X193.654 Y-27.908
N7830 X193.405 Y-27.553
N7835 X193.121 Y-27.211
N7840 X192.738 Y-26.818
N7845 X192.314 Y-26.448
N7850 X191.767 Y-26.043
N7855 X191.122 Y-25.642
N7860 X190.341 Y-25.239
N7865 X189.436 Y-24.861
N7870 X188.505 Y-24.55
N7875 X187.556 Y-24.296
N7880 X186.597 Y-24.088
N7885 X185.63 Y-23.92
N7890 X184.658 Y-23.783
N7895 X183.683 Y-23.673
N7900 X182.705 Y-23.584
N7905 X181.726 Y-23.513
N7910 X180.747 Y-23.457
N7915 X179.766 Y-23.412
N7920 X178.785 Y-23.376
N7925 X177.804 Y-23.348
N7930 X176.823 Y-23.326
N7935 X175.841 Y-23.309
N7940 X174.86 Y-23.295
N7945 X173.879 Y-23.285
N7950 X172.897 Y-23.277
N7955 X171.916 Y-23.27
N7960 X170.934 Y-23.266
N7965 X168.971 Y-23.259
N7970 X166.027 Y-23.254
N7975 X161.119 Y-23.251
N7980 X146.396 Y-23.249
N7985 X96.339 Y-23.248
N7990 X90.684
N7995 X90.424 Y-23.271
N8000 X90.172 Y-23.339
N8005 X89.935 Y-23.451
N8010 X89.722 Y-23.603
N8015 X89.642 Y-23.671
N8020 X89.553 Y-23.741
N8025 X87.189 Y-25.541
N8030 X86.626 Y-25.97
N8035 X86.481 Y-26.077
N8040 G3 X86.276 Y-26.785 I0.395 J-0.497
N8045 G1 X86.309 Y-26.878 Z-5.992
N8050 X86.341 Y-26.97 Z-5.969
N8055 X86.371 Y-27.057 Z-5.931
N8060 X86.399 Y-27.137 Z-5.879
N8065 X86.424 Y-27.208 Z-5.814
N8070 X86.446 Y-27.269 Z-5.738
N8075 X86.463 Y-27.319 Z-5.653
N8080 X86.476 Y-27.355 Z-5.561
N8085 X86.483 Y-27.377 Z-5.464
N8090 X86.486 Y-27.384 Z-5.365
N8095 Z8.
N8100 X193.718 Y-31.059
N8105 Z-4.73
N8110 Z-5.365
N8115 X193.722 Y-31.053 Z-5.464
N8120 X193.734 Y-31.033 Z-5.561
N8125 X193.754 Y-31. Z-5.653
N8130 X193.78 Y-30.955 Z-5.738
N8135 X193.813 Y-30.9 Z-5.814
N8140 X193.852 Y-30.834 Z-5.879
N8145 X193.896 Y-30.761 Z-5.931
N8150 X193.943 Y-30.682 Z-5.969
N8155 X193.992 Y-30.599 Z-5.992
N8160 X194.043 Y-30.514 Z-6.
N8165 G3 X194.264 Y-29.76 I-1.36 J0.809
N8170 G1 Y-27.531
N8175 X194.252 Y-27.289
N8180 X194.223 Y-27.064
N8185 X194.171 Y-26.825
N8190 X194.088 Y-26.546
N8195 X193.979 Y-26.267
N8200 X193.823 Y-25.945
N8205 X193.632 Y-25.62
N8210 X193.379 Y-25.26
N8215 X193.073 Y-24.892
N8220 X192.688 Y-24.497
N8225 X192.232 Y-24.099
N8230 X191.655 Y-23.672
N8235 X190.985 Y-23.256
N8240 X190.156 Y-22.828
N8245 X189.251 Y-22.449
N8250 X188.321 Y-22.134
N8255 X187.375 Y-21.873
N8260 X186.418 Y-21.657
N8265 X185.452 Y-21.478
N8270 X184.482 Y-21.331
N8275 X183.508 Y-21.21
N8280 X182.531 Y-21.112
N8285 X181.553 Y-21.031
N8290 X180.574 Y-20.966
N8295 X179.594 Y-20.914
N8300 X178.613 Y-20.871
N8305 X177.632 Y-20.837
N8310 X176.651 Y-20.81
N8315 X175.67 Y-20.789
N8320 X174.688 Y-20.772
N8325 X173.707 Y-20.758
N8330 X172.726 Y-20.747
N8335 X171.744 Y-20.739
N8340 X170.763 Y-20.732
N8345 X169.781 Y-20.727
N8350 X167.818 Y-20.72
N8355 X165.855 Y-20.716
N8360 X162.911 Y-20.713
N8365 X157.021 Y-20.71
N8370 X146.225 Y-20.709
N8375 X96.167 Y-20.708
N8380 X93.627
N8385 X93.359 Y-20.732
N8390 X93.1 Y-20.805
N8395 X92.858 Y-20.923
N8400 X92.642 Y-21.082
N8405 X92.541 Y-21.172
N8410 X89.821 Y-23.518
N8415 X89.722 Y-23.603
N8420 G3 X89.568 Y-24.323 I0.429 J-0.468
N8425 G1 X89.607 Y-24.414 Z-5.992
N8430 X89.646 Y-24.503 Z-5.969
N8435 X89.682 Y-24.587 Z-5.931
N8440 X89.716 Y-24.665 Z-5.879
N8445 X89.746 Y-24.735 Z-5.814
N8450 X89.772 Y-24.794 Z-5.738
N8455 X89.792 Y-24.842 Z-5.653
N8460 X89.808 Y-24.877 Z-5.561
N8465 X89.817 Y-24.898 Z-5.464
N8470 X89.82 Y-24.906 Z-5.365
N8475 Z8.
N8480 X193.718 Y-28.83
N8485 Z-4.73
N8490 Z-5.365
N8495 X193.722 Y-28.823 Z-5.464
N8500 X193.734 Y-28.803 Z-5.561
N8505 X193.754 Y-28.771 Z-5.653
N8510 X193.78 Y-28.726 Z-5.738
N8515 X193.813 Y-28.67 Z-5.814
N8520 X193.852 Y-28.605 Z-5.879
N8525 X193.896 Y-28.532 Z-5.931
N8530 X193.943 Y-28.453 Z-5.969
N8535 X193.992 Y-28.37 Z-5.992
N8540 X194.043 Y-28.284 Z-6.
N8545 G3 X194.264 Y-27.531 I-1.36 J0.809
N8550 G1 Y-25.302
N8555 X194.25 Y-25.009
N8560 X194.219 Y-24.774
N8565 X194.167 Y-24.533
N8570 X194.083 Y-24.25
N8575 X193.969 Y-23.959
N8580 X193.813 Y-23.637
N8585 X193.61 Y-23.293
N8590 X193.357 Y-22.933
N8595 X193.031 Y-22.54
N8600 X192.646 Y-22.145
N8605 X192.165 Y-21.726
N8610 X191.57 Y-21.285
N8615 X190.876 Y-20.854
N8620 X190.007 Y-20.405
N8625 X189.102 Y-20.027
N8630 X188.173 Y-19.709
N8635 X187.228 Y-19.442
N8640 X186.273 Y-19.218
N8645 X185.309 Y-19.031
N8650 X184.34 Y-18.875
N8655 X183.367 Y-18.746
N8660 X182.392 Y-18.638
N8665 X181.414 Y-18.55
N8670 X180.435 Y-18.477
N8675 X179.456 Y-18.417
N8680 X178.475 Y-18.369
N8685 X177.495 Y-18.329
N8690 X176.514 Y-18.297
N8695 X175.532 Y-18.271
N8700 X174.551 Y-18.25
N8705 X173.57 Y-18.233
N8710 X172.588 Y-18.22
N8715 X171.607 Y-18.209
N8720 X170.625 Y-18.201
N8725 X169.644 Y-18.194
N8730 X168.662 Y-18.189
N8735 X166.699 Y-18.181
N8740 X164.736 Y-18.177
N8745 X161.792 Y-18.173
N8750 X155.903 Y-18.17
N8755 X147.069 Y-18.169
N8760 X97.012 Y-18.168
N8765 X96.03
N8770 X95.951 Y-18.179
N8775 X95.877 Y-18.207
N8780 X95.811 Y-18.251
N8785 X95.649 Y-18.391
N8790 X95.44 Y-18.573
N8795 X94.325 Y-19.574
N8800 X93.16 Y-20.62
N8805 X92.642 Y-21.082
N8810 G3 X92.502 Y-21.805 I0.438 J-0.46
N8815 G1 X92.544 Y-21.896 Z-5.992
N8820 X92.584 Y-21.984 Z-5.969
N8825 X92.622 Y-22.068 Z-5.931
N8830 X92.657 Y-22.145 Z-5.879
N8835 X92.689 Y-22.214 Z-5.814
N8840 X92.716 Y-22.273 Z-5.738
N8845 X92.737 Y-22.32 Z-5.653
N8850 X92.753 Y-22.355 Z-5.561
N8855 X92.763 Y-22.376 Z-5.464
N8860 X92.766 Y-22.383 Z-5.365
N8865 Z8.
N8870 X193.718 Y-26.601
N8875 Z-4.73
N8880 Z-5.365
N8885 X193.722 Y-26.594 Z-5.464
N8890 X193.734 Y-26.574 Z-5.561
N8895 X193.754 Y-26.541 Z-5.653
N8900 X193.78 Y-26.497 Z-5.738
N8905 X193.813 Y-26.441 Z-5.814
N8910 X193.852 Y-26.376 Z-5.879
N8915 X193.896 Y-26.303 Z-5.931
N8920 X193.943 Y-26.224 Z-5.969
N8925 X193.992 Y-26.141 Z-5.992
N8930 X194.043 Y-26.055 Z-6.
N8935 G3 X194.264 Y-25.302 I-1.36 J0.809
N8940 G1 Y-22.849
N8945 X194.257 Y-22.7
N8950 X194.225 Y-22.459
N8955 X194.172 Y-22.212
N8960 X194.087 Y-21.929
N8965 X193.968 Y-21.624
N8970 X193.812 Y-21.301
N8975 X193.599 Y-20.941
N8980 X193.346 Y-20.581
N8985 X193.003 Y-20.168
N8990 X192.617 Y-19.772
N8995 X192.116 Y-19.336
N9000 X191.51 Y-18.887
N9005 X190.789 Y-18.439
N9010 X189.917 Y-17.989
N9015 X189.012 Y-17.608
N9020 X188.085 Y-17.286
N9025 X187.142 Y-17.012
N9030 X186.188 Y-16.781
N9035 X185.226 Y-16.586
N9040 X184.259 Y-16.422
N9045 X183.287 Y-16.284
N9050 X182.312 Y-16.168
N9055 X181.336 Y-16.071
N9060 X180.357 Y-15.991
N9065 X179.378 Y-15.924
N9070 X178.398 Y-15.869
N9075 X177.418 Y-15.823
N9080 X176.437 Y-15.786
N9085 X175.456 Y-15.756
N9090 X174.475 Y-15.731
N9095 X173.493 Y-15.711
N9100 X172.512 Y-15.694
N9105 X171.531 Y-15.681
N9110 X170.549 Y-15.671
N9115 X169.568 Y-15.662
N9120 X168.586 Y-15.655
N9125 X167.605 Y-15.65
N9130 X165.642 Y-15.642
N9135 X163.679 Y-15.637
N9140 X160.734 Y-15.633
N9145 X155.827 Y-15.631
N9150 X146.993 Y-15.63
N9155 X99.464 Y-15.628
N9160 X99.151 Y-15.662
N9165 X98.851 Y-15.761
N9170 X98.579 Y-15.921
N9175 X98.257 Y-16.162
N9180 X98.116 Y-16.275
N9185 X97.447 Y-16.848
N9190 X95.811 Y-18.251
N9195 G3 X95.659 Y-18.972 I0.43 J-0.467
N9200 G1 X95.699 Y-19.063 Z-5.992
N9205 X95.737 Y-19.152 Z-5.969
N9210 X95.774 Y-19.236 Z-5.931
N9215 X95.808 Y-19.314 Z-5.879
N9220 X95.838 Y-19.384 Z-5.814
N9225 X95.864 Y-19.443 Z-5.738
N9230 X95.885 Y-19.491 Z-5.653
N9235 X95.9 Y-19.526 Z-5.561
N9240 X95.909 Y-19.547 Z-5.464
N9245 X95.912 Y-19.554 Z-5.365
N9250 Z8.
N9255 X193.718 Y-24.149
N9260 Z-4.73
N9265 Z-5.365
N9270 X193.722 Y-24.142 Z-5.464
N9275 X193.734 Y-24.122 Z-5.561
N9280 X193.754 Y-24.089 Z-5.653
N9285 X193.78 Y-24.045 Z-5.738
N9290 X193.813 Y-23.989 Z-5.814
N9295 X193.852 Y-23.924 Z-5.879
N9300 X193.896 Y-23.851 Z-5.931
N9305 X193.943 Y-23.772 Z-5.969
N9310 X193.992 Y-23.688 Z-5.992
N9315 X194.043 Y-23.603 Z-6.
N9320 G3 X194.264 Y-22.849 I-1.36 J0.809
N9325 G1 Y-20.62
N9330 X194.259 Y-20.418
N9335 X194.235 Y-20.19
N9340 X194.188 Y-19.936
N9345 X194.115 Y-19.668
N9350 X194.002 Y-19.356
N9355 X193.861 Y-19.045
N9360 X193.661 Y-18.685
N9365 X193.421 Y-18.325
N9370 X193.105 Y-17.923
N9375 X192.726 Y-17.515
N9380 X192.24 Y-17.069
N9385 X191.681 Y-16.633
N9390 X191.561 Y-16.554
N9395 X191.332 Y-16.431
N9400 X191.085 Y-16.349
N9405 X190.827 Y-16.312
N9410 G3 X190.313 Y-17.336 I-0.012 J-0.635
N9415 G1 X193.129 Y-20.971
N9420 G3 X194.264 Y-20.62 I0.502 J0.389
N9425 G1 X194.27 Y-20.397
N9430 X194.315 Y-19.951
N9435 X194.344 Y-19.729
N9440 X194.397 Y-19.506
N9445 X194.446 Y-19.349
N9450 X194.468 Y-19.283
N9455 X194.514 Y-19.14
N9460 X194.55 Y-18.982
N9465 X194.576 Y-18.804
N9470 X194.589 Y-18.607
N9475 X194.585 Y-18.377
N9480 X194.562 Y-18.138
N9485 X194.512 Y-17.855
N9490 X194.436 Y-17.567
N9495 X194.386 Y-17.422
N9500 X194.262 Y-17.157
N9505 X194.09 Y-16.922
N9510 X193.874 Y-16.725
N9515 X193.625 Y-16.574
N9520 X193.35 Y-16.475
N9525 X193.061 Y-16.432
N9530 G3 X192.466 Y-17.313 I-0.01 J-0.635
N9535 G1 X193.296 Y-19.286
N9540 G3 X194.468 Y-19.283 I0.585 J0.246
N9545 G1 X194.551 Y-19.06
N9550 X194.657 Y-18.837
N9555 X194.778 Y-18.614
N9560 X194.892 Y-18.43
N9565 X194.919 Y-18.391
N9570 X195.011 Y-18.268
N9575 X195.095 Y-18.144
N9580 X195.19 Y-17.875
N9585 X195.216 Y-17.592
N9590 X195.171 Y-17.31
N9595 X195.058 Y-17.049
N9600 X194.885 Y-16.823
N9605 X194.661 Y-16.646
N9610 X194.401 Y-16.53
N9615 X194.12 Y-16.482
N9620 G3 X193.218 Y-16.963 I-0.012 J-1.065
N9625 X195.011 Y-18.268 I0.928 J-0.61
N9630 G1 X195.086 Y-18.168
N9635 X195.276 Y-17.945
N9640 X195.338 Y-17.882
N9645 X195.431 Y-17.794
N9650 X195.535 Y-17.686
N9655 X195.633 Y-17.481
N9660 X195.666 Y-17.257
N9665 X195.629 Y-17.033
N9670 X195.527 Y-16.83
N9675 X195.368 Y-16.668
N9680 X195.168 Y-16.56
N9685 X194.945 Y-16.518
N9690 G3 X194.451 Y-16.713 I0.001 J-0.725
N9695 X195.431 Y-17.794 I0.498 J-0.533
N9700 G1 X195.507 Y-17.722
N9705 X195.561 Y-17.675
N9710 X195.652 Y-17.587
N9715 X195.715 Y-17.499
N9720 X195.757 Y-17.416
N9725 X195.784 Y-17.332
N9730 X195.796 Y-17.276
N9735 X195.802 Y-17.221
N9740 X195.804 Y-17.165
N9745 X195.8 Y-17.109
N9750 X195.792 Y-17.053
N9755 X195.784 Y-17.019
N9760 X195.752 Y-16.925
N9765 X195.702 Y-16.831
N9770 X195.643 Y-16.75
N9775 X195.602 Y-16.706
N9780 X195.561 Y-16.67
N9785 X195.47 Y-16.608
N9790 X195.404 Y-16.575
N9795 X195.338 Y-16.552
N9800 X195.282 Y-16.538
N9805 X195.227 Y-16.529
N9810 X195.115 Y-16.524
N9815 X194.892 Y-16.516
N9820 X194.669 Y-16.507
N9825 X193.554 Y-16.456
N9830 X192.885 Y-16.423
N9835 X192.216 Y-16.388
N9840 X185.973 Y-16.048
N9845 X185.081 Y-15.995
N9850 X180.398 Y-15.682
N9855 X177.631 Y-15.493
N9860 X175.715 Y-15.358
N9865 X171.033 Y-15.028
N9870 X170.141 Y-14.961
N9875 X169.472 Y-14.909
N9880 X168.803 Y-14.86
N9885 X166.573 Y-14.713
N9890 X165.681 Y-14.65
N9895 X165.235 Y-14.617
N9900 X165.007 Y-14.601
N9905 X164.566 Y-14.575
N9910 X163.005 Y-14.483
N9915 X162.782 Y-14.47
N9920 X161.407 Y-14.378
N9925 X160.552 Y-14.33
N9930 X159.66 Y-14.285
N9935 X159.214 Y-14.262
N9940 X157.653 Y-14.172
N9945 X156.984 Y-14.137
N9950 X156.092 Y-14.096
N9955 X153.64 Y-13.968
N9960 X153.194 Y-13.946
N9965 X152.525 Y-13.915
N9970 X151.633 Y-13.868
N9975 X148.065 Y-13.67
N9980 X146.504 Y-13.58
N9985 X145.835 Y-13.537
N9990 X145.155 Y-13.487
N9995 X142.936 Y-13.319
N10000 X141.955 Y-13.295
N10005 X140.976 Y-13.229
N10010 X139.995 Y-13.185
N10015 X139.014 Y-13.155
N10020 X138.033 Y-13.134
N10025 X137.051 Y-13.12
N10030 X136.07 Y-13.11
N10035 X135.088 Y-13.103
N10040 X134.107 Y-13.099
N10045 X132.144 Y-13.094
N10050 X129.199 Y-13.09
N10055 X121.347 Y-13.089
N10060 X103.253 Y-13.088
N10065 X103.012 Y-13.108
N10070 X102.777 Y-13.167
N10075 X102.555 Y-13.263
N10080 X102.353 Y-13.371
N10085 X101.684 Y-13.736
N10090 X101.461 Y-13.866
N10095 X100.792 Y-14.287
N10100 X100.569 Y-14.447
N10105 X100.346 Y-14.609
N10110 X100.123 Y-14.772
N10115 X98.579 Y-15.921
N10120 G3 X98.378 Y-16.63 I0.397 J-0.496
N10125 G1 X98.411 Y-16.723 Z-5.992
N10130 X98.443 Y-16.815 Z-5.969
N10135 X98.474 Y-16.901 Z-5.931
N10140 X98.503 Y-16.981 Z-5.879
N10145 X98.528 Y-17.053 Z-5.814
N10150 X98.55 Y-17.114 Z-5.738
N10155 X98.567 Y-17.163 Z-5.653
N10160 X98.58 Y-17.199 Z-5.561
N10165 X98.587 Y-17.221 Z-5.464
N10170 X98.59 Y-17.228 Z-5.365
N10175 Z8.
N10180 X144.191 Y-13.961
N10185 Z-4.73
N10190 Z-5.365
N10195 X144.184 Y-13.957 Z-5.464
N10200 X144.165 Y-13.944 Z-5.561
N10205 X144.134 Y-13.922 Z-5.653
N10210 X144.092 Y-13.892 Z-5.738
N10215 X144.039 Y-13.855 Z-5.814
N10220 X143.977 Y-13.811 Z-5.879
N10225 X143.907 Y-13.762 Z-5.931
N10230 X143.832 Y-13.709 Z-5.969
N10235 X143.752 Y-13.654 Z-5.992
N10240 X143.671 Y-13.597 Z-6.
N10245 G3 X142.936 Y-13.319 I-0.909 J-1.296
N10250 G1 X139.145 Y-13.034
N10255 X138.476 Y-12.978
N10260 X138.253 Y-12.958
N10265 X135.355 Y-12.686
N10270 X134.686 Y-12.616
N10275 X131.787 Y-12.282
N10280 X131.341 Y-12.228
N10285 X130.895 Y-12.173
N10290 X124.205 Y-11.288
N10295 X123.536 Y-11.204
N10300 X123.09 Y-11.158
N10305 X120.637 Y-10.908
N10310 X119.969 Y-10.843
N10315 X119.746 Y-10.822
N10320 X119.077 Y-10.794
N10325 X118.631 Y-10.78
N10330 X116.847 Y-10.726
N10335 X116.401 Y-10.716
N10340 X116.178 Y-10.711
N10345 X115.955 Y-10.708
N10350 X115.286 Y-10.719
N10355 X115.063 Y-10.729
N10360 X113.725 Y-10.8
N10365 X112.387 Y-10.876
N10370 X112.164 Y-10.891
N10375 X111.495 Y-10.948
N10380 X111.272 Y-10.977
N10385 X108.596 Y-11.343
N10390 X108.373 Y-11.379
N10395 X107.704 Y-11.51
N10400 X107.035 Y-11.652
N10405 X106.812 Y-11.706
N10410 X106.143 Y-11.884
N10415 X105.474 Y-12.074
N10420 X105.247 Y-12.149
N10425 X104.582 Y-12.382
N10430 X104.359 Y-12.465
N10435 X103.913 Y-12.634
N10440 X103.69 Y-12.728
N10445 X103.245 Y-12.922
N10450 X103.022 Y-13.024
N10455 X102.799 Y-13.136
N10460 X102.555 Y-13.263
N10465 G3 X102.25 Y-13.933 I0.319 J-0.549
N10470 G1 X102.269 Y-14.031 Z-5.992
N10475 X102.288 Y-14.126 Z-5.969
N10480 X102.305 Y-14.216 Z-5.931
N10485 X102.321 Y-14.3 Z-5.879
N10490 X102.336 Y-14.374 Z-5.814
N10495 X102.348 Y-14.438 Z-5.738
N10500 X102.358 Y-14.489 Z-5.653
N10505 X102.365 Y-14.526 Z-5.561
N10510 X102.37 Y-14.549 Z-5.464
N10515 X102.371 Y-14.557 Z-5.365
N10520 Z8.
N10525 X50.484 Y-32.013
N10530 Z-4.73
N10535 Z-5.365
N10540 X50.478 Y-32.008 Z-5.464
N10545 X50.46 Y-31.993 Z-5.561
N10550 X50.431 Y-31.969 Z-5.653
N10555 X50.391 Y-31.936 Z-5.738
N10560 X50.341 Y-31.895 Z-5.814
N10565 X50.282 Y-31.847 Z-5.879
N10570 X50.216 Y-31.793 Z-5.931
N10575 X50.145 Y-31.735 Z-5.969
N10580 X50.07 Y-31.673 Z-5.992
N10585 X49.994 Y-31.61 Z-6.
N10590 G3 X49.282 Y-31.279 I-1.004 J-1.224
N10595 G1 X48.836 Y-31.21
N10600 X48.613 Y-31.175
N10605 X48.39 Y-31.14
N10610 X44.822 Y-30.539
N10615 X44.217 Y-30.429
N10620 X41.801 Y-29.983
N10625 X41.031 Y-29.836
N10630 X39.483 Y-29.537
N10635 X38.578 Y-29.367
N10640 X37.909 Y-29.24
N10645 X36.125 Y-28.896
N10650 X35.154 Y-28.759
N10655 X34.182 Y-28.621
N10660 X33.205 Y-28.527
N10665 X32.225 Y-28.463
N10670 X31.245 Y-28.42
N10675 X30.264 Y-28.39
N10680 X29.282 Y-28.37
N10685 X28.301 Y-28.356
N10690 X27.32 Y-28.347
N10695 X26.338 Y-28.34
N10700 X25.357 Y-28.336
N10705 X23.394 Y-28.33
N10710 X20.449 Y-28.327
N10715 X12.597 Y-28.326
N10720 X11.615
N10725 X10.663 Y-28.088
N10730 X9.83 Y-27.569
N10735 X9.151 Y-26.86
N10740 X8.617 Y-26.036
N10745 X8.206 Y-25.145
N10750 X7.895 Y-24.214
N10755 X7.661 Y-23.261
N10760 X7.488 Y-22.295
N10765 X7.359 Y-21.322
N10770 X7.264 Y-20.345
N10775 X7.204 Y-19.502
N10780 X7.148 Y-19.191
N10785 X7.028 Y-18.899
N10790 X6.848 Y-18.64
N10795 X6.618 Y-18.424
N10800 X6.574 Y-18.391
N10805 X5.731 Y-17.722
N10810 X5.456 Y-17.499
N10815 X5.353 Y-17.415
N10820 X5.192 Y-17.276
N10825 X4.238 Y-16.439
N10830 X4.181 Y-16.385
N10835 X4.053 Y-16.261
N10840 G3 X3.321 Y-16.175 I-0.426 J-0.471
N10845 G1 X3.234 Y-16.223 Z-5.992
N10850 X3.149 Y-16.27 Z-5.969
N10855 X3.069 Y-16.314 Z-5.931
N10860 X2.994 Y-16.355 Z-5.879
N10865 X2.928 Y-16.391 Z-5.814
N10870 X2.871 Y-16.422 Z-5.738
N10875 X2.825 Y-16.447 Z-5.653
N10880 X2.792 Y-16.466 Z-5.561
N10885 X2.772 Y-16.477 Z-5.464
N10890 X2.765 Y-16.481 Z-5.365
N10895 Z8.
N10900 X1.084 Y12.881
N10905 Z-4.73
N10910 Z-5.365
N10915 X1.092 Y12.884 Z-5.464
N10920 X1.114 Y12.891 Z-5.561
N10925 X1.15 Y12.902 Z-5.653
N10930 X1.2 Y12.918 Z-5.738
N10935 X1.262 Y12.937 Z-5.814
N10940 X1.334 Y12.96 Z-5.879
N10945 X1.415 Y12.985 Z-5.931
N10950 X1.503 Y13.013 Z-5.969
N10955 X1.595 Y13.042 Z-5.992
N10960 X1.69 Y13.072 Z-6.
N10965 G3 X2.357 Y13.487 I-0.476 J1.509
N10970 G1 X2.755 Y13.933
N10975 X2.98 Y14.155
N10980 X3.792 Y14.955
N10985 X4.114 Y15.27
N10990 X4.238 Y15.391
N10995 X4.356 Y15.493
N11000 X4.461 Y15.581
N11005 X4.621 Y15.728
N11010 X4.839 Y15.965
N11015 X5.065 Y16.253
N11020 X5.306 Y16.616
N11025 X5.555 Y17.069
N11030 X5.817 Y17.649
N11035 X6.084 Y18.393
N11040 X6.339 Y19.34
N11045 X6.523 Y20.305
N11050 X6.655 Y21.277
N11055 X6.751 Y22.254
N11060 X6.82 Y23.233
N11065 X6.935 Y24.208
N11070 X7.343 Y25.101
N11075 X7.976 Y25.85
N11080 X8.752 Y26.451
N11085 X9.615 Y26.92
N11090 X10.529 Y27.278
N11095 X11.472 Y27.548
N11100 X12.433 Y27.75
N11105 X13.403 Y27.901
N11110 X14.378 Y28.012
N11115 X15.356 Y28.093
N11120 X16.336 Y28.153
N11125 X17.316 Y28.197
N11130 X18.297 Y28.23
N11135 X19.278 Y28.253
N11140 X20.26 Y28.27
N11145 X21.241 Y28.282
N11150 X22.223 Y28.292
N11155 X23.204 Y28.298
N11160 X24.186 Y28.303
N11165 X26.149 Y28.309
N11170 X29.093 Y28.313
N11175 X34.982 Y28.315
N11180 X38.422 Y28.316
N11185 X38.514 Y28.318
N11190 X38.606 Y28.327
N11195 X38.698 Y28.341
N11200 X39.693 Y28.529
N11205 X41.031 Y28.788
N11210 X41.7 Y28.916
N11215 X43.707 Y29.287
N11220 X44.599 Y29.451
N11225 X44.822 Y29.491
N11230 X48.39 Y30.091
N11235 X48.836 Y30.164
N11240 X49.059 Y30.199
N11245 X52.849 Y30.74
N11250 X53.072 Y30.767
N11255 X53.741 Y30.844
N11260 X53.93 Y30.865
N11265 G3 X54.462 Y31.373 I-0.091 J0.629
N11270 G1 X54.481 Y31.47 Z-5.992
N11275 X54.5 Y31.566 Z-5.969
N11280 X54.517 Y31.656 Z-5.931
N11285 X54.533 Y31.739 Z-5.879
N11290 X54.548 Y31.814 Z-5.814
N11295 X54.56 Y31.877 Z-5.738
N11300 X54.57 Y31.928 Z-5.653
N11305 X54.577 Y31.966 Z-5.561
N11310 X54.581 Y31.989 Z-5.464
N11315 X54.583 Y31.996 Z-5.365
N11320 Z8.
N11325 X3.114 Y15.168
N11330 Z-4.73
N11335 Z-5.365
N11340 X3.121 Y15.169 Z-5.464
N11345 X3.144 Y15.173 Z-5.561
N11350 X3.182 Y15.179 Z-5.653
N11355 X3.233 Y15.187 Z-5.738
N11360 X3.297 Y15.198 Z-5.814
N11365 X3.372 Y15.21 Z-5.879
N11370 X3.456 Y15.223 Z-5.931
N11375 X3.547 Y15.238 Z-5.969
N11380 X3.643 Y15.253 Z-5.992
N11385 X3.741 Y15.269 Z-6.
N11390 G3 X4.461 Y15.581 I-0.25 J1.563
N11395 G1 X6.245 Y17.068
N11400 X6.468 Y17.249
N11405 X6.691 Y17.416
N11410 X6.889 Y17.58
N11415 X7.118 Y17.802
N11420 X7.346 Y18.063
N11425 X7.594 Y18.397
N11430 X7.851 Y18.807
N11435 X8.121 Y19.33
N11440 X8.394 Y19.979
N11445 X8.7 Y20.911
N11450 X9.02 Y21.839
N11455 X9.542 Y22.67
N11460 X10.229 Y23.371
N11465 X11.031 Y23.937
N11470 X11.906 Y24.383
N11475 X12.825 Y24.727
N11480 X13.77 Y24.991
N11485 X14.731 Y25.191
N11490 X15.701 Y25.341
N11495 X16.676 Y25.454
N11500 X17.654 Y25.538
N11505 X18.633 Y25.6
N11510 X19.614 Y25.646
N11515 X20.595 Y25.68
N11520 X21.576 Y25.706
N11525 X22.557 Y25.724
N11530 X23.539 Y25.738
N11535 X24.52 Y25.748
N11540 X25.502 Y25.755
N11545 X26.246 Y25.759
N11550 X26.364 Y25.765
N11555 X26.48 Y25.779
N11560 X26.595 Y25.803
N11565 X26.983 Y25.899
N11570 X27.652 Y26.057
N11575 X29.882 Y26.566
N11580 X30.328 Y26.662
N11585 X32.112 Y27.041
N11590 X32.781 Y27.181
N11595 X33.227 Y27.271
N11600 X35.233 Y27.674
N11605 X35.902 Y27.805
N11610 X38.132 Y28.234
N11615 X38.698 Y28.341
N11620 G3 X39.189 Y28.89 I-0.14 J0.619
N11625 G1 X39.2 Y28.989 Z-5.992
N11630 X39.211 Y29.085 Z-5.969
N11635 X39.221 Y29.177 Z-5.931
N11640 X39.23 Y29.261 Z-5.879
N11645 X39.239 Y29.336 Z-5.814
N11650 X39.246 Y29.401 Z-5.738
N11655 X39.252 Y29.452 Z-5.653
N11660 X39.256 Y29.49 Z-5.561
N11665 X39.258 Y29.513 Z-5.464
N11670 X39.259 Y29.521 Z-5.365
N11675 Z8.
N11680 X5.323 Y17.076
N11685 Z-4.73
N11690 Z-5.365
N11695 X5.331 Y17.077 Z-5.464
N11700 X5.354 Y17.079 Z-5.561
N11705 X5.392 Y17.083 Z-5.653
N11710 X5.444 Y17.089 Z-5.738
N11715 X5.508 Y17.095 Z-5.814
N11720 X5.584 Y17.103 Z-5.879
N11725 X5.668 Y17.112 Z-5.931
N11730 X5.76 Y17.122 Z-5.969
N11735 X5.856 Y17.132 Z-5.992
N11740 X5.955 Y17.142 Z-6.
N11745 G3 X6.691 Y17.416 I-0.165 J1.574
N11750 G1 X6.914 Y17.582
N11755 X7.108 Y17.722
N11760 X8.921 Y18.957
N11765 X9.704 Y19.55
N11770 X10.452 Y20.185
N11775 X11.241 Y20.769
N11780 X12.083 Y21.274
N11785 X12.969 Y21.696
N11790 X13.888 Y22.04
N11795 X14.83 Y22.314
N11800 X15.788 Y22.53
N11805 X15.957 Y22.559
N11810 X16.055 Y22.58
N11815 X16.151 Y22.607
N11820 X16.245 Y22.64
N11825 G3 X16.626 Y23.27 I-0.253 J0.583
N11830 G1 X16.618 Y23.369 Z-5.992
N11835 X16.611 Y23.466 Z-5.969
N11840 X16.604 Y23.558 Z-5.931
N11845 X16.597 Y23.642 Z-5.879
N11850 X16.592 Y23.718 Z-5.814
N11855 X16.587 Y23.782 Z-5.738
N11860 X16.583 Y23.834 Z-5.653
N11865 X16.58 Y23.872 Z-5.561
N11870 X16.578 Y23.896 Z-5.464
N11875 Y23.903 Z-5.365
N11880 Z8.
N11885 X7.54 Y18.677
N11890 Z-4.73
N11895 Z-5.365
N11900 X7.548 Z-5.464
N11905 X7.571 Y18.679 Z-5.561
N11910 X7.609 Y18.681 Z-5.653
N11915 X7.661 Y18.684 Z-5.738
N11920 X7.725 Y18.688 Z-5.814
N11925 X7.801 Y18.693 Z-5.879
N11930 X7.886 Y18.698 Z-5.931
N11935 X7.978 Y18.704 Z-5.969
N11940 X8.074 Y18.71 Z-5.992
N11945 X8.174 Y18.716 Z-6.
N11950 G3 X8.921 Y18.957 I-0.097 J1.58
N11955 G1 X9.144 Y19.109
N11960 X9.367 Y19.255
N11965 X10.036 Y19.637
N11970 X12.043 Y20.754
N11975 X12.204 Y20.843
N11980 X12.266 Y20.876
N11985 X12.935 Y21.187
N11990 X15.165 Y22.201
N11995 X15.655 Y22.404
N12000 X15.834 Y22.477
N12005 X16.057 Y22.566
N12010 X16.503 Y22.741
N12015 X16.784 Y22.849
N12020 X17.395 Y23.08
N12025 X18.62 Y23.518
N12030 X18.732 Y23.557
N12035 X18.955 Y23.632
N12040 X20.293 Y24.069
N12045 X20.962 Y24.275
N12050 X21.854 Y24.542
N12055 X22.523 Y24.736
N12060 X24.307 Y25.224
N12065 X24.753 Y25.345
N12070 X26.595 Y25.803
N12075 G3 X27.055 Y26.378 I-0.175 J0.611
N12080 G1 X27.06 Y26.478 Z-5.992
N12085 X27.066 Y26.574 Z-5.969
N12090 X27.071 Y26.666 Z-5.931
N12095 X27.075 Y26.751 Z-5.879
N12100 X27.08 Y26.827 Z-5.814
N12105 X27.083 Y26.891 Z-5.738
N12110 X27.086 Y26.943 Z-5.653
N12115 X27.088 Y26.981 Z-5.561
N12120 X27.09 Y27.005 Z-5.464
N12125 Y27.012 Z-5.365
N12130 Z8.
N12135 X37.298 Y-29.678
N12140 Z-4.73
N12145 Z-5.365
N12150 X37.292 Y-29.673 Z-5.464
N12155 X37.275 Y-29.657 Z-5.561
N12160 X37.247 Y-29.632 Z-5.653
N12165 X37.208 Y-29.597 Z-5.738
N12170 X37.159 Y-29.554 Z-5.814
N12175 X37.103 Y-29.504 Z-5.879
N12180 X37.039 Y-29.448 Z-5.931
N12185 X36.97 Y-29.386 Z-5.969
N12190 X36.898 Y-29.322 Z-5.992
N12195 X36.824 Y-29.256 Z-6.
N12200 G3 X36.125 Y-28.896 I-1.051 J-1.183
N12205 G1 X35.679 Y-28.81
N12210 X35.01 Y-28.677
N12215 X33.004 Y-28.275
N12220 X32.558 Y-28.182
N12225 X31.889 Y-28.042
N12230 X30.105 Y-27.662
N12235 X29.882 Y-27.614
N12240 X27.652 Y-27.105
N12245 X26.983 Y-26.947
N12250 X25.199 Y-26.504
N12255 X24.236 Y-26.316
N12260 X23.269 Y-26.146
N12265 X22.294 Y-26.031
N12270 X21.316 Y-25.954
N12275 X20.336 Y-25.901
N12280 X19.355 Y-25.864
N12285 X18.374 Y-25.84
N12290 X17.392 Y-25.823
N12295 X16.411 Y-25.811
N12300 X15.429 Y-25.803
N12305 X14.448 Y-25.798
N12310 X13.481 Y-25.628
N12315 X12.616 Y-25.165
N12320 X11.896 Y-24.498
N12325 X11.324 Y-23.701
N12330 X10.88 Y-22.825
N12335 X10.54 Y-21.904
N12340 X10.388 Y-21.372
N12345 X10.283 Y-21.107
N12350 X10.13 Y-20.867
N12355 X9.934 Y-20.661
N12360 X9.702 Y-20.496
N12365 X9.367 Y-20.304
N12370 X9.144 Y-20.163
N12375 X8.698 Y-19.874
N12380 X8.475 Y-19.728
N12385 X8.029 Y-19.433
N12390 X7.806 Y-19.283
N12395 X7.137 Y-18.803
N12400 X6.669 Y-18.462
N12405 X6.618 Y-18.424
N12410 G3 X5.882 Y-18.429 I-0.364 J-0.52
N12415 G1 X5.801 Y-18.487 Z-5.992
N12420 X5.723 Y-18.544 Z-5.969
N12425 X5.648 Y-18.598 Z-5.931
N12430 X5.579 Y-18.648 Z-5.879
N12435 X5.518 Y-18.692 Z-5.814
N12440 X5.465 Y-18.73 Z-5.738
N12445 X5.423 Y-18.761 Z-5.653
N12450 X5.392 Y-18.783 Z-5.561
N12455 X5.374 Y-18.797 Z-5.464
N12460 X5.367 Y-18.801 Z-5.365
N12465 Z8.
N12470 X26.328 Y-27.347
N12475 Z-4.73
N12480 Z-5.365
N12485 X26.323 Y-27.342 Z-5.464
N12490 X26.306 Y-27.325 Z-5.561
N12495 X26.279 Y-27.299 Z-5.653
N12500 X26.242 Y-27.262 Z-5.738
N12505 X26.196 Y-27.217 Z-5.814
N12510 X26.142 Y-27.163 Z-5.879
N12515 X26.082 Y-27.103 Z-5.931
N12520 X26.017 Y-27.039 Z-5.969
N12525 X25.948 Y-26.971 Z-5.992
N12530 X25.877 Y-26.901 Z-6.
N12535 G3 X25.199 Y-26.504 I-1.113 J-1.125
N12540 G1 X24.753 Y-26.393
N12545 X23.638 Y-26.09
N12550 X22.388 Y-25.747
N12555 X21.854 Y-25.59
N12560 X20.962 Y-25.322
N12565 X20.293 Y-25.117
N12570 X18.955 Y-24.68
N12575 X18.815 Y-24.633
N12580 X18.063 Y-24.367
N12585 X17.395 Y-24.128
N12590 X16.726 Y-23.876
N12595 X16.38 Y-23.741
N12600 X15.834 Y-23.526
N12605 X15.275 Y-23.295
N12610 X15.165 Y-23.249
N12615 X12.712 Y-22.134
N12620 X12.489 Y-22.031
N12625 X12.266 Y-21.924
N12630 X11.82 Y-21.678
N12635 X9.919 Y-20.62
N12640 X9.702 Y-20.496
N12645 X9.633 Y-20.465
N12650 X9.562 Y-20.442
N12655 X9.483 Y-20.432 Z-5.995
N12660 X9.405 Y-20.422 Z-5.98
N12665 X9.327 Y-20.436 Z-5.954
N12670 X9.253 Y-20.449 Z-5.917
N12675 X9.185 Y-20.461 Z-5.871
N12680 X9.121 Y-20.499 Z-5.805
N12685 X9.067 Y-20.531 Z-5.728
N12690 X9.023 Y-20.556 Z-5.642
N12695 X8.992 Y-20.574 Z-5.55
N12700 X8.977 Y-20.588 Z-5.458
N12705 X8.972 Y-20.593 Z-5.365
N12710 Z8.
N12715 X59.556 Y1.923
N12720 Z2.504
N12725 G3 X56. Y-2.95 Z2.174 I-1.778 J-2.436 F833.33
N12730 X59.556 Y1.923 Z1.843 I1.778 J2.436
N12735 X56. Y-2.95 Z1.512 I-1.778 J-2.436
N12740 X59.556 Y1.923 Z1.181 I1.778 J2.436
N12745 X56. Y-2.95 Z0.85 I-1.778 J-2.436
N12750 X59.556 Y1.923 Z0.519 I1.778 J2.436
N12755 X56. Y-2.95 Z0.188 I-1.778 J-2.436
N12760 X59.556 Y1.923 Z-0.143 I1.778 J2.436
N12765 X56. Y-2.95 Z-0.474 I-1.778 J-2.436
N12770 X59.556 Y1.923 Z-0.805 I1.778 J2.436
N12775 X56. Y-2.95 Z-1.135 I-1.778 J-2.436
N12780 X59.556 Y1.923 Z-1.466 I1.778 J2.436
N12785 X56. Y-2.95 Z-1.797 I-1.778 J-2.436
N12790 X59.556 Y1.923 Z-2.128 I1.778 J2.436
N12795 X56. Y-2.95 Z-2.459 I-1.778 J-2.436
N12800 X59.556 Y1.923 Z-2.79 I1.778 J2.436
N12805 X56. Y-2.95 Z-3.121 I-1.778 J-2.436
N12810 X59.556 Y1.923 Z-3.452 I1.778 J2.436
N12815 X56. Y-2.95 Z-3.783 I-1.778 J-2.436
N12820 X59.556 Y1.923 Z-4.114 I1.778 J2.436
N12825 X56. Y-2.95 Z-4.445 I-1.778 J-2.436
N12830 X59.556 Y1.923 Z-4.775 I1.778 J2.436
N12835 X56. Y-2.95 Z-5.106 I-1.778 J-2.436
N12840 X59.556 Y1.923 Z-5.437 I1.778 J2.436
N12845 X56. Y-2.95 Z-5.768 I-1.778 J-2.436
N12850 X60.794 Y-0.514 Z-6. I1.778 J2.436
N12855 X54.762 I-3.016 J0.
N12860 X60.794 I3.016 J0.
N12865 G1 X60.798 Y-0.268 F2500.
N12870 X60.977 Y0.697
N12875 X61.013 Y0.814
N12880 X61.045 Y0.961
N12885 X61.063 Y1.109
N12890 X61.068 Y1.26
N12895 X61.06 Y1.421
N12900 X61.037 Y1.593
N12905 X60.998 Y1.774
N12910 X60.942 Y1.963
N12915 X60.866 Y2.157
N12920 X60.77 Y2.355
N12925 X60.653 Y2.555
N12930 X60.514 Y2.753
N12935 X60.352 Y2.947
N12940 X60.168 Y3.136
N12945 X59.962 Y3.316
N12950 X59.735 Y3.484
N12955 X59.487 Y3.639
N12960 X59.219 Y3.777
N12965 X58.934 Y3.896
N12970 X58.633 Y3.995
N12975 X58.318 Y4.07
N12980 X57.992 Y4.121
N12985 X57.656 Y4.147
N12990 X57.314 Y4.145
N12995 X56.969 Y4.115
N13000 X56.622 Y4.057
N13005 X56.277 Y3.97
N13010 X55.937 Y3.855
N13015 X55.603 Y3.711
N13020 X55.28 Y3.54
N13025 X54.97 Y3.342
N13030 X54.674 Y3.118
N13035 X54.396 Y2.87
N13040 X54.138 Y2.599
N13045 X53.901 Y2.306
N13050 X53.687 Y1.995
N13055 X53.498 Y1.666
N13060 X53.336 Y1.322
N13065 X53.202 Y0.966
N13070 X53.097 Y0.599
N13075 X53.021 Y0.224
N13080 X52.975 Y-0.157
N13085 X52.96 Y-0.541
N13090 X52.976 Y-0.925
N13095 X53.023 Y-1.307
N13100 X53.1 Y-1.684
N13105 X53.208 Y-2.055
N13110 X53.345 Y-2.415
N13115 X53.51 Y-2.764
N13120 X53.704 Y-3.099
N13125 X53.923 Y-3.417
N13130 X54.168 Y-3.717
N13135 X54.436 Y-3.996
N13140 X54.725 Y-4.253
N13145 X55.034 Y-4.486
N13150 X55.361 Y-4.693
N13155 X55.704 Y-4.874
N13160 X56.06 Y-5.026
N13165 X56.428 Y-5.15
N13170 X56.804 Y-5.243
N13175 X57.186 Y-5.306
N13180 X57.572 Y-5.338
N13185 X57.96 Y-5.339
N13190 X58.347 Y-5.309
N13195 X58.73 Y-5.248
N13200 X59.106 Y-5.157
N13205 X59.475 Y-5.035
N13210 X59.832 Y-4.885
N13215 X60.176 Y-4.706
N13220 X60.505 Y-4.5
N13225 X60.816 Y-4.268
N13230 X61.107 Y-4.013
N13235 X61.378 Y-3.734
N13240 X61.624 Y-3.435
N13245 X61.846 Y-3.117
N13250 X62.138 Y-2.618
N13255 X62.513 Y-1.838
N13260 X62.739 Y-1.253
N13265 X62.894 Y-0.731
N13270 X62.995 Y-0.253
N13275 X63.054 Y0.207
N13280 X63.075 Y0.653
N13285 X63.06 Y1.086
N13290 X63.012 Y1.507
N13295 X62.931 Y1.919
N13300 X62.818 Y2.321
N13305 X62.673 Y2.713
N13310 X62.496 Y3.093
N13315 X62.288 Y3.461
N13320 X62.049 Y3.813
N13325 X61.78 Y4.148
N13330 X61.482 Y4.464
N13335 X61.156 Y4.758
N13340 X60.803 Y5.029
N13345 X60.423 Y5.274
N13350 X60.02 Y5.491
N13355 X59.595 Y5.677
N13360 X59.15 Y5.831
N13365 X58.688 Y5.95
N13370 X58.213 Y6.032
N13375 X57.726 Y6.077
N13380 X57.233 Y6.082
N13385 X56.736 Y6.047
N13390 X56.238 Y5.972
N13395 X55.744 Y5.857
N13400 X55.258 Y5.701
N13405 X54.782 Y5.505
N13410 X54.32 Y5.27
N13415 X53.876 Y4.996
N13420 X53.453 Y4.687
N13425 X53.054 Y4.343
N13430 X52.683 Y3.966
N13435 X52.341 Y3.558
N13440 X52.032 Y3.123
N13445 X51.758 Y2.663
N13450 X51.52 Y2.18
N13455 X51.322 Y1.679
N13460 X51.165 Y1.163
N13465 X51.048 Y0.634
N13470 X50.975 Y0.096
N13475 X50.945 Y-0.447
N13480 X50.959 Y-0.991
N13485 X51.016 Y-1.533
N13490 X51.117 Y-2.07
N13495 X51.261 Y-2.597
N13500 X51.446 Y-3.111
N13505 X51.673 Y-3.61
N13510 X51.939 Y-4.089
N13515 X52.243 Y-4.545
N13520 X52.583 Y-4.975
N13525 X52.956 Y-5.378
N13530 X53.36 Y-5.749
N13535 X53.794 Y-6.086
N13540 X54.253 Y-6.388
N13545 X54.735 Y-6.652
N13550 X55.236 Y-6.877
N13555 X55.754 Y-7.06
N13560 X56.286 Y-7.202
N13565 X56.827 Y-7.3
N13570 X57.374 Y-7.355
N13575 X57.924 Y-7.366
N13580 X58.473 Y-7.332
N13585 X59.018 Y-7.254
N13590 X59.555 Y-7.133
N13595 X60.08 Y-6.97
N13600 X60.591 Y-6.764
N13605 X61.083 Y-6.518
N13610 X61.554 Y-6.234
N13615 X62.001 Y-5.912
N13620 X62.45 Y-5.532
N13625 X62.923 Y-5.06
N13630 X63.367 Y-4.539
N13635 X63.78 Y-3.968
N13640 X64.147 Y-3.364
N13645 X64.458 Y-2.744
N13650 X64.711 Y-2.118
N13655 X64.909 Y-1.489
N13660 X65.052 Y-0.861
N13665 X65.143 Y-0.236
N13670 X65.182 Y0.386
N13675 X65.172 Y1.002
N13680 X65.113 Y1.609
N13685 X65.006 Y2.205
N13690 X64.852 Y2.788
N13695 X64.652 Y3.356
N13700 X64.408 Y3.905
N13705 X64.119 Y4.434
N13710 X63.789 Y4.94
N13715 X63.417 Y5.419
N13720 X63.005 Y5.87
N13725 X62.556 Y6.289
N13730 X62.071 Y6.674
N13735 X61.552 Y7.021
N13740 X61.003 Y7.328
N13745 X60.426 Y7.592
N13750 X59.824 Y7.811
N13755 X59.202 Y7.982
N13760 X58.563 Y8.103
N13765 X57.912 Y8.174
N13770 X57.252 Y8.192
N13775 X56.588 Y8.157
N13780 X55.925 Y8.068
N13785 X55.267 Y7.925
N13790 X54.618 Y7.729
N13795 X53.984 Y7.48
N13800 X53.368 Y7.179
N13805 X52.776 Y6.828
N13810 X52.211 Y6.428
N13815 X51.677 Y5.983
N13820 X51.179 Y5.494
N13825 X50.719 Y4.964
N13830 X50.303 Y4.398
N13835 X49.932 Y3.797
N13840 X49.609 Y3.168
N13845 X49.337 Y2.512
N13850 X49.118 Y1.836
N13855 X48.954 Y1.142
N13860 X48.846 Y0.436
N13865 X48.795 Y-0.277
N13870 X48.801 Y-0.993
N13875 X48.865 Y-1.708
N13880 X48.986 Y-2.415
N13885 X49.163 Y-3.112
N13890 X49.397 Y-3.792
N13895 X49.684 Y-4.452
N13900 X50.023 Y-5.088
N13905 X50.413 Y-5.694
N13910 X50.85 Y-6.268
N13915 X51.332 Y-6.805
N13920 X51.856 Y-7.302
N13925 X52.419 Y-7.755
N13930 X53.016 Y-8.162
N13935 X53.644 Y-8.519
N13940 X54.298 Y-8.825
N13945 X54.976 Y-9.078
N13950 X55.671 Y-9.276
N13955 X56.381 Y-9.417
N13960 X57.099 Y-9.5
N13965 X57.822 Y-9.526
N13970 X58.545 Y-9.494
N13975 X59.263 Y-9.404
N13980 X59.971 Y-9.256
N13985 X60.665 Y-9.052
N13990 X61.341 Y-8.793
N13995 X62.002 Y-8.477
N14000 X62.659 Y-8.095
N14005 X63.302 Y-7.648
N14010 X63.926 Y-7.136
N14015 X64.52 Y-6.562
N14020 X65.074 Y-5.935
N14025 X65.577 Y-5.261
N14030 X66.025 Y-4.55
N14035 X66.412 Y-3.81
N14040 X66.736 Y-3.046
N14045 X66.996 Y-2.265
N14050 X67.19 Y-1.473
N14055 X67.319 Y-0.675
N14060 X67.383 Y0.125
N14065 Y0.922
N14070 X67.319 Y1.712
N14075 X67.193 Y2.491
N14080 X67.005 Y3.255
N14085 X66.756 Y3.999
N14090 X66.449 Y4.721
N14095 X66.085 Y5.417
N14100 X65.666 Y6.082
N14105 X65.193 Y6.713
N14110 X64.669 Y7.306
N14115 X64.097 Y7.857
N14120 X63.479 Y8.364
N14125 X62.819 Y8.821
N14130 X62.12 Y9.227
N14135 X61.387 Y9.577
N14140 X60.624 Y9.869
N14145 X59.835 Y10.1
N14150 X59.025 Y10.268
N14155 X58.199 Y10.371
N14160 X57.363 Y10.408
N14165 X56.522 Y10.377
N14170 X55.682 Y10.279
N14175 X54.849 Y10.112
N14180 X54.027 Y9.878
N14185 X53.223 Y9.577
N14190 X52.442 Y9.211
N14195 X51.689 Y8.782
N14200 X50.971 Y8.292
N14205 X50.292 Y7.744
N14210 X49.657 Y7.141
N14215 X49.07 Y6.486
N14220 X48.537 Y5.785
N14225 X48.06 Y5.041
N14230 X47.643 Y4.26
N14235 X47.289 Y3.445
N14240 X47.002 Y2.603
N14245 X46.782 Y1.739
N14250 X46.632 Y0.859
N14255 X46.554 Y-0.032
N14260 X46.547 Y-0.928
N14265 X46.612 Y-1.822
N14270 X46.748 Y-2.71
N14275 X46.956 Y-3.584
N14280 X47.233 Y-4.44
N14285 X47.579 Y-5.271
N14290 X47.99 Y-6.072
N14295 X48.465 Y-6.838
N14300 X49. Y-7.564
N14305 X49.591 Y-8.245
N14310 X50.236 Y-8.877
N14315 X50.93 Y-9.455
N14320 X51.667 Y-9.976
N14325 X52.445 Y-10.436
N14330 X53.257 Y-10.832
N14335 X54.099 Y-11.162
N14340 X54.964 Y-11.423
N14345 X55.848 Y-11.614
N14350 X56.744 Y-11.733
N14355 X57.648 Y-11.781
N14360 X58.552 Y-11.755
N14365 X59.451 Y-11.657
N14370 X60.341 Y-11.487
N14375 X61.22 Y-11.244
N14380 X62.086 Y-10.928
N14385 X62.935 Y-10.539
N14390 X63.762 Y-10.076
N14395 X64.565 Y-9.538
N14400 X65.334 Y-8.928
N14405 X66.051 Y-8.258
N14410 X66.713 Y-7.534
N14415 X67.317 Y-6.759
N14420 X67.858 Y-5.941
N14425 X68.334 Y-5.082
N14430 X68.742 Y-4.189
N14435 X69.078 Y-3.267
N14440 X69.341 Y-2.322
N14445 X69.528 Y-1.358
N14450 X69.639 Y-0.383
N14455 X69.67 Y0.598
N14460 X69.624 Y1.574
N14465 X69.499 Y2.541
N14470 X69.298 Y3.493
N14475 X69.021 Y4.423
N14480 X68.671 Y5.329
N14485 X68.249 Y6.203
N14490 X67.758 Y7.041
N14495 X67.2 Y7.839
N14500 X66.579 Y8.591
N14505 X65.897 Y9.293
N14510 X65.159 Y9.94
N14515 X64.371 Y10.526
N14520 X63.539 Y11.046
N14525 X62.668 Y11.5
N14530 X61.765 Y11.882
N14535 X60.833 Y12.193
N14540 X59.881 Y12.43
N14545 X58.913 Y12.591
N14550 X57.935 Y12.678
N14555 X56.954 Y12.688
N14560 X55.974 Y12.624
N14565 X55.003 Y12.484
N14570 X54.044 Y12.272
N14575 X53.105 Y11.987
N14580 X52.19 Y11.632
N14585 X51.304 Y11.209
N14590 X50.454 Y10.72
N14595 X49.642 Y10.167
N14600 X48.875 Y9.556
N14605 X48.155 Y8.888
N14610 X47.486 Y8.17
N14615 X46.873 Y7.403
N14620 X46.317 Y6.594
N14625 X45.823 Y5.746
N14630 X45.392 Y4.865
N14635 X45.026 Y3.954
N14640 X44.727 Y3.019
N14645 X44.498 Y2.065
N14650 X44.34 Y1.096
N14655 X44.255 Y0.118
N14660 X44.242 Y-0.863
N14665 X44.3 Y-1.843
N14670 X44.429 Y-2.816
N14675 X44.629 Y-3.777
N14680 X44.897 Y-4.721
N14685 X45.233 Y-5.644
N14690 X45.634 Y-6.54
N14695 X46.098 Y-7.404
N14700 X46.625 Y-8.232
N14705 X47.211 Y-9.019
N14710 X47.854 Y-9.761
N14715 X48.549 Y-10.455
N14720 X49.292 Y-11.096
N14725 X50.079 Y-11.682
N14730 X50.907 Y-12.21
N14735 X51.77 Y-12.677
N14740 X52.664 Y-13.081
N14745 X53.585 Y-13.42
N14750 X54.529 Y-13.691
N14755 X55.489 Y-13.892
N14760 X56.462 Y-14.022
N14765 X57.442 Y-14.081
N14770 X58.423 Y-14.069
N14775 X59.401 Y-13.986
N14780 X60.371 Y-13.834
N14785 X61.327 Y-13.613
N14790 X62.266 Y-13.325
N14795 X63.182 Y-12.972
N14800 X64.069 Y-12.554
N14805 X64.925 Y-12.073
N14810 X65.746 Y-11.535
N14815 X66.529 Y-10.943
N14820 X67.271 Y-10.3
N14825 X67.968 Y-9.61
N14830 X68.618 Y-8.874
N14835 X69.216 Y-8.095
N14840 X69.76 Y-7.279
N14845 X70.25 Y-6.428
N14850 X70.683 Y-5.547
N14855 X71.059 Y-4.64
N14860 X71.373 Y-3.711
N14865 X71.623 Y-2.762
N14870 X71.808 Y-1.798
N14875 X71.929 Y-0.824
N14880 X71.984 Y0.156
N14885 X71.975 Y1.138
N14890 X71.9 Y2.117
N14895 X71.758 Y3.088
N14900 X71.548 Y4.047
N14905 X71.274 Y4.989
N14910 X70.936 Y5.911
N14915 X70.538 Y6.808
N14920 X70.081 Y7.676
N14925 X69.566 Y8.512
N14930 X68.994 Y9.309
N14935 X68.368 Y10.065
N14940 X67.692 Y10.777
N14945 X66.971 Y11.443
N14950 X66.207 Y12.06
N14955 X65.405 Y12.624
N14960 X64.565 Y13.132
N14965 X63.692 Y13.581
N14970 X62.791 Y13.972
N14975 X61.867 Y14.302
N14980 X60.923 Y14.571
N14985 X59.964 Y14.779
N14990 X58.993 Y14.923
N14995 X58.015 Y15.001
N15000 X57.033 Y15.015
N15005 X56.053 Y14.965
N15010 X55.078 Y14.852
N15015 X54.112 Y14.679
N15020 X53.159 Y14.444
N15025 X52.224 Y14.146
N15030 X51.31 Y13.788
N15035 X50.421 Y13.371
N15040 X49.561 Y12.899
N15045 X48.732 Y12.374
N15050 X47.937 Y11.798
N15055 X47.181 Y11.172
N15060 X46.467 Y10.498
N15065 X45.798 Y9.78
N15070 X45.175 Y9.022
N15075 X44.6 Y8.226
N15080 X44.075 Y7.396
N15085 X43.602 Y6.536
N15090 X43.185 Y5.648
N15095 X42.825 Y4.735
N15100 X42.524 Y3.801
N15105 X42.281 Y2.85
N15110 X42.098 Y1.885
N15115 X41.974 Y0.912
N15120 X41.911 Y-0.068
N15125 Y-1.049
N15130 X41.972 Y-2.029
N15135 X42.095 Y-3.003
N15140 X42.277 Y-3.967
N15145 X42.518 Y-4.919
N15150 X42.815 Y-5.854
N15155 X43.169 Y-6.77
N15160 X43.581 Y-7.661
N15165 X44.048 Y-8.524
N15170 X44.568 Y-9.356
N15175 X45.139 Y-10.155
N15180 X45.757 Y-10.917
N15185 X46.42 Y-11.641
N15190 X47.127 Y-12.321
N15195 X47.876 Y-12.956
N15200 X48.663 Y-13.543
N15205 X49.484 Y-14.08
N15210 X50.337 Y-14.566
N15215 X51.217 Y-15.
N15220 X52.122 Y-15.38
N15225 X53.049 Y-15.703
N15230 X53.995 Y-15.966
N15235 X54.955 Y-16.168
N15240 X55.926 Y-16.311
N15245 X56.904 Y-16.395
N15250 X57.885 Y-16.419
N15255 X58.866 Y-16.384
N15260 X59.843 Y-16.288
N15265 X60.812 Y-16.13
N15270 X61.769 Y-15.914
N15275 X62.712 Y-15.641
N15280 X63.636 Y-15.31
N15285 X64.539 Y-14.926
N15290 X65.418 Y-14.488
N15295 X66.268 Y-13.998
N15300 X67.088 Y-13.458
N15305 X67.874 Y-12.871
N15310 X68.625 Y-12.239
N15315 X69.339 Y-11.565
N15320 X70.012 Y-10.851
N15325 X70.644 Y-10.1
N15330 X71.232 Y-9.314
N15335 X71.772 Y-8.495
N15340 X72.264 Y-7.645
N15345 X72.708 Y-6.77
N15350 X73.1 Y-5.87
N15355 X73.442 Y-4.95
N15360 X73.73 Y-4.012
N15365 X73.964 Y-3.058
N15370 X74.141 Y-2.093
N15375 X74.261 Y-1.119
N15380 X74.325 Y-0.139
N15385 X74.333 Y0.842
N15390 X74.284 Y1.822
N15395 X74.179 Y2.798
N15400 X74.017 Y3.766
N15405 X73.798 Y4.723
N15410 X73.522 Y5.665
N15415 X73.192 Y6.589
N15420 X72.809 Y7.493
N15425 X72.374 Y8.373
N15430 X71.89 Y9.227
N15435 X71.357 Y10.051
N15440 X70.775 Y10.841
N15445 X70.147 Y11.596
N15450 X69.476 Y12.313
N15455 X68.766 Y12.99
N15460 X68.018 Y13.625
N15465 X67.234 Y14.216
N15470 X66.419 Y14.762
N15475 X65.572 Y15.259
N15480 X65.518 Y15.286
N15485 X65.394 Y15.343
N15490 X65.265 Y15.387
N15495 X65.132 Y15.42
N15500 X64.891 Y15.468
N15505 X64.731 Y15.493
N15510 X64.222 Y15.562
N15515 X63.999 Y15.591
N15520 X62.661 Y15.734
N15525 X62.438 Y15.755
N15530 X61.769 Y15.81
N15535 X61.1 Y15.855
N15540 X60.877 Y15.864
N15545 X60.208 Y15.884
N15550 X59.539 Y15.9
N15555 X58.87 Y15.903
N15560 X58.647 Y15.902
N15565 X57.309 Y15.888
N15570 X57.086 Y15.879
N15575 X56.64 Y15.857
N15580 X55.971 Y15.821
N15585 X55.748 Y15.808
N15590 X53.518 Y15.638
N15595 X52.849 Y15.562
N15600 X52.403 Y15.507
N15605 X51.958 Y15.452
N15610 X50.843 Y15.301
N15615 X50.046 Y15.152
N15620 X49.445 Y14.989
N15625 X48.759 Y14.742
N15630 X47.99 Y14.394
N15635 X47.17 Y13.94
N15640 X46.352 Y13.397
N15645 X45.579 Y12.793
N15650 X44.849 Y12.136
N15655 X44.164 Y11.434
N15660 X43.521 Y10.692
N15665 X42.923 Y9.914
N15670 X42.369 Y9.104
N15675 X41.861 Y8.264
N15680 X41.4 Y7.397
N15685 X40.989 Y6.506
N15690 X40.63 Y5.593
N15695 X40.321 Y4.661
N15700 X40.063 Y3.714
N15705 X39.856 Y2.755
N15710 X39.7 Y1.785
N15715 X39.597 Y0.809
N15720 X39.548 Y-0.171
N15725 X39.553 Y-1.152
N15730 X39.613 Y-2.132
N15735 X39.725 Y-3.107
N15740 X39.889 Y-4.075
N15745 X40.104 Y-5.033
N15750 X40.369 Y-5.978
N15755 X40.684 Y-6.907
N15760 X41.049 Y-7.818
N15765 X41.465 Y-8.707
N15770 X41.929 Y-9.572
N15775 X42.439 Y-10.411
N15780 X42.992 Y-11.222
N15785 X43.588 Y-12.002
N15790 X44.224 Y-12.749
N15795 X44.899 Y-13.462
N15800 X45.613 Y-14.135
N15805 X46.363 Y-14.769
N15810 X47.146 Y-15.361
N15815 X47.609 Y-15.673
N15820 X47.782 Y-15.774
N15825 X47.968 Y-15.851
N15830 X48.162 Y-15.901
N15835 X49.059 Y-16.071
N15840 X49.728 Y-16.193
N15845 X49.951 Y-16.221
N15850 X50.397 Y-16.272
N15855 X50.62 Y-16.299
N15860 X51.296 Y-16.385
N15865 X53.072 Y-16.624
N15870 X53.518 Y-16.683
N15875 X54.41 Y-16.73
N15880 X54.856 Y-16.756
N15885 X55.079 Y-16.77
N15890 X56.64 Y-16.886
N15895 X57.086 Y-16.918
N15900 X57.309 Y-16.931
N15905 X58.647 Y-16.906
N15910 X58.87 Y-16.903
N15915 X59.539
N15920 X60.208 Y-16.908
N15925 X60.431 Y-16.906
N15930 X60.877 Y-16.9
N15935 X61.1 Y-16.892
N15940 X63.107 Y-16.692
N15945 X63.33 Y-16.671
N15950 X64.222 Y-16.604
N15955 X64.445 Y-16.576
N15960 X64.891 Y-16.494
N15965 X65.114 Y-16.45
N15970 X66.063 Y-16.216
N15975 X66.529 Y-16.06
N15980 X67.233 Y-15.781
N15985 X68.029 Y-15.389
N15990 X68.871 Y-14.886
N15995 X69.672 Y-14.319
N16000 X70.433 Y-13.698
N16005 X71.154 Y-13.032
N16010 X71.833 Y-12.324
N16015 X72.471 Y-11.578
N16020 X73.067 Y-10.798
N16025 X73.621 Y-9.987
N16030 X74.132 Y-9.149
N16035 X74.599 Y-8.287
N16040 X75.023 Y-7.401
N16045 X75.403 Y-6.496
N16050 X75.735 Y-5.573
N16055 X76.019 Y-4.633
N16060 X76.254 Y-3.68
N16065 X76.44 Y-2.716
N16070 X76.577 Y-1.744
N16075 X76.665 Y-0.767
N16080 X76.705 Y0.214
N16085 X76.695 Y1.195
N16090 X76.635 Y2.175
N16095 X76.524 Y3.15
N16100 X76.362 Y4.118
N16105 X76.151 Y5.077
N16110 X75.891 Y6.023
N16115 X75.583 Y6.955
N16120 X75.229 Y7.871
N16125 X74.83 Y8.767
N16130 X74.385 Y9.642
N16135 X73.895 Y10.493
N16140 X73.361 Y11.316
N16145 X72.786 Y12.111
N16150 X72.17 Y12.876
N16155 X71.948 Y13.125
N16160 X71.814 Y13.257
N16165 X71.665 Y13.371
N16170 X71.503 Y13.465
N16175 X71.357 Y13.538
N16180 X71.134 Y13.642
N16185 X70.911 Y13.743
N16190 X70.242 Y14.018
N16195 X70.019 Y14.102
N16200 X69.573 Y14.263
N16205 X69.35 Y14.342
N16210 X68.013 Y14.774
N16215 X67.851 Y14.824
N16220 X67.121 Y15.013
N16225 X66.898 Y15.06
N16230 X65.56 Y15.335
N16235 X65.132 Y15.42
N16240 G3 X64.754 Y15.33 I-0.081 J-0.501
N16245 G2 X61.084 Y13.555 I-6.869 J9.52
N16250 G1 X61.001 Y13.537
N16255 X60.916 Y13.531
N16260 X55.051 Y13.48
N16265 X54.967 Y13.485
N16270 X54.884 Y13.501
N16275 G2 X51.183 Y15.212 I3.002 J11.349
N16280 G3 X50.843 Y15.301 I-0.29 J-0.417
N16285 G1 X49.951 Y15.18
N16290 X49.728 Y15.149
N16295 X49.505 Y15.112
N16300 X49.059 Y15.034
N16305 X48.39 Y14.914
N16310 X48.167 Y14.873
N16315 X46.16 Y14.493
N16320 X45.937 Y14.449
N16325 X45.714 Y14.401
N16330 X45.198 Y14.263
N16335 X44.781 Y14.115
N16340 X44.324 Y13.91
N16345 X43.811 Y13.628
N16350 X43.237 Y13.249
N16355 X42.635 Y12.779
N16360 X41.972 Y12.169
N16365 X41.305 Y11.449
N16370 X40.695 Y10.68
N16375 X40.137 Y9.873
N16380 X39.629 Y9.033
N16385 X39.17 Y8.165
N16390 X38.758 Y7.274
N16395 X38.396 Y6.362
N16400 X38.08 Y5.433
N16405 X37.811 Y4.489
N16410 X37.589 Y3.533
N16415 X37.413 Y2.567
N16420 X37.284 Y1.594
N16425 X37.202 Y0.616
N16430 X37.167 Y-0.365
N16435 X37.18 Y-1.346
N16440 X37.241 Y-2.326
N16445 X37.349 Y-3.301
N16450 X37.503 Y-4.271
N16455 X37.703 Y-5.232
N16460 X37.947 Y-6.182
N16465 X38.236 Y-7.12
N16470 X38.57 Y-8.043
N16475 X38.947 Y-8.949
N16480 X39.368 Y-9.836
N16485 X39.832 Y-10.701
N16490 X40.337 Y-11.543
N16495 X40.88 Y-12.36
N16500 X41.462 Y-13.151
N16505 X42.08 Y-13.913
N16510 X42.544 Y-14.433
N16515 X42.77 Y-14.638
N16520 X43.033 Y-14.793
N16525 X43.322 Y-14.891
N16530 X43.707 Y-14.978
N16535 X44.153 Y-15.081
N16540 X45.268 Y-15.344
N16545 X45.938 Y-15.493
N16550 X46.16 Y-15.536
N16555 X46.829 Y-15.653
N16560 X47.498 Y-15.776
N16565 X48.162 Y-15.901
N16570 G3 X48.472 Y-15.851 I0.077 J0.502
N16575 G2 X54.028 Y-14.125 I7.672 J-14.893
N16580 G1 X54.079 Y-14.121
N16585 X54.129 Y-14.12
N16590 X59.24 Y-14.288
N16595 X59.291 Y-14.291
N16600 X59.341 Y-14.299
N16605 G2 X64.773 Y-16.384 I-3.197 J-16.445
N16610 G3 X65.114 Y-16.45 I0.262 J0.435
N16615 G1 X66.898 Y-16.103
N16620 X67.121 Y-16.058
N16625 X67.79 Y-15.873
N16630 X68.013 Y-15.803
N16635 X70.019 Y-15.121
N16640 X70.223 Y-15.047
N16645 X70.911 Y-14.765
N16650 X71.58 Y-14.454
N16655 X71.803 Y-14.352
N16660 X72.026 Y-14.239
N16665 X72.472 Y-13.984
N16670 X73.088 Y-13.589
N16675 X73.636 Y-13.172
N16680 X74.229 Y-12.64
N16685 X74.859 Y-11.976
N16690 X75.476 Y-11.212
N16695 X76.035 Y-10.405
N16700 X76.542 Y-9.565
N16705 X77. Y-8.697
N16710 X77.412 Y-7.806
N16715 X77.778 Y-6.895
N16720 X78.098 Y-5.967
N16725 X78.375 Y-5.025
N16730 X78.606 Y-4.072
N16735 X78.792 Y-3.108
N16740 X78.934 Y-2.137
N16745 X79.031 Y-1.16
N16750 X79.084 Y-0.18
N16755 X79.092 Y0.802
N16760 X79.056 Y1.783
N16765 X78.975 Y2.761
N16770 X78.851 Y3.734
N16775 X78.681 Y4.701
N16780 X78.467 Y5.659
N16785 X78.21 Y6.606
N16790 X77.909 Y7.54
N16795 X77.706 Y8.088
N16800 X77.647 Y8.224
N16805 X77.575 Y8.354
N16810 X77.491 Y8.475
N16815 X77.155 Y8.912
N16820 X77.061 Y9.028
N16825 X76.486 Y9.708
N16830 X76.293 Y9.92
N16835 X75.817 Y10.398
N16840 X75.594 Y10.613
N16845 X75.371 Y10.815
N16850 X74.876 Y11.258
N16855 X74.702 Y11.4
N16860 X74.033 Y11.928
N16865 X73.364 Y12.409
N16870 X73.141 Y12.556
N16875 X72.695 Y12.822
N16880 X72.472 Y12.954
N16885 X71.803 Y13.312
N16890 X71.58 Y13.426
N16895 X71.503 Y13.465
N16900 G3 X71.114 Y13.478 I-0.211 J-0.462
N16905 G2 X65.608 Y11.951 I-11.483 J30.705
N16910 G1 X65.539 Y11.942
N16915 X65.47 Y11.941
N16920 X51.536 Y12.432
N16925 X51.467 Y12.438
N16930 X51.399 Y12.452
N16935 G2 X46.014 Y14.363 I8.232 J31.732
N16940 G3 X45.714 Y14.401 I-0.211 J-0.462
N16945 G1 X45.491 Y14.353
N16950 X44.599 Y14.149
N16955 X43.038 Y13.781
N16960 X42.369 Y13.607
N16965 X41.7 Y13.424
N16970 X41.349 Y13.308
N16975 X41.006 Y13.164
N16980 X40.621 Y12.965
N16985 X40.199 Y12.701
N16990 X39.737 Y12.358
N16995 X39.246 Y11.927
N17000 X38.703 Y11.369
N17005 X38.129 Y10.675
N17010 X37.566 Y9.87
N17015 X37.067 Y9.025
N17020 X36.625 Y8.149
N17025 X36.237 Y7.247
N17030 X35.897 Y6.326
N17035 X35.605 Y5.389
N17040 X35.358 Y4.44
N17045 X35.154 Y3.479
N17050 X34.994 Y2.511
N17055 X34.877 Y1.536
N17060 X34.803 Y0.558
N17065 X34.773 Y-0.423
N17070 X34.786 Y-1.405
N17075 X34.843 Y-2.385
N17080 X34.942 Y-3.361
N17085 X35.082 Y-4.333
N17090 X35.264 Y-5.297
N17095 X35.486 Y-6.253
N17100 X35.748 Y-7.199
N17105 X36.049 Y-8.133
N17110 X36.391 Y-9.053
N17115 X36.772 Y-9.958
N17120 X37.193 Y-10.844
N17125 X37.652 Y-11.712
N17130 X38.147 Y-12.559
N17135 X38.555 Y-13.193
N17140 X38.714 Y-13.399
N17145 X38.907 Y-13.574
N17150 X39.128 Y-13.712
N17155 X39.369 Y-13.809
N17160 X39.916 Y-13.975
N17165 X40.139 Y-14.04
N17170 X41.376 Y-14.378
N17175 X42.181 Y-14.601
N17180 X42.369 Y-14.652
N17185 X43.038 Y-14.827
N17190 X43.322 Y-14.891
N17195 G3 X44.075 Y-14.23 I0.119 J0.624
N17200 G1 X42.48 Y12.843
N17205 G3 X41.7 Y13.424 I-0.634 J-0.037
N17210 G1 X40.139 Y12.993
N17215 X39.916 Y12.93
N17220 X39.693 Y12.865
N17225 X38.355 Y12.436
N17230 X37.943 Y12.28
N17235 X37.644 Y12.139
N17240 X37.295 Y11.939
N17245 X36.93 Y11.689
N17250 X36.527 Y11.362
N17255 X36.106 Y10.96
N17260 X35.64 Y10.438
N17265 X35.165 Y9.81
N17270 X34.669 Y9.032
N17275 X34.209 Y8.164
N17280 X33.813 Y7.266
N17285 X33.473 Y6.346
N17290 X33.184 Y5.408
N17295 X32.942 Y4.456
N17300 X32.744 Y3.495
N17305 X32.589 Y2.526
N17310 X32.476 Y1.551
N17315 X32.403 Y0.572
N17320 X32.372 Y-0.409
N17325 X32.382 Y-1.39
N17330 X32.431 Y-2.371
N17335 X32.518 Y-3.348
N17340 X32.644 Y-4.322
N17345 X32.807 Y-5.29
N17350 X33.007 Y-6.251
N17355 X33.244 Y-7.203
N17360 X33.517 Y-8.146
N17365 X33.826 Y-9.077
N17370 X34.172 Y-9.996
N17375 X34.554 Y-10.9
N17380 X34.972 Y-11.788
N17385 X35.049 Y-11.938
N17390 X35.198 Y-12.169
N17395 X35.386 Y-12.368
N17400 X35.608 Y-12.53
N17405 X35.856 Y-12.647
N17410 X36.348 Y-12.827
N17415 X36.794 Y-12.981
N17420 X37.017 Y-13.057
N17425 X38.578 Y-13.56
N17430 X39.247 Y-13.772
N17435 X39.369 Y-13.809
N17440 G3 X40.167 Y-13.17 I0.164 J0.613
N17445 G1 X39.162 Y11.85
N17450 G3 X38.355 Y12.436 I-0.634 J-0.025
N17455 G1 X37.459 Y12.149
N17460 X37.017 Y12.008
N17465 X36.348 Y11.772
N17470 X36.125 Y11.692
N17475 X35.01 Y11.283
N17480 X34.81 Y11.198
N17485 X34.521 Y11.048
N17490 X34.194 Y10.842
N17495 X33.869 Y10.599
N17500 X33.493 Y10.267
N17505 X33.12 Y9.881
N17510 X32.706 Y9.377
N17515 X32.278 Y8.761
N17520 X31.843 Y8.014
N17525 X31.419 Y7.128
N17530 X31.064 Y6.214
N17535 X30.768 Y5.278
N17540 X30.524 Y4.327
N17545 X30.328 Y3.365
N17550 X30.177 Y2.395
N17555 X30.067 Y1.42
N17560 X29.998 Y0.441
N17565 X29.968 Y-0.54
N17570 X29.976 Y-1.522
N17575 X30.022 Y-2.502
N17580 X30.104 Y-3.48
N17585 X30.221 Y-4.455
N17590 X30.374 Y-5.424
N17595 X30.561 Y-6.388
N17600 X30.781 Y-7.344
N17605 X31.036 Y-8.292
N17610 X31.324 Y-9.231
N17615 X31.644 Y-10.158
N17620 X31.8 Y-10.56
N17625 X31.934 Y-10.825
N17630 X32.119 Y-11.059
N17635 X32.347 Y-11.25
N17640 X32.609 Y-11.392
N17645 X33.227 Y-11.651
N17650 X33.45 Y-11.742
N17655 X33.909 Y-11.926
N17660 X34.119 Y-12.008
N17665 X35.713 Y-12.595
N17670 X35.856 Y-12.647
N17675 G3 X36.687 Y-12.02 I0.197 J0.604
N17680 G1 X35.842 Y10.704
N17685 G3 X35.01 Y11.283 I-0.635 J-0.024
N17690 G1 X34.119 Y10.957
N17695 X33.896 Y10.871
N17700 X33.45 Y10.693
N17705 X33.227 Y10.602
N17710 X32.145 Y10.143
N17715 X31.764 Y9.958
N17720 X31.476 Y9.789
N17725 X31.185 Y9.584
N17730 X30.868 Y9.322
N17735 X30.526 Y8.988
N17740 X30.173 Y8.584
N17745 X29.801 Y8.081
N17750 X29.407 Y7.449
N17755 X29.018 Y6.694
N17760 X28.639 Y5.789
N17765 X28.332 Y4.856
N17770 X28.086 Y3.906
N17775 X27.894 Y2.944
N17780 X27.749 Y1.973
N17785 X27.648 Y0.997
N17790 X27.588 Y0.017
N17795 X27.566 Y-0.964
N17800 X27.581 Y-1.946
N17805 X27.631 Y-2.926
N17810 X27.716 Y-3.904
N17815 X27.834 Y-4.878
N17820 X27.985 Y-5.848
N17825 X28.169 Y-6.812
N17830 X28.385 Y-7.77
N17835 X28.633 Y-8.719
N17840 X28.749 Y-9.109
N17845 X28.868 Y-9.395
N17850 X29.044 Y-9.65
N17855 X29.268 Y-9.862
N17860 X29.532 Y-10.024
N17865 X29.659 Y-10.084
N17870 X30.997 Y-10.704
N17875 X31.757 Y-11.035
N17880 X32.609 Y-11.392
N17885 G3 X33.469 Y-10.784 I0.225 J0.594
N17890 G1 X33.007 Y9.565
N17895 G3 X32.145 Y10.143 I-0.635 J-0.014
N17900 G1 X31.094 Y9.697
N17905 X30.997 Y9.654
N17910 X29.659 Y9.004
N17915 X29.436 Y8.896
N17920 X29.213 Y8.791
N17925 X28.848 Y8.595
N17930 X28.574 Y8.418
N17935 X28.298 Y8.207
N17940 X28.002 Y7.94
N17945 X27.681 Y7.6
N17950 X27.357 Y7.197
N17955 X27.014 Y6.692
N17960 X26.659 Y6.065
N17965 X26.314 Y5.326
N17970 X25.973 Y4.406
N17975 X25.706 Y3.461
N17980 X25.503 Y2.501
N17985 X25.353 Y1.531
N17990 X25.251 Y0.555
N17995 X25.192 Y-0.425
N18000 X25.173 Y-1.406
N18005 X25.19 Y-2.388
N18010 X25.243 Y-3.368
N18015 X25.328 Y-4.346
N18020 X25.446 Y-5.32
N18025 X25.596 Y-6.29
N18030 X25.777 Y-7.255
N18035 X25.837 Y-7.514
N18040 X25.937 Y-7.804
N18045 X26.094 Y-8.067
N18050 X26.302 Y-8.292
N18055 X26.552 Y-8.47
N18060 X27.206 Y-8.839
N18065 X27.652 Y-9.085
N18070 X27.977 Y-9.251
N18075 X29.213 Y-9.868
N18080 X29.436 Y-9.978
N18085 X29.532 Y-10.024
N18090 G3 X30.42 Y-9.43 I0.253 J0.583
N18095 G1 X30.099 Y8.219
N18100 G3 X29.213 Y8.791 I-0.635 J-0.012
N18105 G1 X28.303 Y8.36
N18110 X28.098 Y8.26
N18115 X27.862 Y8.137
N18120 X26.983 Y7.663
N18125 X26.76 Y7.537
N18130 X26.537 Y7.406
N18135 X26.091 Y7.14
N18140 X25.845 Y6.976
N18145 X25.587 Y6.772
N18150 X25.314 Y6.519
N18155 X25.014 Y6.191
N18160 X24.721 Y5.815
N18165 X24.404 Y5.332
N18170 X24.09 Y4.759
N18175 X23.777 Y4.06
N18180 X23.471 Y3.195
N18185 X23.219 Y2.246
N18190 X23.035 Y1.282
N18195 X22.908 Y0.309
N18200 X22.831 Y-0.669
N18205 X22.797 Y-1.65
N18210 X22.803 Y-2.632
N18215 X22.845 Y-3.612
N18220 X22.922 Y-4.591
N18225 X23.033 Y-5.566
N18230 X23.046 Y-5.647
N18235 X23.12 Y-5.929
N18240 X23.248 Y-6.191
N18245 X23.425 Y-6.422
N18250 X23.644 Y-6.615
N18255 X24.084 Y-6.93
N18260 X24.213 Y-7.022
N18265 X24.307 Y-7.084
N18270 X24.976 Y-7.515
N18275 X25.422 Y-7.797
N18280 X25.645 Y-7.937
N18285 X25.868 Y-8.073
N18290 X26.359 Y-8.36
N18295 X26.552 Y-8.47
N18300 G3 X27.479 Y-7.887 I0.293 J0.563
N18305 G1 X27.032 Y6.603
N18310 G3 X26.091 Y7.14 I-0.635 J-0.02
N18315 G1 X25.645 Y6.874
N18320 X25.422 Y6.736
N18325 X24.976 Y6.458
N18330 X24.307 Y6.008
N18335 X24.084 Y5.856
N18340 X23.51 Y5.462
N18345 X23.415 Y5.39
N18350 X22.969 Y5.033
N18355 X22.761 Y4.849
N18360 X22.513 Y4.591
N18365 X22.245 Y4.263
N18370 X21.969 Y3.865
N18375 X21.687 Y3.379
N18380 X21.41 Y2.796
N18385 X21.133 Y2.07
N18390 X20.874 Y1.182
N18395 X20.675 Y0.221
N18400 X20.544 Y-0.752
N18405 X20.47 Y-1.731
N18410 X20.445 Y-2.712
N18415 X20.454 Y-3.199
N18420 X20.484 Y-3.471
N18425 X20.564 Y-3.733
N18430 X20.691 Y-3.976
N18435 X20.86 Y-4.191
N18440 G3 X21.922 Y-3.891 I0.445 J0.453
N18445 G1 X23.965 Y4.371
N18450 G3 X22.969 Y5.033 I-0.616 J0.152
N18455 G1 X22.39 Y4.57
N18460 X22.077 Y4.316
N18465 X21.853 Y4.124
N18470 X21.611 Y3.901
N18475 X21.408 Y3.699
N18480 X21.185 Y3.453
N18485 X20.739 Y2.968
N18490 X20.516 Y2.728
N18495 X20.369 Y2.564
N18500 X20.191 Y2.341
N18505 X20.07 Y2.182
N18510 X19.579 Y1.449
N18515 X19.471 Y1.226
N18520 X19.267 Y0.78
N18525 X19.178 Y0.579
N18530 X19.171 Y0.557
N18535 X18.955 Y-0.184
N18540 X18.937 Y-0.259
N18545 X18.928 Y-0.334
N18550 X18.929 Y-0.557
N18555 X18.932 Y-0.78
N18560 X18.955 Y-0.924
N18565 X19.021 Y-1.226
N18570 X19.052 Y-1.338
N18575 X19.372 Y-2.118
N18580 X19.401 Y-2.175
N18585 X19.492 Y-2.341
N18590 X19.619 Y-2.564
N18595 X19.847 Y-2.91
N18600 X19.916 Y-3.009
N18605 X20.293 Y-3.529
N18610 X20.406 Y-3.678
N18615 X20.797 Y-4.124
N18620 X21.221 Y-4.57
N18625 X21.435 Y-4.793
N18630 X21.631 Y-4.986
N18635 X21.92 Y-5.239
N18640 X22.077 Y-5.371
N18645 X22.746 Y-5.929
N18650 X22.969 Y-6.111
N18655 X23.415 Y-6.448
N18660 X23.644 Y-6.615
N18665 G3 X24.38 Y-6.593 I0.352 J0.528
N18670 G1 X24.459 Y-6.533 Z-5.992
N18675 X24.536 Y-6.474 Z-5.969
N18680 X24.61 Y-6.418 Z-5.931
N18685 X24.677 Y-6.367 Z-5.879
N18690 X24.738 Y-6.321 Z-5.814
N18695 X24.789 Y-6.282 Z-5.738
N18700 X24.831 Y-6.251 Z-5.653
N18705 X24.861 Y-6.228 Z-5.561
N18710 X24.88 Y-6.214 Z-5.464
N18715 X24.886 Y-6.209 Z-5.365
N18720 Z8.
N18725 X71.073 Y-14.154
N18730 Z-4.73
N18735 Z-5.365
N18740 X71.081 Z-5.464
N18745 X71.104 Y-14.155 Z-5.561
N18750 X71.142 Z-5.653
N18755 X71.194 Y-14.156 Z-5.738
N18760 X71.259 Y-14.157 Z-5.814
N18765 X71.335 Y-14.159 Z-5.879
N18770 X71.42 Y-14.16 Z-5.931
N18775 X71.512 Y-14.162 Z-5.969
N18780 X71.609 Y-14.164 Z-5.992
N18785 X71.708 Y-14.165 Z-6.
N18790 G3 X72.472 Y-13.984 I0.028 J1.582
N18795 G1 X73.141 Y-13.601
N18800 X73.321 Y-13.487
N18805 X74.256 Y-12.793
N18810 X74.501 Y-12.595
N18815 X74.771 Y-12.372
N18820 X74.925 Y-12.235
N18825 X75.509 Y-11.703
N18830 X76.04 Y-11.229
N18835 X76.263 Y-10.996
N18840 X76.429 Y-10.812
N18845 X76.709 Y-10.484
N18850 X76.996 Y-10.143
N18855 X77.155 Y-9.948
N18860 X77.378 Y-9.653
N18865 X77.832 Y-9.028
N18870 X77.988 Y-8.805
N18875 X78.439 Y-8.137
N18880 X78.493 Y-8.038
N18885 X79.385 Y-6.351
N18890 X79.485 Y-6.13
N18895 X79.608 Y-5.842
N18900 X79.669 Y-5.684
N18905 X79.922 Y-5.016
N18910 X80.177 Y-4.347
N18915 X80.248 Y-4.124
N18920 X80.379 Y-3.678
N18925 X80.441 Y-3.455
N18930 X80.601 Y-2.787
N18935 X80.646 Y-2.564
N18940 X80.732 Y-2.118
N18945 X80.77 Y-1.895
N18950 X80.837 Y-1.226
N18955 X80.848 Y-1.003
N18960 X80.859 Y-0.557
N18965 X80.863 Y-0.334
N18970 X80.829 Y0.334
N18975 X80.807 Y0.557
N18980 X80.723 Y1.209
N18985 X80.72 Y1.226
N18990 X80.617 Y1.672
N18995 X80.409 Y2.564
N19000 X80.355 Y2.787
N19005 X80.218 Y3.232
N19010 X80.142 Y3.455
N19015 X79.831 Y4.315
N19020 X79.535 Y5.016
N19025 X79.434 Y5.239
N19030 X79.218 Y5.684
N19035 X79.162 Y5.799
N19040 X79.106 Y5.907
N19045 X78.716 Y6.608
N19050 X78.608 Y6.799
N19055 X78.27 Y7.383
N19060 X78.213 Y7.468
N19065 X77.749 Y8.137
N19070 X77.58 Y8.36
N19075 X77.491 Y8.475
N19080 X77.44 Y8.53
N19085 X77.382 Y8.579
N19090 X77.315 Y8.613 Z-5.995
N19095 X77.248 Y8.647 Z-5.982
N19100 X77.183 Y8.679 Z-5.959
N19105 X77.119 Y8.689 Z-5.93
N19110 X77.058 Y8.698 Z-5.894
N19115 X77.002 Y8.706 Z-5.851
N19120 X76.932 Y8.693 Z-5.781
N19125 X76.873 Y8.683 Z-5.7
N19130 X76.828 Y8.675 Z-5.611
N19135 X76.798 Y8.669 Z-5.516
N19140 X76.782 Y8.666 Z-5.418
N19145 X76.78 Z-5.365
N19150 Z8.
N19155 X191.922 Y-20.124
N19160 Z-4.129
N19165 Z-4.764
N19170 X191.929 Y-20.12 Z-4.864
N19175 X191.949 Y-20.109 Z-4.96
N19180 X191.983 Y-20.091 Z-5.053
N19185 X192.029 Y-20.067 Z-5.138
N19190 X192.086 Y-20.036 Z-5.213
N19195 X192.153 Y-20. Z-5.278
N19200 X192.228 Y-19.96 Z-5.33
N19205 X192.309 Y-19.917 Z-5.368
N19210 X192.394 Y-19.871 Z-5.391
N19215 X192.482 Y-19.824 Z-5.399
N19220 G3 X195.367 Y-17.857 I-7.639 J14.299
N19225 G1 X195.561 Y-17.679
N19230 X195.792 Y-17.499
N19235 X195.94 Y-17.398
N19240 X196.059 Y-17.306
N19245 X196.147 Y-17.185
N19250 X196.206 Y-17.047
N19255 X196.22 Y-16.827
N19260 X196.171 Y-16.612
N19265 X196.061 Y-16.421
N19270 X195.9 Y-16.269
N19275 X195.703 Y-16.17
N19280 X195.486 Y-16.132
N19285 G3 X195.113 Y-16.268 I0.005 J-0.59
N19290 X195.94 Y-17.398 I0.448 J-0.539
N19295 G1 X196.116 Y-17.276
N19300 X196.181 Y-17.215
N19305 X196.23 Y-17.153
N19310 X196.261 Y-17.103
N19315 X196.287 Y-17.053
N19320 X196.309 Y-16.998
N19325 X196.326 Y-16.942
N19330 X196.337 Y-16.886
N19335 X196.344 Y-16.831
N19340 X196.345 Y-16.775
N19345 X196.341 Y-16.719
N19350 X196.333 Y-16.663
N19355 X196.319 Y-16.608
N19360 X196.284 Y-16.516
N19365 X196.23 Y-16.424
N19370 X196.2 Y-16.385
N19375 X196.156 Y-16.335
N19380 X196.104 Y-16.286
N19385 X196.055 Y-16.249
N19390 X196.007 Y-16.219
N19395 X195.938 Y-16.186
N19400 X195.868 Y-16.162
N19405 X195.784 Y-16.144
N19410 X195.561 Y-16.134
N19415 X194.892 Y-16.116
N19420 X194.669 Y-16.108
N19425 X193.777 Y-16.07
N19430 X191.77 Y-15.979
N19435 X187.311 Y-15.769
N19440 X186.642 Y-15.736
N19445 X185.527 Y-15.674
N19450 X179.952 Y-15.354
N19455 X179.283 Y-15.311
N19460 X177.722 Y-15.207
N19465 X176.384 Y-15.128
N19470 X173.262 Y-14.946
N19475 X172.593 Y-14.903
N19480 X169.695 Y-14.704
N19485 X169.472 Y-14.69
N19490 X168.803 Y-14.649
N19495 X167.688 Y-14.589
N19500 X167.019 Y-14.548
N19505 X165.458 Y-14.45
N19510 X165.235 Y-14.436
N19515 X165.012 Y-14.424
N19520 X164.343 Y-14.393
N19525 X163.451 Y-14.346
N19530 X161.444 Y-14.233
N19535 X161.221 Y-14.223
N19540 X160.552 Y-14.195
N19545 X157.653 Y-14.059
N19550 X155.423 Y-13.966
N19555 X153.863 Y-13.897
N19560 X152.748 Y-13.845
N19565 X148.734 Y-13.661
N19570 X148.065 Y-13.628
N19575 X146.504 Y-13.542
N19580 X145.835 Y-13.502
N19585 X142.713 Y-13.298
N19590 X142.49 Y-13.282
N19595 G3 X141.876 Y-13.688 I-0.022 J-0.635
N19600 G1 X141.84 Y-13.78 Z-5.391
N19605 X141.805 Y-13.871 Z-5.368
N19610 X141.772 Y-13.957 Z-5.33
N19615 X141.741 Y-14.036 Z-5.278
N19620 X141.714 Y-14.107 Z-5.213
N19625 X141.691 Y-14.167 Z-5.137
N19630 X141.672 Y-14.215 Z-5.053
N19635 X141.658 Y-14.251 Z-4.96
