%
(SPOONTOPPARALLEL_2NDTRY_3175BALL)
(T3  D=3.175 CR=1.587 - ZMIN=-20.565 - BALL END MILL)
N10 G90 G94 G17 G91.1
N15 G21
(WHEN USING FUSION 360 FOR PERSONAL USE, THE FEEDRATE OF)
(RAPID MOVES IS REDUCED TO MATCH THE FEEDRATE OF CUTTING)
(MOVES, WHICH CAN INCREASE MACHINING TIME. UNRESTRICTED RAPID)
(MOVES ARE AVAILABLE WITH A FUSION 360 SUBSCRIPTION.)
N20 G53 G0 Z0.
(PARALLEL1)
N25 T3 M6
N30 S10000 M3
N35 G54
N40 G0 X69.797 Y-30.318
N45 G43 Z15. H3
N50 G1 Z-1.577 F3000.
N55 Z-20.089
N60 G18 G3 X69.162 I-0.317 K0.
N65 G1 X69.159 Z-4.984
N70 X69.14 Z-4.902
N75 X69.097 Z-4.825
N80 X69.053 Z-4.782
N85 X68.967 Z-4.72
N90 X68.804 Z-4.636
N95 X68.63 Z-4.571
N100 X68.075 Z-4.431
N105 X67.559 Z-4.334
N110 X66.562 Z-4.23
N115 X65.501 Z-4.18
N120 X64.428 Z-4.17
N125 X63.453 Z-4.191
N130 X62.407 Z-4.246
N135 X61.466 Z-4.328
N140 X60.497 Z-4.463
N145 X59.671 Z-4.646
N150 X59.504 Z-4.693
N155 X59.264 Z-4.793
N160 X59.185 Z-4.838
N165 X59.085 Z-4.918
N170 X59.006 Z-4.999
N175 X58.972 Z-5.087
N180 Z-20.089
N185 X58.964 Z-20.138
N190 X58.941 Z-20.182
N195 X58.906 Z-20.217
N200 X58.862 Z-20.24
N205 X58.813 Z-20.248
N210 X50.224
N215 G17 G2 Y-29.475 I0. J0.421
N220 G1 X50.227 Y-29.451 Z-20.246
N225 X50.231 Y-29.427 Z-20.24
N230 X50.234 Y-29.404 Z-20.23
N235 X50.237 Y-29.383 Z-20.217
N240 X50.24 Y-29.364 Z-20.201
N245 X50.243 Y-29.348 Z-20.182
N250 X50.245 Y-29.336 Z-20.161
N255 X50.246 Y-29.326 Z-20.138
N260 X50.247 Y-29.32 Z-20.114
N265 Y-29.318 Z-20.089
N270 Z-5.169
N275 X50.265 Z-5.077
N280 X50.301 Z-4.979
N285 X50.358 Z-4.9
N290 X50.438 Z-4.825
N295 X50.517 Z-4.766
N300 X50.741 Z-4.623
N305 X50.976 Z-4.512
N310 X51.259 Z-4.405
N315 X51.712 Z-4.266
N320 X52.357 Z-4.109
N325 X53.072 Z-3.96
N330 X53.704 Z-3.86
N335 X54.724 Z-3.716
N340 X55.446 Z-3.632
N345 X56.556 Z-3.524
N350 X57.517 Z-3.449
N355 X58.67 Z-3.372
N360 X60.247 Z-3.294
N365 X62.162 Z-3.231
N370 X64.21 Z-3.197
N375 X66.161
N380 X67.722 Z-3.224
N385 X68.893 Z-3.266
N390 X69.949 Z-3.322
N395 X70.996 Z-3.407
N400 X71.851 Z-3.503
N405 X72.323 Z-3.572
N410 X73.125 Z-3.724
N415 X73.609 Z-3.85
N420 X74.15 Z-4.033
N425 X74.322 Z-4.106
N430 X74.567 Z-4.239
N435 X74.797 Z-4.4
N440 X74.93 Z-4.516
N445 X74.993 Z-4.591
N450 X75.041 Z-4.667
N455 X75.107 Z-4.831
N460 X75.124 Z-4.938
N465 X75.125 Z-20.089
N470 X75.132 Z-20.138
N475 X75.155 Z-20.182
N480 X75.19 Z-20.217
N485 X75.234 Z-20.24
N490 X75.283 Z-20.248
N495 X78.394
N500 G3 X78.871 Y-28.842 I0. J0.476
N505 G1 Y-28.795
N510 G3 X78.394 Y-28.319 I-0.476 J0.
N515 G1 X78.345 Z-20.24
N520 X78.301 Z-20.217
N525 X78.266 Z-20.182
N530 X78.243 Z-20.138
N535 X78.236 Z-20.089
N540 X78.231 Z-4.844
N545 X78.212 Z-4.741
N550 X78.154 Z-4.597
N555 X78.04 Z-4.409
N560 X77.924 Z-4.282
N565 X77.713 Z-4.102
N570 X77.483 Z-3.949
N575 X77.145 Z-3.779
N580 X76.795 Z-3.637
N585 X76.615 Z-3.577
N590 X76.248 Z-3.47
N595 X75.738 Z-3.349
N600 X75.222 Z-3.25
N605 X74.459 Z-3.139
N610 X73.801 Z-3.068
N615 X73.04 Z-3.001
N620 X72.086 Z-2.938
N625 X71.126 Z-2.887
N630 X69.175 Z-2.815
N635 X66.932 Z-2.768
N640 X64.493 Z-2.749
N645 X61.957 Z-2.765
N650 X59.567 Z-2.81
N655 X58.069 Z-2.857
N660 X56.39 Z-2.925
N665 X55.022 Z-2.996
N670 X53.497 Z-3.095
N675 X52.583 Z-3.163
N680 X51.073 Z-3.298
N685 X49.903 Z-3.427
N690 X49.032 Z-3.537
N695 X48.248 Z-3.654
N700 X47.383 Z-3.803
N705 X46.626 Z-3.961
N710 X45.96 Z-4.133
N715 X45.529 Z-4.263
N720 X45.046 Z-4.442
N725 X44.791 Z-4.567
N730 X44.559 Z-4.703
N735 X44.477 Z-4.763
N740 X44.343 Z-4.89
N745 X44.283 Z-4.96
N750 X44.222 Z-5.076
N755 X44.196 Z-5.22
N760 Z-20.089
N765 X44.195 Y-28.326 Z-20.138
N770 X44.191 Y-28.348 Z-20.182
N775 X44.186 Y-28.383 Z-20.217
N780 X44.178 Y-28.427 Z-20.24
N785 X44.17 Y-28.475 Z-20.248
N790 X44.162 Y-28.523 Z-20.24
N795 X44.155 Y-28.567 Z-20.217
N800 X44.149 Y-28.602 Z-20.182
N805 X44.145 Y-28.624 Z-20.138
N810 X44.144 Y-28.632 Z-20.089
N815 X44.136 Y-28.63 Z-20.04
N820 X44.114 Y-28.625 Z-19.996
N825 X44.08 Y-28.617 Z-19.961
N830 X44.037 Y-28.607 Z-19.938
N835 X43.989 Y-28.595 Z-19.93
N840 X38.717 Y-27.355
N845 X38.669 Y-27.344 Z-19.938
N850 X38.626 Y-27.334 Z-19.961
N855 X38.592 Y-27.326 Z-19.996
N860 X38.57 Y-27.32 Z-20.04
N865 X38.562 Y-27.319 Z-20.089
N870 G18 G2 X38.88 I0.159 K0.
N875 G1 Z-5.201
N880 X38.904 Z-5.08
N885 X38.928 Z-5.03
N890 X39.014 Z-4.914
N895 X39.111 Z-4.811
N900 X39.251 Z-4.705
N905 X39.473 Z-4.564
N910 X39.865 Z-4.377
N915 X40.308 Z-4.21
N920 X40.842 Z-4.046
N925 X41.508 Z-3.874
N930 X42.114 Z-3.74
N935 X42.873 Z-3.593
N940 X43.655 Z-3.461
N945 X44.693 Z-3.307
N950 X45.735 Z-3.175
N955 X46.845 Z-3.05
N960 X48.199 Z-2.92
N965 X49.265 Z-2.831
N970 X50.845 Z-2.718
N975 X52.555 Z-2.623
N980 X54.311 Z-2.557
N985 X56.457 Z-2.509
N990 X59.481 Z-2.482
N995 X67.382 Z-2.468
N1000 X69.431 Z-2.489
N1005 X71. Z-2.531
N1010 X71.999 Z-2.576
N1015 X73.495 Z-2.661
N1020 X74.62 Z-2.738
N1025 X75.477 Z-2.809
N1030 X76.321 Z-2.896
N1035 X77.102 Z-3.
N1040 X77.748 Z-3.115
N1045 X78.213 Z-3.22
N1050 X78.671 Z-3.35
N1055 X79.05 Z-3.489
N1060 X79.376 Z-3.628
N1065 X79.747 Z-3.833
N1070 X79.934 Z-3.968
N1075 X80.138 Z-4.152
N1080 X80.25 Z-4.283
N1085 X80.339 Z-4.421
N1090 X80.417 Z-4.565
N1095 X80.455 Z-4.679
N1100 X80.491 Z-4.865
N1105 X80.496 Z-20.089
N1110 X80.731 Y-27.2
N1115 X81.085 Y-27.022
N1120 X81.202 Y-26.961
N1125 X82.012 Y-26.517
N1130 X82.127 Y-26.453
N1135 X82.241 Y-26.386
N1140 X82.355 Y-26.319
N1145 X82.35 Z-4.847
N1150 X82.334 Z-4.737
N1155 X82.26 Z-4.497
N1160 X82.186 Z-4.352
N1165 X82.055 Z-4.159
N1170 X81.901 Z-3.993
N1175 X81.73 Z-3.839
N1180 X81.544 Z-3.707
N1185 X81.26 Z-3.539
N1190 X80.831 Z-3.343
N1195 X80.474 Z-3.215
N1200 X80.063 Z-3.091
N1205 X79.553 Z-2.973
N1210 X78.895 Z-2.853
N1215 X78.138 Z-2.747
N1220 X77.303 Z-2.65
N1225 X76.181 Z-2.54
N1230 X75.248 Z-2.458
N1235 X74.628 Z-2.417
N1240 X73.657 Z-2.38
N1245 X72.536 Z-2.371
N1250 X71.072 Z-2.396
N1255 X66.372 Z-2.544
N1260 X64.03 Z-2.585
N1265 X61.618 Z-2.587
N1270 X59.277 Z-2.553
N1275 X53.131 Z-2.413
N1280 X50.985 Z-2.393
N1285 X49.181 Z-2.407
N1290 X47.688 Z-2.448
N1295 X46.307 Z-2.512
N1300 X45.142 Z-2.589
N1305 X43.925 Z-2.691
N1310 X42.71 Z-2.812
N1315 X41.496 Z-2.951
N1320 X40.455 Z-3.087
N1325 X39.567 Z-3.218
N1330 X38.578 Z-3.383
N1335 X37.641 Z-3.561
N1340 X36.898 Z-3.723
N1345 X36.272 Z-3.878
N1350 X35.694 Z-4.043
N1355 X35.285 Z-4.178
N1360 X34.807 Z-4.367
N1365 X34.493 Z-4.522
N1370 X34.196 Z-4.71
N1375 X34.059 Z-4.827
N1380 X33.995 Z-4.89
N1385 X33.931 Z-4.974
N1390 X33.84 Z-5.171
N1395 X33.82 Z-5.28
N1400 Z-20.089
N1405 Y-26.321 Z-20.114
N1410 X33.819 Y-26.326 Z-20.138
N1415 X33.818 Y-26.336 Z-20.161
N1420 X33.815 Y-26.349 Z-20.182
N1425 X33.813 Y-26.365 Z-20.201
N1430 X33.81 Y-26.383 Z-20.217
N1435 X33.806 Y-26.404 Z-20.23
N1440 X33.802 Y-26.427 Z-20.24
N1445 X33.798 Y-26.451 Z-20.246
N1450 X33.794 Y-26.475 Z-20.248
N1455 X33.78 Y-26.518
N1460 X33.756 Y-26.555
N1465 X33.722 Y-26.583
N1470 X33.681 Y-26.601
N1475 X33.637 Y-26.608
N1480 X29.025
N1485 G17 G2 X28.548 Y-26.131 I0. J0.476
N1490 G1 Y-25.795
N1495 G2 X29.025 Y-25.319 I0.476 J0.
N1500 G1 X29.074 Z-20.24
N1505 X29.118 Z-20.217
N1510 X29.153 Z-20.182
N1515 X29.176 Z-20.138
N1520 X29.183 Z-20.089
N1525 X29.186 Z-5.3
N1530 X29.196 Z-5.16
N1535 X29.247 Z-5.036
N1540 X29.374 Z-4.84
N1545 X29.536 Z-4.684
N1550 X29.74 Z-4.534
N1555 X30.012 Z-4.376
N1560 X30.324 Z-4.224
N1565 X30.642 Z-4.091
N1570 X30.966 Z-3.972
N1575 X31.456 Z-3.811
N1580 X32.158 Z-3.611
N1585 X32.802 Z-3.45
N1590 X33.344 Z-3.331
N1595 X34.206 Z-3.163
N1600 X34.921 Z-3.041
N1605 X35.96 Z-2.886
N1610 X36.85 Z-2.771
N1615 X37.978 Z-2.642
N1620 X39.517 Z-2.494
N1625 X40.649 Z-2.409
N1630 X41.747 Z-2.347
N1635 X43.113 Z-2.298
N1640 X44.562 Z-2.28
N1645 X46.001 Z-2.293
N1650 X47.781 Z-2.344
N1655 X49.871 Z-2.445
N1660 X55.079 Z-2.77
N1665 X57.154 Z-2.883
N1670 X59.348 Z-2.97
N1675 X61.299 Z-3.01
N1680 X62.823 Z-3.014
N1685 X64.384 Z-2.992
N1690 X65.824 Z-2.95
N1695 X67.623 Z-2.863
N1700 X69.356 Z-2.746
N1705 X72.155 Z-2.512
N1710 X73.772 Z-2.38
N1715 X74.796 Z-2.316
N1720 X75.701 Z-2.288
N1725 X76.531 Z-2.295
N1730 X77.25 Z-2.332
N1735 X77.916 Z-2.393
N1740 X79.376 Z-2.574
N1745 X80.227 Z-2.695
N1750 X80.792 Z-2.791
N1755 X81.427 Z-2.925
N1760 X81.795 Z-3.023
N1765 X82.057 Z-3.105
N1770 X82.492 Z-3.271
N1775 X82.914 Z-3.481
N1780 X83.153 Z-3.634
N1785 X83.372 Z-3.797
N1790 X83.57 Z-3.989
N1795 X83.706 Z-4.162
N1800 X83.827 Z-4.36
N1805 X83.886 Z-4.498
N1810 X83.944 Z-4.683
N1815 X83.972 Z-4.873
N1820 X83.976 Z-20.089
N1825 X84.34 Y-25.073
N1830 X84.705 Y-24.827
N1835 X84.886 Y-24.702
N1840 X85.423 Y-24.319
N1845 X85.419 Z-4.848
N1850 X85.382 Z-4.618
N1855 X85.307 Z-4.398
N1860 X85.227 Z-4.238
N1865 X85.076 Z-4.013
N1870 X84.895 Z-3.816
N1875 X84.761 Z-3.693
N1880 X84.459 Z-3.471
N1885 X84.131 Z-3.285
N1890 X83.853 Z-3.156
N1895 X83.521 Z-3.025
N1900 X83.085 Z-2.89
N1905 X82.549 Z-2.758
N1910 X81.987 Z-2.646
N1915 X81.233 Z-2.52
N1920 X79.956 Z-2.325
N1925 X79.304 Z-2.25
N1930 X78.651 Z-2.212
N1935 X77.999 Z-2.207
N1940 X77.303 Z-2.235
N1945 X76.54 Z-2.297
N1950 X75.578 Z-2.406
N1955 X74.349 Z-2.575
N1960 X72.131 Z-2.885
N1965 X70.501 Z-3.088
N1970 X69.019 Z-3.244
N1975 X67.537 Z-3.371
N1980 X65.855 Z-3.479
N1985 X64.121 Z-3.549
N1990 X62.573 Z-3.577
N1995 X60.959 Z-3.576
N2000 X59.301 Z-3.544
N2005 X57.476 Z-3.472
N2010 X55.506 Z-3.357
N2015 X53.276 Z-3.183
N2020 X50.65 Z-2.939
N2025 X47.303 Z-2.602
N2030 X45.8 Z-2.46
N2035 X44.219 Z-2.329
N2040 X42.808 Z-2.24
N2045 X41.318 Z-2.175
N2050 X39.861 Z-2.145
N2055 X38.544 Z-2.148
N2060 X37.168 Z-2.184
N2065 X35.964 Z-2.244
N2070 X34.765 Z-2.327
N2075 X33.545 Z-2.436
N2080 X32.485 Z-2.551
N2085 X31.479 Z-2.678
N2090 X30.597 Z-2.81
N2095 X29.899 Z-2.932
N2100 X29.141 Z-3.088
N2105 X28.454 Z-3.253
N2110 X27.876 Z-3.421
N2115 X27.693 Z-3.478
N2120 X27.368 Z-3.591
N2125 X26.948 Z-3.753
N2130 X26.552 Z-3.922
N2135 X26.242 Z-4.072
N2140 X25.921 Z-4.25
N2145 X25.631 Z-4.443
N2150 X25.491 Z-4.554
N2155 X25.321 Z-4.718
N2160 X25.218 Z-4.854
N2165 X25.118 Z-5.043
N2170 X25.09 Z-5.165
N2175 X25.073 Z-5.308
N2180 Z-20.089
N2185 Y-24.321 Z-20.114
N2190 X25.072 Y-24.327 Z-20.138
N2195 X25.07 Y-24.336 Z-20.161
N2200 X25.067 Y-24.349 Z-20.182
N2205 X25.064 Y-24.365 Z-20.201
N2210 X25.061 Y-24.383 Z-20.217
N2215 X25.057 Y-24.404 Z-20.23
N2220 X25.052 Y-24.427 Z-20.24
N2225 X25.047 Y-24.451 Z-20.246
N2230 X25.043 Y-24.475 Z-20.248
N2235 X25.028 Y-24.516
N2240 X25.004 Y-24.552
N2245 X24.97 Y-24.58
N2250 X24.93 Y-24.597
N2255 X24.887 Y-24.603
N2260 X21.38
N2265 G2 X20.904 Y-24.127 I0. J0.476
N2270 G1 Y-23.796
N2275 G2 X21.38 Y-23.319 I0.476 J0.
N2280 G1 X21.429 Z-20.24
N2285 X21.474 Z-20.217
N2290 X21.509 Z-20.182
N2295 X21.531 Z-20.138
N2300 X21.539 Z-20.089
N2305 Z-5.254
N2310 X21.565 Z-5.056
N2315 X21.606 Z-4.927
N2320 X21.718 Z-4.709
N2325 X21.856 Z-4.527
N2330 X22.019 Z-4.358
N2335 X22.314 Z-4.115
N2340 X22.6 Z-3.914
N2345 X22.82 Z-3.775
N2350 X23.121 Z-3.605
N2355 X23.508 Z-3.414
N2360 X23.906 Z-3.247
N2365 X24.168 Z-3.155
N2370 X24.598 Z-3.017
N2375 X25.075 Z-2.886
N2380 X25.745 Z-2.733
N2385 X26.355 Z-2.615
N2390 X27.052 Z-2.501
N2395 X27.902 Z-2.382
N2400 X28.713 Z-2.287
N2405 X29.734 Z-2.186
N2410 X30.881 Z-2.097
N2415 X32.077 Z-2.031
N2420 X33.207 Z-1.991
N2425 X34.476 Z-1.976
N2430 X35.744 Z-1.992
N2435 X37.107 Z-2.042
N2440 X38.16 Z-2.102
N2445 X39.284 Z-2.185
N2450 X40.902 Z-2.339
N2455 X42.411 Z-2.51
N2460 X43.918 Z-2.699
N2465 X47.612 Z-3.187
N2470 X50.04 Z-3.488
N2475 X52.092 Z-3.713
N2480 X53.969 Z-3.887
N2485 X55.825 Z-4.025
N2490 X57.514 Z-4.119
N2495 X59.157 Z-4.176
N2500 X60.816 Z-4.203
N2505 X62.404 Z-4.196
N2510 X63.958 Z-4.155
N2515 X65.506 Z-4.081
N2520 X66.822 Z-3.993
N2525 X68.307 Z-3.859
N2530 X69.788 Z-3.694
N2535 X71.095 Z-3.52
N2540 X72.529 Z-3.298
N2545 X73.958 Z-3.045
N2550 X76.302 Z-2.592
N2555 X77.269 Z-2.415
N2560 X77.882 Z-2.316
N2565 X78.648 Z-2.213
N2570 X79.247 Z-2.157
N2575 X79.683 Z-2.132
N2580 X80.28 Z-2.126
N2585 X80.859 Z-2.153
N2590 X81.144 Z-2.18
N2595 X81.523 Z-2.229
N2600 X81.899 Z-2.291
N2605 X83.158 Z-2.522
N2610 X83.72 Z-2.635
N2615 X84.174 Z-2.744
N2620 X84.622 Z-2.872
N2625 X85.069 Z-3.033
N2630 X85.455 Z-3.21
N2635 X85.82 Z-3.428
N2640 X86.114 Z-3.657
N2645 X86.275 Z-3.818
N2650 X86.418 Z-3.985
N2655 X86.562 Z-4.208
N2660 X86.63 Z-4.354
N2665 X86.699 Z-4.539
N2670 X86.723 Z-4.643
N2675 X86.753 Z-4.832
N2680 X86.757 Z-20.089
N2685 X87.391 Y-22.825
N2690 X87.547 Y-22.699
N2695 X88.015 Y-22.319
N2700 X88.014 Z-4.994
N2705 X87.997 Z-4.718
N2710 X87.942 Z-4.485
N2715 X87.869 Z-4.293
N2720 X87.776 Z-4.108
N2725 X87.627 Z-3.889
N2730 X87.389 Z-3.628
N2735 X87.092 Z-3.387
N2740 X86.774 Z-3.187
N2745 X86.349 Z-2.978
N2750 X85.924 Z-2.816
N2755 X85.422 Z-2.666
N2760 X85.006 Z-2.561
N2765 X84.465 Z-2.441
N2770 X83.381 Z-2.212
N2775 X83.006 Z-2.144
N2780 X82.509 Z-2.08
N2785 X81.959 Z-2.045
N2790 X81.471
N2795 X80.89 Z-2.077
N2800 X80.207 Z-2.154
N2805 X79.571 Z-2.254
N2810 X78.877 Z-2.388
N2815 X77.833 Z-2.62
N2820 X76.723 Z-2.886
N2825 X74.971 Z-3.302
N2830 X73.702 Z-3.578
N2835 X72.408 Z-3.831
N2840 X71.108 Z-4.055
N2845 X69.673 Z-4.266
N2850 X68.345 Z-4.431
N2855 X67.033 Z-4.566
N2860 X65.595 Z-4.681
N2865 X64.171 Z-4.767
N2870 X62.542 Z-4.828
N2875 X60.981 Z-4.851
N2880 X59.32 Z-4.841
N2885 X57.668 Z-4.797
N2890 X56.157 Z-4.725
N2895 X54.496 Z-4.616
N2900 X52.801 Z-4.474
N2905 X50.747 Z-4.26
N2910 X48.888 Z-4.032
N2915 X46.654 Z-3.72
N2920 X43.878 Z-3.292
N2925 X40.556 Z-2.762
N2930 X39.158 Z-2.55
N2935 X37.71 Z-2.347
N2940 X36.259 Z-2.168
N2945 X34.757 Z-2.015
N2950 X33.657 Z-1.926
N2955 X32.87 Z-1.876
N2960 X31.61 Z-1.82
N2965 X30.342 Z-1.796
N2970 X29.171 Z-1.803
N2975 X28.026 Z-1.838
N2980 X26.946 Z-1.896
N2985 X26.05 Z-1.962
N2990 X25.157 Z-2.046
N2995 X24.114 Z-2.172
N3000 X23.265 Z-2.301
N3005 X22.758 Z-2.391
N3010 X22.066 Z-2.54
N3015 X21.567 Z-2.671
N3020 X21.074 Z-2.825
N3025 X20.612 Z-3.004
N3030 X20.28 Z-3.16
N3035 X20.009 Z-3.31
N3040 X19.725 Z-3.499
N3045 X19.552 Z-3.634
N3050 X19.42 Z-3.747
N3055 X19.172 Z-3.986
N3060 X19.053 Z-4.112
N3065 X18.882 Z-4.313
N3070 X18.728 Z-4.534
N3075 X18.618 Z-4.745
N3080 X18.551 Z-4.947
N3085 X18.52 Z-5.188
N3090 Z-20.089
N3095 X17.872 Y-22.082
N3100 X17.71 Y-22.021
N3105 X17.066 Y-21.774
N3110 X16.905 Y-21.711
N3115 X16.265 Y-21.453
N3120 X16.106 Y-21.387
N3125 X15.947 Y-21.32
N3130 Z-5.12
N3135 X15.973 Z-4.868
N3140 X16.047 Z-4.603
N3145 X16.139 Z-4.387
N3150 X16.296 Z-4.102
N3155 X16.487 Z-3.822
N3160 X16.647 Z-3.612
N3165 X16.825 Z-3.415
N3170 X17.03 Z-3.225
N3175 X17.249 Z-3.068
N3180 X17.471 Z-2.928
N3185 X17.821 Z-2.746
N3190 X18.254 Z-2.568
N3195 X18.703 Z-2.416
N3200 X19.242 Z-2.269
N3205 X19.745 Z-2.155
N3210 X20.421 Z-2.03
N3215 X21.207 Z-1.914
N3220 X22.144 Z-1.808
N3225 X22.933 Z-1.74
N3230 X23.81 Z-1.683
N3235 X24.714 Z-1.643
N3240 X25.684 Z-1.621
N3245 X26.855 Z-1.625
N3250 X28.026 Z-1.658
N3255 X29.178 Z-1.721
N3260 X30.321 Z-1.81
N3265 X31.728 Z-1.951
N3270 X33.227 Z-2.138
N3275 X34.638 Z-2.346
N3280 X36.116 Z-2.586
N3285 X37.603 Z-2.846
N3290 X40.724 Z-3.419
N3295 X43.865 Z-3.982
N3300 X46.072 Z-4.345
N3305 X48.114 Z-4.646
N3310 X49.972 Z-4.887
N3315 X51.814 Z-5.09
N3320 X53.509 Z-5.243
N3325 X55.168 Z-5.36
N3330 X56.695 Z-5.44
N3335 X58.227 Z-5.49
N3340 X59.824 Z-5.512
N3345 X61.385 Z-5.497
N3350 X62.943 Z-5.451
N3355 X64.257 Z-5.386
N3360 X65.572 Z-5.294
N3365 X67.056 Z-5.161
N3370 X68.537 Z-4.99
N3375 X69.823 Z-4.813
N3380 X71.144 Z-4.601
N3385 X72.421 Z-4.362
N3390 X73.692 Z-4.092
N3395 X74.77 Z-3.837
N3400 X76.046 Z-3.507
N3405 X78.531 Z-2.815
N3410 X79.583 Z-2.531
N3415 X80.436 Z-2.322
N3420 X80.978 Z-2.206
N3425 X81.485 Z-2.111
N3430 X81.844 Z-2.057
N3435 X82.356 Z-1.998
N3440 X82.746 Z-1.97
N3445 X83.249 Z-1.959
N3450 X83.754 Z-1.981
N3455 X84.228 Z-2.034
N3460 X84.697 Z-2.12
N3465 X85.868 Z-2.399
N3470 X86.332 Z-2.515
N3475 X86.864 Z-2.664
N3480 X87.224 Z-2.786
N3485 X87.661 Z-2.969
N3490 X87.995 Z-3.147
N3495 X88.306 Z-3.354
N3500 X88.587 Z-3.593
N3505 X88.74 Z-3.76
N3510 X88.879 Z-3.939
N3515 X89.014 Z-4.167
N3520 X89.113 Z-4.403
N3525 X89.174 Z-4.635
N3530 X89.204 Z-4.912
N3535 X89.209 Z-20.089
N3540 X89.642 Y-20.948
N3545 X89.786 Y-20.823
N3550 X90.356 Y-20.32
N3555 X90.355 Z-4.951
N3560 X90.317 Z-4.607
N3565 X90.256 Z-4.374
N3570 X90.161 Z-4.139
N3575 X90.029 Z-3.909
N3580 X89.896 Z-3.732
N3585 X89.745 Z-3.56
N3590 X89.539 Z-3.372
N3595 X89.239 Z-3.153
N3600 X88.915 Z-2.964
N3605 X88.488 Z-2.767
N3610 X88.04 Z-2.604
N3615 X87.45 Z-2.426
N3620 X86.027 Z-2.044
N3625 X85.794 Z-1.994
N3630 X85.607 Z-1.96
N3635 X85.276 Z-1.914
N3640 X84.799 Z-1.879
N3645 X84.238 Z-1.878
N3650 X83.725 Z-1.912
N3655 X83.384 Z-1.952
N3660 X82.821 Z-2.038
N3665 X82.368 Z-2.129
N3670 X81.698 Z-2.284
N3675 X80.767 Z-2.537
N3680 X79.844 Z-2.814
N3685 X79.132 Z-3.036
N3690 X76.853 Z-3.75
N3695 X75.607 Z-4.115
N3700 X74.723 Z-4.355
N3705 X73.816 Z-4.585
N3710 X72.717 Z-4.839
N3715 X71.444 Z-5.097
N3720 X70.146 Z-5.328
N3725 X68.862 Z-5.527
N3730 X67.403 Z-5.715
N3735 X65.921 Z-5.871
N3740 X64.417 Z-5.996
N3745 X63.117 Z-6.075
N3750 X61.58 Z-6.138
N3755 X60.214 Z-6.166
N3760 X58.695 Z-6.168
N3765 X57.086 Z-6.139
N3770 X55.514 Z-6.075
N3775 X53.826 Z-5.974
N3780 X52.34 Z-5.856
N3785 X50.667 Z-5.691
N3790 X48.976 Z-5.494
N3795 X47.14 Z-5.244
N3800 X45.289 Z-4.957
N3805 X43.443 Z-4.64
N3810 X41.057 Z-4.192
N3815 X37.424 Z-3.455
N3820 X34.817 Z-2.921
N3825 X33.19 Z-2.604
N3830 X31.845 Z-2.359
N3835 X30.498 Z-2.134
N3840 X29.079 Z-1.926
N3845 X27.656 Z-1.75
N3850 X26.61 Z-1.647
N3855 X25.657 Z-1.569
N3860 X24.798 Z-1.516
N3865 X23.63 Z-1.473
N3870 X22.557 Z-1.463
N3875 X21.426 Z-1.486
N3880 X20.583 Z-1.523
N3885 X19.535 Z-1.598
N3890 X18.661 Z-1.689
N3895 X17.896 Z-1.799
N3900 X17.158 Z-1.94
N3905 X16.48 Z-2.111
N3910 X16.06 Z-2.246
N3915 X15.598 Z-2.427
N3920 X15.212 Z-2.624
N3925 X14.936 Z-2.796
N3930 X14.76 Z-2.927
N3935 X14.566 Z-3.11
N3940 X14.395 Z-3.301
N3945 X14.332 Z-3.387
N3950 X14.235 Z-3.533
N3955 X14.108 Z-3.77
N3960 X13.993 Z-4.011
N3965 X13.925 Z-4.175
N3970 X13.86 Z-4.351
N3975 X13.783 Z-4.617
N3980 X13.741 Z-4.875
N3985 X13.731 Z-5.045
N3990 Z-20.089
N3995 X13.366 Y-20.141
N4000 X13.244 Y-20.081
N4005 X12.642 Y-19.771
N4010 X12.521 Y-19.708
N4015 X11.925 Y-19.385
N4020 X11.807 Y-19.32
N4025 X11.811 Z-4.818
N4030 X11.835 Z-4.59
N4035 X11.91 Z-4.241
N4040 X12.004 Z-3.921
N4045 X12.118 Z-3.591
N4050 X12.194 Z-3.416
N4055 X12.237 Z-3.33
N4060 X12.332 Z-3.17
N4065 X12.493 Z-2.956
N4070 X12.682 Z-2.762
N4075 X12.958 Z-2.547
N4080 X13.253 Z-2.363
N4085 X13.563 Z-2.205
N4090 X14.044 Z-2.013
N4095 X14.372 Z-1.906
N4100 X15.017 Z-1.739
N4105 X15.733 Z-1.604
N4110 X16.433 Z-1.509
N4115 X17.169 Z-1.438
N4120 X18.046 Z-1.381
N4125 X18.94 Z-1.349
N4130 X19.964 Z-1.34
N4135 X21.037 Z-1.362
N4140 X22.145 Z-1.418
N4145 X22.955 Z-1.48
N4150 X23.812 Z-1.558
N4155 X25.141 Z-1.711
N4160 X26.466 Z-1.897
N4165 X27.77 Z-2.109
N4170 X29.198 Z-2.37
N4175 X30.585 Z-2.646
N4180 X31.781 Z-2.899
N4185 X33.069 Z-3.181
N4190 X35.437 Z-3.713
N4195 X38.831 Z-4.469
N4200 X41.207 Z-4.963
N4205 X43.404 Z-5.381
N4210 X45.062 Z-5.666
N4215 X46.913 Z-5.951
N4220 X48.58 Z-6.176
N4225 X50.232 Z-6.369
N4230 X51.925 Z-6.531
N4235 X53.583 Z-6.657
N4240 X55.274 Z-6.753
N4245 X56.916 Z-6.808
N4250 X58.562 Z-6.829
N4255 X60.088 Z-6.818
N4260 X61.536 Z-6.775
N4265 X63.062 Z-6.702
N4270 X64.358 Z-6.611
N4275 X65.672 Z-6.496
N4280 X66.963 Z-6.353
N4285 X68.271 Z-6.184
N4290 X69.725 Z-5.961
N4295 X71.003 Z-5.73
N4300 X72.126 Z-5.503
N4305 X73.392 Z-5.212
N4310 X74.483 Z-4.932
N4315 X75.549 Z-4.63
N4320 X76.444 Z-4.357
N4325 X77.842 Z-3.9
N4330 X79.954 Z-3.17
N4335 X80.659 Z-2.928
N4340 X81.757 Z-2.565
N4345 X82.535 Z-2.331
N4350 X83.051 Z-2.191
N4355 X83.552 Z-2.068
N4360 X83.973 Z-1.98
N4365 X84.566 Z-1.878
N4370 X84.907 Z-1.836
N4375 X85.249 Z-1.805
N4380 X85.759 Z-1.786
N4385 X86.2 Z-1.797
N4390 X86.485 Z-1.822
N4395 X86.91 Z-1.882
N4400 X87.329 Z-1.973
N4405 X87.818 Z-2.114
N4410 X88.918 Z-2.452
N4415 X89.279 Z-2.573
N4420 X89.72 Z-2.748
N4425 X90.06 Z-2.914
N4430 X90.383 Z-3.11
N4435 X90.681 Z-3.336
N4440 X90.884 Z-3.529
N4445 X91.029 Z-3.699
N4450 X91.161 Z-3.882
N4455 X91.289 Z-4.113
N4460 X91.379 Z-4.338
N4465 X91.44 Z-4.571
N4470 X91.48 Z-4.885
N4475 X91.484 Z-20.089
N4480 X92.597 Y-18.32
N4485 X92.592 Z-4.897
N4490 X92.58 Z-4.745
N4495 X92.535 Z-4.465
N4500 X92.457 Z-4.21
N4505 X92.353 Z-3.979
N4510 X92.229 Z-3.771
N4515 X92.061 Z-3.553
N4520 X91.87 Z-3.354
N4525 X91.583 Z-3.116
N4530 X91.269 Z-2.91
N4535 X90.936 Z-2.732
N4540 X90.588 Z-2.579
N4545 X90.052 Z-2.381
N4550 X89.224 Z-2.101
N4555 X88.714 Z-1.931
N4560 X88.296 Z-1.825
N4565 X87.936 Z-1.76
N4570 X87.509 Z-1.714
N4575 X87.127 Z-1.696
N4580 X86.689 Z-1.702
N4585 X86.251 Z-1.732
N4590 X85.909 Z-1.771
N4595 X85.485 Z-1.837
N4600 X84.894 Z-1.953
N4605 X84.393 Z-2.074
N4610 X83.876 Z-2.214
N4615 X83.055 Z-2.465
N4620 X82.206 Z-2.753
N4625 X81.342 Z-3.065
N4630 X79.948 Z-3.586
N4635 X78.229 Z-4.227
N4640 X76.68 Z-4.768
N4645 X75.625 Z-5.104
N4650 X74.747 Z-5.366
N4655 X73.743 Z-5.643
N4660 X72.772 Z-5.885
N4665 X71.673 Z-6.134
N4670 X70.38 Z-6.393
N4675 X69.101 Z-6.621
N4680 X67.439 Z-6.87
N4685 X65.769 Z-7.074
N4690 X64.457 Z-7.201
N4695 X63.162 Z-7.306
N4700 X61.744 Z-7.389
N4705 X60.224 Z-7.45
N4710 X58.663 Z-7.477
N4715 X57.077 Z-7.473
N4720 X55.519 Z-7.437
N4725 X53.905 Z-7.365
N4730 X52.414 Z-7.273
N4735 X50.738 Z-7.131
N4740 X49.236 Z-6.979
N4745 X47.566 Z-6.774
N4750 X45.901 Z-6.539
N4755 X44.051 Z-6.242
N4760 X42.227 Z-5.912
N4765 X40.241 Z-5.516
N4770 X38.056 Z-5.04
N4775 X35.191 Z-4.368
N4780 X30.808 Z-3.304
N4785 X29.338 Z-2.959
N4790 X28.052 Z-2.668
N4795 X26.65 Z-2.37
N4800 X25.266 Z-2.099
N4805 X23.924 Z-1.865
N4810 X22.601 Z-1.664
N4815 X21.369 Z-1.509
N4820 X20.322 Z-1.406
N4825 X19.56 Z-1.345
N4830 X18.654 Z-1.288
N4835 X17.826 Z-1.257
N4840 X16.851 Z-1.247
N4845 X15.981 Z-1.268
N4850 X15.368 Z-1.301
N4855 X14.597 Z-1.364
N4860 X13.896 Z-1.45
N4865 X13.303 Z-1.553
N4870 X12.8 Z-1.67
N4875 X12.251 Z-1.837
N4880 X11.886 Z-1.984
N4885 X11.497 Z-2.176
N4890 X11.22 Z-2.353
N4895 X10.996 Z-2.526
N4900 X10.928 Z-2.588
N4905 X10.732 Z-2.791
N4910 X10.591 Z-2.98
N4915 X10.494 Z-3.142
N4920 X10.395 Z-3.374
N4925 X10.349 Z-3.525
N4930 X10.301 Z-3.705
N4935 X10.208 Z-4.129
N4940 X10.147 Z-4.526
N4945 X10.13 Z-4.776
N4950 X10.129 Z-20.089
N4955 X9.939 Y-18.2
N4960 X9.751 Y-18.079
N4965 X9.377 Y-17.83
N4970 X9.19 Y-17.706
N4975 X9.006 Y-17.577
N4980 X8.638 Y-17.32
N4985 Z-4.754
N4990 X8.654 Z-4.4
N4995 X8.704 Z-3.999
N5000 X8.781 Z-3.544
N5005 X8.827 Z-3.359
N5010 X8.894 Z-3.151
N5015 X8.976 Z-2.976
N5020 X9.122 Z-2.743
N5025 X9.296 Z-2.537
N5030 X9.408 Z-2.428
N5035 X9.632 Z-2.246
N5040 X9.933 Z-2.05
N5045 X10.27 Z-1.874
N5050 X10.649 Z-1.722
N5055 X10.894 Z-1.637
N5060 X11.308 Z-1.521
N5065 X11.877 Z-1.404
N5070 X12.428 Z-1.324
N5075 X13.196 Z-1.243
N5080 X13.799 Z-1.201
N5085 X14.449 Z-1.185
N5090 X15.405 Z-1.2
N5095 X16.593 Z-1.255
N5100 X17.642 Z-1.332
N5105 X18.664 Z-1.433
N5110 X19.637 Z-1.551
N5115 X20.347 Z-1.649
N5120 X21.601 Z-1.85
N5125 X22.823 Z-2.076
N5130 X24.157 Z-2.349
N5135 X25.533 Z-2.657
N5140 X27.095 Z-3.028
N5145 X28.745 Z-3.44
N5150 X32.04 Z-4.291
N5155 X35.317 Z-5.13
N5160 X37.639 Z-5.69
N5165 X39.635 Z-6.136
N5170 X41.45 Z-6.509
N5175 X43.292 Z-6.851
N5180 X45.122 Z-7.151
N5185 X46.767 Z-7.389
N5190 X48.436 Z-7.598
N5195 X49.938 Z-7.755
N5200 X51.614 Z-7.899
N5205 X53.293 Z-8.007
N5210 X54.715 Z-8.07
N5215 X56.173 Z-8.108
N5220 X57.727 Z-8.12
N5225 X59.19 Z-8.1
N5230 X60.792 Z-8.045
N5235 X62.308 Z-7.963
N5240 X63.775 Z-7.849
N5245 X65.238 Z-7.705
N5250 X66.737 Z-7.526
N5255 X68.382 Z-7.286
N5260 X69.662 Z-7.065
N5265 X70.769 Z-6.853
N5270 X71.871 Z-6.614
N5275 X73.115 Z-6.316
N5280 X74.185 Z-6.029
N5285 X75.265 Z-5.711
N5290 X76.3 Z-5.374
N5295 X77.508 Z-4.953
N5300 X78.903 Z-4.426
N5305 X81.261 Z-3.484
N5310 X82.114 Z-3.147
N5315 X82.791 Z-2.886
N5320 X83.472 Z-2.635
N5325 X84.263 Z-2.363
N5330 X84.814 Z-2.19
N5335 X85.348 Z-2.036
N5340 X85.7 Z-1.943
N5345 X86.329 Z-1.803
N5350 X86.964 Z-1.695
N5355 X87.41 Z-1.641
N5360 X87.752 Z-1.615
N5365 X88.045 Z-1.603
N5370 X88.484 Z-1.608
N5375 X88.914 Z-1.64
N5380 X89.291 Z-1.692
N5385 X89.698 Z-1.779
N5390 X90.109 Z-1.9
N5395 X90.627 Z-2.096
N5400 X91.316 Z-2.355
N5405 X91.781 Z-2.543
N5410 X92.154 Z-2.72
N5415 X92.482 Z-2.91
N5420 X92.786 Z-3.129
N5425 X92.996 Z-3.314
N5430 X93.181 Z-3.514
N5435 X93.348 Z-3.737
N5440 X93.467 Z-3.942
N5445 X93.561 Z-4.156
N5450 X93.641 Z-4.408
N5455 X93.692 Z-4.715
N5460 X93.709 Z-4.998
N5465 X93.71 Z-20.089
N5470 X93.99 Y-17.069
N5475 X94.129 Y-16.943
N5480 X94.693 Y-16.445
N5485 X94.833 Y-16.32
N5490 X94.829 Z-4.852
N5495 X94.811 Z-4.629
N5500 X94.769 Z-4.366
N5505 X94.704 Z-4.146
N5510 X94.618 Z-3.937
N5515 X94.506 Z-3.73
N5520 X94.364 Z-3.523
N5525 X94.18 Z-3.311
N5530 X93.982 Z-3.123
N5535 X93.762 Z-2.948
N5540 X93.447 Z-2.743
N5545 X93.071 Z-2.545
N5550 X92.681 Z-2.369
N5555 X91.993 Z-2.081
N5560 X91.484 Z-1.865
N5565 X91.079 Z-1.73
N5570 X90.665 Z-1.628
N5575 X90.296 Z-1.567
N5580 X89.908 Z-1.524
N5585 X89.573 Z-1.507
N5590 X89.134 Z-1.508
N5595 X88.849 Z-1.522
N5600 X88.507 Z-1.55
N5605 X87.903 Z-1.629
N5610 X87.346 Z-1.731
N5615 X86.72 Z-1.874
N5620 X86.078 Z-2.049
N5625 X85.729 Z-2.153
N5630 X85.2 Z-2.324
N5635 X84.175 Z-2.692
N5640 X83.499 Z-2.954
N5645 X82.649 Z-3.299
N5650 X81.961 Z-3.586
N5655 X79.269 Z-4.718
N5660 X77.884 Z-5.269
N5665 X76.666 Z-5.72
N5670 X75.799 Z-6.017
N5675 X74.908 Z-6.302
N5680 X74.012 Z-6.57
N5685 X72.831 Z-6.887
N5690 X71.68 Z-7.169
N5695 X70.392 Z-7.448
N5700 X69.097 Z-7.697
N5705 X67.777 Z-7.92
N5710 X66.473 Z-8.11
N5715 X64.994 Z-8.295
N5720 X63.567 Z-8.441
N5725 X61.967 Z-8.571
N5730 X60.438 Z-8.661
N5735 X58.978 Z-8.715
N5740 X57.417 Z-8.743
N5745 X56.131 Z-8.741
N5750 X54.57 Z-8.713
N5755 X53.047 Z-8.652
N5760 X51.36 Z-8.551
N5765 X49.683 Z-8.417
N5770 X48.01 Z-8.244
N5775 X46.341 Z-8.04
N5780 X44.676 Z-7.801
N5785 X43.035 Z-7.533
N5790 X41.212 Z-7.197
N5795 X39.396 Z-6.825
N5800 X37.607 Z-6.423
N5805 X35.638 Z-5.946
N5810 X33.288 Z-5.338
N5815 X29.673 Z-4.356
N5820 X27.295 Z-3.706
N5825 X25.836 Z-3.316
N5830 X24.54 Z-2.98
N5835 X23.056 Z-2.614
N5840 X21.664 Z-2.294
N5845 X20.443 Z-2.036
N5850 X19.316 Z-1.823
N5855 X18.563 Z-1.695
N5860 X17.542 Z-1.539
N5865 X16.519 Z-1.409
N5870 X15.759 Z-1.328
N5875 X14.73 Z-1.241
N5880 X13.869 Z-1.19
N5885 X12.819 Z-1.157
N5890 X12.136 Z-1.155
N5895 X11.596 Z-1.187
N5900 X10.893 Z-1.261
N5905 X10.383 Z-1.335
N5910 X9.878 Z-1.439
N5915 X9.363 Z-1.588
N5920 X8.952 Z-1.748
N5925 X8.555 Z-1.949
N5930 X8.264 Z-2.138
N5935 X8.06 Z-2.307
N5940 X7.933 Z-2.427
N5945 X7.759 Z-2.633
N5950 X7.622 Z-2.846
N5955 X7.531 Z-3.037
N5960 X7.467 Z-3.223
N5965 X7.405 Z-3.522
N5970 X7.338 Z-4.071
N5975 X7.309 Z-4.515
N5980 Z-20.089
N5985 X7.007 Y-16.075
N5990 X6.855 Y-15.952
N5995 X6.705 Y-15.828
N6000 X6.261 Y-15.448
N6005 X6.114 Y-15.32
N6010 Z-4.433
N6015 X6.135 Z-3.981
N6020 X6.181 Z-3.458
N6025 X6.231 Z-3.187
N6030 X6.288 Z-2.996
N6035 X6.383 Z-2.784
N6040 X6.476 Z-2.629
N6045 X6.588 Z-2.48
N6050 X6.771 Z-2.279
N6055 X7.041 Z-2.051
N6060 X7.334 Z-1.862
N6065 X7.722 Z-1.67
N6070 X8.145 Z-1.509
N6075 X8.56 Z-1.391
N6080 X9. Z-1.297
N6085 X9.519 Z-1.219
N6090 X10.17 Z-1.154
N6095 X10.669 Z-1.126
N6100 X11.697 Z-1.148
N6105 X12.351 Z-1.18
N6110 X12.923 Z-1.22
N6115 X13.665 Z-1.287
N6120 X14.33 Z-1.358
N6125 X15.144 Z-1.464
N6130 X15.995 Z-1.589
N6135 X17.031 Z-1.766
N6140 X17.97 Z-1.945
N6145 X18.719 Z-2.1
N6150 X19.465 Z-2.266
N6155 X20.535 Z-2.517
N6160 X22.045 Z-2.899
N6165 X23.522 Z-3.295
N6170 X25.363 Z-3.809
N6175 X28.412 Z-4.687
N6180 X31.869 Z-5.67
N6185 X34.064 Z-6.267
N6190 X36.006 Z-6.768
N6195 X37.996 Z-7.241
N6200 X39.826 Z-7.639
N6205 X41.457 Z-7.961
N6210 X43.302 Z-8.286
N6215 X44.946 Z-8.539
N6220 X46.803 Z-8.786
N6225 X48.494 Z-8.969
N6230 X50.169 Z-9.118
N6235 X51.657 Z-9.22
N6240 X53.262 Z-9.297
N6245 X54.76 Z-9.341
N6250 X56.212 Z-9.356
N6255 X57.772 Z-9.34
N6260 X59.314 Z-9.291
N6265 X60.836 Z-9.216
N6270 X62.322 Z-9.108
N6275 X63.826 Z-8.969
N6280 X65.326 Z-8.799
N6285 X66.802 Z-8.595
N6290 X68.293 Z-8.354
N6295 X69.57 Z-8.119
N6300 X70.841 Z-7.853
N6305 X71.921 Z-7.604
N6310 X73.199 Z-7.278
N6315 X74.283 Z-6.967
N6320 X75.341 Z-6.637
N6325 X76.387 Z-6.278
N6330 X77.426 Z-5.893
N6335 X78.475 Z-5.479
N6340 X79.83 Z-4.909
N6345 X82.285 Z-3.825
N6350 X83.185 Z-3.431
N6355 X84.011 Z-3.08
N6360 X84.863 Z-2.736
N6365 X85.523 Z-2.486
N6370 X86.047 Z-2.301
N6375 X86.718 Z-2.08
N6380 X87.065 Z-1.976
N6385 X87.601 Z-1.829
N6390 X88.038 Z-1.722
N6395 X88.666 Z-1.59
N6400 X89.249 Z-1.497
N6405 X89.857 Z-1.432
N6410 X90.212 Z-1.411
N6415 X90.602 Z-1.403
N6420 X90.989 Z-1.415
N6425 X91.18 Z-1.43
N6430 X91.417 Z-1.453
N6435 X91.795 Z-1.511
N6440 X92.167 Z-1.591
N6445 X92.532 Z-1.698
N6450 X92.909 Z-1.84
N6455 X93.383 Z-2.063
N6460 X94.018 Z-2.361
N6465 X94.359 Z-2.531
N6470 X94.702 Z-2.728
N6475 X94.996 Z-2.932
N6480 X95.274 Z-3.172
N6485 X95.412 Z-3.318
N6490 X95.582 Z-3.531
N6495 X95.718 Z-3.749
N6500 X95.822 Z-3.965
N6505 X95.912 Z-4.231
N6510 X95.961 Z-4.481
N6515 X95.978 Z-4.64
N6520 X95.992 Z-4.921
N6525 X95.993 Z-20.089
N6530 X96.143 Y-15.193
N6535 X96.294 Y-15.067
N6540 X96.749 Y-14.691
N6545 X96.902 Y-14.566
N6550 X97.209 Y-14.321
N6555 X97.204 Z-4.644
N6560 X97.189 Z-4.474
N6565 X97.168 Z-4.325
N6570 X97.11 Z-4.077
N6575 X97.014 Z-3.817
N6580 X96.886 Z-3.578
N6585 X96.739 Z-3.365
N6590 X96.56 Z-3.158
N6595 X96.346 Z-2.957
N6600 X96.134 Z-2.789
N6605 X95.819 Z-2.58
N6610 X95.406 Z-2.348
N6615 X94.876 Z-2.069
N6620 X94.425 Z-1.832
N6625 X94.077 Z-1.683
N6630 X93.695 Z-1.554
N6635 X93.351 Z-1.464
N6640 X93.07 Z-1.406
N6645 X92.55 Z-1.335
N6650 X92.002 Z-1.301
N6655 X91.441 Z-1.303
N6660 X90.829 Z-1.341
N6665 X90.189 Z-1.419
N6670 X89.704 Z-1.498
N6675 X89.03 Z-1.638
N6680 X88.363 Z-1.804
N6685 X87.829 Z-1.957
N6690 X87.16 Z-2.168
N6695 X86.63 Z-2.352
N6700 X86.289 Z-2.476
N6705 X85.433 Z-2.808
N6710 X84.604 Z-3.154
N6715 X83.94 Z-3.444
N6720 X82.773 Z-3.972
N6725 X80.257 Z-5.129
N6730 X79.086 Z-5.648
N6735 X77.71 Z-6.221
N6740 X76.657 Z-6.623
N6745 X75.778 Z-6.939
N6750 X74.727 Z-7.29
N6755 X73.483 Z-7.663
N6760 X72.395 Z-7.959
N6765 X71.115 Z-8.273
N6770 X70.013 Z-8.515
N6775 X68.74 Z-8.771
N6780 X67.272 Z-9.029
N6785 X65.988 Z-9.225
N6790 X64.511 Z-9.422
N6795 X63.01 Z-9.585
N6800 X61.525 Z-9.717
N6805 X60.038 Z-9.819
N6810 X58.414 Z-9.896
N6815 X56.756 Z-9.937
N6820 X55.35 Z-9.944
N6825 X53.691 Z-9.92
N6830 X52.146 Z-9.868
N6835 X50.667 Z-9.785
N6840 X48.971 Z-9.66
N6845 X47.316 Z-9.5
N6850 X45.456 Z-9.278
N6855 X43.79 Z-9.043
N6860 X42.149 Z-8.776
N6865 X40.495 Z-8.472
N6870 X38.66 Z-8.095
N6875 X36.871 Z-7.688
N6880 X35.11 Z-7.253
N6885 X32.783 Z-6.633
N6890 X30.594 Z-6.012
N6895 X27.168 Z-4.995
N6900 X23.928 Z-4.019
N6905 X22.297 Z-3.537
N6910 X20.827 Z-3.115
N6915 X19.371 Z-2.717
N6920 X18.093 Z-2.391
N6925 X17.35 Z-2.213
N6930 X16.437 Z-2.007
N6935 X15.501 Z-1.812
N6940 X14.6 Z-1.642
N6945 X13.846 Z-1.513
N6950 X13.09 Z-1.4
N6955 X12.351 Z-1.303
N6960 X11.801 Z-1.242
N6965 X11.04 Z-1.173
N6970 X10.37 Z-1.131
N6975 X9.617 Z-1.102
N6980 X9.227 Z-1.111
N6985 X8.658 Z-1.149
N6990 X8.174 Z-1.202
N6995 X7.834 Z-1.258
N7000 X7.478 Z-1.329
N7005 X7.063 Z-1.443
N7010 X6.728 Z-1.56
N7015 X6.324 Z-1.743
N7020 X6.025 Z-1.921
N7025 X5.815 Z-2.081
N7030 X5.684 Z-2.195
N7035 X5.501 Z-2.391
N7040 X5.389 Z-2.54
N7045 X5.296 Z-2.693
N7050 X5.199 Z-2.904
N7055 X5.136 Z-3.11
N7060 X5.086 Z-3.403
N7065 X5.049 Z-3.941
N7070 X5.036 Z-4.35
N7075 Z-20.089
N7080 X4.91 Y-14.2
N7085 X4.788 Y-14.075
N7090 X4.299 Y-13.576
N7095 X4.179 Y-13.45
N7100 X4.061 Y-13.321
N7105 Z-4.263
N7110 X4.068 Z-3.908
N7115 X4.095 Z-3.355
N7120 X4.137 Z-3.077
N7125 X4.187 Z-2.888
N7130 X4.257 Z-2.714
N7135 X4.35 Z-2.543
N7140 X4.478 Z-2.357
N7145 X4.697 Z-2.123
N7150 X4.867 Z-1.981
N7155 X5.118 Z-1.806
N7160 X5.422 Z-1.641
N7165 X5.76 Z-1.496
N7170 X6.075 Z-1.391
N7175 X6.474 Z-1.289
N7180 X6.947 Z-1.199
N7185 X7.459 Z-1.134
N7190 X7.977 Z-1.097
N7195 X8.499 Z-1.083
N7200 X9.033 Z-1.101
N7205 X9.652 Z-1.145
N7210 X10.394 Z-1.218
N7215 X10.943 Z-1.286
N7220 X11.661 Z-1.39
N7225 X12.415 Z-1.516
N7230 X13.213 Z-1.666
N7235 X14.082 Z-1.847
N7240 X14.883 Z-2.028
N7245 X15.793 Z-2.247
N7250 X16.792 Z-2.505
N7255 X17.714 Z-2.756
N7260 X18.45 Z-2.964
N7265 X19.807 Z-3.362
N7270 X21.616 Z-3.916
N7275 X24.224 Z-4.735
N7280 X28.347 Z-6.024
N7285 X30.71 Z-6.732
N7290 X32.676 Z-7.293
N7295 X34.836 Z-7.872
N7300 X36.598 Z-8.308
N7305 X38.387 Z-8.715
N7310 X40.203 Z-9.087
N7315 X41.669 Z-9.355
N7320 X43.499 Z-9.651
N7325 X45.146 Z-9.88
N7330 X46.836 Z-10.076
N7335 X48.491 Z-10.235
N7340 X50.168 Z-10.359
N7345 X51.69 Z-10.439
N7350 X53.227 Z-10.494
N7355 X54.788 Z-10.513
N7360 X56.436 Z-10.501
N7365 X57.89 Z-10.462
N7370 X59.512 Z-10.385
N7375 X61. Z-10.286
N7380 X62.504 Z-10.152
N7385 X64.005 Z-9.987
N7390 X65.312 Z-9.817
N7395 X66.805 Z-9.59
N7400 X68.292 Z-9.331
N7405 X69.772 Z-9.036
N7410 X71.04 Z-8.749
N7415 X72.318 Z-8.428
N7420 X73.57 Z-8.081
N7425 X74.629 Z-7.757
N7430 X75.716 Z-7.393
N7435 X76.755 Z-7.011
N7440 X77.764 Z-6.617
N7445 X79.14 Z-6.032
N7450 X80.34 Z-5.486
N7455 X82.168 Z-4.618
N7460 X83.824 Z-3.832
N7465 X84.675 Z-3.439
N7470 X85.241 Z-3.186
N7475 X86.167 Z-2.795
N7480 X86.683 Z-2.59
N7485 X87.201 Z-2.395
N7490 X88.05 Z-2.099
N7495 X88.56 Z-1.938
N7500 X89.093 Z-1.782
N7505 X89.641 Z-1.638
N7510 X90.3 Z-1.488
N7515 X90.656 Z-1.418
N7520 X91.159 Z-1.332
N7525 X91.846 Z-1.245
N7530 X92.188 Z-1.215
N7535 X92.64 Z-1.191
N7540 X93.201 Z-1.187
N7545 X93.61 Z-1.205
N7550 X94.085 Z-1.249
N7555 X94.567 Z-1.326
N7560 X94.974 Z-1.42
N7565 X95.383 Z-1.543
N7570 X95.693 Z-1.662
N7575 X96.056 Z-1.834
N7580 X96.458 Z-2.071
N7585 X96.959 Z-2.373
N7590 X97.358 Z-2.628
N7595 X97.619 Z-2.826
N7600 X97.844 Z-3.028
N7605 X98.025 Z-3.227
N7610 X98.177 Z-3.434
N7615 X98.285 Z-3.621
N7620 X98.382 Z-3.839
N7625 X98.451 Z-4.064
N7630 X98.501 Z-4.335
N7635 X98.518 Z-4.601
N7640 X98.52 Z-20.089
N7645 X98.699 Y-13.19
N7650 X98.88 Y-13.061
N7655 X99.244 Y-12.809
N7660 X99.427 Y-12.684
N7665 X99.985 Y-12.321
N7670 X99.98 Z-4.316
N7675 X99.955 Z-4.058
N7680 X99.904 Z-3.829
N7685 X99.813 Z-3.584
N7690 X99.677 Z-3.337
N7695 X99.513 Z-3.115
N7700 X99.331 Z-2.919
N7705 X99.09 Z-2.706
N7710 X98.76 Z-2.458
N7715 X98.334 Z-2.157
N7720 X97.97 Z-1.911
N7725 X97.679 Z-1.745
N7730 X97.352 Z-1.591
N7735 X96.997 Z-1.456
N7740 X96.494 Z-1.31
N7745 X95.982 Z-1.201
N7750 X95.557 Z-1.138
N7755 X94.927 Z-1.083
N7760 X94.356 Z-1.066
N7765 X93.72 Z-1.08
N7770 X93.039 Z-1.129
N7775 X92.57 Z-1.182
N7780 X92.059 Z-1.255
N7785 X91.495 Z-1.354
N7790 X90.692 Z-1.526
N7795 X90.154 Z-1.661
N7800 X89.639 Z-1.803
N7805 X89.025 Z-1.989
N7810 X88.292 Z-2.235
N7815 X87.61 Z-2.486
N7820 X87.023 Z-2.715
N7825 X86.36 Z-2.99
N7830 X85.791 Z-3.238
N7835 X85.111 Z-3.545
N7840 X83.955 Z-4.097
N7845 X83.131 Z-4.501
N7850 X80.644 Z-5.72
N7855 X79.12 Z-6.43
N7860 X77.946 Z-6.94
N7865 X76.902 Z-7.361
N7870 X75.864 Z-7.75
N7875 X74.8 Z-8.118
N7880 X73.907 Z-8.402
N7885 X72.825 Z-8.72
N7890 X71.55 Z-9.059
N7895 X70.287 Z-9.362
N7900 X69.018 Z-9.64
N7905 X67.386 Z-9.953
N7910 X65.728 Z-10.227
N7915 X64.422 Z-10.412
N7920 X63.133 Z-10.573
N7925 X61.651 Z-10.726
N7930 X60.166 Z-10.853
N7935 X58.657 Z-10.947
N7940 X57.05 Z-11.018
N7945 X55.586 Z-11.052
N7950 X54.02 Z-11.056
N7955 X52.557 Z-11.032
N7960 X51.028 Z-10.979
N7965 X49.715 Z-10.909
N7970 X48.018 Z-10.784
N7975 X46.534 Z-10.644
N7980 X45.052 Z-10.478
N7985 X43.385 Z-10.254
N7990 X41.723 Z-9.995
N7995 X40.086 Z-9.703
N8000 X38.456 Z-9.378
N8005 X36.665 Z-8.979
N8010 X35.087 Z-8.597
N8015 X32.905 Z-8.022
N8020 X30.92 Z-7.458
N8025 X28.942 Z-6.865
N8030 X26.28 Z-6.028
N8035 X21.992 Z-4.626
N8040 X19.649 Z-3.859
N8045 X18.192 Z-3.393
N8050 X17.279 Z-3.111
N8055 X16.2 Z-2.786
N8060 X15.281 Z-2.523
N8065 X14.563 Z-2.324
N8070 X13.658 Z-2.086
N8075 X12.823 Z-1.88
N8080 X12.004 Z-1.694
N8085 X11.443 Z-1.574
N8090 X10.311 Z-1.363
N8095 X9.6 Z-1.252
N8100 X9.051 Z-1.181
N8105 X8.52 Z-1.124
N8110 X8.139 Z-1.093
N8115 X7.721 Z-1.072
N8120 X7.196 Z-1.073
N8125 X6.73 Z-1.095
N8130 X6.388 Z-1.124
N8135 X6.047 Z-1.167
N8140 X5.646 Z-1.236
N8145 X5.249 Z-1.33
N8150 X4.94 Z-1.423
N8155 X4.609 Z-1.551
N8160 X4.25 Z-1.731
N8165 X3.996 Z-1.904
N8170 X3.797 Z-2.074
N8175 X3.614 Z-2.268
N8180 X3.456 Z-2.49
N8185 X3.358 Z-2.68
N8190 X3.296 Z-2.831
N8195 X3.247 Z-3.019
N8200 X3.205 Z-3.293
N8205 X3.182 Z-3.906
N8210 X3.18 Z-20.089
N8215 X2.973 Y-12.076
N8220 X2.873 Y-11.951
N8225 X2.38 Y-11.321
N8230 Z-3.959
N8235 X2.399 Z-3.223
N8240 X2.438 Z-2.974
N8245 X2.486 Z-2.786
N8250 X2.519 Z-2.698
N8255 X2.598 Z-2.527
N8260 X2.697 Z-2.365
N8265 X2.865 Z-2.149
N8270 X2.989 Z-2.025
N8275 X3.19 Z-1.854
N8280 X3.485 Z-1.662
N8285 X3.797 Z-1.508
N8290 X4.12 Z-1.386
N8295 X4.471 Z-1.286
N8300 X4.869 Z-1.2
N8305 X5.278 Z-1.135
N8310 X5.678 Z-1.093
N8315 X6.032 Z-1.069
N8320 X6.473 Z-1.057
N8325 X7.085 Z-1.073
N8330 X7.514 Z-1.108
N8335 X7.989 Z-1.162
N8340 X8.631 Z-1.254
N8345 X9.552 Z-1.419
N8350 X10.169 Z-1.547
N8355 X10.876 Z-1.708
N8360 X11.618 Z-1.892
N8365 X12.338 Z-2.082
N8370 X13.258 Z-2.34
N8375 X14.339 Z-2.66
N8380 X15.233 Z-2.938
N8385 X16.533 Z-3.356
N8390 X18.102 Z-3.879
N8395 X23.979 Z-5.89
N8400 X26.665 Z-6.778
N8405 X28.979 Z-7.51
N8410 X30.755 Z-8.043
N8415 X32.391 Z-8.51
N8420 X33.626 Z-8.845
N8425 X35.441 Z-9.31
N8430 X37.247 Z-9.731
N8435 X38.854 Z-10.072
N8440 X40.507 Z-10.385
N8445 X42.147 Z-10.66
N8450 X43.812 Z-10.899
N8455 X45.481 Z-11.104
N8460 X46.964 Z-11.254
N8465 X48.641 Z-11.388
N8470 X50.152 Z-11.479
N8475 X51.769 Z-11.544
N8480 X53.387 Z-11.574
N8485 X54.949 Z-11.569
N8490 X56.413 Z-11.54
N8495 X57.952 Z-11.475
N8500 X59.445 Z-11.387
N8505 X60.969 Z-11.263
N8510 X62.491 Z-11.108
N8515 X64.009 Z-10.923
N8520 X65.503 Z-10.705
N8525 X66.973 Z-10.46
N8530 X68.269 Z-10.217
N8535 X69.727 Z-9.909
N8540 X71.029 Z-9.602
N8545 X72.304 Z-9.269
N8550 X73.552 Z-8.909
N8555 X74.607 Z-8.574
N8560 X75.674 Z-8.208
N8565 X76.709 Z-7.821
N8570 X77.736 Z-7.404
N8575 X78.772 Z-6.957
N8580 X79.795 Z-6.486
N8585 X81.135 Z-5.837
N8590 X83.454 Z-4.664
N8595 X84.789 Z-3.997
N8600 X85.735 Z-3.546
N8605 X86.69 Z-3.113
N8610 X87.538 Z-2.755
N8615 X88.195 Z-2.494
N8620 X88.697 Z-2.308
N8625 X89.222 Z-2.124
N8630 X89.73 Z-1.957
N8635 X90.262 Z-1.795
N8640 X90.943 Z-1.606
N8645 X91.462 Z-1.477
N8650 X92.003 Z-1.356
N8655 X92.509 Z-1.255
N8660 X93.186 Z-1.141
N8665 X93.887 Z-1.048
N8670 X94.419 Z-0.995
N8675 X94.954 Z-0.959
N8680 X95.471 Z-0.941
N8685 X96.203 Z-0.946
N8690 X96.897 Z-0.989
N8695 X97.537 Z-1.065
N8700 X97.889 Z-1.126
N8705 X98.332 Z-1.219
N8710 X98.746 Z-1.33
N8715 X99.09 Z-1.445
N8720 X99.443 Z-1.582
N8725 X99.783 Z-1.746
N8730 X100.066 Z-1.913
N8735 X100.369 Z-2.133
N8740 X100.909 Z-2.596
N8745 X101.16 Z-2.835
N8750 X101.329 Z-3.025
N8755 X101.463 Z-3.211
N8760 X101.572 Z-3.403
N8765 X101.653 Z-3.598
N8770 X101.705 Z-3.783
N8775 X101.74 Z-4.025
N8780 X101.744 Z-20.089
N8785 X101.887 Y-11.248
N8790 X102.03 Y-11.176
N8795 X102.613 Y-10.908
N8800 X102.76 Y-10.844
N8805 X103.352 Y-10.6
N8810 X103.502 Y-10.543
N8815 X103.953 Y-10.376
N8820 X104.104 Y-10.321
N8825 X104.099 Z-3.615
N8830 X104.068 Z-3.438
N8835 X104.009 Z-3.262
N8840 X103.909 Z-3.067
N8845 X103.764 Z-2.852
N8850 X103.572 Z-2.615
N8855 X103.451 Z-2.472
N8860 X103.291 Z-2.301
N8865 X103.064 Z-2.104
N8870 X102.815 Z-1.933
N8875 X102.418 Z-1.715
N8880 X102.073 Z-1.561
N8885 X101.625 Z-1.401
N8890 X101.095 Z-1.244
N8895 X100.585 Z-1.122
N8900 X99.994 Z-1.01
N8905 X99.333 Z-0.916
N8910 X98.596 Z-0.846
N8915 X97.776 Z-0.807
N8920 X97.02 Z-0.805
N8925 X96.45 Z-0.823
N8930 X95.928 Z-0.853
N8935 X95.414 Z-0.896
N8940 X94.863 Z-0.955
N8945 X94.352 Z-1.022
N8950 X93.55 Z-1.151
N8955 X92.604 Z-1.338
N8960 X91.729 Z-1.547
N8965 X91.12 Z-1.711
N8970 X90.514 Z-1.89
N8975 X89.985 Z-2.059
N8980 X89.479 Z-2.232
N8985 X88.815 Z-2.475
N8990 X88.157 Z-2.734
N8995 X87.408 Z-3.048
N9000 X86.51 Z-3.451
N9005 X85.834 Z-3.771
N9010 X84.84 Z-4.26
N9015 X83.516 Z-4.942
N9020 X81.208 Z-6.136
N9025 X79.89 Z-6.787
N9030 X78.713 Z-7.337
N9035 X77.681 Z-7.784
N9040 X76.675 Z-8.196
N9045 X75.621 Z-8.593
N9050 X74.757 Z-8.895
N9055 X73.685 Z-9.243
N9060 X72.439 Z-9.611
N9065 X71.165 Z-9.952
N9070 X69.904 Z-10.261
N9075 X68.468 Z-10.578
N9080 X67.024 Z-10.859
N9085 X65.726 Z-11.086
N9090 X64.253 Z-11.312
N9095 X62.756 Z-11.509
N9100 X61.275 Z-11.675
N9105 X59.6 Z-11.826
N9110 X58.093 Z-11.929
N9115 X56.568 Z-12.006
N9120 X55.136 Z-12.048
N9125 X53.771 Z-12.064
N9130 X52.181 Z-12.051
N9135 X50.823 Z-12.015
N9140 X49.111 Z-11.937
N9145 X47.814 Z-11.852
N9150 X46.139 Z-11.708
N9155 X44.466 Z-11.528
N9160 X42.968 Z-11.337
N9165 X41.305 Z-11.085
N9170 X39.648 Z-10.797
N9175 X38.017 Z-10.476
N9180 X36.225 Z-10.082
N9185 X34.795 Z-9.739
N9190 X32.815 Z-9.223
N9195 X31.195 Z-8.77
N9200 X29.582 Z-8.294
N9205 X27.592 Z-7.673
N9210 X25.466 Z-6.979
N9215 X22.7 Z-6.03
N9220 X18.18 Z-4.421
N9225 X16.596 Z-3.858
N9230 X15.531 Z-3.487
N9235 X14.646 Z-3.183
N9240 X13.432 Z-2.779
N9245 X12.34 Z-2.432
N9250 X11.462 Z-2.167
N9255 X10.535 Z-1.902
N9260 X9.861 Z-1.724
N9265 X9.343 Z-1.594
N9270 X8.41 Z-1.386
N9275 X7.659 Z-1.244
N9280 X6.903 Z-1.131
N9285 X6.333 Z-1.074
N9290 X5.903 Z-1.052
N9295 X5.384 Z-1.053
N9300 X5.091 Z-1.066
N9305 X4.661 Z-1.1
N9310 X4.173 Z-1.167
N9315 X3.794 Z-1.242
N9320 X3.44 Z-1.337
N9325 X3.135 Z-1.442
N9330 X2.82 Z-1.585
N9335 X2.522 Z-1.765
N9340 X2.296 Z-1.945
N9345 X2.182 Z-2.054
N9350 X2.012 Z-2.262
N9355 X1.912 Z-2.414
N9360 X1.791 Z-2.669
N9365 X1.76 Z-2.758
N9370 X1.712 Z-2.972
N9375 X1.679 Z-3.206
N9380 X1.667 Z-3.894
N9385 Z-20.089
N9390 X1.501 Y-10.075
N9395 X1.421 Y-9.95
N9400 X1.262 Y-9.7
N9405 X1.183 Y-9.575
N9410 X1.106 Y-9.448
N9415 X1.03 Y-9.321
N9420 Z-3.668
N9425 X1.035 Z-3.266
N9430 X1.049 Z-3.053
N9435 X1.111 Z-2.74
N9440 X1.147 Z-2.633
N9445 X1.203 Z-2.503
N9450 X1.315 Z-2.296
N9455 X1.425 Z-2.145
N9460 X1.598 Z-1.95
N9465 X1.731 Z-1.834
N9470 X1.946 Z-1.675
N9475 X2.251 Z-1.505
N9480 X2.581 Z-1.37
N9485 X2.837 Z-1.29
N9490 X3.088 Z-1.227
N9495 X3.361 Z-1.172
N9500 X3.53 Z-1.144
N9505 X3.89 Z-1.097
N9510 X4.232 Z-1.066
N9515 X4.536 Z-1.05
N9520 X5.089 Z-1.048
N9525 X5.471 Z-1.067
N9530 X5.852 Z-1.099
N9535 X6.325 Z-1.162
N9540 X7.078 Z-1.294
N9545 X7.871 Z-1.466
N9550 X8.475 Z-1.615
N9555 X9.175 Z-1.803
N9560 X9.909 Z-2.017
N9565 X10.785 Z-2.287
N9570 X11.656 Z-2.57
N9575 X12.705 Z-2.925
N9580 X13.931 Z-3.357
N9585 X15.512 Z-3.93
N9590 X20.942 Z-5.941
N9595 X23.75 Z-6.946
N9600 X26.084 Z-7.74
N9605 X27.665 Z-8.256
N9610 X29.453 Z-8.814
N9615 X31.067 Z-9.29
N9620 X32.871 Z-9.792
N9625 X34.5 Z-10.213
N9630 X35.931 Z-10.558
N9635 X37.535 Z-10.911
N9640 X39.166 Z-11.237
N9645 X40.615 Z-11.495
N9650 X42.277 Z-11.753
N9655 X43.944 Z-11.974
N9660 X45.597 Z-12.155
N9665 X47.101 Z-12.285
N9670 X48.589 Z-12.389
N9675 X50.017 Z-12.459
N9680 X51.27 Z-12.499
N9685 X52.888 Z-12.519
N9690 X54.351 Z-12.508
N9695 X56.009 Z-12.464
N9700 X57.427 Z-12.398
N9705 X59.102 Z-12.286
N9710 X60.626 Z-12.154
N9715 X62.336 Z-11.966
N9720 X63.813 Z-11.77
N9725 X65.287 Z-11.545
N9730 X66.774 Z-11.286
N9735 X68.236 Z-10.997
N9740 X69.71 Z-10.671
N9745 X71.176 Z-10.309
N9750 X72.226 Z-10.025
N9755 X73.49 Z-9.65
N9760 X74.562 Z-9.305
N9765 X75.786 Z-8.871
N9770 X76.66 Z-8.538
N9775 X77.702 Z-8.109
N9780 X78.889 Z-7.582
N9785 X80.045 Z-7.034
N9790 X81.339 Z-6.381
N9795 X83.807 Z-5.079
N9800 X84.923 Z-4.492
N9805 X85.912 Z-3.992
N9810 X86.41 Z-3.748
N9815 X87.067 Z-3.437
N9820 X88.026 Z-3.008
N9825 X88.857 Z-2.664
N9830 X89.517 Z-2.411
N9835 X90.202 Z-2.166
N9840 X90.872 Z-1.945
N9845 X91.549 Z-1.741
N9850 X92.065 Z-1.598
N9855 X92.583 Z-1.464
N9860 X93.123 Z-1.337
N9865 X93.645 Z-1.224
N9870 X94.339 Z-1.091
N9875 X94.886 Z-0.999
N9880 X95.586 Z-0.897
N9885 X96.182 Z-0.825
N9890 X96.819 Z-0.762
N9895 X97.504 Z-0.71
N9900 X98.118 Z-0.678
N9905 X98.821 Z-0.659
N9910 X99.747 Z-0.66
N9915 X100.671 Z-0.692
N9920 X101.339 Z-0.736
N9925 X102.081 Z-0.803
N9930 X102.678 Z-0.875
N9935 X103.576 Z-1.009
N9940 X104.495 Z-1.184
N9945 X105.403 Z-1.404
N9950 X105.769 Z-1.513
N9955 X106.203 Z-1.655
N9960 X106.624 Z-1.819
N9965 X106.963 Z-1.985
N9970 X107.31 Z-2.2
N9975 X107.515 Z-2.368
N9980 X107.668 Z-2.541
N9985 X107.803 Z-2.76
N9990 X107.895 Z-2.975
N9995 X107.939 Z-3.17
N10000 X107.949 Z-3.325
N10005 X107.951 Z-20.089
N10010 G18 G2 X108.586 I0.317 K0.
N10015 G1 Z5.
N10020 X197.162 Y-15.955
N10025 Z-5.778
N10030 Z-20.089
N10035 Y-15.947 Z-20.16
N10040 Y-15.924 Z-20.227
N10045 X197.164 Y-15.886 Z-20.287
N10050 X197.165 Y-15.836 Z-20.337
N10055 X197.167 Y-15.775 Z-20.375
N10060 X197.169 Y-15.708 Z-20.399
N10065 X197.171 Y-15.638 Z-20.407
N10070 X197.173 Y-15.567 Z-20.399
N10075 X197.175 Y-15.5 Z-20.375
N10080 X197.176 Y-15.44 Z-20.337
N10085 X197.178 Y-15.39 Z-20.287
N10090 X197.179 Y-15.352 Z-20.227
N10095 X197.18 Y-15.328 Z-20.16
N10100 Y-15.32 Z-20.089
N10105 Z-10.353
N10110 X197.23 Z-10.137
N10115 X197.259 Z-10.086
N10120 X197.493 Z-9.88
N10125 X197.605 Z-9.808
N10130 X197.856 Z-9.687
N10135 X198.093 Z-9.579
N10140 X198.786 Z-9.353
N10145 X199.108 Z-9.27
N10150 X200.081 Z-9.069
N10155 X201.175 Z-8.887
N10160 X201.6 Z-8.828
N10165 X202.807 Z-8.687
N10170 Z-6.69
N10175 Y-15.313 Z-6.641
N10180 Y-15.29 Z-6.597
N10185 Y-15.255 Z-6.562
N10190 Y-15.211 Z-6.539
N10195 Y-15.162 Z-6.532
N10200 Y-14.479
N10205 Y-14.43 Z-6.539
N10210 Y-14.386 Z-6.562
N10215 Y-14.351 Z-6.597
N10220 Y-14.328 Z-6.641
N10225 Y-14.321 Z-6.69
N10230 X200.588 Z-6.77
N10235 X198.549 Z-6.86
N10240 X196.778 Z-6.958
N10245 X195.038 Z-7.074
N10250 X193.579 Z-7.193
N10255 X192.495 Z-7.292
N10260 X190.927 Z-7.462
N10265 X190.16 Z-7.558
N10270 X189.063 Z-7.711
N10275 X188.026 Z-7.877
N10280 X187.5 Z-7.973
N10285 X186.6 Z-8.153
N10290 X186.098 Z-8.268
N10295 X185.56 Z-8.406
N10300 X185.047 Z-8.56
N10305 X184.694 Z-8.678
N10310 X184.22 Z-8.861
N10315 X184.061 Z-8.931
N10320 X183.906 Z-9.006
N10325 X183.659 Z-9.139
N10330 X183.515 Z-9.24
N10335 X183.28 Z-9.417
N10340 X183.174 Z-9.54
N10345 X183.072 Z-9.7
N10350 X183.031 Z-9.862
N10355 X183.022 Z-9.915
N10360 Z-20.089
N10365 Y-14.328 Z-20.138
N10370 X183.021 Y-14.351 Z-20.182
N10375 X183.019 Y-14.386 Z-20.217
N10380 X183.017 Y-14.43 Z-20.24
N10385 X183.015 Y-14.479 Z-20.248
N10390 X183.013 Y-14.528 Z-20.24
N10395 X183.011 Y-14.572 Z-20.217
N10400 X183.009 Y-14.607 Z-20.182
N10405 X183.008 Y-14.63 Z-20.138
N10410 Y-14.638 Z-20.089
N10415 X183. Y-14.637 Z-20.04
N10420 X182.978 Y-14.635 Z-19.996
N10425 X182.943 Y-14.632 Z-19.961
N10430 X182.898 Y-14.628 Z-19.938
N10435 X182.85 Y-14.624 Z-19.93
N10440 X171.947 Y-13.652
N10445 X171.898 Y-13.648 Z-19.938
N10450 X171.854 Y-13.644 Z-19.961
N10455 X171.819 Y-13.641 Z-19.996
N10460 X171.797 Y-13.639 Z-20.04
N10465 X171.789 Y-13.638 Z-20.089
N10470 Y-13.63 Z-20.138
N10475 X171.79 Y-13.608 Z-20.182
N10480 X171.791 Y-13.573 Z-20.217
N10485 X171.793 Y-13.528 Z-20.24
N10490 X171.794 Y-13.479 Z-20.248
N10495 X171.796 Y-13.43 Z-20.24
N10500 X171.797 Y-13.386 Z-20.217
N10505 X171.798 Y-13.351 Z-20.182
N10510 X171.799 Y-13.328 Z-20.138
N10515 Y-13.321 Z-20.089
N10520 Z-9.49
N10525 X171.808 Z-9.42
N10530 X171.848 Z-9.247
N10535 X171.957 Z-9.08
N10540 X172.033 Z-8.98
N10545 X172.25 Z-8.791
N10550 X172.43 Z-8.67
N10555 X172.733 Z-8.498
N10560 X173.164 Z-8.304
N10565 X173.687 Z-8.107
N10570 X174.237 Z-7.931
N10575 X174.753 Z-7.785
N10580 X175.435 Z-7.616
N10585 X176.186 Z-7.45
N10590 X176.794 Z-7.328
N10595 X177.613 Z-7.181
N10600 X178.498 Z-7.035
N10605 X179.514 Z-6.884
N10610 X180.954 Z-6.698
N10615 X182.439 Z-6.532
N10620 X183.752 Z-6.404
N10625 X184.665 Z-6.323
N10630 X186.112 Z-6.207
N10635 X187.813 Z-6.089
N10640 X189.479 Z-5.991
N10645 X191.381 Z-5.895
N10650 X193.465 Z-5.811
N10655 X195.588 Z-5.741
N10660 X199.002 Z-5.661
N10665 X202.807 Z-5.602
N10670 Z-4.834
N10675 Y-13.313 Z-4.785
N10680 Y-13.29 Z-4.741
N10685 Y-13.255 Z-4.706
N10690 Y-13.211 Z-4.683
N10695 Y-13.162 Z-4.676
N10700 Y-12.48
N10705 Y-12.431 Z-4.683
N10710 Y-12.386 Z-4.706
N10715 Y-12.351 Z-4.741
N10720 Y-12.329 Z-4.785
N10725 Y-12.321 Z-4.834
N10730 X196.954 Z-4.849
N10735 X192.369 Z-4.891
N10740 X188.76 Z-4.955
N10745 X185.642 Z-5.035
N10750 X183.536 Z-5.106
N10755 X180.974 Z-5.212
N10760 X179.008 Z-5.313
N10765 X177.004 Z-5.432
N10770 X175.345 Z-5.548
N10775 X174.05 Z-5.649
N10780 X172.479 Z-5.784
N10785 X170.91 Z-5.94
N10790 X169.666 Z-6.077
N10795 X168.433 Z-6.226
N10800 X167.544 Z-6.347
N10805 X166.457 Z-6.504
N10810 X165.834 Z-6.604
N10815 X164.743 Z-6.795
N10820 X164.198 Z-6.898
N10825 X163.507 Z-7.046
N10830 X162.539 Z-7.273
N10835 X161.949 Z-7.435
N10840 X161.451 Z-7.595
N10845 X161.277 Z-7.659
N10850 X160.942 Z-7.79
N10855 X160.762 Z-7.865
N10860 X160.436 Z-8.028
N10865 X160.287 Z-8.12
N10870 X160.145 Z-8.22
N10875 X160.013 Z-8.336
N10880 X159.898 Z-8.481
N10885 X159.844 Z-8.572
N10890 X159.827 Z-8.62
N10895 X159.797 Z-8.791
N10900 Z-20.089
N10905 X159.789 Z-20.138
N10910 X159.767 Z-20.182
N10915 X159.732 Z-20.217
N10920 X159.687 Z-20.24
N10925 X159.638 Z-20.248
N10930 X143.778
N10935 G17 G2 X143.302 Y-11.845 I0. J0.476
N10940 G1 Y-11.797
N10945 G2 X143.778 Y-11.321 I0.476 J0.
N10950 G1 X143.827 Z-20.24
N10955 X143.872 Z-20.217
N10960 X143.907 Z-20.182
N10965 X143.929 Z-20.138
N10970 X143.937 Z-20.089
N10975 Z-7.41
N10980 X143.96 Z-7.24
N10985 X144.004 Z-7.127
N10990 X144.11 Z-6.956
N10995 X144.334 Z-6.741
N11000 X144.527 Z-6.618
N11005 X144.765 Z-6.487
N11010 X145.172 Z-6.316
N11015 X145.313 Z-6.264
N11020 X145.681 Z-6.144
N11025 X146.242 Z-5.989
N11030 X146.925 Z-5.842
N11035 X147.536 Z-5.732
N11040 X148.339 Z-5.608
N11045 X149.078 Z-5.515
N11050 X150.118 Z-5.401
N11055 X151.074 Z-5.315
N11060 X152.511 Z-5.204
N11065 X154.182 Z-5.101
N11070 X155.37 Z-5.035
N11075 X158.122 Z-4.904
N11080 X159.983 Z-4.825
N11085 X164.896 Z-4.616
N11090 X168.167 Z-4.491
N11095 X170.992 Z-4.397
N11100 X175.082 Z-4.291
N11105 X179.179 Z-4.22
N11110 X183.276 Z-4.179
N11115 X187.53 Z-4.166
N11120 X192.917 Z-4.179
N11125 X202.964 Z-4.252
N11130 Z5.
N11135 X218.937 Y-15.32
N11140 Z-1.476
N11145 Z-7.993
N11150 X219.419 Z-7.988
N11155 X223.809 Z-7.962
N11160 X235.71 Z-7.959
N11165 X251.152 Z-7.955
N11170 X261.005 Z-7.925
N11175 Z-6.436
N11180 Y-15.313 Z-6.387
N11185 Y-15.29 Z-6.343
N11190 Y-15.255 Z-6.307
N11195 Y-15.211 Z-6.285
N11200 Y-15.162 Z-6.277
N11205 Y-14.479
N11210 Y-14.43 Z-6.285
N11215 Y-14.386 Z-6.307
N11220 Y-14.351 Z-6.343
N11225 Y-14.328 Z-6.387
N11230 Y-14.321 Z-6.436
N11235 X251.445 Z-6.474
N11240 X240.693 Z-6.488
N11245 X219.915 Z-6.475
N11250 X218.936 Z-6.477
N11255 Z-5.545
N11260 Y-14.313 Z-5.496
N11265 Y-14.29 Z-5.452
N11270 Y-14.255 Z-5.417
N11275 Y-14.211 Z-5.394
N11280 Y-14.162 Z-5.387
N11285 Y-13.479
N11290 Y-13.43 Z-5.394
N11295 Y-13.386 Z-5.417
N11300 Y-13.351 Z-5.452
N11305 Y-13.328 Z-5.496
N11310 Y-13.321 Z-5.545
N11315 X234.86 Z-5.573
N11320 X245.299
N11325 X252.908 Z-5.556
N11330 X261.005 Z-5.518
N11335 Z-4.862
N11340 Y-13.313 Z-4.813
N11345 Y-13.29 Z-4.769
N11350 Y-13.255 Z-4.734
N11355 Y-13.211 Z-4.711
N11360 Y-13.162 Z-4.703
N11365 Y-12.48
N11370 Y-12.431 Z-4.711
N11375 Y-12.386 Z-4.734
N11380 Y-12.351 Z-4.769
N11385 Y-12.329 Z-4.813
N11390 Y-12.321 Z-4.862
N11395 X252.81 Z-4.901
N11400 X245.006 Z-4.919
N11405 X233.825 Z-4.917
N11410 X218.937 Z-4.876
N11415 Z-4.366
N11420 X218.936 Y-12.313 Z-4.317
N11425 X218.933 Y-12.291 Z-4.273
N11430 X218.928 Y-12.256 Z-4.238
N11435 X218.923 Y-12.212 Z-4.215
N11440 X218.917 Y-12.163 Z-4.207
N11445 X218.83 Y-11.478
N11450 X218.824 Y-11.43 Z-4.215
N11455 X218.818 Y-11.386 Z-4.238
N11460 X218.814 Y-11.351 Z-4.273
N11465 X218.811 Y-11.329 Z-4.317
N11470 X218.81 Y-11.321 Z-4.366
N11475 X228.715 Z-4.409
N11480 X239.641 Z-4.429
N11485 X251.082 Z-4.414
N11490 X261.131 Z-4.371
N11495 Z5.
N11500 X277.134 Y-15.32
N11505 Z-1.476
N11510 Z-8.749
N11515 X277.142 Z-8.751
N11520 X277.992 Z-8.989
N11525 X278.549 Z-9.202
N11530 X278.829 Z-9.327
N11535 X279.197 Z-9.532
N11540 X279.427 Z-9.701
N11545 X279.57 Z-9.813
N11550 X279.758 Z-10.017
N11555 X279.834 Z-10.147
N11560 X279.919 Z-10.331
N11565 X279.949 Z-10.559
N11570 X279.953 Z-20.089
N11575 G18 G2 X280.588 I0.318 K0.
N11580 G1 Z5.
N11585 X277.134 Y-14.321
N11590 Z-1.476
N11595 Z-6.714
N11600 X277.75 Z-6.767
N11605 X278.701 Z-6.869
N11610 X279.506 Z-6.972
N11615 X280.403 Z-7.114
N11620 X281.247 Z-7.276
N11625 X281.897 Z-7.435
N11630 X282.172 Z-7.506
N11635 X282.811 Z-7.705
N11640 X282.99 Z-7.769
N11645 X283.521 Z-7.983
N11650 X283.734 Z-8.081
N11655 X284.215 Z-8.338
N11660 X284.512 Z-8.531
N11665 X284.661 Z-8.644
N11670 X284.81 Z-8.764
N11675 X284.949 Z-8.882
N11680 X285.167 Z-9.103
N11685 X285.313 Z-9.291
N11690 X285.413 Z-9.435
N11695 X285.507 Z-9.588
N11700 X285.635 Z-9.854
N11705 X285.678 Z-9.972
N11710 X285.742 Z-10.191
N11715 X285.773 Z-10.373
N11720 X285.785 Z-10.561
N11725 X285.788 Z-20.089
N11730 X285.796 Z-20.138
N11735 X285.818 Z-20.182
N11740 X285.853 Z-20.217
N11745 X285.897 Z-20.24
N11750 X285.946 Z-20.248
N11755 X288.822
N11760 G17 G3 X289.298 Y-13.844 I0. J0.476
N11765 G1 Y-13.797
N11770 G3 X288.822 Y-13.321 I-0.476 J0.
N11775 G1 X288.773 Z-20.24
N11780 X288.729 Z-20.217
N11785 X288.694 Z-20.182
N11790 X288.671 Z-20.138
N11795 X288.663 Z-20.089
N11800 X288.658 Z-10.627
N11805 X288.635 Z-10.219
N11810 X288.544 Z-9.756
N11815 X288.468 Z-9.518
N11820 X288.407 Z-9.345
N11825 X288.339 Z-9.179
N11830 X288.156 Z-8.829
N11835 X287.971 Z-8.559
N11840 X287.857 Z-8.411
N11845 X287.642 Z-8.16
N11850 X287.475 Z-8.001
N11855 X287.335 Z-7.88
N11860 X287.186 Z-7.759
N11865 X287.039 Z-7.645
N11870 X286.764 Z-7.463
N11875 X286.297 Z-7.197
N11880 X285.705 Z-6.932
N11885 X285.348 Z-6.803
N11890 X284.941 Z-6.664
N11895 X284.16 Z-6.449
N11900 X283.507 Z-6.306
N11905 X282.757 Z-6.166
N11910 X281.831 Z-6.028
N11915 X281.072 Z-5.935
N11920 X280.331 Z-5.859
N11925 X279.284 Z-5.77
N11930 X278.425 Z-5.712
N11935 X277.468 Z-5.659
N11940 X277.134 Z-5.642
N11945 Z-4.915
N11950 Y-13.313 Z-4.866
N11955 Y-13.29 Z-4.822
N11960 Y-13.255 Z-4.786
N11965 Y-13.211 Z-4.764
N11970 Y-13.162 Z-4.756
N11975 Y-12.48
N11980 Y-12.431 Z-4.764
N11985 Y-12.386 Z-4.786
N11990 Y-12.351 Z-4.822
N11995 Y-12.329 Z-4.866
N12000 Y-12.321 Z-4.915
N12005 X277.494 Z-4.926
N12010 X278.923 Z-4.983
N12015 X280.155 Z-5.045
N12020 X281.3 Z-5.122
N12025 X282.233 Z-5.202
N12030 X282.993 Z-5.279
N12035 X283.752 Z-5.374
N12040 X284.593 Z-5.5
N12045 X285.24 Z-5.621
N12050 X285.698 Z-5.719
N12055 X286.17 Z-5.836
N12060 X286.531 Z-5.937
N12065 X287.081 Z-6.118
N12070 X287.435 Z-6.254
N12075 X287.696 Z-6.369
N12080 X287.952 Z-6.495
N12085 X288.12 Z-6.584
N12090 X288.364 Z-6.726
N12095 X288.636 Z-6.91
N12100 X288.894 Z-7.118
N12105 X289.071 Z-7.272
N12110 X289.243 Z-7.442
N12115 X289.604 Z-7.883
N12120 X289.835 Z-8.262
N12125 X289.918 Z-8.414
N12130 X290.032 Z-8.667
N12135 X290.128 Z-8.908
N12140 X290.251 Z-9.293
N12145 X290.358 Z-9.775
N12150 X290.42 Z-10.29
N12155 X290.436 Z-10.722
N12160 X290.438 Z-20.089
N12165 X290.601 Y-12.207
N12170 X290.761 Y-12.089
N12175 X290.92 Y-11.97
N12180 X291.075 Y-11.845
N12185 X291.229 Y-11.72
N12190 X291.379 Y-11.59
N12195 X291.527 Y-11.457
N12200 X291.672 Y-11.321
N12205 X291.67 Z-10.745
N12210 X291.659 Z-10.353
N12215 X291.617 Z-9.848
N12220 X291.547 Z-9.368
N12225 X291.448 Z-8.903
N12230 X291.315 Z-8.455
N12235 X291.159 Z-8.04
N12240 X290.976 Z-7.674
N12245 X290.862 Z-7.471
N12250 X290.676 Z-7.207
N12255 X290.489 Z-6.967
N12260 X290.246 Z-6.717
N12265 X290.037 Z-6.53
N12270 X289.736 Z-6.304
N12275 X289.582 Z-6.202
N12280 X289.244 Z-6.002
N12285 X288.828 Z-5.798
N12290 X288.388 Z-5.619
N12295 X288.029 Z-5.494
N12300 X287.584 Z-5.358
N12305 X286.901 Z-5.187
N12310 X286.129 Z-5.034
N12315 X285.611 Z-4.948
N12320 X284.854 Z-4.84
N12325 X284.095 Z-4.754
N12330 X283.238 Z-4.674
N12335 X282.476 Z-4.615
N12340 X281.426 Z-4.548
N12345 X280.288 Z-4.492
N12350 X278.551 Z-4.428
N12355 X277.012 Z-4.389
N12360 Z5.
N12365 X293.211 Y-10.321
N12370 Z-3.88
N12375 Z-20.089
N12380 G18 G3 X292.576 I-0.318 K0.
N12385 G1 X292.574 Z-10.802
N12390 X292.568 Z-10.44
N12395 X292.543 Z-9.983
N12400 X292.495 Z-9.479
N12405 X292.429 Z-9.017
N12410 X292.344 Z-8.586
N12415 X292.229 Z-8.135
N12420 X292.068 Z-7.664
N12425 X291.856 Z-7.21
N12430 X291.641 Z-6.871
N12435 X291.43 Z-6.599
N12440 X291.312 Z-6.472
N12445 X291.181 Z-6.338
N12450 X290.97 Z-6.149
N12455 X290.593 Z-5.868
N12460 X290.167 Z-5.614
N12465 X289.784 Z-5.425
N12470 X289.411 Z-5.27
N12475 X289.234 Z-5.204
N12480 X288.872 Z-5.082
N12485 X288.414 Z-4.948
N12490 X288.138 Z-4.876
N12495 X287.556 Z-4.743
N12500 X287.017 Z-4.64
N12505 X286.64 Z-4.576
N12510 X286.073 Z-4.494
N12515 X285.503 Z-4.424
N12520 X284.743 Z-4.348
N12525 X283.981 Z-4.284
N12530 X282.95 Z-4.214
N12535 X281.635 Z-4.144
N12540 X279.539 Z-4.066
N12545 X277.003 Z-4.009
N12550 X273.979 Z-3.974
N12555 X269.882 Z-3.962
N12560 X262.37 Z-3.991
N12565 X252.127 Z-4.034
N12570 X241.69 Z-4.05
N12575 X231.337 Z-4.034
N12580 X221.192 Z-3.987
N12585 X213.095 Z-3.923
N12590 X205.291 Z-3.832
N12595 X196.414 Z-3.696
N12600 X183.733 Z-3.484
N12605 X177.099 Z-3.402
N12610 X170.71 Z-3.357
N12615 X158.37 Z-3.312
N12620 X152.419 Z-3.287
N12625 X148.81 Z-3.304
N12630 X146.42 Z-3.342
N12635 X144.811 Z-3.387
N12640 X142.901 Z-3.467
N12645 X141.493 Z-3.555
N12650 X140.769 Z-3.609
N12655 X139.59 Z-3.718
N12660 X138.983 Z-3.786
N12665 X138.031 Z-3.913
N12670 X137.394 Z-4.011
N12675 X137.037 Z-4.074
N12680 X136.513 Z-4.183
N12685 X135.825 Z-4.343
N12690 X135.473 Z-4.435
N12695 X135.031 Z-4.574
N12700 X134.642 Z-4.722
N12705 X134.464 Z-4.795
N12710 X134.134 Z-4.949
N12715 X133.793 Z-5.139
N12720 X133.681 Z-5.211
N12725 X133.418 Z-5.406
N12730 X133.267 Z-5.562
N12735 X133.201 Z-5.64
N12740 X133.135 Z-5.738
N12745 X133.039 Z-5.904
N12750 X132.965 Z-6.095
N12755 X132.928 Z-6.327
N12760 Z-20.089
N12765 Y-10.329 Z-20.138
N12770 X132.927 Y-10.351 Z-20.182
N12775 X132.925 Y-10.386 Z-20.217
N12780 X132.924 Y-10.431 Z-20.24
N12785 X132.922 Y-10.48 Z-20.248
N12790 X132.92 Y-10.529 Z-20.24
N12795 X132.918 Y-10.573 Z-20.217
N12800 X132.916 Y-10.608 Z-20.182
N12805 Y-10.631 Z-20.138
N12810 X132.915 Y-10.638 Z-20.089
N12815 X132.908 Y-10.637 Z-20.04
N12820 X132.885 Y-10.634 Z-19.996
N12825 X132.85 Y-10.63 Z-19.961
N12830 X132.806 Y-10.624 Z-19.938
N12835 X132.758 Y-10.618 Z-19.93
N12840 X125.44 Y-9.659
N12845 X125.391 Y-9.653 Z-19.938
N12850 X125.347 Y-9.647 Z-19.961
N12855 X125.312 Y-9.643 Z-19.996
N12860 X125.29 Y-9.64 Z-20.04
N12865 X125.282 Y-9.639 Z-20.089
N12870 Y-9.631 Z-20.138
N12875 X125.283 Y-9.608 Z-20.182
N12880 X125.284 Y-9.573 Z-20.217
N12885 X125.285 Y-9.529 Z-20.24
N12890 X125.286 Y-9.48 Z-20.248
N12895 X125.287 Y-9.431 Z-20.24
N12900 X125.288 Y-9.387 Z-20.217
N12905 X125.289 Y-9.352 Z-20.182
N12910 Y-9.329 Z-20.138
N12915 X125.29 Y-9.321 Z-20.089
N12920 Z-5.523
N12925 X125.326 Z-5.258
N12930 X125.407 Z-5.024
N12935 X125.507 Z-4.838
N12940 X125.624 Z-4.686
N12945 X125.838 Z-4.452
N12950 X126.063 Z-4.261
N12955 X126.362 Z-4.058
N12960 X126.725 Z-3.86
N12965 X127.176 Z-3.662
N12970 X127.68 Z-3.481
N12975 X128.232 Z-3.308
N12980 X128.75 Z-3.174
N12985 X129.379 Z-3.03
N12990 X130.082 Z-2.895
N12995 X131.11 Z-2.731
N13000 X131.736 Z-2.648
N13005 X133.13 Z-2.499
N13010 X134.024 Z-2.424
N13015 X135.391 Z-2.328
N13020 X137.254 Z-2.237
N13025 X138.59 Z-2.192
N13030 X140.441 Z-2.148
N13035 X142.49 Z-2.122
N13040 X145.416 Z-2.116
N13045 X148.684 Z-2.142
N13050 X153.318 Z-2.216
N13055 X164.17 Z-2.456
N13060 X174.486 Z-2.704
N13065 X186.485 Z-3.035
N13070 X194.679 Z-3.259
N13075 X201.02 Z-3.406
N13080 X207.263 Z-3.521
N13085 X213.994 Z-3.615
N13090 X221.993 Z-3.688
N13095 X231.065 Z-3.738
N13100 X240.43 Z-3.759
N13105 X249.848 Z-3.753
N13110 X268.968 Z-3.689
N13115 X273.748 Z-3.7
N13120 X277.162 Z-3.736
N13125 X279.893 Z-3.794
N13130 X281.551 Z-3.849
N13135 X282.811 Z-3.907
N13140 X283.862 Z-3.969
N13145 X284.911 Z-4.045
N13150 X285.844 Z-4.126
N13155 X286.394 Z-4.184
N13160 X286.963 Z-4.255
N13165 X287.53 Z-4.339
N13170 X288.282 Z-4.478
N13175 X288.829 Z-4.601
N13180 X289.301 Z-4.726
N13185 X289.824 Z-4.889
N13190 X290.38 Z-5.1
N13195 X290.682 Z-5.238
N13200 X291.048 Z-5.432
N13205 X291.426 Z-5.673
N13210 X291.752 Z-5.928
N13215 X292.015 Z-6.177
N13220 X292.26 Z-6.459
N13225 X292.451 Z-6.73
N13230 X292.631 Z-7.044
N13235 X292.772 Z-7.363
N13240 X292.902 Z-7.765
N13245 X292.945 Z-7.93
N13250 X293.014 Z-8.24
N13255 X293.086 Z-8.64
N13260 X293.132 Z-8.952
N13265 X293.19 Z-9.468
N13270 X293.226 Z-9.991
N13275 X293.247 Z-10.535
N13280 X293.25 Z-10.927
N13285 X293.251 Z-20.089
N13290 G2 X293.568 I0.159 K0.
N13295 G1 Z-5.191
N13300 X293.561 Y-9.318 Z-5.142
N13305 X293.541 Y-9.308 Z-5.098
N13310 X293.509 Y-9.293 Z-5.063
N13315 X293.47 Y-9.274 Z-5.04
N13320 X293.425 Y-9.252 Z-5.032
N13325 X291.642 Y-8.39
N13330 X291.598 Y-8.369 Z-5.04
N13335 X291.558 Y-8.35 Z-5.063
N13340 X291.527 Y-8.335 Z-5.098
N13345 X291.506 Y-8.325 Z-5.142
N13350 X291.499 Y-8.321 Z-5.191
N13355 X291.24 Z-5.058
N13360 X291.067 Z-4.977
N13365 X290.893 Z-4.902
N13370 X290.453 Z-4.735
N13375 X290.176 Z-4.644
N13380 X289.994 Z-4.588
N13385 X289.441 Z-4.44
N13390 X289.069 Z-4.354
N13395 X288.695 Z-4.277
N13400 X288.131 Z-4.177
N13405 X287.564 Z-4.091
N13410 X286.805 Z-3.996
N13415 X286.045 Z-3.92
N13420 X285.131 Z-3.844
N13425 X284.216 Z-3.78
N13430 X283.108 Z-3.717
N13435 X281.786 Z-3.659
N13440 X280.153 Z-3.605
N13445 X277.324 Z-3.544
N13450 X273.813 Z-3.504
N13455 X269.033 Z-3.49
N13460 X258.205 Z-3.516
N13465 X245.906 Z-3.538
N13470 X235.734 Z-3.528
N13475 X225.589 Z-3.482
N13480 X217.395 Z-3.409
N13485 X210.371 Z-3.313
N13490 X205.299 Z-3.218
N13495 X199.446 Z-3.082
N13500 X194.378 Z-2.934
N13505 X188.243 Z-2.727
N13510 X169.87 Z-2.048
N13515 X161.675 Z-1.774
N13520 X154.554 Z-1.566
N13525 X149.091 Z-1.435
N13530 X144.409 Z-1.352
N13535 X140.361 Z-1.311
N13540 X136.898 Z-1.306
N13545 X134.069 Z-1.328
N13550 X131.289 Z-1.381
N13555 X128.489 Z-1.472
N13560 X125.626 Z-1.599
N13565 X122.612 Z-1.743
N13570 X120.919 Z-1.813
N13575 X118.845 Z-1.847
N13580 X117.746 Z-1.829
N13585 X116.661 Z-1.783
N13590 X115.59 Z-1.709
N13595 X114.416 Z-1.601
N13600 X112.555 Z-1.398
N13605 X109.168 Z-0.993
N13610 X107.601 Z-0.827
N13615 X106.288 Z-0.707
N13620 X105.354 Z-0.634
N13625 X104.227 Z-0.566
N13630 X102.935 Z-0.515
N13635 X101.648 Z-0.498
N13640 X100.447 Z-0.515
N13645 X99.48 Z-0.552
N13650 X98.558 Z-0.609
N13655 X97.664 Z-0.686
N13660 X96.791 Z-0.783
N13665 X96.091 Z-0.878
N13670 X95.563 Z-0.959
N13675 X94.847 Z-1.083
N13680 X94.07 Z-1.238
N13685 X93.483 Z-1.369
N13690 X92.778 Z-1.543
N13695 X92.262 Z-1.682
N13700 X91.565 Z-1.886
N13705 X90.71 Z-2.162
N13710 X90.025 Z-2.405
N13715 X89.328 Z-2.671
N13720 X88.515 Z-3.005
N13725 X87.85 Z-3.298
N13730 X87.191 Z-3.605
N13735 X86.383 Z-3.996
N13740 X85.137 Z-4.634
N13745 X83.944 Z-5.272
N13750 X81.674 Z-6.494
N13755 X80.196 Z-7.255
N13760 X79.182 Z-7.746
N13765 X78.001 Z-8.284
N13770 X76.982 Z-8.716
N13775 X75.917 Z-9.136
N13780 X74.856 Z-9.518
N13785 X73.825 Z-9.864
N13790 X72.583 Z-10.245
N13795 X71.314 Z-10.6
N13800 X70.056 Z-10.922
N13805 X68.605 Z-11.26
N13810 X66.958 Z-11.6
N13815 X65.303 Z-11.898
N13820 X63.831 Z-12.129
N13825 X62.355 Z-12.332
N13830 X60.875 Z-12.504
N13835 X59.372 Z-12.65
N13840 X57.696 Z-12.778
N13845 X56.18 Z-12.861
N13850 X54.553 Z-12.919
N13855 X53.09 Z-12.939
N13860 X51.564 Z-12.932
N13865 X50.109 Z-12.896
N13870 X48.57 Z-12.831
N13875 X46.984 Z-12.729
N13880 X45.689 Z-12.623
N13885 X44.016 Z-12.449
N13890 X42.348 Z-12.238
N13895 X40.684 Z-11.99
N13900 X39.234 Z-11.738
N13905 X37.602 Z-11.421
N13910 X35.996 Z-11.074
N13915 X34.379 Z-10.688
N13920 X32.75 Z-10.269
N13925 X31.129 Z-9.822
N13930 X29.515 Z-9.349
N13935 X27.908 Z-8.851
N13940 X26.127 Z-8.271
N13945 X24.372 Z-7.673
N13950 X22.067 Z-6.854
N13955 X19.273 Z-5.811
N13960 X14.17 Z-3.853
N13965 X12.595 Z-3.263
N13970 X11.373 Z-2.822
N13975 X10.308 Z-2.45
N13980 X9.42 Z-2.155
N13985 X8.527 Z-1.877
N13990 X7.811 Z-1.67
N13995 X7.258 Z-1.522
N14000 X6.887 Z-1.43
N14005 X6.116 Z-1.261
N14010 X5.387 Z-1.135
N14015 X4.817 Z-1.072
N14020 X4.436 Z-1.049
N14025 X4.103 Z-1.043
N14030 X3.535 Z-1.063
N14035 X3.075 Z-1.108
N14040 X2.608 Z-1.183
N14045 X2.272 Z-1.261
N14050 X1.983 Z-1.348
N14055 X1.662 Z-1.478
N14060 X1.359 Z-1.647
N14065 X1.112 Z-1.834
N14070 X0.952 Z-1.991
N14075 X0.781 Z-2.204
N14080 X0.664 Z-2.405
N14085 X0.572 Z-2.616
N14090 X0.538 Z-2.726
N14095 X0.482 Z-3.015
N14100 X0.469 Z-3.252
N14105 X0.465 Z-20.089
N14110 X0.46 Y-8.324 Z-20.048
N14115 X0.446 Y-8.33 Z-20.01
N14120 X0.423 Y-8.341 Z-19.977
N14125 X0.4 Y-8.352 Z-19.944
N14130 X0.386 Y-8.358 Z-19.906
N14135 X0.381 Y-8.361 Z-19.864
N14140 X-0.084 Y-7.361 Z-3.127
N14145 X-0.079 Y-7.358 Z-3.086
N14150 X-0.065 Y-7.352 Z-3.047
N14155 X-0.042 Y-7.341 Z-3.014
N14160 X-0.019 Y-7.33 Z-2.982
N14165 X-0.005 Y-7.324 Z-2.943
N14170 X0. Y-7.322 Z-2.902
N14175 X0.054 Z-2.654
N14180 X0.122 Z-2.466
N14185 X0.19 Z-2.329
N14190 X0.306 Z-2.138
N14195 X0.475 Z-1.933
N14200 X0.639 Z-1.777
N14205 X0.887 Z-1.596
N14210 X1.195 Z-1.431
N14215 X1.479 Z-1.321
N14220 X1.79 Z-1.231
N14225 X2.233 Z-1.141
N14230 X2.702 Z-1.082
N14235 X3.144 Z-1.051
N14240 X3.676 Z-1.047
N14245 X3.965 Z-1.06
N14250 X4.346 Z-1.093
N14255 X4.725 Z-1.141
N14260 X5.101 Z-1.204
N14265 X5.457 Z-1.274
N14270 X5.894 Z-1.371
N14275 X6.717 Z-1.582
N14280 X7.267 Z-1.74
N14285 X7.888 Z-1.931
N14290 X8.705 Z-2.198
N14295 X9.608 Z-2.511
N14300 X10.686 Z-2.902
N14305 X12.08 Z-3.429
N14310 X13.647 Z-4.038
N14315 X17.147 Z-5.426
N14320 X20.263 Z-6.641
N14325 X22.556 Z-7.495
N14330 X24.519 Z-8.194
N14335 X26.112 Z-8.737
N14340 X27.911 Z-9.325
N14345 X29.355 Z-9.77
N14350 X31.153 Z-10.297
N14355 X32.941 Z-10.784
N14360 X34.759 Z-11.241
N14365 X36.379 Z-11.614
N14370 X38.007 Z-11.951
N14375 X39.642 Z-12.253
N14380 X41.283 Z-12.518
N14385 X42.741 Z-12.719
N14390 X44.412 Z-12.913
N14395 X45.896 Z-13.054
N14400 X47.573 Z-13.178
N14405 X49.079 Z-13.256
N14410 X50.625 Z-13.305
N14415 X52.237 Z-13.322
N14420 X53.765 Z-13.309
N14425 X55.31 Z-13.263
N14430 X56.82 Z-13.192
N14435 X58.326 Z-13.088
N14440 X59.831 Z-12.959
N14445 X61.351 Z-12.794
N14450 X62.64 Z-12.632
N14455 X64.323 Z-12.384
N14460 X65.792 Z-12.134
N14465 X67.274 Z-11.851
N14470 X68.751 Z-11.536
N14475 X70.239 Z-11.18
N14480 X71.532 Z-10.839
N14485 X72.579 Z-10.541
N14490 X73.838 Z-10.148
N14495 X74.904 Z-9.787
N14500 X76.122 Z-9.339
N14505 X77.15 Z-8.924
N14510 X78.186 Z-8.48
N14515 X79.208 Z-8.007
N14520 X80.372 Z-7.433
N14525 X81.676 Z-6.755
N14530 X84.502 Z-5.211
N14535 X85.555 Z-4.646
N14540 X86.369 Z-4.222
N14545 X86.864 Z-3.973
N14550 X87.517 Z-3.655
N14555 X88.001 Z-3.427
N14560 X88.665 Z-3.131
N14565 X89.32 Z-2.853
N14570 X90.134 Z-2.532
N14575 X90.654 Z-2.342
N14580 X91.25 Z-2.135
N14585 X92.015 Z-1.891
N14590 X92.859 Z-1.648
N14595 X93.543 Z-1.47
N14600 X94.398 Z-1.27
N14605 X95.174 Z-1.11
N14610 X95.973 Z-0.965
N14615 X96.501 Z-0.881
N14620 X97.2 Z-0.779
N14625 X98.091 Z-0.668
N14630 X98.984 Z-0.577
N14635 X100.05 Z-0.49
N14640 X100.86 Z-0.439
N14645 X101.939 Z-0.387
N14650 X103.196 Z-0.35
N14655 X104.757 Z-0.334
N14660 X106.561 Z-0.348
N14665 X108.805 Z-0.402
N14670 X114.738 Z-0.606
N14675 X117.318 Z-0.675
N14680 X119.61 Z-0.712
N14685 X122.341 Z-0.735
N14690 X130.535 Z-0.743
N14695 X135.413 Z-0.772
N14700 X141.022 Z-0.841
N14705 X146.436 Z-0.941
N14710 X152.289 Z-1.079
N14715 X157.459 Z-1.229
N14720 X163.312 Z-1.423
N14725 X169.946 Z-1.68
N14730 X182.218 Z-2.206
N14735 X189.679 Z-2.516
N14740 X195.511 Z-2.733
N14745 X200.965 Z-2.899
N14750 X206.135 Z-3.028
N14755 X212.28 Z-3.146
N14760 X219.109 Z-3.241
N14765 X227.206 Z-3.315
N14770 X237.058 Z-3.363
N14775 X247.203 Z-3.376
N14780 X265.856 Z-3.346
N14785 X271.807 Z-3.354
N14790 X275.904 Z-3.387
N14795 X279.026 Z-3.442
N14800 X281.562 Z-3.516
N14805 X283.279 Z-3.588
N14810 X284.409 Z-3.65
N14815 X285.439 Z-3.719
N14820 X286.296 Z-3.79
N14825 X287.057 Z-3.866
N14830 X287.721 Z-3.945
N14835 X288.383 Z-4.039
N14840 X288.949 Z-4.134
N14845 X289.51 Z-4.247
N14850 X290.022 Z-4.367
N14855 X290.553 Z-4.514
N14860 Z-4.34
N14865 X290.552 Y-7.314 Z-4.291
N14870 X290.551 Y-7.291 Z-4.246
N14875 X290.55 Y-7.256 Z-4.211
N14880 X290.547 Y-7.212 Z-4.189
N14885 X290.545 Y-7.163 Z-4.181
N14890 X290.51 Y-6.48
N14895 X290.508 Y-6.431 Z-4.189
N14900 X290.506 Y-6.387 Z-4.211
N14905 X290.504 Y-6.352 Z-4.246
N14910 X290.503 Y-6.329 Z-4.291
N14915 Y-6.322 Z-4.34
N14920 X290.13 Z-4.246
N14925 X289.556 Z-4.123
N14930 X288.96 Z-4.015
N14935 X288.44 Z-3.934
N14940 X287.777 Z-3.846
N14945 X287.113 Z-3.771
N14950 X286.352 Z-3.699
N14955 X285.399 Z-3.622
N14960 X284.293 Z-3.55
N14965 X282.917 Z-3.48
N14970 X280.625 Z-3.394
N14975 X277.796 Z-3.324
N14980 X274.382 Z-3.276
N14985 X269.797 Z-3.248
N14990 X262.091 Z-3.246
N14995 X246.325 Z-3.255
N15000 X236.082 Z-3.232
N15005 X227.791 Z-3.184
N15010 X219.694 Z-3.105
N15015 X213.353 Z-3.013
N15020 X207.207 Z-2.893
N15025 X201.647 Z-2.749
N15030 X197.264 Z-2.612
N15035 X191.926 Z-2.415
N15040 X184.664 Z-2.1
N15045 X171.39 Z-1.491
N15050 X165.927 Z-1.263
N15055 X161.928 Z-1.114
N15060 X157.83 Z-0.979
N15065 X152.66 Z-0.831
N15070 X146.417 Z-0.685
N15075 X139.003 Z-0.547
N15080 X130.224 Z-0.419
N15085 X116.372 Z-0.246
N15090 X111.104 Z-0.183
N15095 X108.275 Z-0.177
N15100 X106.031 Z-0.202
N15105 X104.377 Z-0.245
N15110 X103.246 Z-0.29
N15115 X102.052 Z-0.354
N15120 X100.985 Z-0.427
N15125 X99.92 Z-0.517
N15130 X99.007 Z-0.61
N15135 X98.457 Z-0.673
N15140 X97.482 Z-0.802
N15145 X96.66 Z-0.927
N15150 X95.776 Z-1.083
N15155 X95.064 Z-1.226
N15160 X94.207 Z-1.418
N15165 X93.521 Z-1.59
N15170 X93.004 Z-1.73
N15175 X92.307 Z-1.934
N15180 X91.635 Z-2.147
N15185 X90.946 Z-2.384
N15190 X90.265 Z-2.637
N15195 X89.608 Z-2.898
N15200 X88.939 Z-3.182
N15205 X88.276 Z-3.479
N15210 X87.637 Z-3.782
N15215 X86.986 Z-4.105
N15220 X86.322 Z-4.445
N15225 X85.663 Z-4.794
N15230 X84.521 Z-5.417
N15235 X81.863 Z-6.888
N15240 X80.666 Z-7.523
N15245 X79.487 Z-8.115
N15250 X78.312 Z-8.668
N15255 X77.281 Z-9.119
N15260 X76.219 Z-9.551
N15265 X75.183 Z-9.94
N15270 X73.974 Z-10.359
N15275 X72.736 Z-10.751
N15280 X71.305 Z-11.164
N15285 X70.03 Z-11.498
N15290 X68.581 Z-11.845
N15295 X67.124 Z-12.16
N15300 X65.473 Z-12.476
N15305 X63.984 Z-12.725
N15310 X62.511 Z-12.944
N15315 X61.032 Z-13.132
N15320 X59.551 Z-13.292
N15325 X57.876 Z-13.44
N15330 X56.369 Z-13.539
N15335 X54.665 Z-13.618
N15340 X53.104 Z-13.658
N15345 X51.485 Z-13.663
N15350 X49.924 Z-13.638
N15355 X48.396 Z-13.58
N15360 X46.878 Z-13.494
N15365 X45.392 Z-13.38
N15370 X43.718 Z-13.216
N15375 X42.238 Z-13.036
N15380 X40.781 Z-12.829
N15385 X39.329 Z-12.591
N15390 X37.713 Z-12.292
N15395 X36.124 Z-11.961
N15400 X34.504 Z-11.586
N15405 X32.872 Z-11.179
N15410 X31.248 Z-10.741
N15415 X29.449 Z-10.218
N15420 X27.841 Z-9.723
N15425 X26.042 Z-9.136
N15430 X24.27 Z-8.528
N15435 X22.686 Z-7.96
N15440 X20.734 Z-7.231
N15445 X18.49 Z-6.357
N15450 X14.504 Z-4.743
N15455 X12.219 Z-3.817
N15460 X10.797 Z-3.254
N15465 X9.746 Z-2.848
N15470 X8.707 Z-2.463
N15475 X8.005 Z-2.212
N15480 X7.3 Z-1.973
N15485 X6.591 Z-1.746
N15490 X5.876 Z-1.537
N15495 X5.322 Z-1.392
N15500 X4.951 Z-1.304
N15505 X4.577 Z-1.225
N15510 X4.154 Z-1.149
N15515 X3.823 Z-1.104
N15520 X3.634 Z-1.084
N15525 X3.443 Z-1.067
N15530 X3.253 Z-1.056
N15535 X2.907 Z-1.047
N15540 X2.392 Z-1.063
N15545 X1.943 Z-1.108
N15550 X1.688 Z-1.145
N15555 X1.519 Z-1.176
N15560 X1.227 Z-1.244
N15565 X0.999 Z-1.314
N15570 X0.758 Z-1.407
N15575 X0.525 Z-1.526
N15580 X0.288 Z-1.684
N15585 X0.169 Z-1.782
N15590 X0. Z-1.955
N15595 G3 X-0.272 Z-1.845 I-0.114 K0.11
N15600 G1 Z-1.473
N15605 Y-6.314 Z-1.391
N15610 Y-6.293 Z-1.31
N15615 X-0.271 Y-6.258 Z-1.235
N15620 X-0.269 Y-6.21 Z-1.167
N15625 X-0.268 Y-6.152 Z-1.108
N15630 X-0.266 Y-6.084 Z-1.061
N15635 X-0.264 Y-6.008 Z-1.026
N15640 X-0.262 Y-5.928 Z-1.004
N15645 X-0.26 Y-5.846 Z-0.997
N15650 X-0.258 Y-5.798
N15655 X-0.256 Y-5.715 Z-1.004
N15660 X-0.254 Y-5.635 Z-1.026
N15665 X-0.252 Y-5.56 Z-1.061
N15670 X-0.25 Y-5.492 Z-1.108
N15675 X-0.249 Y-5.433 Z-1.167
N15680 X-0.247 Y-5.386 Z-1.235
N15685 Y-5.351 Z-1.31
N15690 X-0.246 Y-5.329 Z-1.391
N15695 Y-5.322 Z-1.473
N15700 G2 X0. Z-1.606 I0.159 K0.
N15705 G1 X0.136 Z-1.516
N15710 X0.449 Z-1.361
N15715 X0.673 Z-1.28
N15720 X0.944 Z-1.206
N15725 X1.282 Z-1.139
N15730 X1.621 Z-1.093
N15735 X2.167 Z-1.054
N15740 X2.694 Z-1.056
N15745 X3.212 Z-1.096
N15750 X3.778 Z-1.178
N15755 X4.432 Z-1.314
N15760 X5.152 Z-1.498
N15765 X5.684 Z-1.653
N15770 X6.253 Z-1.831
N15775 X7.08 Z-2.11
N15780 X7.942 Z-2.421
N15785 X8.978 Z-2.814
N15790 X10.168 Z-3.284
N15795 X11.549 Z-3.845
N15800 X16.226 Z-5.788
N15805 X18.988 Z-6.911
N15810 X20.911 Z-7.661
N15815 X22.486 Z-8.253
N15820 X24.248 Z-8.888
N15825 X26.038 Z-9.504
N15830 X27.638 Z-10.025
N15835 X29.428 Z-10.577
N15840 X31.228 Z-11.098
N15845 X33.224 Z-11.628
N15850 X35.212 Z-12.108
N15855 X36.836 Z-12.462
N15860 X38.28 Z-12.747
N15865 X39.918 Z-13.032
N15870 X41.542 Z-13.276
N15875 X43.041 Z-13.466
N15880 X44.523 Z-13.624
N15885 X46.008 Z-13.752
N15890 X47.497 Z-13.848
N15895 X49.113 Z-13.919
N15900 X50.575 Z-13.953
N15905 X52.163 Z-13.959
N15910 X53.626 Z-13.936
N15915 X55.268 Z-13.877
N15920 X56.733 Z-13.796
N15925 X58.44 Z-13.666
N15930 X59.943 Z-13.522
N15935 X61.461 Z-13.343
N15940 X63.127 Z-13.113
N15945 X64.599 Z-12.879
N15950 X66.291 Z-12.57
N15955 X67.77 Z-12.265
N15960 X69.241 Z-11.928
N15965 X70.723 Z-11.552
N15970 X71.992 Z-11.2
N15975 X73.235 Z-10.821
N15980 X74.486 Z-10.406
N15985 X75.546 Z-10.025
N15990 X76.578 Z-9.623
N15995 X77.617 Z-9.19
N16000 X78.628 Z-8.734
N16005 X79.626 Z-8.259
N16010 X80.648 Z-7.74
N16015 X82.111 Z-6.955
N16020 X84.546 Z-5.592
N16025 X85.685 Z-4.964
N16030 X86.492 Z-4.529
N16035 X87.615 Z-3.956
N16040 X88.114 Z-3.714
N16045 X88.773 Z-3.408
N16050 X89.421 Z-3.123
N16055 X90.252 Z-2.78
N16060 X90.752 Z-2.589
N16065 X91.579 Z-2.291
N16070 X92.268 Z-2.064
N16075 X93.027 Z-1.835
N16080 X93.811 Z-1.62
N16085 X94.599 Z-1.425
N16090 X95.372 Z-1.252
N16095 X96.423 Z-1.047
N16100 X97.223 Z-0.911
N16105 X98.215 Z-0.764
N16110 X99.106 Z-0.65
N16115 X99.846 Z-0.567
N16120 X100.93 Z-0.46
N16125 X101.996 Z-0.373
N16130 X102.911 Z-0.309
N16135 X104.02 Z-0.245
N16140 X105.507 Z-0.177
N16145 X107.233 Z-0.122
N16150 X109.61 Z-0.077
N16155 X112.598 Z-0.059
N16160 X116.207 Z-0.073
N16165 X121.963 Z-0.138
N16170 X136.303 Z-0.368
N16175 X146.545 Z-0.551
N16180 X153.374 Z-0.701
N16185 X158.446 Z-0.84
N16190 X162.739 Z-0.979
N16195 X167.616 Z-1.163
N16200 X174.054 Z-1.448
N16205 X185.017 Z-1.965
N16210 X190.653 Z-2.218
N16215 X196.652 Z-2.457
N16220 X201.415 Z-2.614
N16225 X206.194 Z-2.745
N16230 X212.535 Z-2.882
N16235 X219.071 Z-2.988
N16240 X226.778 Z-3.074
N16245 X236.533 Z-3.14
N16250 X247.653 Z-3.171
N16255 X263.719
N16260 X270.45 Z-3.183
N16265 X274.839 Z-3.217
N16270 X278.254 Z-3.273
N16275 X280.689 Z-3.336
N16280 X282.418 Z-3.399
N16285 X283.757 Z-3.462
N16290 X284.903 Z-3.529
N16295 X285.837 Z-3.595
N16300 X286.751 Z-3.672
N16305 X287.512 Z-3.749
N16310 X288.081 Z-3.816
N16315 X288.744 Z-3.907
N16320 X289.404 Z-4.013
N16325 X289.978 Z-4.124
N16330 X290.525 Z-4.25
N16335 Z-4.199
N16340 Y-5.314 Z-4.15
N16345 Y-5.291 Z-4.106
N16350 X290.526 Y-5.256 Z-4.07
N16355 Y-5.212 Z-4.048
N16360 X290.527 Y-5.163 Z-4.04
N16365 X290.538 Y-4.481
N16370 X290.539 Y-4.432 Z-4.048
N16375 Y-4.387 Z-4.07
N16380 X290.54 Y-4.352 Z-4.106
N16385 Y-4.33 Z-4.15
N16390 Y-4.322 Z-4.199
N16395 X289.981 Z-4.076
N16400 X289.418 Z-3.971
N16405 X288.852 Z-3.88
N16410 X288.095 Z-3.777
N16415 X287.335 Z-3.692
N16420 X286.574 Z-3.62
N16425 X285.555 Z-3.538
N16430 X284.535 Z-3.471
N16435 X283.385 Z-3.408
N16440 X281.925 Z-3.344
N16445 X279.389 Z-3.262
N16450 X276.267 Z-3.197
N16455 X272.17 Z-3.151
N16460 X266.512 Z-3.126
N16465 X246.612 Z-3.11
N16470 X236.272 Z-3.071
N16475 X228.273 Z-3.013
N16480 X220.079 Z-2.921
N16485 X213.933 Z-2.823
N16490 X208.08 Z-2.7
N16495 X202.228 Z-2.543
N16500 X197.85 Z-2.401
N16505 X193.681 Z-2.242
N16510 X189.895 Z-2.082
N16515 X179.724 Z-1.607
N16520 X174.182 Z-1.347
N16525 X168.524 Z-1.099
N16530 X163.562 Z-0.91
N16535 X158.782 Z-0.762
N16540 X153.612 Z-0.63
N16545 X146.588 Z-0.489
N16550 X126.591 Z-0.147
N16555 X120.64 Z-0.053
N16560 X116.25 Z-0.012
N16565 X112.934
N16570 X110.202 Z-0.041
N16575 X107.79 Z-0.097
N16580 X106.241 Z-0.152
N16585 X104.936 Z-0.212
N16590 X103.569 Z-0.293
N16595 X102.588 Z-0.362
N16600 X101.505 Z-0.452
N16605 X100.59 Z-0.54
N16610 X99.659 Z-0.642
N16615 X98.768 Z-0.753
N16620 X97.879 Z-0.879
N16625 X96.993 Z-1.022
N16630 X96.091 Z-1.188
N16635 X95.231 Z-1.367
N16640 X94.524 Z-1.532
N16645 X93.635 Z-1.762
N16650 X92.855 Z-1.987
N16655 X92.098 Z-2.226
N16660 X91.411 Z-2.462
N16665 X90.748 Z-2.707
N16670 X90.073 Z-2.974
N16675 X89.404 Z-3.257
N16680 X88.741 Z-3.555
N16685 X88.083 Z-3.866
N16690 X87.433 Z-4.19
N16695 X86.602 Z-4.621
N16700 X85.963 Z-4.966
N16705 X84.809 Z-5.605
N16710 X82.029 Z-7.172
N16715 X80.735 Z-7.868
N16720 X79.579 Z-8.458
N16725 X78.58 Z-8.936
N16730 X77.535 Z-9.405
N16735 X76.495 Z-9.838
N16740 X75.283 Z-10.305
N16745 X74.077 Z-10.73
N16750 X72.841 Z-11.13
N16755 X71.413 Z-11.552
N16760 X70.14 Z-11.895
N16765 X68.694 Z-12.253
N16770 X67.24 Z-12.578
N16775 X65.59 Z-12.907
N16780 X64.104 Z-13.168
N16785 X62.442 Z-13.425
N16790 X60.985 Z-13.621
N16795 X59.485 Z-13.791
N16800 X57.83 Z-13.946
N16805 X56.324 Z-14.056
N16810 X54.632 Z-14.144
N16815 X53.089 Z-14.195
N16820 X51.528 Z-14.212
N16825 X49.987 Z-14.199
N16830 X48.443 Z-14.152
N16835 X46.916 Z-14.077
N16840 X45.429 Z-13.973
N16845 X43.944 Z-13.838
N16850 X42.443 Z-13.672
N16855 X40.795 Z-13.452
N16860 X39.153 Z-13.192
N16865 X37.686 Z-12.923
N16870 X36.057 Z-12.591
N16875 X34.454 Z-12.227
N16880 X32.821 Z-11.825
N16885 X31.177 Z-11.388
N16890 X29.358 Z-10.864
N16895 X27.568 Z-10.311
N16900 X25.968 Z-9.79
N16905 X24.196 Z-9.181
N16910 X22.417 Z-8.537
N16915 X20.664 Z-7.873
N16920 X18.744 Z-7.117
N16925 X16.321 Z-6.121
N16930 X10.988 Z-3.867
N16935 X9.452 Z-3.231
N16940 X8.424 Z-2.819
N16945 X7.551 Z-2.48
N16950 X6.674 Z-2.153
N16955 X5.971 Z-1.908
N16960 X5.445 Z-1.733
N16965 X4.935 Z-1.576
N16970 X4.587 Z-1.475
N16975 X3.866 Z-1.29
N16980 X3.258 Z-1.168
N16985 X2.714 Z-1.092
N16990 X2.548 Z-1.076
N16995 X2.259 Z-1.059
N17000 X1.967 Z-1.054
N17005 X1.629 Z-1.064
N17010 X1.267 Z-1.093
N17015 X0.864 Z-1.149
N17020 X0.527 Z-1.22
N17025 X0.239 Z-1.31
N17030 X0. Z-1.413
N17035 G3 X-0.221 Z-1.267 I-0.063 K0.146
N17040 G1 Z-1.149
N17045 Y-4.315 Z-1.066
N17050 Y-4.293 Z-0.986
N17055 X-0.22 Y-4.258 Z-0.911
N17060 Y-4.211 Z-0.843
N17065 X-0.219 Y-4.152 Z-0.784
N17070 X-0.218 Y-4.084 Z-0.736
N17075 X-0.217 Y-4.009 Z-0.701
N17080 X-0.216 Y-3.928 Z-0.68
N17085 X-0.215 Y-3.846 Z-0.673
N17090 X-0.214 Y-3.798
N17095 X-0.213 Y-3.716 Z-0.68
N17100 X-0.212 Y-3.635 Z-0.701
N17105 X-0.211 Y-3.56 Z-0.736
N17110 X-0.21 Y-3.492 Z-0.784
N17115 X-0.209 Y-3.434 Z-0.843
N17120 X-0.208 Y-3.386 Z-0.911
N17125 Y-3.351 Z-0.986
N17130 X-0.207 Y-3.329 Z-1.066
N17135 Y-3.322 Z-1.149
N17140 G2 X0. Z-1.3 I0.159 K0.
N17145 G1 X0.201 Z-1.235
N17150 X0.579 Z-1.149
N17155 X0.897 Z-1.103
N17160 X1.067 Z-1.085
N17165 X1.327 Z-1.067
N17170 X1.718 Z-1.057
N17175 X2.008 Z-1.066
N17180 X2.198 Z-1.078
N17185 X2.389 Z-1.096
N17190 X2.578 Z-1.119
N17195 X2.767 Z-1.147
N17200 X3.143 Z-1.214
N17205 X3.516 Z-1.296
N17210 X3.887 Z-1.388
N17215 X4.255 Z-1.49
N17220 X4.785 Z-1.649
N17225 X5.311 Z-1.821
N17230 X6.033 Z-2.073
N17235 X6.928 Z-2.406
N17240 X7.799 Z-2.747
N17245 X8.826 Z-3.164
N17250 X10.237 Z-3.754
N17255 X12.643 Z-4.785
N17260 X16.598 Z-6.474
N17265 X19.019 Z-7.471
N17270 X20.762 Z-8.158
N17275 X22.514 Z-8.821
N17280 X24.097 Z-9.392
N17285 X25.868 Z-10.003
N17290 X27.65 Z-10.584
N17295 X29.44 Z-11.134
N17300 X31.076 Z-11.601
N17305 X32.868 Z-12.077
N17310 X34.15 Z-12.39
N17315 X35.416 Z-12.685
N17320 X37.024 Z-13.024
N17325 X38.658 Z-13.331
N17330 X40.09 Z-13.57
N17335 X41.546 Z-13.78
N17340 X43.045 Z-13.962
N17345 X44.529 Z-14.111
N17350 X46.015 Z-14.23
N17355 X47.528 Z-14.318
N17360 X49.151 Z-14.38
N17365 X50.615 Z-14.405
N17370 X52.286 Z-14.401
N17375 X53.747 Z-14.367
N17380 X55.361 Z-14.298
N17385 X56.85 Z-14.204
N17390 X58.545 Z-14.063
N17395 X60.028 Z-13.911
N17400 X61.526 Z-13.725
N17405 X63.002 Z-13.514
N17410 X64.661 Z-13.242
N17415 X66.164 Z-12.96
N17420 X67.642 Z-12.651
N17425 X69.113 Z-12.31
N17430 X70.594 Z-11.932
N17435 X71.863 Z-11.575
N17440 X73.124 Z-11.19
N17445 X74.357 Z-10.781
N17450 X75.4 Z-10.406
N17455 X76.451 Z-9.999
N17460 X77.473 Z-9.572
N17465 X78.502 Z-9.112
N17470 X79.502 Z-8.634
N17475 X80.659 Z-8.047
N17480 X81.988 Z-7.332
N17485 X85.23 Z-5.496
N17490 X86.52 Z-4.784
N17495 X87.501 Z-4.269
N17500 X88.134 Z-3.952
N17505 X88.772 Z-3.648
N17510 X89.244 Z-3.432
N17515 X90.084 Z-3.07
N17520 X90.74 Z-2.806
N17525 X91.439 Z-2.544
N17530 X92.126 Z-2.306
N17535 X92.716 Z-2.115
N17540 X93.495 Z-1.883
N17545 X94.381 Z-1.645
N17550 X95.087 Z-1.474
N17555 X95.88 Z-1.301
N17560 X96.846 Z-1.115
N17565 X97.581 Z-0.99
N17570 X98.488 Z-0.851
N17575 X99.397 Z-0.729
N17580 X100.308 Z-0.621
N17585 X101.22 Z-0.526
N17590 X101.943 Z-0.458
N17595 X103.028 Z-0.369
N17600 X103.943 Z-0.304
N17605 X104.878 Z-0.246
N17610 X106.248 Z-0.176
N17615 X107.858 Z-0.111
N17620 X109.464 Z-0.065
N17625 X112.049 Z-0.019
N17630 X114.878 Z-0.002
N17635 X117.999 Z-0.015
N17640 X121.999 Z-0.061
N17645 X130.778 Z-0.218
N17650 X146.142 Z-0.466
N17655 X153.703 Z-0.602
N17660 X158.873 Z-0.723
N17665 X162.97 Z-0.842
N17670 X166.384 Z-0.96
N17675 X169.896 Z-1.097
N17680 X174.968 Z-1.318
N17685 X183.136 Z-1.701
N17690 X191.084 Z-2.064
N17695 X196.902 Z-2.299
N17700 X201.672 Z-2.459
N17705 X205.962 Z-2.583
N17710 X212.4 Z-2.732
N17715 X219.034 Z-2.85
N17720 X226.838 Z-2.948
N17725 X236.495 Z-3.027
N17730 X247.03 Z-3.072
N17735 X264.394 Z-3.096
N17740 X270.735 Z-3.116
N17745 X275.125 Z-3.158
N17750 X278.539 Z-3.221
N17755 X281.173 Z-3.297
N17760 X282.889 Z-3.366
N17765 X284.217 Z-3.434
N17770 X285.514 Z-3.517
N17775 X286.447 Z-3.59
N17780 X287.17 Z-3.657
N17785 X287.721 Z-3.715
N17790 X288.385 Z-3.794
N17795 X289.047 Z-3.888
N17800 X289.613 Z-3.981
N17805 X290.176 Z-4.09
N17810 X290.549 Z-4.173
N17815 Z-4.162
N17820 Y-3.314 Z-4.113
N17825 Y-3.292 Z-4.069
N17830 Y-3.257 Z-4.034
N17835 Y-3.212 Z-4.011
N17840 Y-3.163 Z-4.003
N17845 X290.552 Y-2.481
N17850 Y-2.432 Z-4.011
N17855 Y-2.388 Z-4.034
N17860 Y-2.353 Z-4.069
N17865 Y-2.33 Z-4.113
N17870 Y-2.322 Z-4.162
N17875 X289.991 Z-4.042
N17880 X289.427 Z-3.94
N17885 X288.861 Z-3.851
N17890 X288.293 Z-3.774
N17895 X287.533 Z-3.686
N17900 X286.792 Z-3.613
N17905 X285.858 Z-3.535
N17910 X284.753 Z-3.459
N17915 X283.626 Z-3.394
N17920 X282.092 Z-3.323
N17925 X279.556 Z-3.237
N17930 X276.434 Z-3.167
N17935 X272.434 Z-3.116
N17940 X266.972 Z-3.087
N17945 X247.169 Z-3.05
N17950 X236.536 Z-2.999
N17955 X226.781 Z-2.914
N17960 X218.977 Z-2.812
N17965 X212.344 Z-2.691
N17970 X206.003 Z-2.542
N17975 X201.031 Z-2.397
N17980 X195.203 Z-2.19
N17985 X190.345 Z-1.988
N17990 X174.502 Z-1.262
N17995 X169.82 Z-1.065
N18000 X166.503 Z-0.939
N18005 X163.186 Z-0.829
N18010 X158.992 Z-0.714
N18015 X153.821 Z-0.601
N18020 X145.92 Z-0.471
N18025 X132.555 Z-0.269
N18030 X121.825 Z-0.074
N18035 X117.923 Z-0.029
N18040 X114.996 Z-0.019
N18045 X112.07 Z-0.038
N18050 X109.631 Z-0.084
N18055 X107.885 Z-0.138
N18060 X106.273 Z-0.205
N18065 X105.157 Z-0.263
N18070 X104.07 Z-0.331
N18075 X102.965 Z-0.412
N18080 X101.729 Z-0.52
N18085 X100.987 Z-0.593
N18090 X100.076 Z-0.694
N18095 X99.166 Z-0.808
N18100 X98.447 Z-0.907
N18105 X97.456 Z-1.063
N18110 X96.637 Z-1.208
N18115 X95.757 Z-1.384
N18120 X95.048 Z-1.542
N18125 X94.157 Z-1.764
N18130 X93.375 Z-1.981
N18135 X92.762 Z-2.166
N18140 X92.09 Z-2.386
N18145 X91.423 Z-2.621
N18150 X90.743 Z-2.878
N18155 X90.052 Z-3.158
N18160 X89.245 Z-3.51
N18165 X88.604 Z-3.807
N18170 X87.951 Z-4.125
N18175 X87.456 Z-4.377
N18180 X86.476 Z-4.895
N18185 X85.188 Z-5.611
N18190 X82.15 Z-7.34
N18195 X80.825 Z-8.061
N18200 X79.635 Z-8.672
N18205 X78.429 Z-9.249
N18210 X77.418 Z-9.699
N18215 X76.378 Z-10.132
N18220 X75.166 Z-10.596
N18225 X73.941 Z-11.027
N18230 X72.706 Z-11.427
N18235 X71.278 Z-11.85
N18240 X69.839 Z-12.238
N18245 X68.372 Z-12.596
N18250 X66.918 Z-12.919
N18255 X65.457 Z-13.211
N18260 X63.801 Z-13.506
N18265 X62.309 Z-13.737
N18270 X60.643 Z-13.961
N18275 X59.162 Z-14.131
N18280 X57.468 Z-14.288
N18285 X55.791 Z-14.408
N18290 X54.091 Z-14.494
N18295 X52.538 Z-14.538
N18300 X50.977 Z-14.553
N18305 X49.378 Z-14.533
N18310 X47.729 Z-14.48
N18315 X46.228 Z-14.398
N18320 X44.742 Z-14.285
N18325 X43.239 Z-14.141
N18330 X41.778 Z-13.969
N18335 X40.34 Z-13.768
N18340 X38.699 Z-13.502
N18345 X37.083 Z-13.202
N18350 X35.455 Z-12.863
N18355 X34.208 Z-12.575
N18360 X32.76 Z-12.221
N18365 X31.134 Z-11.791
N18370 X29.332 Z-11.277
N18375 X27.686 Z-10.774
N18380 X25.904 Z-10.195
N18385 X24.132 Z-9.585
N18390 X22.371 Z-8.946
N18395 X20.62 Z-8.28
N18400 X18.879 Z-7.59
N18405 X16.653 Z-6.67
N18410 X13.386 Z-5.269
N18415 X10.045 Z-3.82
N18420 X8.523 Z-3.175
N18425 X7.498 Z-2.754
N18430 X6.61 Z-2.402
N18435 X5.711 Z-2.064
N18440 X5.013 Z-1.818
N18445 X4.469 Z-1.638
N18450 X4.122 Z-1.531
N18455 X3.755 Z-1.426
N18460 X3.387 Z-1.329
N18465 X3.016 Z-1.242
N18470 X2.43 Z-1.135
N18475 X2.074 Z-1.091
N18480 X1.884 Z-1.075
N18485 X1.596 Z-1.062
N18490 X1.303
N18495 X0.979 Z-1.077
N18500 X0.595 Z-1.116
N18505 X0.446 Z-1.139
N18510 X0.15 Z-1.198
N18515 X0. Z-1.239
N18520 X-0.037 Z-1.244
N18525 X-0.075 Z-1.241
N18530 X-0.111 Z-1.228
N18535 X-0.145 Z-1.216
N18540 X-0.181 Z-1.212
N18545 X-0.222 Y-2.32
N18550 X-0.264 Y-2.315
N18555 X-0.304 Y-2.306 Z-1.211
N18560 X-0.344 Y-2.294
N18565 X-0.382 Y-2.278 Z-1.21
N18570 X-0.419 Y-2.258
N18575 X-0.454 Y-2.236 Z-1.209
N18580 X-0.487 Y-2.211 Z-1.208
N18585 X-0.518 Y-2.183 Z-1.207
N18590 X-0.546 Y-2.152 Z-1.206
N18595 X-0.571 Y-2.119 Z-1.205
N18600 X-0.593 Y-2.084 Z-1.204
N18605 X-0.613 Y-2.047 Z-1.203
N18610 X-0.628 Y-2.009 Z-1.201
N18615 X-0.641 Y-1.969 Z-1.2
N18620 X-0.65 Y-1.929 Z-1.199
N18625 X-0.655 Y-1.888 Z-1.197
N18630 X-0.657 Y-1.846 Z-1.196
N18635 Y-1.798 Z-1.194
N18640 X-0.655 Y-1.757 Z-1.193
N18645 X-0.65 Y-1.716 Z-1.192
N18650 X-0.641 Y-1.675 Z-1.19
N18655 X-0.628 Y-1.636 Z-1.189
N18660 X-0.613 Y-1.597 Z-1.188
N18665 X-0.593 Y-1.56 Z-1.186
N18670 X-0.571 Y-1.525 Z-1.185
N18675 X-0.546 Y-1.492 Z-1.184
N18680 X-0.518 Y-1.462 Z-1.183
N18685 X-0.487 Y-1.434 Z-1.182
N18690 X-0.454 Y-1.408 Z-1.181
N18695 X-0.419 Y-1.386
N18700 X-0.382 Y-1.367 Z-1.18
N18705 X-0.344 Y-1.351 Z-1.179
N18710 X-0.304 Y-1.339
N18715 X-0.264 Y-1.33
N18720 X-0.222 Y-1.324 Z-1.178
N18725 X-0.181 Y-1.322
N18730 X-0.172
N18735 X-0.136 Z-1.182
N18740 X-0.102 Z-1.195
N18745 X-0.069 Z-1.206
N18750 X-0.034 Z-1.211
N18755 X0. Z-1.207
N18760 X0.313 Z-1.142
N18765 X0.589 Z-1.103
N18770 X0.759 Z-1.086
N18775 X1.02 Z-1.07
N18780 X1.427 Z-1.063
N18785 X1.715 Z-1.075
N18790 X1.906 Z-1.09
N18795 X2.096 Z-1.111
N18800 X2.285 Z-1.136
N18805 X2.473 Z-1.167
N18810 X2.661 Z-1.201
N18815 X2.942 Z-1.26
N18820 X3.567 Z-1.418
N18825 X4.102 Z-1.575
N18830 X4.648 Z-1.751
N18835 X5.144 Z-1.922
N18840 X5.888 Z-2.195
N18845 X6.582 Z-2.462
N18850 X7.451 Z-2.811
N18855 X8.474 Z-3.236
N18860 X10.002 Z-3.889
N18865 X13.26 Z-5.311
N18870 X16.524 Z-6.719
N18875 X18.748 Z-7.642
N18880 X20.666 Z-8.405
N18885 X22.417 Z-9.07
N18890 X23.999 Z-9.643
N18895 X25.77 Z-10.254
N18900 X27.552 Z-10.835
N18905 X29.343 Z-11.383
N18910 X31.126 Z-11.891
N18915 X32.772 Z-12.325
N18920 X34.407 Z-12.722
N18925 X35.468 Z-12.964
N18930 X37.096 Z-13.302
N18935 X38.712 Z-13.601
N18940 X40.334 Z-13.862
N18945 X41.792 Z-14.063
N18950 X43.443 Z-14.253
N18955 X45.118 Z-14.406
N18960 X46.796 Z-14.519
N18965 X48.331 Z-14.587
N18970 X49.786 Z-14.625
N18975 X51.46 Z-14.633
N18980 X53.118 Z-14.607
N18985 X54.745 Z-14.544
N18990 X56.26 Z-14.457
N18995 X57.746 Z-14.341
N19000 X59.439 Z-14.175
N19005 X61.109 Z-13.977
N19010 X62.773 Z-13.74
N19015 X64.432 Z-13.467
N19020 X65.916 Z-13.191
N19025 X67.376 Z-12.889
N19030 X68.847 Z-12.55
N19035 X70.291 Z-12.184
N19040 X71.763 Z-11.773
N19045 X73.024 Z-11.389
N19050 X74.276 Z-10.976
N19055 X75.497 Z-10.535
N19060 X76.704 Z-10.059
N19065 X77.74 Z-9.619
N19070 X78.73 Z-9.166
N19075 X79.743 Z-8.676
N19080 X80.896 Z-8.081
N19085 X82.204 Z-7.367
N19090 X85.241 Z-5.636
N19095 X86.359 Z-5.012
N19100 X87.507 Z-4.401
N19105 X88.002 Z-4.15
N19110 X88.655 Z-3.832
N19115 X89.314 Z-3.526
N19120 X89.822 Z-3.303
N19125 X90.652 Z-2.958
N19130 X91.331 Z-2.697
N19135 X92.016 Z-2.453
N19140 X92.706 Z-2.225
N19145 X93.299 Z-2.043
N19150 X94.081 Z-1.823
N19155 X94.952 Z-1.602
N19160 X95.679 Z-1.438
N19165 X96.409 Z-1.289
N19170 X97.292 Z-1.126
N19175 X98.198 Z-0.979
N19180 X99.087 Z-0.851
N19185 X99.826 Z-0.756
N19190 X100.908 Z-0.632
N19195 X101.991 Z-0.524
N19200 X102.924 Z-0.444
N19205 X103.839 Z-0.375
N19210 X104.944 Z-0.302
N19215 X106.445 Z-0.221
N19220 X107.955 Z-0.158
N19225 X109.6 Z-0.107
N19230 X112.039 Z-0.059
N19235 X114.965 Z-0.038
N19240 X117.892 Z-0.048
N19245 X121.696 Z-0.092
N19250 X133.305 Z-0.303
N19255 X145.596 Z-0.482
N19260 X153.888 Z-0.61
N19265 X159.058 Z-0.717
N19270 X163.252 Z-0.828
N19275 X166.959 Z-0.948
N19280 X170.471 Z-1.08
N19285 X175.251 Z-1.28
N19290 X189.545 Z-1.932
N19295 X195.087 Z-2.163
N19300 X200.817 Z-2.367
N19305 X205.984 Z-2.519
N19310 X212.325 Z-2.67
N19315 X219.056 Z-2.794
N19320 X226.86 Z-2.898
N19325 X236.615 Z-2.985
N19330 X247.248 Z-3.039
N19335 X267.538 Z-3.083
N19340 X272.806 Z-3.116
N19345 X276.708 Z-3.169
N19350 X279.732 Z-3.239
N19355 X282.249 Z-3.327
N19360 X283.607 Z-3.391
N19365 X284.754 Z-3.457
N19370 X285.879 Z-3.535
N19375 X286.812 Z-3.613
N19380 X287.553 Z-3.686
N19385 X288.293 Z-3.772
N19390 X288.861 Z-3.85
N19395 X289.428 Z-3.938
N19400 X289.991 Z-4.04
N19405 X290.553 Z-4.16
N19410 Y-1.315 Z-4.111
N19415 Y-1.292 Z-4.067
N19420 Y-1.257 Z-4.031
N19425 Y-1.213 Z-4.009
N19430 Y-1.164 Z-4.001
N19435 Y-0.481
N19440 Y-0.432 Z-4.009
N19445 Y-0.388 Z-4.031
N19450 Y-0.353 Z-4.067
N19455 Y-0.33 Z-4.111
N19460 Y-0.323 Z-4.16
N19465 X289.991 Z-4.04
N19470 X289.447 Z-3.942
N19475 X288.9 Z-3.855
N19480 X288.351 Z-3.78
N19485 X287.611 Z-3.693
N19490 X286.85 Z-3.617
N19495 X285.898 Z-3.537
N19500 X284.944 Z-3.469
N19505 X283.798 Z-3.401
N19510 X282.444 Z-3.336
N19515 X280.606 Z-3.266
N19520 X277.777 Z-3.19
N19525 X274.265 Z-3.131
N19530 X269.583 Z-3.092
N19535 X261.584 Z-3.071
N19540 X246.951 Z-3.036
N19545 X237.196 Z-2.987
N19550 X227.929 Z-2.906
N19555 X219.93 Z-2.802
N19560 X213.004 Z-2.679
N19565 X206.761 Z-2.535
N19570 X201.496 Z-2.384
N19575 X196.071 Z-2.197
N19580 X190.057 Z-1.949
N19585 X175.254 Z-1.278
N19590 X171.175 Z-1.106
N19595 X167.483 Z-0.965
N19600 X163.686 Z-0.84
N19605 X159.101 Z-0.72
N19610 X153.833 Z-0.612
N19615 X145.444 Z-0.485
N19620 X133.445 Z-0.312
N19625 X121.642 Z-0.097
N19630 X117.837 Z-0.054
N19635 X114.911 Z-0.045
N19640 X111.984 Z-0.067
N19645 X109.497 Z-0.116
N19650 X107.902 Z-0.167
N19655 X106.361 Z-0.233
N19660 X105.035 Z-0.304
N19665 X103.758 Z-0.388
N19670 X102.824 Z-0.46
N19675 X101.891 Z-0.542
N19680 X100.939 Z-0.637
N19685 X100.009 Z-0.742
N19690 X99.08 Z-0.861
N19695 X98.152 Z-0.995
N19700 X97.247 Z-1.143
N19705 X96.514 Z-1.276
N19710 X95.783 Z-1.425
N19715 X94.869 Z-1.632
N19720 X94.063 Z-1.838
N19725 X93.447 Z-2.01
N19730 X92.733 Z-2.227
N19735 X92.024 Z-2.46
N19740 X91.321 Z-2.711
N19745 X90.545 Z-3.012
N19750 X89.952 Z-3.257
N19755 X89.27 Z-3.557
N19760 X88.766 Z-3.789
N19765 X88.094 Z-4.115
N19770 X87.599 Z-4.365
N19775 X86.357 Z-5.025
N19780 X85.148 Z-5.701
N19785 X82.176 Z-7.396
N19790 X80.834 Z-8.127
N19795 X79.645 Z-8.739
N19800 X78.439 Z-9.317
N19805 X77.393 Z-9.783
N19810 X76.334 Z-10.224
N19815 X75.265 Z-10.634
N19820 X74.005 Z-11.081
N19825 X72.733 Z-11.495
N19830 X71.268 Z-11.931
N19835 X69.792 Z-12.33
N19840 X68.306 Z-12.693
N19845 X66.813 Z-13.024
N19850 X65.314 Z-13.322
N19855 X63.808 Z-13.591
N19860 X62.108 Z-13.855
N19865 X60.592 Z-14.058
N19870 X59.073 Z-14.232
N19875 X57.55 Z-14.375
N19880 X55.834 Z-14.501
N19885 X54.294 Z-14.583
N19890 X52.734 Z-14.634
N19895 X51.173 Z-14.654
N19900 X49.596 Z-14.641
N19905 X48.139 Z-14.601
N19910 X46.464 Z-14.519
N19915 X44.825 Z-14.402
N19920 X43.36 Z-14.266
N19925 X41.69 Z-14.073
N19930 X40.024 Z-13.838
N19935 X38.553 Z-13.596
N19940 X37.087 Z-13.323
N19945 X35.608 Z-13.019
N19950 X34.341 Z-12.73
N19955 X32.853 Z-12.37
N19960 X31.042 Z-11.891
N19965 X29.386 Z-11.42
N19970 X27.595 Z-10.872
N19975 X25.794 Z-10.286
N19980 X24.005 Z-9.669
N19985 X22.405 Z-9.089
N19990 X20.636 Z-8.416
N19995 X18.876 Z-7.718
N20000 X16.774 Z-6.848
N20005 X13.841 Z-5.587
N20010 X9.847 Z-3.843
N20015 X8.441 Z-3.241
N20020 X7.382 Z-2.801
N20025 X6.495 Z-2.445
N20030 X5.603 Z-2.103
N20035 X4.885 Z-1.845
N20040 X4.25 Z-1.634
N20045 X3.795 Z-1.494
N20050 X3.427 Z-1.391
N20055 X3.058 Z-1.297
N20060 X2.779 Z-1.233
N20065 X2.263 Z-1.139
N20070 X1.931 Z-1.096
N20075 X1.741 Z-1.08
N20080 X1.404 Z-1.064
N20085 X1.036 Z-1.068
N20090 X0.862 Z-1.076
N20095 X0.475 Z-1.114
N20100 X0.177 Z-1.162
N20105 X0. Z-1.201
N20110 X-0.035 Z-1.205
N20115 X-0.07 Z-1.2
N20120 X-0.103 Z-1.188
N20125 X-0.137 Z-1.176
N20130 X-0.173 Z-1.172
N20135 X-0.174
N20140 X-0.216 Y-0.321
N20145 X-0.257 Y-0.315
N20150 X-0.298 Y-0.306 Z-1.173
N20155 X-0.337 Y-0.294
N20160 X-0.376 Y-0.278
N20165 X-0.413 Y-0.259
N20170 X-0.448 Y-0.236 Z-1.174
N20175 X-0.481 Y-0.211
N20180 X-0.511 Y-0.183
N20185 X-0.539 Y-0.152 Z-1.175
N20190 X-0.565 Y-0.119
N20195 X-0.587 Y-0.084 Z-1.176
N20200 X-0.606 Y-0.048 Z-1.177
N20205 X-0.622 Y-0.009
N20210 X-0.634 Y0.03 Z-1.178
N20215 X-0.643 Y0.071
N20220 X-0.649 Y0.112 Z-1.179
N20225 X-0.651 Y0.154 Z-1.18
N20230 Y0.201 Z-1.181
N20235 X-0.649 Y0.243
N20240 X-0.643 Y0.284 Z-1.182
N20245 X-0.634 Y0.324
N20250 X-0.622 Y0.364 Z-1.183
N20255 X-0.606 Y0.402 Z-1.184
N20260 X-0.587 Y0.439
N20265 X-0.565 Y0.474 Z-1.185
N20270 X-0.539 Y0.507
N20275 X-0.511 Y0.538 Z-1.186
N20280 X-0.481 Y0.566
N20285 X-0.448 Y0.591 Z-1.187
N20290 X-0.413 Y0.614
N20295 X-0.376 Y0.633
N20300 X-0.337 Y0.649 Z-1.188
N20305 X-0.298 Y0.661
N20310 X-0.257 Y0.67
N20315 X-0.216 Y0.676
N20320 X-0.174 Y0.677
N20325 X-0.139 Z-1.192
N20330 X-0.105 Z-1.204
N20335 X-0.071 Z-1.216
N20340 X-0.035 Z-1.22
N20345 X0. Z-1.216
N20350 X0.262 Z-1.157
N20355 X0.624 Z-1.103
N20360 X0.968 Z-1.074
N20365 X1.425 Z-1.062
N20370 X1.72 Z-1.072
N20375 X1.91 Z-1.086
N20380 X2.1 Z-1.106
N20385 X2.29 Z-1.13
N20390 X2.478 Z-1.159
N20395 X2.854 Z-1.231
N20400 X3.206 Z-1.311
N20405 X3.576 Z-1.407
N20410 X3.944 Z-1.511
N20415 X4.49 Z-1.681
N20420 X5.033 Z-1.864
N20425 X5.753 Z-2.123
N20430 X6.467 Z-2.395
N20435 X7.532 Z-2.82
N20440 X8.591 Z-3.259
N20445 X9.998 Z-3.859
N20450 X13.819 Z-5.523
N20455 X16.752 Z-6.782
N20460 X18.855 Z-7.653
N20465 X20.792 Z-8.421
N20470 X22.383 Z-9.024
N20475 X24.164 Z-9.668
N20480 X25.954 Z-10.283
N20485 X27.572 Z-10.808
N20490 X29.383 Z-11.362
N20495 X31.019 Z-11.828
N20500 X32.849 Z-12.313
N20505 X34.502 Z-12.714
N20510 X35.957 Z-13.039
N20515 X37.418 Z-13.335
N20520 X39.073 Z-13.634
N20525 X40.566 Z-13.867
N20530 X42.043 Z-14.066
N20535 X43.486 Z-14.23
N20540 X45.141 Z-14.381
N20545 X46.648 Z-14.485
N20550 X48.236 Z-14.559
N20555 X49.683 Z-14.598
N20560 X51.346 Z-14.609
N20565 X52.906 Z-14.587
N20570 X54.563 Z-14.528
N20575 X56.101 Z-14.444
N20580 X57.626 Z-14.327
N20585 X59.148 Z-14.184
N20590 X60.668 Z-14.009
N20595 X62.372 Z-13.777
N20600 X63.883 Z-13.54
N20605 X65.388 Z-13.271
N20610 X66.888 Z-12.971
N20615 X68.38 Z-12.64
N20620 X69.865 Z-12.276
N20625 X71.341 Z-11.876
N20630 X72.624 Z-11.495
N20635 X73.897 Z-11.084
N20640 X75.158 Z-10.641
N20645 X76.407 Z-10.162
N20650 X77.464 Z-9.72
N20655 X78.51 Z-9.252
N20660 X79.545 Z-8.757
N20665 X80.735 Z-8.148
N20670 X82.078 Z-7.42
N20675 X85.2 Z-5.642
N20680 X86.353 Z-4.999
N20685 X87.518 Z-4.379
N20690 X88.014 Z-4.129
N20695 X88.667 Z-3.811
N20700 X89.344 Z-3.497
N20705 X90.029 Z-3.199
N20710 X90.541 Z-2.988
N20715 X91.237 Z-2.719
N20720 X91.938 Z-2.466
N20725 X92.646 Z-2.231
N20730 X93.359 Z-2.013
N20735 X94.077 Z-1.812
N20740 X94.986 Z-1.582
N20745 X95.713 Z-1.418
N20750 X96.632 Z-1.233
N20755 X97.366 Z-1.102
N20760 X98.291 Z-0.954
N20765 X99.218 Z-0.822
N20770 X100.148 Z-0.706
N20775 X101.079 Z-0.603
N20780 X102.011 Z-0.513
N20785 X102.963 Z-0.431
N20790 X103.897 Z-0.361
N20795 X105.023 Z-0.288
N20800 X106.232 Z-0.223
N20805 X107.774 Z-0.157
N20810 X109.615 Z-0.098
N20815 X112.053 Z-0.052
