%
(SURFACECHERRYBOARD)
(T3  D=22.225 CR=0. - ZMIN=-1. - FACE MILL)
N10 G90 G94 G17 G91.1
N15 G21
(WHEN USING FUSION 360 FOR PERSONAL USE, THE FEEDRATE OF)
(RAPID MOVES IS REDUCED TO MATCH THE FEEDRATE OF CUTTING)
(MOVES, WHICH CAN INCREASE MACHINING TIME. UNRESTRICTED RAPID)
(MOVES ARE AVAILABLE WITH A FUSION 360 SUBSCRIPTION.)
N20 G53 G0 Z0.
(FACE1)
N25 T3 M6
N30 S15000 M3
N35 G54
N40 G0 X928.846 Y9.432
N45 G43 Z15. H3
N50 G1 Z5. F2540.
N55 Z1.722
N60 G18 G3 X926.624 Z-0.5 I-2.222 K0.
N65 G1 X914.4
N70 X0.
N75 G17 G2 Y29.765 I0. J10.167
N80 G1 X914.4
N85 G3 Y50.099 I0. J10.167
N90 G1 X0.
N95 G2 Y70.432 I0. J10.167
N100 G1 X914.4
N105 G3 Y90.765 I0. J10.167
N110 G1 X0.
N115 G2 Y111.099 I0. J10.167
N120 G1 X914.4
N125 G3 Y131.432 I0. J10.167
N130 G1 X0.
N135 G2 Y151.765 I0. J10.167
N140 G1 X914.4
N145 G3 Y172.099 I0. J10.167
N150 G1 X0.
N155 G2 Y192.432 I0. J10.167
N160 G1 X914.4
N165 G18 G2 X916.622 Z1.722 I0. K2.222
N170 G1 Z5.
N175 X928.846 Y9.432
N180 Z1.222
N185 G3 X926.624 Z-1. I-2.222 K0.
N190 G1 X914.4
N195 X0.
N200 G17 G2 Y29.765 I0. J10.167
N205 G1 X914.4
N210 G3 Y50.099 I0. J10.167
N215 G1 X0.
N220 G2 Y70.432 I0. J10.167
N225 G1 X914.4
N230 G3 Y90.765 I0. J10.167
N235 G1 X0.
N240 G2 Y111.099 I0. J10.167
N245 G1 X914.4
N250 G3 Y131.432 I0. J10.167
N255 G1 X0.
N260 G2 Y151.765 I0. J10.167
N265 G1 X914.4
N270 G3 Y172.099 I0. J10.167
N275 G1 X0.
N280 G2 Y192.432 I0. J10.167
N285 G1 X914.4
N290 G18 G2 X916.622 Z1.222 I0. K2.222
N295 G1 Z15.
N300 G17
N305 G53 G0 Z0.
N310 M30
%
