%
(SURFACECHERRYBOARD)
(T3  D=22.225 CR=0. - ZMIN=-2. - FACE MILL)
N10 G90 G94 G17 G91.1
N15 G21
(WHEN USING FUSION 360 FOR PERSONAL USE, THE FEEDRATE OF)
(RAPID MOVES IS REDUCED TO MATCH THE FEEDRATE OF CUTTING)
(MOVES, WHICH CAN INCREASE MACHINING TIME. UNRESTRICTED RAPID)
(MOVES ARE AVAILABLE WITH A FUSION 360 SUBSCRIPTION.)
N20 G53 G0 Z0.
(FACE1)
N25 T3 M6
N30 S15000 M3
N35 G54
N40 G0 X992.346 Y8.647
N45 G43 Z15. H3
N50 G1 Z5. F2540.
N55 Z1.822
N60 G18 G3 X990.124 Z-0.4 I-2.222 K0.
N65 G1 X977.9
N70 X0.
N75 G17 G2 Y28.196 I0. J9.774
N80 G1 X977.9
N85 G3 Y47.745 I0. J9.774
N90 G1 X0.
N95 G2 Y67.294 I0. J9.774
N100 G1 X977.9
N105 G3 Y86.842 I0. J9.774
N110 G1 X0.
N115 G2 Y106.391 I0. J9.774
N120 G1 X977.9
N125 G3 Y125.94 I0. J9.774
N130 G1 X0.
N135 G2 Y145.488 I0. J9.774
N140 G1 X977.9
N145 G3 Y165.037 I0. J9.774
N150 G1 X0.
N155 G2 Y184.586 I0. J9.774
N160 G1 X977.9
N165 G3 Y204.135 I0. J9.774
N170 G1 X0.
N175 G2 Y223.683 I0. J9.774
N180 G1 X977.9
N185 G3 Y243.232 I0. J9.774
N190 G1 X0.
N195 G18 G3 X-2.223 Z1.822 I0. K2.222
N200 G1 Z5.
N205 X-14.446 Y8.647
N210 Z1.423
N215 G2 X-12.224 Z-0.8 I2.222 K0.
N220 G1 X0.
N225 X977.9
N230 G17 G3 Y28.196 I0. J9.774
N235 G1 X0.
N240 G2 Y47.745 I0. J9.774
N245 G1 X977.9
N250 G3 Y67.294 I0. J9.774
N255 G1 X0.
N260 G2 Y86.842 I0. J9.774
N265 G1 X977.9
N270 G3 Y106.391 I0. J9.774
N275 G1 X0.
N280 G2 Y125.94 I0. J9.774
N285 G1 X977.9
N290 G3 Y145.488 I0. J9.774
N295 G1 X0.
N300 G2 Y165.037 I0. J9.774
N305 G1 X977.9
N310 G3 Y184.586 I0. J9.774
N315 G1 X0.
N320 G2 Y204.135 I0. J9.774
N325 G1 X977.9
N330 G3 Y223.683 I0. J9.774
N335 G1 X0.
N340 G2 Y243.232 I0. J9.774
N345 G1 X977.9
N350 G18 G2 X980.122 Z1.423 I0. K2.223
N355 G1 Z5.
N360 X992.346 Y8.647
N365 Z1.023
N370 G3 X990.124 Z-1.2 I-2.222 K0.
N375 G1 X977.9
N380 X0.
N385 G17 G2 Y28.196 I0. J9.774
N390 G1 X977.9
N395 G3 Y47.745 I0. J9.774
N400 G1 X0.
N405 G2 Y67.294 I0. J9.774
N410 G1 X977.9
N415 G3 Y86.842 I0. J9.774
N420 G1 X0.
N425 G2 Y106.391 I0. J9.774
N430 G1 X977.9
N435 G3 Y125.94 I0. J9.774
N440 G1 X0.
N445 G2 Y145.488 I0. J9.774
N450 G1 X977.9
N455 G3 Y165.037 I0. J9.774
N460 G1 X0.
N465 G2 Y184.586 I0. J9.774
N470 G1 X977.9
N475 G3 Y204.135 I0. J9.774
N480 G1 X0.
N485 G2 Y223.683 I0. J9.774
N490 G1 X977.9
N495 G3 Y243.232 I0. J9.774
N500 G1 X0.
N505 G18 G3 X-2.223 Z1.023 I0. K2.223
N510 G1 Z5.
N515 X-14.446 Y8.647
N520 Z0.623
N525 G2 X-12.224 Z-1.6 I2.222 K0.
N530 G1 X0.
N535 X977.9
N540 G17 G3 Y28.196 I0. J9.774
N545 G1 X0.
N550 G2 Y47.745 I0. J9.774
N555 G1 X977.9
N560 G3 Y67.294 I0. J9.774
N565 G1 X0.
N570 G2 Y86.842 I0. J9.774
N575 G1 X977.9
N580 G3 Y106.391 I0. J9.774
N585 G1 X0.
N590 G2 Y125.94 I0. J9.774
N595 G1 X977.9
N600 G3 Y145.488 I0. J9.774
N605 G1 X0.
N610 G2 Y165.037 I0. J9.774
N615 G1 X977.9
N620 G3 Y184.586 I0. J9.774
N625 G1 X0.
N630 G2 Y204.135 I0. J9.774
N635 G1 X977.9
N640 G3 Y223.683 I0. J9.774
N645 G1 X0.
N650 G2 Y243.232 I0. J9.774
N655 G1 X977.9
N660 G18 G2 X980.122 Z0.623 I0. K2.223
N665 G1 Z5.
N670 X992.346 Y8.647
N675 Z0.222
N680 G3 X990.124 Z-2. I-2.222 K0.
N685 G1 X977.9
N690 X0.
N695 G17 G2 Y28.196 I0. J9.774
N700 G1 X977.9
N705 G3 Y47.745 I0. J9.774
N710 G1 X0.
N715 G2 Y67.294 I0. J9.774
N720 G1 X977.9
N725 G3 Y86.842 I0. J9.774
N730 G1 X0.
N735 G2 Y106.391 I0. J9.774
N740 G1 X977.9
N745 G3 Y125.94 I0. J9.774
N750 G1 X0.
N755 G2 Y145.488 I0. J9.774
N760 G1 X977.9
N765 G3 Y165.037 I0. J9.774
N770 G1 X0.
N775 G2 Y184.586 I0. J9.774
N780 G1 X977.9
N785 G3 Y204.135 I0. J9.774
N790 G1 X0.
N795 G2 Y223.683 I0. J9.774
N800 G1 X977.9
N805 G3 Y243.232 I0. J9.774
N810 G1 X0.
N815 G18 G3 X-2.223 Z0.222 I0. K2.222
N820 G1 Z15.
N825 G17
N830 G53 G0 Z0.
N835 M30
%
