%
(SURFACECHERRYBOARD)
(T3  D=22.225 CR=0. - ZMIN=-1. - FACE MILL)
N10 G90 G94 G17 G91.1
N15 G21
(WHEN USING FUSION 360 FOR PERSONAL USE, THE FEEDRATE OF)
(RAPID MOVES IS REDUCED TO MATCH THE FEEDRATE OF CUTTING)
(MOVES, WHICH CAN INCREASE MACHINING TIME. UNRESTRICTED RAPID)
(MOVES ARE AVAILABLE WITH A FUSION 360 SUBSCRIPTION.)
N20 G53 G0 Z0.
(FACE1)
N25 T3 M6
N30 S20000 M3
N35 G54
N40 G0 X928.846 Y8.647
N45 G43 Z15. H3
N50 G1 Z5. F3750.
N55 Z1.722
N60 G18 G3 X926.624 Z-0.5 I-2.222 K0.
N65 G1 X914.4
N70 X0.
N75 G17 G2 Y28.196 I0. J9.774
N80 G1 X914.4
N85 G3 Y47.745 I0. J9.774
N90 G1 X0.
N95 G2 Y67.294 I0. J9.774
N100 G1 X914.4
N105 G3 Y86.842 I0. J9.774
N110 G1 X0.
N115 G2 Y106.391 I0. J9.774
N120 G1 X914.4
N125 G3 Y125.94 I0. J9.774
N130 G1 X0.
N135 G2 Y145.488 I0. J9.774
N140 G1 X914.4
N145 G3 Y165.037 I0. J9.774
N150 G1 X0.
N155 G2 Y184.586 I0. J9.774
N160 G1 X914.4
N165 G3 Y204.135 I0. J9.774
N170 G1 X0.
N175 G2 Y223.683 I0. J9.774
N180 G1 X914.4
N185 G3 Y243.232 I0. J9.774
N190 G1 X0.
N195 G18 G3 X-2.223 Z1.722 I0. K2.222
N200 G1 Z5.
N205 X-14.446 Y8.647
N210 Z1.222
N215 G2 X-12.224 Z-1. I2.222 K0.
N220 G1 X0.
N225 X914.4
N230 G17 G3 Y28.196 I0. J9.774
N235 G1 X0.
N240 G2 Y47.745 I0. J9.774
N245 G1 X914.4
N250 G3 Y67.294 I0. J9.774
N255 G1 X0.
N260 G2 Y86.842 I0. J9.774
N265 G1 X914.4
N270 G3 Y106.391 I0. J9.774
N275 G1 X0.
N280 G2 Y125.94 I0. J9.774
N285 G1 X914.4
N290 G3 Y145.488 I0. J9.774
N295 G1 X0.
N300 G2 Y165.037 I0. J9.774
N305 G1 X914.4
N310 G3 Y184.586 I0. J9.774
N315 G1 X0.
N320 G2 Y204.135 I0. J9.774
N325 G1 X914.4
N330 G3 Y223.683 I0. J9.774
N335 G1 X0.
N340 G2 Y243.232 I0. J9.774
N345 G1 X914.4
N350 G18 G2 X916.622 Z1.222 I0. K2.222
N355 G1 Z15.
N360 G17
N365 G53 G0 Z0.
N370 M30
%
