%
(SURFACECHERRYBOARD)
(T3  D=22.225 CR=0. - ZMIN=-2. - FACE MILL)
N10 G90 G94 G17 G91.1
N15 G21
(WHEN USING FUSION 360 FOR PERSONAL USE, THE FEEDRATE OF)
(RAPID MOVES IS REDUCED TO MATCH THE FEEDRATE OF CUTTING)
(MOVES, WHICH CAN INCREASE MACHINING TIME. UNRESTRICTED RAPID)
(MOVES ARE AVAILABLE WITH A FUSION 360 SUBSCRIPTION.)
N20 G53 G0 Z0.
(FACE1)
N25 T3 M6
N30 S15000 M3
N35 G54
N40 M8
N45 G0 X992.346 Y8.647
N50 G43 Z15. H3
N55 G1 Z5. F2540.
N60 Z1.822
N65 G18 G3 X990.124 Z-0.4 I-2.222 K0.
N70 G1 X977.9
N75 X0.
N80 G17 G2 Y28.196 I0. J9.774
N85 G1 X977.9
N90 G3 Y47.745 I0. J9.774
N95 G1 X0.
N100 G2 Y67.294 I0. J9.774
N105 G1 X977.9
N110 G3 Y86.842 I0. J9.774
N115 G1 X0.
N120 G2 Y106.391 I0. J9.774
N125 G1 X977.9
N130 G3 Y125.94 I0. J9.774
N135 G1 X0.
N140 G2 Y145.488 I0. J9.774
N145 G1 X977.9
N150 G3 Y165.037 I0. J9.774
N155 G1 X0.
N160 G2 Y184.586 I0. J9.774
N165 G1 X977.9
N170 G3 Y204.135 I0. J9.774
N175 G1 X0.
N180 G2 Y223.683 I0. J9.774
N185 G1 X977.9
N190 G3 Y243.232 I0. J9.774
N195 G1 X0.
N200 G18 G3 X-2.223 Z1.822 I0. K2.222
N205 G1 Z5.
N210 X-14.446 Y8.647
N215 Z1.423
N220 G2 X-12.224 Z-0.8 I2.222 K0.
N225 G1 X0.
N230 X977.9
N235 G17 G3 Y28.196 I0. J9.774
N240 G1 X0.
N245 G2 Y47.745 I0. J9.774
N250 G1 X977.9
N255 G3 Y67.294 I0. J9.774
N260 G1 X0.
N265 G2 Y86.842 I0. J9.774
N270 G1 X977.9
N275 G3 Y106.391 I0. J9.774
N280 G1 X0.
N285 G2 Y125.94 I0. J9.774
N290 G1 X977.9
N295 G3 Y145.488 I0. J9.774
N300 G1 X0.
N305 G2 Y165.037 I0. J9.774
N310 G1 X977.9
N315 G3 Y184.586 I0. J9.774
N320 G1 X0.
N325 G2 Y204.135 I0. J9.774
N330 G1 X977.9
N335 G3 Y223.683 I0. J9.774
N340 G1 X0.
N345 G2 Y243.232 I0. J9.774
N350 G1 X977.9
N355 G18 G2 X980.122 Z1.423 I0. K2.223
N360 G1 Z5.
N365 X992.346 Y8.647
N370 Z1.023
N375 G3 X990.124 Z-1.2 I-2.222 K0.
N380 G1 X977.9
N385 X0.
N390 G17 G2 Y28.196 I0. J9.774
N395 G1 X977.9
N400 G3 Y47.745 I0. J9.774
N405 G1 X0.
N410 G2 Y67.294 I0. J9.774
N415 G1 X977.9
N420 G3 Y86.842 I0. J9.774
N425 G1 X0.
N430 G2 Y106.391 I0. J9.774
N435 G1 X977.9
N440 G3 Y125.94 I0. J9.774
N445 G1 X0.
N450 G2 Y145.488 I0. J9.774
N455 G1 X977.9
N460 G3 Y165.037 I0. J9.774
N465 G1 X0.
N470 G2 Y184.586 I0. J9.774
N475 G1 X977.9
N480 G3 Y204.135 I0. J9.774
N485 G1 X0.
N490 G2 Y223.683 I0. J9.774
N495 G1 X977.9
N500 G3 Y243.232 I0. J9.774
N505 G1 X0.
N510 G18 G3 X-2.223 Z1.023 I0. K2.223
N515 G1 Z5.
N520 X-14.446 Y8.647
N525 Z0.623
N530 G2 X-12.224 Z-1.6 I2.222 K0.
N535 G1 X0.
N540 X977.9
N545 G17 G3 Y28.196 I0. J9.774
N550 G1 X0.
N555 G2 Y47.745 I0. J9.774
N560 G1 X977.9
N565 G3 Y67.294 I0. J9.774
N570 G1 X0.
N575 G2 Y86.842 I0. J9.774
N580 G1 X977.9
N585 G3 Y106.391 I0. J9.774
N590 G1 X0.
N595 G2 Y125.94 I0. J9.774
N600 G1 X977.9
N605 G3 Y145.488 I0. J9.774
N610 G1 X0.
N615 G2 Y165.037 I0. J9.774
N620 G1 X977.9
N625 G3 Y184.586 I0. J9.774
N630 G1 X0.
N635 G2 Y204.135 I0. J9.774
N640 G1 X977.9
N645 G3 Y223.683 I0. J9.774
N650 G1 X0.
N655 G2 Y243.232 I0. J9.774
N660 G1 X977.9
N665 G18 G2 X980.122 Z0.623 I0. K2.223
N670 G1 Z5.
N675 X992.346 Y8.647
N680 Z0.222
N685 G3 X990.124 Z-2. I-2.222 K0.
N690 G1 X977.9
N695 X0.
N700 G17 G2 Y28.196 I0. J9.774
N705 G1 X977.9
N710 G3 Y47.745 I0. J9.774
N715 G1 X0.
N720 G2 Y67.294 I0. J9.774
N725 G1 X977.9
N730 G3 Y86.842 I0. J9.774
N735 G1 X0.
N740 G2 Y106.391 I0. J9.774
N745 G1 X977.9
N750 G3 Y125.94 I0. J9.774
N755 G1 X0.
N760 G2 Y145.488 I0. J9.774
N765 G1 X977.9
N770 G3 Y165.037 I0. J9.774
N775 G1 X0.
N780 G2 Y184.586 I0. J9.774
N785 G1 X977.9
N790 G3 Y204.135 I0. J9.774
N795 G1 X0.
N800 G2 Y223.683 I0. J9.774
N805 G1 X977.9
N810 G3 Y243.232 I0. J9.774
N815 G1 X0.
N820 G18 G3 X-2.223 Z0.222 I0. K2.222
N825 G1 Z15.
N830 G17
N835 M9
N840 G53 G0 Z0.
N845 M30
%
