%
(TIMBSENDGRAINBOARDCHERRY.NGC)
(T4  D=6. CR=0. - ZMIN=-30. - FLAT END MILL)
N10 G90 G94 G17 G91.1
N15 G21
(WHEN USING FUSION 360 FOR PERSONAL USE, THE FEEDRATE OF)
(RAPID MOVES IS REDUCED TO MATCH THE FEEDRATE OF CUTTING)
(MOVES, WHICH CAN INCREASE MACHINING TIME. UNRESTRICTED RAPID)
(MOVES ARE AVAILABLE WITH A FUSION 360 SUBSCRIPTION.)
N20 G53 G0 Z0.
(2D CONTOUR1)
N25 T4 M6
N30 S10000 M3
N35 G54
N40 G64 P0.01 Q0.01
N45 M8
N50 G0 X-120.745 Y-177.3
N55 G43 Z22. H4
N60 G1 Z10. F2200.
N65 Z7. F733.33
N70 Z3.1
N75 G19 G3 Y-176.7 Z2.5 J0.6 K0. F2200.
N80 G1 Y-176.1
N85 G17 G3 X-121.345 Y-175.5 I-0.6 J0.
N90 G1 X-175.95 Z2.275 F733.33
N95 G2 X-198. Y-153.45 Z2.132 I0. J22.05
N100 G1 Y153.45 Z0.868
N105 G2 X-175.95 Y175.5 Z0.725 I22.05 J0.
N110 G1 X175.95 Z-0.725
N115 G2 X198. Y153.45 Z-0.868 I0. J-22.05
N120 G1 Y-153.45 Z-2.132
N125 G2 X175.95 Y-175.5 Z-2.275 I-22.05 J0.
N130 G1 X-175.95 Z-3.725
N135 G2 X-198. Y-153.45 Z-3.868 I0. J22.05
N140 G1 Y153.45 Z-5.132
N145 G2 X-175.95 Y175.5 Z-5.275 I22.05 J0.
N150 G1 X0. Z-6.
N155 X175.95 F2200.
N160 G2 X198. Y153.45 I0. J-22.05
N165 G1 Y-153.45
N170 G2 X175.95 Y-175.5 I-22.05 J0.
N175 G1 X-175.95
N180 G2 X-198. Y-153.45 I0. J22.05
N185 G1 Y153.45
N190 G2 X-175.95 Y175.5 I22.05 J0.
N195 G1 X0.
N200 X175.95 Z-6.725 F733.33
N205 G2 X198. Y153.45 Z-6.868 I0. J-22.05
N210 G1 Y-153.45 Z-8.132
N215 G2 X175.95 Y-175.5 Z-8.275 I-22.05 J0.
N220 G1 X-175.95 Z-9.725
N225 G2 X-198. Y-153.45 Z-9.868 I0. J22.05
N230 G1 Y153.45 Z-11.132
N235 G2 X-175.95 Y175.5 Z-11.275 I22.05 J0.
N240 G1 X0. Z-12.
N245 X175.95 F2200.
N250 G2 X198. Y153.45 I0. J-22.05
N255 G1 Y-153.45
N260 G2 X175.95 Y-175.5 I-22.05 J0.
N265 G1 X-175.95
N270 G2 X-198. Y-153.45 I0. J22.05
N275 G1 Y153.45
N280 G2 X-175.95 Y175.5 I22.05 J0.
N285 G1 X0.
N290 X175.95 Z-12.725 F733.33
N295 G2 X198. Y153.45 Z-12.868 I0. J-22.05
N300 G1 Y-153.45 Z-14.132
N305 G2 X175.95 Y-175.5 Z-14.275 I-22.05 J0.
N310 G1 X-175.95 Z-15.725
N315 G2 X-198. Y-153.45 Z-15.868 I0. J22.05
N320 G1 Y153.45 Z-17.132
N325 G2 X-175.95 Y175.5 Z-17.275 I22.05 J0.
N330 G1 X0. Z-18.
N335 X175.95 F2200.
N340 G2 X198. Y153.45 I0. J-22.05
N345 G1 Y-153.45
N350 G2 X175.95 Y-175.5 I-22.05 J0.
N355 G1 X-175.95
N360 G2 X-198. Y-153.45 I0. J22.05
N365 G1 Y153.45
N370 G2 X-175.95 Y175.5 I22.05 J0.
N375 G1 X0.
N380 X175.95 Z-18.725 F733.33
N385 G2 X198. Y153.45 Z-18.868 I0. J-22.05
N390 G1 Y-153.45 Z-20.132
N395 G2 X175.95 Y-175.5 Z-20.275 I-22.05 J0.
N400 G1 X-175.95 Z-21.725
N405 G2 X-198. Y-153.45 Z-21.868 I0. J22.05
N410 G1 Y153.45 Z-23.132
N415 G2 X-175.95 Y175.5 Z-23.275 I22.05 J0.
N420 G1 X0. Z-24.
N425 X175.95 F2200.
N430 G2 X198. Y153.45 I0. J-22.05
N435 G1 Y-153.45
N440 G2 X175.95 Y-175.5 I-22.05 J0.
N445 G1 X-175.95
N450 G2 X-198. Y-153.45 I0. J22.05
N455 G1 Y153.45
N460 G2 X-175.95 Y175.5 I22.05 J0.
N465 G1 X0.
N470 X175.95 Z-24.725 F733.33
N475 G2 X198. Y153.45 Z-24.868 I0. J-22.05
N480 G1 Y-153.45 Z-26.132
N485 G2 X175.95 Y-175.5 Z-26.275 I-22.05 J0.
N490 G1 X-175.95 Z-27.725
N495 G2 X-198. Y-153.45 Z-27.868 I0. J22.05
N500 G1 Y153.45 Z-29.132
N505 G2 X-175.95 Y175.5 Z-29.275 I22.05 J0.
N510 G1 X0. Z-30.
N515 X175.95 F2200.
N520 G2 X198. Y153.45 I0. J-22.05
N525 G1 Y-153.45
N530 G2 X175.95 Y-175.5 I-22.05 J0.
N535 G1 X-175.95
N540 G2 X-198. Y-153.45 I0. J22.05
N545 G1 Y153.45
N550 G2 X-175.95 Y175.5 I22.05 J0.
N555 G1 X0.
N560 G3 X0.6 Y176.1 I0. J0.6
N565 G1 Y176.7
N570 G19 G3 Y177.3 Z-29.4 J0. K0.6
N575 G1 Z22.
N580 G17
N585 M9
N590 G53 G0 Z0.
N595 M30
%
