%
(1001)
(T6 D=6.35 CR=0. - ZMIN=-20.05 - FLAT END MILL)
N10 G90 G94 G17 G91.1
N15 G21
(WHEN USING FUSION 360 FOR PERSONAL USE, THE FEEDRATE OF)
(RAPID MOVES IS REDUCED TO MATCH THE FEEDRATE OF CUTTING)
(MOVES, WHICH CAN INCREASE MACHINING TIME. UNRESTRICTED RAPID)
(MOVES ARE AVAILABLE WITH A FUSION 360 SUBSCRIPTION.)
N20 G53 G0 Z0.
(2D CONTOUR2)
N25 T6 M6
N30 S10000 M3
N35 G17 G90 G94
N40 G54
N45 G64 P0.01 Q0.01
N50 G0 X298.887 Y7.881
N55 G43 Z10. H6
N60 G1 Z5. F2200.
N65 Z-6.35 F733.33
N70 G2 X297.699 Y10.08 I18.048 J11.169 F2200.
N75 G1 X290.843 Y24.784
N80 G3 X289.031 Y23.939 I-0.906 J-0.423
N85 G1 X296.996 Y6.859
N90 G2 X291.24 Y-2.175 I-5.755 J-2.683
N95 G1 X266.136
N100 G2 X246.899 Y10.08 I0. J21.225
N105 G1 X240.043 Y24.784
N110 G3 X238.231 Y23.939 I-0.906 J-0.423
N115 G1 X246.196 Y6.859
N120 G2 X240.44 Y-2.175 I-5.755 J-2.683
N125 G1 X215.336
N130 G2 X196.099 Y10.08 I0. J21.225
N135 G1 X189.243 Y24.784
N140 G3 X187.431 Y23.939 I-0.906 J-0.423
N145 G1 X195.396 Y6.859
N150 G2 X189.64 Y-2.175 I-5.755 J-2.683
N155 G1 X164.536
N160 G2 X145.299 Y10.08 I0. J21.225
N165 G1 X138.443 Y24.784
N170 G3 X136.631 Y23.939 I-0.906 J-0.423
N175 G1 X144.596 Y6.859
N180 G2 X138.84 Y-2.175 I-5.755 J-2.683
N185 G1 X113.736
N190 G2 X94.5 Y10.08 I0. J21.225
N195 G1 X87.643 Y24.785
N200 G3 X85.83 Y23.939 I-0.906 J-0.423
N205 G1 X93.795 Y6.859
N210 G2 X88.04 Y-2.175 I-5.755 J-2.684
N215 G1 X62.936
N220 G2 X43.7 Y10.08 I0. J21.225
N225 G1 X36.843 Y24.785
N230 G3 X35.03 Y23.939 I-0.906 J-0.423
N235 G1 X43.461 Y5.859
N240 G2 X37.706 Y-3.175 I-5.755 J-2.684
N245 G1 X25.4
N250 G2 X-3.175 Y25.4 I0. J28.575
N255 G1 Y38.1
N260 G2 X0. Y41.275 I3.175 J0.
N265 G1 X609.6
N270 G2 X612.775 Y38.1 I0. J-3.175
N275 G1 Y13.7
N280 G2 X596.9 Y-2.175 I-15.875 J0.
N285 G1 X570.936
N290 G2 X551.699 Y10.08 I0. J21.225
N295 G1 X544.843 Y24.784
N300 G3 X543.031 Y23.939 I-0.906 J-0.423
N305 G1 X550.996 Y6.859
N310 G2 X545.24 Y-2.175 I-5.755 J-2.683
N315 G1 X520.136
N320 G2 X500.899 Y10.08 I0. J21.225
N325 G1 X494.043 Y24.784
N330 G3 X492.231 Y23.939 I-0.906 J-0.423
N335 G1 X500.196 Y6.859
N340 G2 X494.44 Y-2.175 I-5.755 J-2.683
N345 G1 X469.336
N350 G2 X450.099 Y10.08 I0. J21.225
N355 G1 X443.243 Y24.784
N360 G3 X441.431 Y23.939 I-0.906 J-0.423
N365 G1 X449.396 Y6.859
N370 G2 X443.64 Y-2.175 I-5.755 J-2.683
N375 G1 X418.536
N380 G2 X399.299 Y10.08 I0. J21.225
N385 G1 X392.443 Y24.784
N390 G3 X390.631 Y23.939 I-0.906 J-0.423
N395 G1 X398.596 Y6.859
N400 G2 X392.84 Y-2.175 I-5.755 J-2.683
N405 G1 X367.736
N410 G2 X348.499 Y10.08 I0. J21.225
N415 G1 X341.643 Y24.784
N420 G3 X339.831 Y23.939 I-0.906 J-0.423
N425 G1 X347.796 Y6.859
N430 G2 X342.04 Y-2.175 I-5.755 J-2.683
N435 G1 X316.936
N440 G2 X298.887 Y7.881 I0. J21.225
N445 G3 X298.013 Y8.086 I-0.54 J-0.334
N450 G1 X297.473 Y7.752
N455 X297.389 Y7.7 Z-6.342
N460 X297.307 Y7.649 Z-6.319
N465 X297.228 Y7.601 Z-6.281
N470 X297.156 Y7.556 Z-6.229
N475 X297.092 Y7.516 Z-6.164
N480 X297.037 Y7.482 Z-6.088
N485 X296.992 Y7.454 Z-6.003
N490 X296.96 Y7.434 Z-5.911
N495 X296.94 Y7.422 Z-5.814
N500 X296.933 Y7.418 Z-5.715
N505 Z5.
N510 X298.887 Y7.881
N515 Z-1.35 F733.33
N520 Z-12.7
N525 G2 X297.699 Y10.08 I18.048 J11.169 F2200.
N530 G1 X290.843 Y24.784
N535 G3 X289.031 Y23.939 I-0.906 J-0.423
N540 G1 X296.996 Y6.859
N545 G2 X291.24 Y-2.175 I-5.755 J-2.683
N550 G1 X266.136
N555 G2 X246.899 Y10.08 I0. J21.225
N560 G1 X240.043 Y24.784
N565 G3 X238.231 Y23.939 I-0.906 J-0.423
N570 G1 X246.196 Y6.859
N575 G2 X240.44 Y-2.175 I-5.755 J-2.683
N580 G1 X215.336
N585 G2 X196.099 Y10.08 I0. J21.225
N590 G1 X189.243 Y24.784
N595 G3 X187.431 Y23.939 I-0.906 J-0.423
N600 G1 X195.396 Y6.859
N605 G2 X189.64 Y-2.175 I-5.755 J-2.683
N610 G1 X164.536
N615 G2 X145.299 Y10.08 I0. J21.225
N620 G1 X138.443 Y24.784
N625 G3 X136.631 Y23.939 I-0.906 J-0.423
N630 G1 X144.596 Y6.859
N635 G2 X138.84 Y-2.175 I-5.755 J-2.683
N640 G1 X113.736
N645 G2 X94.5 Y10.08 I0. J21.225
N650 G1 X87.643 Y24.785
N655 G3 X85.83 Y23.939 I-0.906 J-0.423
N660 G1 X93.795 Y6.859
N665 G2 X88.04 Y-2.175 I-5.755 J-2.684
N670 G1 X62.936
N675 G2 X43.7 Y10.08 I0. J21.225
N680 G1 X36.843 Y24.785
N685 G3 X35.03 Y23.939 I-0.906 J-0.423
N690 G1 X43.461 Y5.859
N695 G2 X37.706 Y-3.175 I-5.755 J-2.684
N700 G1 X25.4
N705 G2 X-3.175 Y25.4 I0. J28.575
N710 G1 Y38.1
N715 G2 X0. Y41.275 I3.175 J0.
N720 G1 X609.6
N725 G2 X612.775 Y38.1 I0. J-3.175
N730 G1 Y13.7
N735 G2 X596.9 Y-2.175 I-15.875 J0.
N740 G1 X570.936
N745 G2 X551.699 Y10.08 I0. J21.225
N750 G1 X544.843 Y24.784
N755 G3 X543.031 Y23.939 I-0.906 J-0.423
N760 G1 X550.996 Y6.859
N765 G2 X545.24 Y-2.175 I-5.755 J-2.683
N770 G1 X520.136
N775 G2 X500.899 Y10.08 I0. J21.225
N780 G1 X494.043 Y24.784
N785 G3 X492.231 Y23.939 I-0.906 J-0.423
N790 G1 X500.196 Y6.859
N795 G2 X494.44 Y-2.175 I-5.755 J-2.683
N800 G1 X469.336
N805 G2 X450.099 Y10.08 I0. J21.225
N810 G1 X443.243 Y24.784
N815 G3 X441.431 Y23.939 I-0.906 J-0.423
N820 G1 X449.396 Y6.859
N825 G2 X443.64 Y-2.175 I-5.755 J-2.683
N830 G1 X418.536
N835 G2 X399.299 Y10.08 I0. J21.225
N840 G1 X392.443 Y24.784
N845 G3 X390.631 Y23.939 I-0.906 J-0.423
N850 G1 X398.596 Y6.859
N855 G2 X392.84 Y-2.175 I-5.755 J-2.683
N860 G1 X367.736
N865 G2 X348.499 Y10.08 I0. J21.225
N870 G1 X341.643 Y24.784
N875 G3 X339.831 Y23.939 I-0.906 J-0.423
N880 G1 X347.796 Y6.859
N885 G2 X342.04 Y-2.175 I-5.755 J-2.683
N890 G1 X316.936
N895 G2 X298.887 Y7.881 I0. J21.225
N900 G3 X298.013 Y8.086 I-0.54 J-0.334
N905 G1 X297.473 Y7.752
N910 X297.389 Y7.7 Z-12.692
N915 X297.307 Y7.649 Z-12.669
N920 X297.228 Y7.601 Z-12.631
N925 X297.156 Y7.556 Z-12.579
N930 X297.092 Y7.516 Z-12.514
N935 X297.037 Y7.482 Z-12.438
N940 X296.992 Y7.454 Z-12.353
N945 X296.96 Y7.434 Z-12.261
N950 X296.94 Y7.422 Z-12.164
N955 X296.933 Y7.418 Z-12.065
N960 Z5.
N965 X298.887 Y7.881
N970 Z-7.7 F733.33
N975 Z-16.375
N980 G2 X297.699 Y10.08 I18.048 J11.169 F2200.
N985 G1 X290.843 Y24.784
N990 G3 X289.031 Y23.939 I-0.906 J-0.423
N995 G1 X296.996 Y6.859
N1000 G2 X291.24 Y-2.175 I-5.755 J-2.683
N1005 G1 X266.136
N1010 G2 X246.899 Y10.08 I0. J21.225
N1015 G1 X240.043 Y24.784
N1020 G3 X238.231 Y23.939 I-0.906 J-0.423
N1025 G1 X246.196 Y6.859
N1030 G2 X240.44 Y-2.175 I-5.755 J-2.683
N1035 G1 X215.336
N1040 G2 X196.099 Y10.08 I0. J21.225
N1045 G1 X189.243 Y24.784
N1050 G3 X187.431 Y23.939 I-0.906 J-0.423
N1055 G1 X195.396 Y6.859
N1060 G2 X189.64 Y-2.175 I-5.755 J-2.683
N1065 G1 X164.536
N1070 G2 X145.299 Y10.08 I0. J21.225
N1075 G1 X138.443 Y24.784
N1080 G3 X136.631 Y23.939 I-0.906 J-0.423
N1085 G1 X144.596 Y6.859
N1090 G2 X138.84 Y-2.175 I-5.755 J-2.683
N1095 G1 X113.736
N1100 G2 X94.5 Y10.08 I0. J21.225
N1105 G1 X87.643 Y24.785
N1110 G3 X85.83 Y23.939 I-0.906 J-0.423
N1115 G1 X93.795 Y6.859
N1120 G2 X88.04 Y-2.175 I-5.755 J-2.684
N1125 G1 X62.936
N1130 G2 X43.7 Y10.08 I0. J21.225
N1135 G1 X36.843 Y24.785
N1140 G3 X35.03 Y23.939 I-0.906 J-0.423
N1145 G1 X43.461 Y5.859
N1150 G2 X37.706 Y-3.175 I-5.755 J-2.684
N1155 G1 X25.4
N1160 G2 X-3.175 Y25.4 I0. J28.575
N1165 G1 Y38.1
N1170 G2 X0. Y41.275 I3.175 J0.
N1175 G1 X609.6
N1180 G2 X612.775 Y38.1 I0. J-3.175
N1185 G1 Y13.7
N1190 G2 X596.9 Y-2.175 I-15.875 J0.
N1195 G1 X570.936
N1200 G2 X551.699 Y10.08 I0. J21.225
N1205 G1 X544.843 Y24.784
N1210 G3 X543.031 Y23.939 I-0.906 J-0.423
N1215 G1 X550.996 Y6.859
N1220 G2 X545.24 Y-2.175 I-5.755 J-2.683
N1225 G1 X520.136
N1230 G2 X500.899 Y10.08 I0. J21.225
N1235 G1 X494.043 Y24.784
N1240 G3 X492.231 Y23.939 I-0.906 J-0.423
N1245 G1 X500.196 Y6.859
N1250 G2 X494.44 Y-2.175 I-5.755 J-2.683
N1255 G1 X469.336
N1260 G2 X450.099 Y10.08 I0. J21.225
N1265 G1 X443.243 Y24.784
N1270 G3 X441.431 Y23.939 I-0.906 J-0.423
N1275 G1 X449.396 Y6.859
N1280 G2 X443.64 Y-2.175 I-5.755 J-2.683
N1285 G1 X418.536
N1290 G2 X399.299 Y10.08 I0. J21.225
N1295 G1 X392.443 Y24.784
N1300 G3 X390.631 Y23.939 I-0.906 J-0.423
N1305 G1 X398.596 Y6.859
N1310 G2 X392.84 Y-2.175 I-5.755 J-2.683
N1315 G1 X367.736
N1320 G2 X348.499 Y10.08 I0. J21.225
N1325 G1 X341.643 Y24.784
N1330 G3 X339.831 Y23.939 I-0.906 J-0.423
N1335 G1 X347.796 Y6.859
N1340 G2 X342.04 Y-2.175 I-5.755 J-2.683
N1345 G1 X316.936
N1350 G2 X298.887 Y7.881 I0. J21.225
N1355 G3 X298.013 Y8.086 I-0.54 J-0.334
N1360 G1 X297.473 Y7.752
N1365 X297.389 Y7.7 Z-16.367
N1370 X297.307 Y7.649 Z-16.344
N1375 X297.228 Y7.601 Z-16.306
N1380 X297.156 Y7.556 Z-16.254
N1385 X297.092 Y7.516 Z-16.189
N1390 X297.037 Y7.482 Z-16.113
N1395 X296.992 Y7.454 Z-16.028
N1400 X296.96 Y7.434 Z-15.936
N1405 X296.94 Y7.422 Z-15.839
N1410 X296.933 Y7.418 Z-15.74
N1415 Z5.
N1420 X298.887 Y7.881
N1425 Z-11.375 F733.33
N1430 Z-20.05
N1435 G2 X297.699 Y10.08 I18.048 J11.169 F2200.
N1440 G1 X290.843 Y24.784
N1445 G3 X289.031 Y23.939 I-0.906 J-0.423
N1450 G1 X296.996 Y6.859
N1455 G2 X291.24 Y-2.175 I-5.755 J-2.683
N1460 G1 X266.136
N1465 G2 X246.899 Y10.08 I0. J21.225
N1470 G1 X240.043 Y24.784
N1475 G3 X238.231 Y23.939 I-0.906 J-0.423
N1480 G1 X246.196 Y6.859
N1485 G2 X240.44 Y-2.175 I-5.755 J-2.683
N1490 G1 X215.336
N1495 G2 X196.099 Y10.08 I0. J21.225
N1500 G1 X189.243 Y24.784
N1505 G3 X187.431 Y23.939 I-0.906 J-0.423
N1510 G1 X195.396 Y6.859
N1515 G2 X189.64 Y-2.175 I-5.755 J-2.683
N1520 G1 X164.536
N1525 G2 X145.299 Y10.08 I0. J21.225
N1530 G1 X138.443 Y24.784
N1535 G3 X136.631 Y23.939 I-0.906 J-0.423
N1540 G1 X144.596 Y6.859
N1545 G2 X138.84 Y-2.175 I-5.755 J-2.683
N1550 G1 X113.736
N1555 G2 X94.5 Y10.08 I0. J21.225
N1560 G1 X87.643 Y24.785
N1565 G3 X85.83 Y23.939 I-0.906 J-0.423
N1570 G1 X93.795 Y6.859
N1575 G2 X88.04 Y-2.175 I-5.755 J-2.684
N1580 G1 X62.936
N1585 G2 X43.7 Y10.08 I0. J21.225
N1590 G1 X36.843 Y24.785
N1595 G3 X35.03 Y23.939 I-0.906 J-0.423
N1600 G1 X43.461 Y5.859
N1605 G2 X37.706 Y-3.175 I-5.755 J-2.684
N1610 G1 X25.4
N1615 G2 X-3.175 Y25.4 I0. J28.575
N1620 G1 Y38.1
N1625 G2 X0. Y41.275 I3.175 J0.
N1630 G1 X609.6
N1635 G2 X612.775 Y38.1 I0. J-3.175
N1640 G1 Y13.7
N1645 G2 X596.9 Y-2.175 I-15.875 J0.
N1650 G1 X570.936
N1655 G2 X551.699 Y10.08 I0. J21.225
N1660 G1 X544.843 Y24.784
N1665 G3 X543.031 Y23.939 I-0.906 J-0.423
N1670 G1 X550.996 Y6.859
N1675 G2 X545.24 Y-2.175 I-5.755 J-2.683
N1680 G1 X520.136
N1685 G2 X500.899 Y10.08 I0. J21.225
N1690 G1 X494.043 Y24.784
N1695 G3 X492.231 Y23.939 I-0.906 J-0.423
N1700 G1 X500.196 Y6.859
N1705 G2 X494.44 Y-2.175 I-5.755 J-2.683
N1710 G1 X469.336
N1715 G2 X450.099 Y10.08 I0. J21.225
N1720 G1 X443.243 Y24.784
N1725 G3 X441.431 Y23.939 I-0.906 J-0.423
N1730 G1 X449.396 Y6.859
N1735 G2 X443.64 Y-2.175 I-5.755 J-2.683
N1740 G1 X418.536
N1745 G2 X399.299 Y10.08 I0. J21.225
N1750 G1 X392.443 Y24.784
N1755 G3 X390.631 Y23.939 I-0.906 J-0.423
N1760 G1 X398.596 Y6.859
N1765 G2 X392.84 Y-2.175 I-5.755 J-2.683
N1770 G1 X367.736
N1775 G2 X348.499 Y10.08 I0. J21.225
N1780 G1 X341.643 Y24.784
N1785 G3 X339.831 Y23.939 I-0.906 J-0.423
N1790 G1 X347.796 Y6.859
N1795 G2 X342.04 Y-2.175 I-5.755 J-2.683
N1800 G1 X316.936
N1805 G2 X298.887 Y7.881 I0. J21.225
N1810 G3 X298.013 Y8.086 I-0.54 J-0.334
N1815 G1 X297.473 Y7.752
N1820 X297.389 Y7.7 Z-20.042
N1825 X297.307 Y7.649 Z-20.019
N1830 X297.228 Y7.601 Z-19.981
N1835 X297.156 Y7.556 Z-19.929
N1840 X297.092 Y7.516 Z-19.864
N1845 X297.037 Y7.482 Z-19.788
N1850 X296.992 Y7.454 Z-19.703
N1855 X296.96 Y7.434 Z-19.611
N1860 X296.94 Y7.422 Z-19.514
N1865 X296.933 Y7.418 Z-19.415
N1870 Z10.
N1875 M5
N1880 G53 G0 Z0.
N1885 M30
%
