%
(WASTEBOARDPOCKET)
(T1  D=22.225 CR=0. - ZMIN=-0.325 - FACE MILL)
N10 G90 G94 G17 G91.1
N15 G21
(WHEN USING FUSION 360 FOR PERSONAL USE, THE FEEDRATE OF)
(RAPID MOVES IS REDUCED TO MATCH THE FEEDRATE OF CUTTING)
(MOVES, WHICH CAN INCREASE MACHINING TIME. UNRESTRICTED RAPID)
(MOVES ARE AVAILABLE WITH A FUSION 360 SUBSCRIPTION.)
N20 G53 G0 Z0.
(2D POCKET3)
N25 T1 M6
N30 S18000 M3
N35 G54
N40 G0 X956.885 Y301.556
N45 G43 Z15. H1
N50 G1 Z5. F2200.
N55 Z4.721
N60 X956.917 Z4.344 F733.33
N65 X957.013 Y301.557 Z3.977
N70 X957.17 Y301.556 Z3.632
N75 X957.383 Y301.55 Z3.319
N80 G2 X957.646 Y301.538 Z3.047 I-0.369 J-10.55
N85 X957.95 Y301.515 Z2.823 I-0.632 J-10.538
N90 X958.288 Y301.48 Z2.654 I-0.936 J-10.515
N95 X958.647 Y301.43 Z2.545 I-1.274 J-10.48
N100 X959.017 Y301.365 Z2.5 I-1.633 J-10.43
N105 X955.01 Y280.635 Z1.342 I-2.004 J-10.365
N110 X959.017 Y301.365 Z0.184 I2.004 J10.365
N115 X967.571 Y291. Z-0.325 I-2.004 J-10.365
N120 G1 Y4.749 F2200.
N125 G2 X967.251 Y4.429 I-0.319 J0.
N130 G1 X4.749
N135 G2 X4.429 Y4.749 I0. J0.319
N140 G1 Y577.251
N145 G2 X4.749 Y577.571 I0.319 J0.
N150 G1 X967.251
N155 G2 X967.571 Y577.251 I0. J-0.319
N160 G1 Y291.
N165 G2 X958.373 Y277.203 I-14.947 J0.
N170 G3 X949.175 Y263.406 I5.749 J-13.797
N175 G1 Y23.145
N180 G2 X948.855 Y22.825 I-0.319 J0.
N185 G1 X23.145
N190 G2 X22.825 Y23.145 I0. J0.319
N195 G1 Y558.855
N200 G2 X23.145 Y559.175 I0.319 J0.
N205 G1 X948.855
N210 G2 X949.175 Y558.855 I0. J-0.319
N215 G1 Y263.406
N220 G2 X939.977 Y249.609 I-14.947 J0.
N225 G3 X930.779 Y235.812 I5.749 J-13.797
N230 G1 Y41.541
N235 G2 X930.459 Y41.221 I-0.319 J0.
N240 G1 X41.541
N245 G2 X41.221 Y41.541 I0. J0.319
N250 G1 Y540.459
N255 G2 X41.541 Y540.779 I0.319 J0.
N260 G1 X930.459
N265 G2 X930.779 Y540.459 I0. J-0.319
N270 G1 Y235.812
N275 G2 X921.581 Y222.015 I-14.947 J0.
N280 G3 X912.383 Y208.218 I5.749 J-13.797
N285 G1 Y59.937
N290 G2 X912.063 Y59.617 I-0.319 J0.
N295 G1 X59.937
N300 G2 X59.617 Y59.937 I0. J0.319
N305 G1 Y522.063
N310 G2 X59.937 Y522.383 I0.319 J0.
N315 G1 X912.063
N320 G2 X912.383 Y522.063 I0. J-0.319
N325 G1 Y208.218
N330 G2 X903.185 Y194.421 I-14.947 J0.
N335 G3 X893.987 Y180.624 I5.749 J-13.797
N340 G1 Y78.333
N345 G2 X893.667 Y78.013 I-0.319 J0.
N350 G1 X78.333
N355 G2 X78.013 Y78.333 I0. J0.319
N360 G1 Y503.667
N365 G2 X78.333 Y503.987 I0.319 J0.
N370 G1 X893.667
N375 G2 X893.987 Y503.667 I0. J-0.319
N380 G1 Y180.624
N385 G2 X884.789 Y166.827 I-14.947 J0.
N390 G3 X875.591 Y153.03 I5.749 J-13.797
N395 G1 Y96.729
N400 G2 X875.271 Y96.409 I-0.319 J0.
N405 G1 X96.729
N410 G2 X96.409 Y96.729 I0. J0.319
N415 G1 Y485.271
N420 G2 X96.729 Y485.591 I0.319 J0.
N425 G1 X875.271
N430 G2 X875.591 Y485.271 I0. J-0.319
N435 G1 Y153.03
N440 G2 X866.393 Y139.233 I-14.947 J0.
N445 G3 X857.195 Y125.436 I5.749 J-13.797
N450 G1 Y115.125
N455 G2 X856.875 Y114.805 I-0.319 J0.
N460 G1 X115.125
N465 G2 X114.805 Y115.125 I0. J0.319
N470 G1 Y466.875
N475 G2 X115.125 Y467.195 I0.319 J0.
N480 G1 X856.875
N485 G2 X857.195 Y466.875 I0. J-0.319
N490 G1 Y125.436
N495 G2 X831.364 Y119.285 I-13.648 J0.
N500 G3 X808.75 Y133.201 I-22.614 J-11.417
N505 G1 X133.521
N510 G2 X133.201 Y133.521 I0. J0.319
N515 G1 Y448.479
N520 G2 X133.521 Y448.799 I0.319 J0.
N525 G1 X838.479
N530 G2 X838.799 Y448.479 I0. J-0.319
N535 G1 Y133.521
N540 G2 X838.479 Y133.201 I-0.319 J0.
N545 G1 X808.75
N550 G2 X794.953 Y142.399 I0. J14.947
N555 G3 X781.156 Y151.597 I-13.797 J-5.749
N560 G1 X151.917
N565 G2 X151.597 Y151.917 I0. J0.319
N570 G1 Y430.083
N575 G2 X151.917 Y430.403 I0.319 J0.
N580 G1 X820.083
N585 G2 X820.403 Y430.083 I0. J-0.319
N590 G1 Y151.917
N595 G2 X820.083 Y151.597 I-0.319 J0.
N600 G1 X781.156
N605 G2 X767.359 Y160.795 I0. J14.947
N610 G3 X753.562 Y169.993 I-13.797 J-5.749
N615 G1 X170.313
N620 G2 X169.993 Y170.313 I0. J0.319
N625 G1 Y411.687
N630 G2 X170.313 Y412.007 I0.319 J0.
N635 G1 X801.687
N640 G2 X802.007 Y411.687 I0. J-0.319
N645 G1 Y170.313
N650 G2 X801.687 Y169.993 I-0.319 J0.
N655 G1 X753.562
N660 G2 X739.765 Y179.191 I0. J14.947
N665 G3 X725.968 Y188.389 I-13.797 J-5.749
N670 G1 X188.709
N675 G2 X188.389 Y188.709 I0. J0.319
N680 G1 Y393.291
N685 G2 X188.709 Y393.611 I0.319 J0.
N690 G1 X783.291
N695 G2 X783.611 Y393.291 I0. J-0.319
N700 G1 Y188.709
N705 G2 X783.291 Y188.389 I-0.319 J0.
N710 G1 X725.968
N715 G2 X712.171 Y197.587 I0. J14.947
N720 G3 X698.374 Y206.785 I-13.797 J-5.749
N725 G1 X207.105
N730 G2 X206.785 Y207.105 I0. J0.319
N735 G1 Y374.895
N740 G2 X207.105 Y375.215 I0.319 J0.
N745 G1 X764.895
N750 G2 X765.215 Y374.895 I0. J-0.319
N755 G1 Y207.105
N760 G2 X764.895 Y206.785 I-0.319 J0.
N765 G1 X698.374
N770 G2 X684.577 Y215.983 I0. J14.947
N775 G3 X670.78 Y225.181 I-13.797 J-5.749
N780 G1 X225.501
N785 G2 X225.181 Y225.501 I0. J0.319
N790 G1 Y356.499
N795 G2 X225.501 Y356.819 I0.319 J0.
N800 G1 X746.499
N805 G2 X746.819 Y356.499 I0. J-0.319
N810 G1 Y225.501
N815 G2 X746.499 Y225.181 I-0.319 J0.
N820 G1 X670.78
N825 G2 X656.983 Y234.379 I0. J14.947
N830 G3 X643.186 Y243.577 I-13.797 J-5.749
N835 G1 X243.897
N840 G2 X243.577 Y243.897 I0. J0.319
N845 G1 Y338.103
N850 G2 X243.897 Y338.423 I0.319 J0.
N855 G1 X728.103
N860 G2 X728.423 Y338.103 I0. J-0.319
N865 G1 Y243.897
N870 G2 X728.103 Y243.577 I-0.319 J0.
N875 G1 X643.186
N880 G2 X629.389 Y252.775 I0. J14.947
N885 G3 X615.592 Y261.973 I-13.797 J-5.749
N890 G1 X262.293
N895 G2 X261.973 Y262.293 I0. J0.319
N900 G1 Y319.707
N905 G2 X262.293 Y320.027 I0.319 J0.
N910 G1 X709.707
N915 G2 X710.027 Y319.707 I0. J-0.319
N920 G1 Y262.293
N925 G2 X709.707 Y261.973 I-0.319 J0.
N930 G1 X615.592
N935 G2 X601.795 Y271.171 I0. J14.947
N940 G3 X587.998 Y280.369 I-13.797 J-5.749
N945 G1 X280.689
N950 G2 X280.369 Y280.689 I0. J0.319
N955 G1 Y301.311
N960 G2 X280.689 Y301.631 I0.319 J0.
N965 G1 X691.311
N970 G2 X691.631 Y301.311 I0. J-0.319
N975 G1 Y280.689
N980 G2 X691.311 Y280.369 I-0.319 J0.
N985 G1 X587.998
N990 G2 X587.614 Y280.403 Z-0.291 I0. J2.223
N995 X587.252 Y280.498 Z-0.191 I0.384 J2.189
N1000 X586.932 Y280.641 Z-0.027 I0.745 J2.094
N1005 X586.665 Y280.813 Z0.195 I1.066 J1.95
N1010 X586.457 Y280.99 Z0.469 I1.332 J1.779
N1015 G1 X586.379 Y281.069 Z0.628
N1020 X586.305 Y281.152 Z0.786
N1025 X586.203 Y281.28 Z1.137
N1030 X586.146 Y281.363 Z1.512
N1035 X586.128 Y281.391 Z1.897
N1040 Z15.
N1045 G53 G0 Z0.
N1050 M30
%
