%
(WASTEBOARDFACE)
(T1  D=22.225 CR=0. - ZMIN=-0.325 - FACE MILL)
#<XMax> =      985 (a little short to avoid boundary over errors)
#<YMax>= 595 



N10 G90 G94 G17 G91.1
N15 G21

N20 G53 G0 Z0.
(FACE2)
N25 T1 M6
N30 S9000 M3
N35 G54
N40 M8
N45 G0 X[#<XMax>] Y[#<YMax>]
N50 G43 Z5. H1

N51 G1 F2500 Y0 Z-0.325
N52 G1 X0 
N53 G1 Y[#<YMax>]
N54 G1 X[#<XMax>]
N55 y9.689

N56 G1 Z5. F2000.
N60 
N65 G18 G1 X[#<XMax>] Z-0.325 
N70 G1 X[#<XMax>]
N75 X0.
N80 G17 G1 Y30.28 
N85 G1 X[#<XMax>]
N90 G1 Y50.871
N95 G1 X0.
N100 G1 Y71.462
N105 G1 X[#<XMax>]
N110 G1 Y92.053
N115 G1 X0.
N120 G1 Y112.643
N125 G1 X[#<XMax>]
N130 G1 Y133.234
N135 G1 X0.
N140 G1 Y153.825
N145 G1 X[#<XMax>]
N150 G1 Y174.416 
N155 G1 X0.
N160 G1 Y195.007
N165 G1 X[#<XMax>]
N170 G1 Y215.597
N175 G1 X0.
N180 G1 Y236.188 
N185 G1 X[#<XMax>]
N190 G1 Y256.779 
N195 G1 X0.
N200 G1 Y277.37 
N205 G1 X[#<XMax>]
N210 G1 Y297.961 
N215 G1 X0.
N220 G1 Y318.552 
N225 G1 X[#<XMax>]
N230 G1 Y339.142 
N235 G1 X0.
N240 G1 Y359.733 
N245 G1 X[#<XMax>]
N250 G1 Y380.324 
N255 G1 X0.
N260 G1 Y400.915
N265 G1 X[#<XMax>]
N270 G1 Y421.506 
N275 G1 X0.
N280 G1 Y442.096
N285 G1 X[#<XMax>]
N290 G1 Y462.687 
N295 G1 X0.
N300 G1 Y483.278 
N305 G1 X[#<XMax>]
N310 G1 Y503.869
N315 G1 X0.
N320 G1 Y524.46 
N325 G1 X[#<XMax>]
N330 G1 Y545.05
N335 G1 X0.
N340 G1 Y565.641 
N345 G1 X[#<XMax>]
N350 G1 Y586.232
N351 G1 X0.
N352 G1 Y[#<YMax>]
N355 G1 X0.
N360 G18 G3 X-2.223 Z1.898 I0. K2.223
N365 G1 Z15.
N370 G17
N375 M9
N380 G53 G0 Z0 X0 Y0 
N385 M30
%
