%
(WASTEBOARD_78BIT)
(T5  D=22.225 CR=0. - ZMIN=0. - FACE MILL)
N10 G90 G94 G17 G91.1
N15 G21
(WHEN USING FUSION 360 FOR PERSONAL USE, THE FEEDRATE OF)
(RAPID MOVES IS REDUCED TO MATCH THE FEEDRATE OF CUTTING)
(MOVES, WHICH CAN INCREASE MACHINING TIME. UNRESTRICTED RAPID)
(MOVES ARE AVAILABLE WITH A FUSION 360 SUBSCRIPTION.)
N20 G53 G0 Z0.
(FACE1)
N25 T5 M6
N30 S20000 M3
N35 G54
N40 G0 X1001.446 Y9.689
N45 G43 Z15. H5
N50 G1 Z5. F2200.
N55 Z2.223
N60 G18 G3 X999.224 Z0. I-2.222 K0.
N65 G1 X987.
N70 X0.
N75 G17 G2 Y30.28 I0. J10.295
N80 G1 X987.
N85 G3 Y50.871 I0. J10.295
N90 G1 X0.
N95 G2 Y71.462 I0. J10.295
N100 G1 X987.
N105 G3 Y92.053 I0. J10.295
N110 G1 X0.
N115 G2 Y112.643 I0. J10.295
N120 G1 X987.
N125 G3 Y133.234 I0. J10.295
N130 G1 X0.
N135 G2 Y153.825 I0. J10.295
N140 G1 X987.
N145 G3 Y174.416 I0. J10.295
N150 G1 X0.
N155 G2 Y195.007 I0. J10.295
N160 G1 X987.
N165 G3 Y215.597 I0. J10.295
N170 G1 X0.
N175 G2 Y236.188 I0. J10.295
N180 G1 X987.
N185 G3 Y256.779 I0. J10.295
N190 G1 X0.
N195 G2 Y277.37 I0. J10.295
N200 G1 X987.
N205 G3 Y297.961 I0. J10.295
N210 G1 X0.
N215 G2 Y318.552 I0. J10.295
N220 G1 X987.
N225 G3 Y339.142 I0. J10.295
N230 G1 X0.
N235 G2 Y359.733 I0. J10.295
N240 G1 X987.
N245 G3 Y380.324 I0. J10.295
N250 G1 X0.
N255 G2 Y400.915 I0. J10.295
N260 G1 X987.
N265 G3 Y421.506 I0. J10.295
N270 G1 X0.
N275 G2 Y442.096 I0. J10.295
N280 G1 X987.
N285 G3 Y462.687 I0. J10.295
N290 G1 X0.
N295 G2 Y483.278 I0. J10.295
N300 G1 X987.
N305 G3 Y503.869 I0. J10.295
N310 G1 X0.
N315 G2 Y524.46 I0. J10.295
N320 G1 X987.
N325 G3 Y545.05 I0. J10.295
N330 G1 X0.
N335 G2 Y565.641 I0. J10.295
N340 G1 X987.
N345 G3 Y586.232 I0. J10.295
N350 G1 X0.
N355 G18 G3 X-2.223 Z2.223 I0. K2.223
N360 G1 Z15.
N365 G17
N370 G53 G0 Z0.
N375 M30
%
