%
(WASTEBOARD_TRY2)
(T5  D=22.225 CR=0. - ZMIN=0. - FACE MILL)
N10 G90 G94 G17 G91.1
N15 G21
(WHEN USING FUSION 360 FOR PERSONAL USE, THE FEEDRATE OF)
(RAPID MOVES IS REDUCED TO MATCH THE FEEDRATE OF CUTTING)
(MOVES, WHICH CAN INCREASE MACHINING TIME. UNRESTRICTED RAPID)
(MOVES ARE AVAILABLE WITH A FUSION 360 SUBSCRIPTION.)
N20 G53 G0 Z0.
(FACE1)
N25 T5 M6
N30 S20000 M3
N35 G54
N40 G0 X999.224 Y9.689
N45 G43 Z15. H5
N50 G1 Z5. F2200.
N55 Z0.
N60 X987.
N65 X0.
N70 G2 Y30.28 I0. J10.295
N75 G1 X987.
N80 G3 Y50.871 I0. J10.295
N85 G1 X0.
N90 G2 Y71.462 I0. J10.295
N95 G1 X987.
N100 G3 Y92.053 I0. J10.295
N105 G1 X0.
N110 G2 Y112.643 I0. J10.295
N115 G1 X987.
N120 G3 Y133.234 I0. J10.295
N125 G1 X0.
N130 G2 Y153.825 I0. J10.295
N135 G1 X987.
N140 G3 Y174.416 I0. J10.295
N145 G1 X0.
N150 G2 Y195.007 I0. J10.295
N155 G1 X987.
N160 G3 Y215.597 I0. J10.295
N165 G1 X0.
N170 G2 Y236.188 I0. J10.295
N175 G1 X987.
N180 G3 Y256.779 I0. J10.295
N185 G1 X0.
N190 G2 Y277.37 I0. J10.295
N195 G1 X987.
N200 G3 Y297.961 I0. J10.295
N205 G1 X0.
N210 G2 Y318.552 I0. J10.295
N215 G1 X987.
N220 G3 Y339.142 I0. J10.295
N225 G1 X0.
N230 G2 Y359.733 I0. J10.295
N235 G1 X987.
N240 G3 Y380.324 I0. J10.295
N245 G1 X0.
N250 G2 Y400.915 I0. J10.295
N255 G1 X987.
N260 G3 Y421.506 I0. J10.295
N265 G1 X0.
N270 G2 Y442.096 I0. J10.295
N275 G1 X987.
N280 G3 Y462.687 I0. J10.295
N285 G1 X0.
N290 G2 Y483.278 I0. J10.295
N295 G1 X987.
N300 G3 Y503.869 I0. J10.295
N305 G1 X0.
N310 G2 Y524.46 I0. J10.295
N315 G1 X987.
N320 G3 Y545.05 I0. J10.295
N325 G1 X0.
N330 G2 Y565.641 I0. J10.295
N335 G1 X987.
N340 G3 Y586.232 I0. J10.295
N345 G1 X0.
N350 Z15.
N355 G53 G0 Z0.
N360 M30
%
