%
(flatten - Generated via flattenboard.py)
(Use the 25.4 mm diameter bit)
(This cuts -0.2 mm below Z zero)


N5 G90 G94 G17 G91.1
N10 G21

N15 G53 G0 Z0.

N20 T1 M6
N25 S9000 M3
N30 G54
N35 M8
N40 G0 X0 Y0 Z2

N45 G1 Z-0.2  F2500.

N50 G1 X400.0 Z-0.2
N55 G1 X0

N60 G1 Y2.54
N65 G1 X400.0
N70 G1 Y5.08
N75 G1 X0
N80 G1 Y7.62
N85 G1 X400.0
N90 G1 Y10.16
N95 G1 X0
N100 G1 Y12.7
N105 G1 X400.0
N110 G1 Y15.24
N115 G1 X0
N120 G1 Y17.78
N125 G1 X400.0
N130 G1 Y20.32
N135 G1 X0
N140 G1 Y22.86
N145 G1 X400.0
N150 G1 Y25.4
N155 G1 X0
N160 G1 Y27.94
N165 G1 X400.0
N170 G1 Y30.48
N175 G1 X0
N180 G1 Y33.02
N185 G1 X400.0
N190 G1 Y35.56
N195 G1 X0
N200 G1 Y38.1
N205 G1 X400.0
N210 G1 Y40.64
N215 G1 X0
N220 G1 Y43.18
N225 G1 X400.0
N230 G1 Y45.72
N235 G1 X0
N240 G1 Y48.26
N245 G1 X400.0
N250 G1 Y50.8
N255 G1 X0
N260 G1 Y53.34
N265 G1 X400.0
N270 G1 Y55.88
N275 G1 X0
N280 G1 Y58.42
N285 G1 X400.0
N290 G1 Y60.96
N295 G1 X0
N300 G1 Y63.5
N305 G1 X400.0
N310 G1 Y66.04
N315 G1 X0
N320 G1 Y68.58
N325 G1 X400.0
N330 G1 Y71.12
N335 G1 X0
N340 G1 Y73.66
N345 G1 X400.0
N350 G1 Y76.2
N355 G1 X0
N360 G1 Y78.74
N365 G1 X400.0
N370 G1 Y81.28
N375 G1 X0
N380 G1 Y83.82
N385 G1 X400.0
N390 G1 Y86.36
N395 G1 X0
N400 G1 Y88.9
N405 G1 X400.0
N410 G1 Y91.44
N415 G1 X0
N420 G1 Y93.98
N425 G1 X400.0
N430 G1 Y96.52
N435 G1 X0
N440 G1 Y99.06
N445 G1 X400.0
N450 G1 Y101.6
N455 G1 X0
N460 G1 Y104.14
N465 G1 X400.0
N470 G1 Y106.68
N475 G1 X0
N480 G1 Y109.22
N485 G1 X400.0
N490 G1 Y111.76
N495 G1 X0
N500 G1 Y114.3
N505 G1 X400.0
N510 G1 Y116.84
N515 G1 X0
N520 G1 Y119.38
N525 G1 X400.0
N530 G1 Y121.92
N535 G1 X0
N540 G1 Y124.46
N545 G1 X400.0
N550 G1 Y127.0
N555 G1 X0
N560 G1 Y129.54
N565 G1 X400.0
N570 G1 Y132.08
N575 G1 X0
N580 G1 Y134.62
N585 G1 X400.0
N590 G1 Y137.16
N595 G1 X0
N600 G1 Y139.7
N605 G1 X400.0
N610 G1 Y142.24
N615 G1 X0
N620 G1 Y144.78
N625 G1 X400.0
N630 G1 Y147.32
N635 G1 X0
N640 G1 Y149.86
N645 G1 X400.0
N650 G1 Y152.4
N655 G1 X0
N660 G1 Y154.94
N665 G1 X400.0
N670 G1 Y157.48
N675 G1 X0
N680 G1 Y160.02
N685 G1 X400.0
N690 G1 Y162.56
N695 G1 X0
N700 G1 Y165.1
N705 G1 X400.0
N710 G1 Y167.64
N715 G1 X0
N720 G1 Y170.18
N725 G1 X400.0
N730 G1 Y172.72
N735 G1 X0
N740 G1 Y175.26
N745 G1 X400.0
N750 G1 Y177.8
N755 G1 X0
N760 G1 Y180.34
N765 G1 X400.0
N770 G1 Y182.88
N775 G1 X0
N780 G1 Y185.42
N785 G1 X400.0
N790 G1 Y187.96
N795 G1 X0
N800 G1 Y190.5
N805 G1 X400.0
N810 G1 Y193.04
N815 G1 X0
N820 G1 Y195.58
N825 G1 X400.0
N830 G1 Y198.12
N835 G1 X0
N840 G1 Y200.66
N845 G1 X400.0
N850 G1 Y203.2
N855 G1 X0

N860 G1 Z15.
N865 G17
N870 M9
N875 G0 Z5 X0 Y0
N880 M30

%
